(** This GCode was generated by ReplicatorG 0034 **)
(*  using Skeinforge (35)  *)
(*  for a Single headed Thing-O-Matic  *)
(*  on 2012/04/12 18:19:28 (-0400) *)
(<alteration>)
(**** beginning of start.gcode ****)
(This file is for a MakerBot Thing-O-Matic)
(**** begin initialization commands ****)
G21 (set units to mm)
G90 (set positioning to absolute)
M108 R5.0 (set extruder speed)
M103 (Make sure extruder is off)
M104 S225 T0 (set extruder temperature)
M109 S120 T0 (set heated-build-platform temperature)
(**** end initialization commands ****)
(**** begin homing ****)
G162 Z F1000 (home Z axis maximum)
G92 Z10 (set Z to 0)
G1 Z0.0 (move z down 10)
G162 Z F150 (home Z axis maximum)
G161 X Y F2500 (home XY axes minimum)
M132 X Y Z A B (Recall stored home offsets for XYZAB axis)
(**** end homing ****)
(**** begin pre-wipe commands ****)
( Some people have had problems with the nozzle hitting )
( bolts or wipers during this pre-extrusion warmup.     )
( If this happens to you, you can change the values for )
( the X and Y positions in the following code.          )
( The goal is to have the toolhead wipe its initial     )
( extrusion near the edge of the platform, [anchor it]  )
( so as not to have it interfere with the print.        )
( This file can be found in:                            )
( replicatorg/skein_engines/skeinforge-##/skeinforge_application/ )
( prefs/<profile name [e.g. Thingomatic-ABP-Mk7]>/alterations )
G1 X25.0 Y-60.0 Z10.0 F3300.0 (move to waiting position)
M6 T0 (wait for toolhead parts, nozzle, HBP, etc., to reach temperature)
G0 X25 Y-57 (Position Nozzle)
G0 Z0.6     (Position Height)
M108 R4.0   (Set Extruder Speed)
M101        (Start Extruder)
G4 P1500    (Create Anchor)
(**** end pre-wipe commands ****)
(**** end of start.gcode ****)
(</alteration>)
(<creation> skeinforge </creation>)
(<version> 10.11.05 </version>)
(<extruderInitialization>)
(<craftTypeName> extrusion </craftTypeName>)
M105
(<bridgeWidthMultiplier> 1.0 </bridgeWidthMultiplier>)
(<decimalPlacesCarried> 3 </decimalPlacesCarried>)
(<layerThickness> 0.32 </layerThickness>)
(<threadSequenceString> loops perimeter infill </threadSequenceString>)
(<operatingFeedRatePerSecond> 30.0 </operatingFeedRatePerSecond>)
(<operatingFlowRate> 3.56914845556 </operatingFlowRate>)
(<orbitalFeedRatePerSecond> 15.0 </orbitalFeedRatePerSecond>)
(<travelFeedRatePerSecond> 50.0 </travelFeedRatePerSecond>)
(<perimeterWidth> 0.393 </perimeterWidth>)
(<profileName> ABS </profileName>)
(<procedureDone> carve,bottom </procedureDone>)
(<procedureDone> preface </procedureDone>)
(<procedureDone> inset </procedureDone>)
(<procedureDone> fill </procedureDone>)
(<procedureDone> speed </procedureDone>)
(<procedureDone> raft </procedureDone>)
(<procedureDone> jitter </procedureDone>)
(<procedureDone> comb </procedureDone>)
(<procedureDone> cool </procedureDone>)
(<procedureDone> outline </procedureDone>)
(<procedureDone> reversal </procedureDone>)
(<procedureDone> export </procedureDone>)
(</extruderInitialization>)
(<extrusion>)
;M113 S1.0
M108 R3.569
(<layer> 0.46 )
(<surroundingLoop>)
(<boundaryPerimeter>)
(<boundaryPoint> X9.625 Y9.625 Z0.46 </boundaryPoint>)
(<boundaryPoint> X-9.625 Y9.625 Z0.46 </boundaryPoint>)
(<boundaryPoint> X-9.625 Y-9.625 Z0.46 </boundaryPoint>)
(<boundaryPoint> X9.625 Y-9.625 Z0.46 </boundaryPoint>)
(<loop> inner )
M108 R2.141
G1 X11.43 Y-11.43 Z0.46 F1080.0
M101
G1 X-11.43 Y-11.43 Z0.46 F1080.0
G1 X-11.43 Y11.43 Z0.46 F1080.0
G1 X11.43 Y11.43 Z0.46 F1080.0
G1 X11.43 Y-11.16 Z0.46 F1080.0
M108 R30.0
M102
G1 X11.43 Y-11.43 Z0.46 F1080.0
M108 R2.141
M103
G1 X3.2 Y-6.32 Z0.46 F3000.0
M108 R30.0
M101
G1 X2.52 Y-5.9 Z0.46 F3000.0
M108 R2.141
G1 X1.99 Y-6.13 Z0.46 F1080.0
G1 X0.67 Y-6.41 Z0.46 F1080.0
G1 X-0.67 Y-6.41 Z0.46 F1080.0
G1 X-1.99 Y-6.13 Z0.46 F1080.0
G1 X-3.23 Y-5.59 Z0.46 F1080.0
G1 X-4.32 Y-4.79 Z0.46 F1080.0
G1 X-5.22 Y-3.79 Z0.46 F1080.0
G1 X-5.89 Y-2.62 Z0.46 F1080.0
G1 X-6.31 Y-1.34 Z0.46 F1080.0
G1 X-6.45 Y-0.0 Z0.46 F1080.0
G1 X-6.31 Y1.34 Z0.46 F1080.0
G1 X-5.89 Y2.62 Z0.46 F1080.0
G1 X-5.22 Y3.79 Z0.46 F1080.0
G1 X-4.32 Y4.79 Z0.46 F1080.0
G1 X-3.23 Y5.59 Z0.46 F1080.0
G1 X-1.99 Y6.14 Z0.46 F1080.0
G1 X-0.67 Y6.41 Z0.46 F1080.0
G1 X0.67 Y6.41 Z0.46 F1080.0
G1 X1.99 Y6.14 Z0.46 F1080.0
G1 X3.23 Y5.59 Z0.46 F1080.0
G1 X4.32 Y4.79 Z0.46 F1080.0
G1 X5.22 Y3.79 Z0.46 F1080.0
G1 X5.89 Y2.62 Z0.46 F1080.0
G1 X6.31 Y1.34 Z0.46 F1080.0
G1 X6.45 Y0.0 Z0.46 F1080.0
G1 X6.31 Y-1.34 Z0.46 F1080.0
G1 X5.89 Y-2.62 Z0.46 F1080.0
G1 X5.22 Y-3.79 Z0.46 F1080.0
G1 X4.32 Y-4.79 Z0.46 F1080.0
G1 X3.23 Y-5.59 Z0.46 F1080.0
G1 X2.77 Y-5.79 Z0.46 F1080.0
M108 R30.0
M102
G1 X2.61 Y-5.86 Z0.46 F1080.0
G1 X2.52 Y-5.9 Z0.46 F1080.0
M108 R2.141
M103
(</loop>)
(<loop> outer )
G1 X2.59 Y-8.24 Z0.46 F3000.0
M108 R30.0
M101
G1 X2.61 Y-9.04 Z0.46 F3000.0
M108 R2.141
G1 X9.04 Y-9.04 Z0.46 F1080.0
G1 X9.04 Y9.04 Z0.46 F1080.0
G1 X-9.04 Y9.04 Z0.46 F1080.0
G1 X-9.04 Y-9.04 Z0.46 F1080.0
G1 X2.61 Y-9.04 Z0.46 F1080.0
M103
(</loop>)
(<perimeter> outer )
G1 X2.61 Y-9.43 Z0.46 F3000.0
M101
G1 X9.43 Y-9.43 Z0.46 F1080.0
G1 X9.43 Y9.43 Z0.46 F1080.0
G1 X-9.43 Y9.43 Z0.46 F1080.0
G1 X-9.43 Y-9.43 Z0.46 F1080.0
G1 X2.34 Y-9.43 Z0.46 F1080.0
M108 R30.0
M102
G1 X2.61 Y-9.43 Z0.46 F1080.0
M108 R2.141
M103
(</perimeter>)
(</boundaryPerimeter>)
(<surroundingLoop>)
(<boundaryPerimeter>)
(<boundaryPoint> X-5.351 Y2.382 Z0.46 </boundaryPoint>)
(<boundaryPoint> X-4.739 Y3.443 Z0.46 </boundaryPoint>)
(<boundaryPoint> X-3.919 Y4.353 Z0.46 </boundaryPoint>)
(<boundaryPoint> X-2.929 Y5.072 Z0.46 </boundaryPoint>)
(<boundaryPoint> X-1.81 Y5.571 Z0.46 </boundaryPoint>)
(<boundaryPoint> X-0.612 Y5.825 Z0.46 </boundaryPoint>)
(<boundaryPoint> X0.612 Y5.825 Z0.46 </boundaryPoint>)
(<boundaryPoint> X1.81 Y5.571 Z0.46 </boundaryPoint>)
(<boundaryPoint> X2.929 Y5.072 Z0.46 </boundaryPoint>)
(<boundaryPoint> X3.919 Y4.353 Z0.46 </boundaryPoint>)
(<boundaryPoint> X4.738 Y3.443 Z0.46 </boundaryPoint>)
(<boundaryPoint> X5.351 Y2.382 Z0.46 </boundaryPoint>)
(<boundaryPoint> X5.729 Y1.218 Z0.46 </boundaryPoint>)
(<boundaryPoint> X5.857 Y0.0 Z0.46 </boundaryPoint>)
(<boundaryPoint> X5.729 Y-1.218 Z0.46 </boundaryPoint>)
(<boundaryPoint> X5.351 Y-2.382 Z0.46 </boundaryPoint>)
(<boundaryPoint> X4.738 Y-3.443 Z0.46 </boundaryPoint>)
(<boundaryPoint> X3.919 Y-4.353 Z0.46 </boundaryPoint>)
(<boundaryPoint> X2.929 Y-5.072 Z0.46 </boundaryPoint>)
(<boundaryPoint> X1.81 Y-5.57 Z0.46 </boundaryPoint>)
(<boundaryPoint> X0.612 Y-5.825 Z0.46 </boundaryPoint>)
(<boundaryPoint> X-0.612 Y-5.825 Z0.46 </boundaryPoint>)
(<boundaryPoint> X-1.81 Y-5.57 Z0.46 </boundaryPoint>)
(<boundaryPoint> X-2.929 Y-5.072 Z0.46 </boundaryPoint>)
(<boundaryPoint> X-3.919 Y-4.353 Z0.46 </boundaryPoint>)
(<boundaryPoint> X-4.739 Y-3.443 Z0.46 </boundaryPoint>)
(<boundaryPoint> X-5.351 Y-2.382 Z0.46 </boundaryPoint>)
(<boundaryPoint> X-5.729 Y-1.218 Z0.46 </boundaryPoint>)
(<boundaryPoint> X-5.857 Y-0.0 Z0.46 </boundaryPoint>)
(<boundaryPoint> X-5.729 Y1.218 Z0.46 </boundaryPoint>)
(<perimeter> inner )
G1 X2.03 Y-6.54 Z0.46 F3000.0
M108 R30.0
M101
G1 X1.87 Y-5.76 Z0.46 F3000.0
M108 R2.141
G1 X0.63 Y-6.02 Z0.46 F1080.0
G1 X-0.63 Y-6.02 Z0.46 F1080.0
G1 X-1.87 Y-5.76 Z0.46 F1080.0
G1 X-3.03 Y-5.24 Z0.46 F1080.0
G1 X-4.05 Y-4.5 Z0.46 F1080.0
G1 X-4.9 Y-3.56 Z0.46 F1080.0
G1 X-5.53 Y-2.46 Z0.46 F1080.0
G1 X-5.92 Y-1.26 Z0.46 F1080.0
G1 X-6.06 Y-0.0 Z0.46 F1080.0
G1 X-5.92 Y1.26 Z0.46 F1080.0
G1 X-5.53 Y2.46 Z0.46 F1080.0
G1 X-4.9 Y3.56 Z0.46 F1080.0
G1 X-4.05 Y4.5 Z0.46 F1080.0
G1 X-3.03 Y5.24 Z0.46 F1080.0
G1 X-1.87 Y5.76 Z0.46 F1080.0
G1 X-0.63 Y6.02 Z0.46 F1080.0
G1 X0.63 Y6.02 Z0.46 F1080.0
G1 X1.87 Y5.76 Z0.46 F1080.0
G1 X3.03 Y5.24 Z0.46 F1080.0
G1 X4.05 Y4.5 Z0.46 F1080.0
G1 X4.9 Y3.56 Z0.46 F1080.0
G1 X5.53 Y2.46 Z0.46 F1080.0
G1 X5.92 Y1.26 Z0.46 F1080.0
G1 X6.06 Y0.0 Z0.46 F1080.0
G1 X5.92 Y-1.26 Z0.46 F1080.0
G1 X5.53 Y-2.46 Z0.46 F1080.0
G1 X4.9 Y-3.56 Z0.46 F1080.0
G1 X4.05 Y-4.5 Z0.46 F1080.0
G1 X3.03 Y-5.24 Z0.46 F1080.0
G1 X2.12 Y-5.65 Z0.46 F1080.0
M108 R30.0
M102
G1 X1.87 Y-5.76 Z0.46 F1080.0
M108 R2.141
M103
(</perimeter>)
(</boundaryPerimeter>)
(</surroundingLoop>)
G1 X3.14 Y-5.26 Z0.46 F3000.0
G1 X5.51 Y-3.43 Z0.46 F1800.0
M108 R30.0
M101
G1 X5.89 Y-3.14 Z0.46 F1800.0
M108 R2.141
G1 X5.89 Y-8.78 Z0.46 F1080.0
G1 X5.5 Y-8.78 Z0.46 F1080.0
G1 X5.5 Y-3.82 Z0.46 F1080.0
G1 X5.11 Y-4.3 Z0.46 F1080.0
G1 X5.11 Y-8.78 Z0.46 F1080.0
G1 X4.71 Y-8.78 Z0.46 F1080.0
G1 X4.71 Y-4.73 Z0.46 F1080.0
G1 X4.32 Y-5.11 Z0.46 F1080.0
G1 X4.32 Y-8.78 Z0.46 F1080.0
G1 X3.93 Y-8.78 Z0.46 F1080.0
G1 X3.93 Y-5.39 Z0.46 F1080.0
G1 X3.53 Y-5.68 Z0.46 F1080.0
G1 X3.53 Y-8.78 Z0.46 F1080.0
G1 X3.14 Y-8.78 Z0.46 F1080.0
G1 X3.14 Y-5.9 Z0.46 F1080.0
G1 X2.75 Y-6.08 Z0.46 F1080.0
G1 X2.75 Y-8.78 Z0.46 F1080.0
G1 X2.36 Y-8.78 Z0.46 F1080.0
G1 X2.36 Y-6.25 Z0.46 F1080.0
G1 X1.96 Y-6.4 Z0.46 F1080.0
G1 X1.96 Y-8.78 Z0.46 F1080.0
G1 X1.57 Y-8.78 Z0.46 F1080.0
G1 X1.57 Y-6.48 Z0.46 F1080.0
M103
G1 X1.18 Y-6.57 Z0.46 F1800.0
M101
G1 X1.18 Y-8.78 Z0.46 F1080.0
G1 X0.79 Y-8.78 Z0.46 F1080.0
G1 X0.79 Y-6.65 Z0.46 F1080.0
M103
G1 X0.39 Y-6.67 Z0.46 F1800.0
M101
G1 X0.39 Y-8.78 Z0.46 F1080.0
G1 X-0.0 Y-8.78 Z0.46 F1080.0
G1 X-0.0 Y-6.67 Z0.46 F1080.0
M103
G1 X-0.39 Y-6.67 Z0.46 F1800.0
M101
G1 X-0.39 Y-8.78 Z0.46 F1080.0
G1 X-0.79 Y-8.78 Z0.46 F1080.0
G1 X-0.79 Y-6.65 Z0.46 F1080.0
G1 X-1.18 Y-6.57 Z0.46 F1080.0
G1 X-1.18 Y-8.78 Z0.46 F1080.0
G1 X-1.57 Y-8.78 Z0.46 F1080.0
G1 X-1.57 Y-6.48 Z0.46 F1080.0
M103
G1 X-1.96 Y-6.4 Z0.46 F1800.0
M101
G1 X-1.96 Y-8.78 Z0.46 F1080.0
G1 X-2.36 Y-8.78 Z0.46 F1080.0
G1 X-2.36 Y-6.25 Z0.46 F1080.0
M103
G1 X-2.75 Y-6.08 Z0.46 F1800.0
M101
G1 X-2.75 Y-8.78 Z0.46 F1080.0
G1 X-3.14 Y-8.78 Z0.46 F1080.0
G1 X-3.14 Y-5.9 Z0.46 F1080.0
M103
G1 X-3.53 Y-5.68 Z0.46 F1800.0
M101
G1 X-3.53 Y-8.78 Z0.46 F1080.0
G1 X-3.93 Y-8.78 Z0.46 F1080.0
G1 X-3.93 Y-5.39 Z0.46 F1080.0
G1 X-4.32 Y-5.11 Z0.46 F1080.0
G1 X-4.32 Y-8.78 Z0.46 F1080.0
G1 X-4.71 Y-8.78 Z0.46 F1080.0
G1 X-4.71 Y-4.73 Z0.46 F1080.0
G1 X-5.11 Y-4.3 Z0.46 F1080.0
G1 X-5.11 Y-8.78 Z0.46 F1080.0
G1 X-5.5 Y-8.78 Z0.46 F1080.0
G1 X-5.5 Y-3.82 Z0.46 F1080.0
G1 X-5.89 Y-3.14 Z0.46 F1080.0
G1 X-5.89 Y-8.78 Z0.46 F1080.0
G1 X-6.28 Y-8.78 Z0.46 F1080.0
G1 X-6.28 Y-2.52 Z0.46 F1080.0
M108 R30.0
M102
G1 X-6.28 Y-2.25 Z0.46 F1080.0
M108 R2.141
M103
G1 X-6.28 Y1.77 Z0.46 F1800.0
M108 R30.0
M101
G1 X-6.28 Y2.25 Z0.46 F1800.0
M108 R2.141
G1 X-6.28 Y8.78 Z0.46 F1080.0
G1 X-5.89 Y8.78 Z0.46 F1080.0
G1 X-5.89 Y3.14 Z0.46 F1080.0
G1 X-5.5 Y3.82 Z0.46 F1080.0
G1 X-5.5 Y8.78 Z0.46 F1080.0
G1 X-5.11 Y8.78 Z0.46 F1080.0
G1 X-5.11 Y4.3 Z0.46 F1080.0
G1 X-4.71 Y4.73 Z0.46 F1080.0
G1 X-4.71 Y8.78 Z0.46 F1080.0
G1 X-4.32 Y8.78 Z0.46 F1080.0
G1 X-4.32 Y5.11 Z0.46 F1080.0
G1 X-3.93 Y5.39 Z0.46 F1080.0
G1 X-3.93 Y8.78 Z0.46 F1080.0
G1 X-3.53 Y8.78 Z0.46 F1080.0
G1 X-3.53 Y5.68 Z0.46 F1080.0
M103
G1 X-3.14 Y5.9 Z0.46 F1800.0
M101
G1 X-3.14 Y8.78 Z0.46 F1080.0
G1 X-2.75 Y8.78 Z0.46 F1080.0
G1 X-2.75 Y6.08 Z0.46 F1080.0
M103
G1 X-2.36 Y6.25 Z0.46 F1800.0
M101
G1 X-2.36 Y8.78 Z0.46 F1080.0
G1 X-1.96 Y8.78 Z0.46 F1080.0
G1 X-1.96 Y6.4 Z0.46 F1080.0
M103
G1 X-1.57 Y6.49 Z0.46 F1800.0
M101
G1 X-1.57 Y8.78 Z0.46 F1080.0
G1 X-1.18 Y8.78 Z0.46 F1080.0
G1 X-1.18 Y6.57 Z0.46 F1080.0
G1 X-0.79 Y6.65 Z0.46 F1080.0
G1 X-0.79 Y8.78 Z0.46 F1080.0
G1 X-0.39 Y8.78 Z0.46 F1080.0
G1 X-0.39 Y6.67 Z0.46 F1080.0
M103
G1 X0.0 Y6.67 Z0.46 F1800.0
M101
G1 X0.0 Y8.78 Z0.46 F1080.0
G1 X0.39 Y8.78 Z0.46 F1080.0
G1 X0.39 Y6.67 Z0.46 F1080.0
M103
G1 X0.79 Y6.65 Z0.46 F1800.0
M101
G1 X0.79 Y8.78 Z0.46 F1080.0
G1 X1.18 Y8.78 Z0.46 F1080.0
G1 X1.18 Y6.57 Z0.46 F1080.0
M103
G1 X1.57 Y6.49 Z0.46 F1800.0
M101
G1 X1.57 Y8.78 Z0.46 F1080.0
G1 X1.96 Y8.78 Z0.46 F1080.0
G1 X1.96 Y6.4 Z0.46 F1080.0
G1 X2.36 Y6.25 Z0.46 F1080.0
G1 X2.36 Y8.78 Z0.46 F1080.0
G1 X2.75 Y8.78 Z0.46 F1080.0
G1 X2.75 Y6.08 Z0.46 F1080.0
G1 X3.14 Y5.9 Z0.46 F1080.0
G1 X3.14 Y8.78 Z0.46 F1080.0
G1 X3.53 Y8.78 Z0.46 F1080.0
G1 X3.53 Y5.68 Z0.46 F1080.0
G1 X3.93 Y5.39 Z0.46 F1080.0
G1 X3.93 Y8.78 Z0.46 F1080.0
G1 X4.32 Y8.78 Z0.46 F1080.0
G1 X4.32 Y5.11 Z0.46 F1080.0
G1 X4.71 Y4.73 Z0.46 F1080.0
G1 X4.71 Y8.78 Z0.46 F1080.0
G1 X5.11 Y8.78 Z0.46 F1080.0
G1 X5.11 Y4.3 Z0.46 F1080.0
G1 X5.5 Y3.82 Z0.46 F1080.0
G1 X5.5 Y8.78 Z0.46 F1080.0
G1 X5.89 Y8.78 Z0.46 F1080.0
G1 X5.89 Y3.14 Z0.46 F1080.0
M103
G1 X6.28 Y2.25 Z0.46 F1800.0
M101
G1 X6.28 Y8.51 Z0.46 F1080.0
M108 R30.0
M102
G1 X6.28 Y8.78 Z0.46 F1080.0
M108 R2.141
M103
G1 X8.57 Y-8.3 Z0.46 F1800.0
M108 R30.0
M101
G1 X8.64 Y-8.78 Z0.46 F1800.0
M108 R2.141
G1 X8.64 Y8.78 Z0.46 F1080.0
G1 X8.25 Y8.78 Z0.46 F1080.0
G1 X8.25 Y-8.78 Z0.46 F1080.0
G1 X7.85 Y-8.78 Z0.46 F1080.0
G1 X7.85 Y8.78 Z0.46 F1080.0
G1 X7.46 Y8.78 Z0.46 F1080.0
G1 X7.46 Y-8.78 Z0.46 F1080.0
G1 X7.07 Y-8.78 Z0.46 F1080.0
G1 X7.07 Y8.78 Z0.46 F1080.0
G1 X6.68 Y8.78 Z0.46 F1080.0
G1 X6.68 Y0.29 Z0.46 F1080.0
M103
G1 X6.68 Y-0.29 Z0.46 F1800.0
M101
G1 X6.68 Y-8.78 Z0.46 F1080.0
G1 X6.28 Y-8.78 Z0.46 F1080.0
G1 X6.28 Y-2.52 Z0.46 F1080.0
M108 R30.0
M102
G1 X6.28 Y-2.25 Z0.46 F1080.0
M108 R2.141
M103
G1 X6.0 Y1.27 Z0.46 F3000.0
G1 X5.6 Y2.49 Z0.46 F3000.0
G1 X4.96 Y3.6 Z0.46 F3000.0
G1 X4.1 Y4.56 Z0.46 F3000.0
G1 X3.07 Y5.31 Z0.46 F3000.0
G1 X1.9 Y5.83 Z0.46 F3000.0
G1 X-8.18 Y8.65 Z0.46 F1800.0
M108 R30.0
M101
G1 X-8.64 Y8.78 Z0.46 F1800.0
M108 R2.141
G1 X-8.64 Y-8.78 Z0.46 F1080.0
G1 X-8.25 Y-8.78 Z0.46 F1080.0
G1 X-8.25 Y8.78 Z0.46 F1080.0
G1 X-7.85 Y8.78 Z0.46 F1080.0
G1 X-7.85 Y-8.78 Z0.46 F1080.0
G1 X-7.46 Y-8.78 Z0.46 F1080.0
G1 X-7.46 Y8.78 Z0.46 F1080.0
G1 X-7.07 Y8.78 Z0.46 F1080.0
G1 X-7.07 Y-8.78 Z0.46 F1080.0
G1 X-6.68 Y-8.78 Z0.46 F1080.0
G1 X-6.68 Y8.51 Z0.46 F1080.0
M108 R30.0
M102
G1 X-6.68 Y8.78 Z0.46 F1080.0
M108 R2.141
M103
(</surroundingLoop>)
(</layer>)
(<layer> 0.78 )
(<surroundingLoop>)
(<boundaryPerimeter>)
(<boundaryPoint> X9.625 Y9.625 Z0.78 </boundaryPoint>)
(<boundaryPoint> X-9.625 Y9.625 Z0.78 </boundaryPoint>)
(<boundaryPoint> X-9.625 Y-9.625 Z0.78 </boundaryPoint>)
(<boundaryPoint> X9.625 Y-9.625 Z0.78 </boundaryPoint>)
(<loop> inner )
M108 R3.569
G1 X-4.57 Y5.59 Z0.73 F3000.0
M108 R30.0
M101
G1 X-4.13 Y4.93 Z0.78 F3000.0
M108 R3.569
G1 X-3.97 Y5.05 Z0.78 F1800.0
G1 X-3.23 Y5.59 Z0.78 F1800.0
G1 X-1.99 Y6.14 Z0.78 F1800.0
G1 X-0.67 Y6.41 Z0.78 F1800.0
G1 X0.67 Y6.41 Z0.78 F1800.0
G1 X1.99 Y6.14 Z0.78 F1800.0
G1 X3.23 Y5.59 Z0.78 F1800.0
G1 X4.32 Y4.79 Z0.78 F1800.0
G1 X5.22 Y3.79 Z0.78 F1800.0
G1 X5.89 Y2.62 Z0.78 F1800.0
G1 X6.31 Y1.34 Z0.78 F1800.0
G1 X6.45 Y0.0 Z0.78 F1800.0
G1 X6.31 Y-1.34 Z0.78 F1800.0
G1 X5.89 Y-2.62 Z0.78 F1800.0
G1 X5.22 Y-3.79 Z0.78 F1800.0
G1 X4.32 Y-4.79 Z0.78 F1800.0
G1 X3.23 Y-5.59 Z0.78 F1800.0
G1 X1.99 Y-6.13 Z0.78 F1800.0
G1 X0.67 Y-6.41 Z0.78 F1800.0
G1 X-0.67 Y-6.41 Z0.78 F1800.0
G1 X-1.99 Y-6.13 Z0.78 F1800.0
G1 X-3.23 Y-5.59 Z0.78 F1800.0
G1 X-4.32 Y-4.79 Z0.78 F1800.0
G1 X-5.22 Y-3.79 Z0.78 F1800.0
G1 X-5.89 Y-2.62 Z0.78 F1800.0
G1 X-6.31 Y-1.34 Z0.78 F1800.0
G1 X-6.45 Y-0.0 Z0.78 F1800.0
G1 X-6.31 Y1.34 Z0.78 F1800.0
G1 X-5.89 Y2.62 Z0.78 F1800.0
G1 X-5.22 Y3.79 Z0.78 F1800.0
G1 X-4.47 Y4.63 Z0.78 F1800.0
M108 R30.0
M102
G1 X-4.32 Y4.79 Z0.78 F1800.0
G1 X-4.13 Y4.93 Z0.78 F1800.0
M108 R3.569
M103
(</loop>)
(<loop> outer )
G1 X-4.0 Y8.24 Z0.78 F3000.0
M108 R30.0
M101
G1 X-3.97 Y9.04 Z0.78 F3000.0
M108 R3.569
G1 X-9.04 Y9.04 Z0.78 F1800.0
G1 X-9.04 Y-9.04 Z0.78 F1800.0
G1 X9.04 Y-9.04 Z0.78 F1800.0
G1 X9.04 Y9.04 Z0.78 F1800.0
G1 X-3.97 Y9.04 Z0.78 F1800.0
M103
(</loop>)
(<perimeter> outer )
G1 X-3.97 Y9.43 Z0.78 F3000.0
M101
G1 X-9.43 Y9.43 Z0.78 F1800.0
G1 X-9.43 Y-9.43 Z0.78 F1800.0
G1 X9.43 Y-9.43 Z0.78 F1800.0
G1 X9.43 Y9.43 Z0.78 F1800.0
G1 X-3.52 Y9.43 Z0.78 F1800.0
M108 R30.0
M102
G1 X-3.97 Y9.43 Z0.78 F1800.0
M108 R3.569
M103
(</perimeter>)
(</boundaryPerimeter>)
(<surroundingLoop>)
(<boundaryPerimeter>)
(<boundaryPoint> X-5.351 Y2.382 Z0.78 </boundaryPoint>)
(<boundaryPoint> X-4.739 Y3.443 Z0.78 </boundaryPoint>)
(<boundaryPoint> X-3.919 Y4.353 Z0.78 </boundaryPoint>)
(<boundaryPoint> X-2.929 Y5.072 Z0.78 </boundaryPoint>)
(<boundaryPoint> X-1.81 Y5.571 Z0.78 </boundaryPoint>)
(<boundaryPoint> X-0.612 Y5.825 Z0.78 </boundaryPoint>)
(<boundaryPoint> X0.612 Y5.825 Z0.78 </boundaryPoint>)
(<boundaryPoint> X1.81 Y5.571 Z0.78 </boundaryPoint>)
(<boundaryPoint> X2.929 Y5.072 Z0.78 </boundaryPoint>)
(<boundaryPoint> X3.919 Y4.353 Z0.78 </boundaryPoint>)
(<boundaryPoint> X4.738 Y3.443 Z0.78 </boundaryPoint>)
(<boundaryPoint> X5.351 Y2.382 Z0.78 </boundaryPoint>)
(<boundaryPoint> X5.729 Y1.218 Z0.78 </boundaryPoint>)
(<boundaryPoint> X5.857 Y0.0 Z0.78 </boundaryPoint>)
(<boundaryPoint> X5.729 Y-1.218 Z0.78 </boundaryPoint>)
(<boundaryPoint> X5.351 Y-2.382 Z0.78 </boundaryPoint>)
(<boundaryPoint> X4.738 Y-3.443 Z0.78 </boundaryPoint>)
(<boundaryPoint> X3.919 Y-4.353 Z0.78 </boundaryPoint>)
(<boundaryPoint> X2.929 Y-5.072 Z0.78 </boundaryPoint>)
(<boundaryPoint> X1.81 Y-5.57 Z0.78 </boundaryPoint>)
(<boundaryPoint> X0.612 Y-5.825 Z0.78 </boundaryPoint>)
(<boundaryPoint> X-0.612 Y-5.825 Z0.78 </boundaryPoint>)
(<boundaryPoint> X-1.81 Y-5.57 Z0.78 </boundaryPoint>)
(<boundaryPoint> X-2.929 Y-5.072 Z0.78 </boundaryPoint>)
(<boundaryPoint> X-3.919 Y-4.353 Z0.78 </boundaryPoint>)
(<boundaryPoint> X-4.739 Y-3.443 Z0.78 </boundaryPoint>)
(<boundaryPoint> X-5.351 Y-2.382 Z0.78 </boundaryPoint>)
(<boundaryPoint> X-5.729 Y-1.218 Z0.78 </boundaryPoint>)
(<boundaryPoint> X-5.857 Y-0.0 Z0.78 </boundaryPoint>)
(<boundaryPoint> X-5.729 Y1.218 Z0.78 </boundaryPoint>)
(<perimeter> inner )
G1 X-2.58 Y6.32 Z0.78 F3000.0
M108 R30.0
M101
G1 X-2.25 Y5.59 Z0.78 F3000.0
M108 R3.569
G1 X-1.87 Y5.76 Z0.78 F1800.0
G1 X-0.63 Y6.02 Z0.78 F1800.0
G1 X0.63 Y6.02 Z0.78 F1800.0
G1 X1.87 Y5.76 Z0.78 F1800.0
G1 X3.03 Y5.24 Z0.78 F1800.0
G1 X4.05 Y4.5 Z0.78 F1800.0
G1 X4.9 Y3.56 Z0.78 F1800.0
G1 X5.53 Y2.46 Z0.78 F1800.0
G1 X5.92 Y1.26 Z0.78 F1800.0
G1 X6.06 Y0.0 Z0.78 F1800.0
G1 X5.92 Y-1.26 Z0.78 F1800.0
G1 X5.53 Y-2.46 Z0.78 F1800.0
G1 X4.9 Y-3.56 Z0.78 F1800.0
G1 X4.05 Y-4.5 Z0.78 F1800.0
G1 X3.03 Y-5.24 Z0.78 F1800.0
G1 X1.87 Y-5.76 Z0.78 F1800.0
G1 X0.63 Y-6.02 Z0.78 F1800.0
G1 X-0.63 Y-6.02 Z0.78 F1800.0
G1 X-1.87 Y-5.76 Z0.78 F1800.0
G1 X-3.03 Y-5.24 Z0.78 F1800.0
G1 X-4.05 Y-4.5 Z0.78 F1800.0
G1 X-4.9 Y-3.56 Z0.78 F1800.0
G1 X-5.53 Y-2.46 Z0.78 F1800.0
G1 X-5.92 Y-1.26 Z0.78 F1800.0
G1 X-6.06 Y-0.0 Z0.78 F1800.0
G1 X-5.92 Y1.26 Z0.78 F1800.0
G1 X-5.53 Y2.46 Z0.78 F1800.0
G1 X-4.9 Y3.56 Z0.78 F1800.0
G1 X-4.05 Y4.5 Z0.78 F1800.0
G1 X-3.03 Y5.24 Z0.78 F1800.0
G1 X-2.25 Y5.59 Z0.78 F1800.0
M103
(</perimeter>)
(</boundaryPerimeter>)
(</surroundingLoop>)
G1 X-2.29 Y6.28 Z0.78 F3000.0
M101
G1 X-8.33 Y6.28 Z0.78 F1800.0
M108 R30.0
M102
G1 X-8.78 Y6.28 Z0.78 F1800.0
M108 R3.569
M103
G1 X-6.68 Y3.03 Z0.78 F3000.0
M108 R30.0
M101
G1 X-6.25 Y2.36 Z0.78 F3000.0
M108 R3.569
G1 X-8.78 Y2.36 Z0.78 F1800.0
G1 X-8.78 Y2.75 Z0.78 F1800.0
G1 X-6.11 Y2.75 Z0.78 F1800.0
G1 X-5.89 Y3.14 Z0.78 F1800.0
G1 X-8.78 Y3.14 Z0.78 F1800.0
G1 X-8.78 Y3.53 Z0.78 F1800.0
G1 X-5.66 Y3.53 Z0.78 F1800.0
G1 X-5.44 Y3.93 Z0.78 F1800.0
G1 X-8.78 Y3.93 Z0.78 F1800.0
G1 X-8.78 Y4.32 Z0.78 F1800.0
G1 X-5.09 Y4.32 Z0.78 F1800.0
G1 X-4.73 Y4.71 Z0.78 F1800.0
G1 X-8.78 Y4.71 Z0.78 F1800.0
G1 X-8.78 Y5.11 Z0.78 F1800.0
G1 X-4.32 Y5.11 Z0.78 F1800.0
G1 X-3.78 Y5.5 Z0.78 F1800.0
G1 X-8.78 Y5.5 Z0.78 F1800.0
G1 X-8.78 Y5.89 Z0.78 F1800.0
G1 X-3.62 Y5.89 Z0.78 F1800.0
M108 R30.0
M102
G1 X-3.17 Y5.89 Z0.78 F1800.0
M108 R3.569
M103
G1 X-6.01 Y2.2 Z0.78 F3000.0
M108 R30.0
M101
G1 X-6.5 Y1.57 Z0.78 F3000.0
M108 R3.569
G1 X-8.78 Y1.57 Z0.78 F1800.0
G1 X-8.78 Y1.96 Z0.78 F1800.0
G1 X-6.83 Y1.96 Z0.78 F1800.0
M108 R30.0
M102
G1 X-6.38 Y1.96 Z0.78 F1800.0
M108 R3.569
M103
G1 X-6.46 Y1.57 Z0.78 F3000.0
M108 R30.0
M101
G1 X-6.62 Y0.79 Z0.78 F3000.0
M108 R3.569
G1 X-8.78 Y0.79 Z0.78 F1800.0
G1 X-8.78 Y1.18 Z0.78 F1800.0
G1 X-7.03 Y1.18 Z0.78 F1800.0
M108 R30.0
M102
G1 X-6.58 Y1.18 Z0.78 F1800.0
M108 R3.569
M103
G1 X-6.62 Y0.8 Z0.78 F3000.0
M108 R30.0
M101
G1 X-6.71 Y0.0 Z0.78 F3000.0
M108 R3.569
G1 X-8.78 Y0.0 Z0.78 F1800.0
G1 X-8.78 Y0.39 Z0.78 F1800.0
G1 X-7.12 Y0.39 Z0.78 F1800.0
M108 R30.0
M102
G1 X-6.67 Y0.39 Z0.78 F1800.0
M108 R3.569
M103
G1 X-6.57 Y-0.77 Z0.78 F3000.0
M108 R30.0
M101
G1 X-6.5 Y-1.57 Z0.78 F3000.0
M108 R3.569
G1 X-8.78 Y-1.57 Z0.78 F1800.0
G1 X-8.78 Y-1.18 Z0.78 F1800.0
G1 X-6.58 Y-1.18 Z0.78 F1800.0
G1 X-6.62 Y-0.79 Z0.78 F1800.0
G1 X-8.78 Y-0.79 Z0.78 F1800.0
G1 X-8.78 Y-0.39 Z0.78 F1800.0
G1 X-7.12 Y-0.39 Z0.78 F1800.0
M108 R30.0
M102
G1 X-6.67 Y-0.39 Z0.78 F1800.0
M108 R3.569
M103
G1 X-6.41 Y-1.57 Z0.78 F3000.0
M108 R30.0
M101
G1 X-6.25 Y-2.36 Z0.78 F3000.0
M108 R3.569
G1 X-8.78 Y-2.36 Z0.78 F1800.0
G1 X-8.78 Y-1.96 Z0.78 F1800.0
G1 X-6.83 Y-1.96 Z0.78 F1800.0
M108 R30.0
M102
G1 X-6.38 Y-1.96 Z0.78 F1800.0
M108 R3.569
M103
G1 X-4.25 Y-4.85 Z0.78 F3000.0
M108 R30.0
M101
G1 X-3.78 Y-5.5 Z0.78 F3000.0
M108 R3.569
G1 X-8.78 Y-5.5 Z0.78 F1800.0
G1 X-8.78 Y-5.11 Z0.78 F1800.0
G1 X-4.32 Y-5.11 Z0.78 F1800.0
G1 X-4.73 Y-4.71 Z0.78 F1800.0
G1 X-8.78 Y-4.71 Z0.78 F1800.0
G1 X-8.78 Y-4.32 Z0.78 F1800.0
G1 X-5.09 Y-4.32 Z0.78 F1800.0
G1 X-5.44 Y-3.93 Z0.78 F1800.0
G1 X-8.78 Y-3.93 Z0.78 F1800.0
G1 X-8.78 Y-3.53 Z0.78 F1800.0
G1 X-5.66 Y-3.53 Z0.78 F1800.0
G1 X-5.89 Y-3.14 Z0.78 F1800.0
G1 X-8.78 Y-3.14 Z0.78 F1800.0
G1 X-8.78 Y-2.75 Z0.78 F1800.0
G1 X-6.56 Y-2.75 Z0.78 F1800.0
M108 R30.0
M102
G1 X-6.11 Y-2.75 Z0.78 F1800.0
M108 R3.569
M103
G1 X-2.87 Y-5.74 Z0.78 F3000.0
M108 R30.0
M101
G1 X-2.29 Y-6.28 Z0.78 F3000.0
M108 R3.569
G1 X-8.78 Y-6.28 Z0.78 F1800.0
G1 X-8.78 Y-5.89 Z0.78 F1800.0
G1 X-3.62 Y-5.89 Z0.78 F1800.0
M108 R30.0
M102
G1 X-3.17 Y-5.89 Z0.78 F1800.0
M108 R3.569
M103
G1 X2.37 Y-5.89 Z0.78 F3000.0
M108 R30.0
M101
G1 X3.17 Y-5.89 Z0.78 F3000.0
M108 R3.569
G1 X8.78 Y-5.89 Z0.78 F1800.0
G1 X8.78 Y-6.28 Z0.78 F1800.0
G1 X2.74 Y-6.28 Z0.78 F1800.0
M108 R30.0
M102
G1 X2.29 Y-6.28 Z0.78 F1800.0
M108 R3.569
M103
G1 X5.53 Y-3.29 Z0.78 F3000.0
M108 R30.0
M101
G1 X6.11 Y-2.75 Z0.78 F3000.0
M108 R3.569
G1 X8.78 Y-2.75 Z0.78 F1800.0
G1 X8.78 Y-3.14 Z0.78 F1800.0
G1 X5.89 Y-3.14 Z0.78 F1800.0
G1 X5.66 Y-3.53 Z0.78 F1800.0
G1 X8.78 Y-3.53 Z0.78 F1800.0
G1 X8.78 Y-3.93 Z0.78 F1800.0
G1 X5.43 Y-3.93 Z0.78 F1800.0
G1 X5.09 Y-4.32 Z0.78 F1800.0
G1 X8.78 Y-4.32 Z0.78 F1800.0
G1 X8.78 Y-4.71 Z0.78 F1800.0
G1 X4.73 Y-4.71 Z0.78 F1800.0
G1 X4.32 Y-5.11 Z0.78 F1800.0
G1 X8.78 Y-5.11 Z0.78 F1800.0
G1 X8.78 Y-5.5 Z0.78 F1800.0
G1 X4.23 Y-5.5 Z0.78 F1800.0
M108 R30.0
M102
G1 X3.78 Y-5.5 Z0.78 F1800.0
M108 R3.569
M103
G1 X5.9 Y-2.61 Z0.78 F3000.0
M108 R30.0
M101
G1 X6.38 Y-1.96 Z0.78 F3000.0
M108 R3.569
G1 X8.78 Y-1.96 Z0.78 F1800.0
G1 X8.78 Y-2.36 Z0.78 F1800.0
G1 X6.7 Y-2.36 Z0.78 F1800.0
M108 R30.0
M102
G1 X6.25 Y-2.36 Z0.78 F1800.0
M108 R3.569
M103
G1 X6.5 Y-1.18 Z0.78 F3000.0
M108 R30.0
M101
G1 X6.67 Y-0.39 Z0.78 F3000.0
M108 R3.569
G1 X8.78 Y-0.39 Z0.78 F1800.0
G1 X8.78 Y-0.79 Z0.78 F1800.0
G1 X6.62 Y-0.79 Z0.78 F1800.0
G1 X6.58 Y-1.18 Z0.78 F1800.0
G1 X8.78 Y-1.18 Z0.78 F1800.0
G1 X8.78 Y-1.57 Z0.78 F1800.0
G1 X6.95 Y-1.57 Z0.78 F1800.0
M108 R30.0
M102
G1 X6.5 Y-1.57 Z0.78 F1800.0
M108 R3.569
M103
G1 X6.6 Y-0.4 Z0.78 F3000.0
M108 R30.0
M101
G1 X6.67 Y0.39 Z0.78 F3000.0
M108 R3.569
G1 X8.78 Y0.39 Z0.78 F1800.0
G1 X8.78 Y-0.0 Z0.78 F1800.0
G1 X7.16 Y0.0 Z0.78 F1800.0
M108 R30.0
M102
G1 X6.71 Y-0.0 Z0.78 F1800.0
M108 R3.569
M103
G1 X6.67 Y0.38 Z0.78 F3000.0
M108 R30.0
M101
G1 X6.58 Y1.18 Z0.78 F3000.0
M108 R3.569
G1 X8.78 Y1.18 Z0.78 F1800.0
G1 X8.78 Y0.79 Z0.78 F1800.0
G1 X7.07 Y0.79 Z0.78 F1800.0
M108 R30.0
M102
G1 X6.62 Y0.79 Z0.78 F1800.0
M108 R3.569
M103
G1 X6.54 Y1.18 Z0.78 F3000.0
M108 R30.0
M101
G1 X6.38 Y1.96 Z0.78 F3000.0
M108 R3.569
G1 X8.78 Y1.96 Z0.78 F1800.0
G1 X8.78 Y1.57 Z0.78 F1800.0
G1 X6.95 Y1.57 Z0.78 F1800.0
M108 R30.0
M102
G1 X6.5 Y1.57 Z0.78 F1800.0
M108 R3.569
M103
G1 X3.66 Y5.26 Z0.78 F3000.0
M108 R30.0
M101
G1 X3.17 Y5.89 Z0.78 F3000.0
M108 R3.569
G1 X8.78 Y5.89 Z0.78 F1800.0
G1 X8.78 Y5.5 Z0.78 F1800.0
G1 X3.78 Y5.5 Z0.78 F1800.0
G1 X4.32 Y5.11 Z0.78 F1800.0
G1 X8.78 Y5.11 Z0.78 F1800.0
G1 X8.78 Y4.71 Z0.78 F1800.0
G1 X4.73 Y4.71 Z0.78 F1800.0
G1 X5.09 Y4.32 Z0.78 F1800.0
G1 X8.78 Y4.32 Z0.78 F1800.0
G1 X8.78 Y3.93 Z0.78 F1800.0
G1 X5.43 Y3.93 Z0.78 F1800.0
G1 X5.66 Y3.53 Z0.78 F1800.0
G1 X8.78 Y3.53 Z0.78 F1800.0
G1 X8.78 Y3.14 Z0.78 F1800.0
G1 X5.89 Y3.14 Z0.78 F1800.0
G1 X6.11 Y2.75 Z0.78 F1800.0
G1 X8.78 Y2.75 Z0.78 F1800.0
G1 X8.78 Y2.36 Z0.78 F1800.0
G1 X6.7 Y2.36 Z0.78 F1800.0
M108 R30.0
M102
G1 X6.25 Y2.36 Z0.78 F1800.0
M108 R3.569
M103
G1 X8.48 Y7.9 Z0.78 F3000.0
M108 R30.0
M101
G1 X8.78 Y8.64 Z0.78 F3000.0
M108 R3.569
G1 X-8.78 Y8.64 Z0.78 F1800.0
G1 X-8.78 Y8.25 Z0.78 F1800.0
G1 X8.78 Y8.25 Z0.78 F1800.0
G1 X8.78 Y7.85 Z0.78 F1800.0
G1 X-8.78 Y7.85 Z0.78 F1800.0
G1 X-8.78 Y7.46 Z0.78 F1800.0
G1 X8.78 Y7.46 Z0.78 F1800.0
G1 X8.78 Y7.07 Z0.78 F1800.0
G1 X-8.78 Y7.07 Z0.78 F1800.0
G1 X-8.78 Y6.68 Z0.78 F1800.0
G1 X8.78 Y6.68 Z0.78 F1800.0
G1 X8.78 Y6.28 Z0.78 F1800.0
G1 X2.74 Y6.28 Z0.78 F1800.0
M108 R30.0
M102
G1 X2.29 Y6.28 Z0.78 F1800.0
M108 R3.569
M103
G1 X-0.64 Y6.1 Z0.78 F3000.0
G1 X-1.9 Y5.83 Z0.78 F3000.0
G1 X-3.07 Y5.31 Z0.78 F3000.0
G1 X-4.1 Y4.56 Z0.78 F3000.0
G1 X-4.96 Y3.6 Z0.78 F3000.0
G1 X-5.6 Y2.49 Z0.78 F3000.0
G1 X-8.52 Y-5.92 Z0.78 F3000.0
M108 R30.0
M101
G1 X-8.78 Y-6.68 Z0.78 F3000.0
M108 R3.569
G1 X8.78 Y-6.68 Z0.78 F1800.0
G1 X8.78 Y-7.07 Z0.78 F1800.0
G1 X-8.78 Y-7.07 Z0.78 F1800.0
G1 X-8.78 Y-7.46 Z0.78 F1800.0
G1 X8.78 Y-7.46 Z0.78 F1800.0
G1 X8.78 Y-7.85 Z0.78 F1800.0
G1 X-8.78 Y-7.85 Z0.78 F1800.0
G1 X-8.78 Y-8.25 Z0.78 F1800.0
G1 X8.78 Y-8.25 Z0.78 F1800.0
G1 X8.78 Y-8.64 Z0.78 F1800.0
G1 X-8.33 Y-8.64 Z0.78 F1800.0
M108 R30.0
M102
G1 X-8.78 Y-8.64 Z0.78 F1800.0
M108 R3.569
M103
(</surroundingLoop>)
(</layer>)
(<operatingLayerEnd> </operatingLayerEnd>)
(<layer> 1.1 )
(<surroundingLoop>)
(<boundaryPerimeter>)
(<boundaryPoint> X9.625 Y9.625 Z1.1 </boundaryPoint>)
(<boundaryPoint> X-9.625 Y9.625 Z1.1 </boundaryPoint>)
(<boundaryPoint> X-9.625 Y-9.625 Z1.1 </boundaryPoint>)
(<boundaryPoint> X9.625 Y-9.625 Z1.1 </boundaryPoint>)
(<loop> inner )
G1 X-5.08 Y-5.14 Z1.06 F3000.0
M108 R30.0
M101
G1 X-4.5 Y-4.59 Z1.1 F3000.0
M108 R3.569
G1 X-5.22 Y-3.79 Z1.1 F1800.0
G1 X-5.89 Y-2.62 Z1.1 F1800.0
G1 X-6.31 Y-1.34 Z1.1 F1800.0
G1 X-6.45 Y-0.0 Z1.1 F1800.0
G1 X-6.31 Y1.34 Z1.1 F1800.0
G1 X-5.89 Y2.62 Z1.1 F1800.0
G1 X-5.22 Y3.79 Z1.1 F1800.0
G1 X-4.32 Y4.79 Z1.1 F1800.0
G1 X-3.23 Y5.59 Z1.1 F1800.0
G1 X-1.99 Y6.14 Z1.1 F1800.0
G1 X-0.67 Y6.41 Z1.1 F1800.0
G1 X0.67 Y6.41 Z1.1 F1800.0
G1 X1.99 Y6.14 Z1.1 F1800.0
G1 X3.23 Y5.59 Z1.1 F1800.0
G1 X4.32 Y4.79 Z1.1 F1800.0
G1 X5.22 Y3.79 Z1.1 F1800.0
G1 X5.89 Y2.62 Z1.1 F1800.0
G1 X6.31 Y1.34 Z1.1 F1800.0
G1 X6.45 Y0.0 Z1.1 F1800.0
G1 X6.31 Y-1.34 Z1.1 F1800.0
G1 X5.89 Y-2.62 Z1.1 F1800.0
G1 X5.22 Y-3.79 Z1.1 F1800.0
G1 X4.32 Y-4.79 Z1.1 F1800.0
G1 X3.23 Y-5.59 Z1.1 F1800.0
G1 X1.99 Y-6.13 Z1.1 F1800.0
G1 X0.67 Y-6.41 Z1.1 F1800.0
G1 X-0.67 Y-6.41 Z1.1 F1800.0
G1 X-1.99 Y-6.13 Z1.1 F1800.0
G1 X-3.23 Y-5.59 Z1.1 F1800.0
G1 X-4.18 Y-4.89 Z1.1 F1800.0
M108 R30.0
M102
G1 X-4.32 Y-4.79 Z1.1 F1800.0
G1 X-4.5 Y-4.59 Z1.1 F1800.0
M108 R3.569
M103
(</loop>)
(<loop> outer )
G1 X-4.35 Y-8.24 Z1.1 F3000.0
M108 R30.0
M101
G1 X-4.32 Y-9.04 Z1.1 F3000.0
M108 R3.569
G1 X9.04 Y-9.04 Z1.1 F1800.0
G1 X9.04 Y9.04 Z1.1 F1800.0
G1 X-9.04 Y9.04 Z1.1 F1800.0
G1 X-9.04 Y-9.04 Z1.1 F1800.0
G1 X-4.32 Y-9.04 Z1.1 F1800.0
M103
(</loop>)
(<perimeter> outer )
G1 X-4.32 Y-9.43 Z1.1 F3000.0
M101
G1 X9.43 Y-9.43 Z1.1 F1800.0
G1 X9.43 Y9.43 Z1.1 F1800.0
G1 X-9.43 Y9.43 Z1.1 F1800.0
G1 X-9.43 Y-9.43 Z1.1 F1800.0
G1 X-4.76 Y-9.43 Z1.1 F1800.0
M108 R30.0
M102
G1 X-4.32 Y-9.43 Z1.1 F1800.0
M108 R3.569
M103
(</perimeter>)
(</boundaryPerimeter>)
(<surroundingLoop>)
(<boundaryPerimeter>)
(<boundaryPoint> X-5.351 Y2.382 Z1.1 </boundaryPoint>)
(<boundaryPoint> X-4.739 Y3.443 Z1.1 </boundaryPoint>)
(<boundaryPoint> X-3.919 Y4.353 Z1.1 </boundaryPoint>)
(<boundaryPoint> X-2.929 Y5.072 Z1.1 </boundaryPoint>)
(<boundaryPoint> X-1.81 Y5.571 Z1.1 </boundaryPoint>)
(<boundaryPoint> X-0.612 Y5.825 Z1.1 </boundaryPoint>)
(<boundaryPoint> X0.612 Y5.825 Z1.1 </boundaryPoint>)
(<boundaryPoint> X1.81 Y5.571 Z1.1 </boundaryPoint>)
(<boundaryPoint> X2.929 Y5.072 Z1.1 </boundaryPoint>)
(<boundaryPoint> X3.919 Y4.353 Z1.1 </boundaryPoint>)
(<boundaryPoint> X4.738 Y3.443 Z1.1 </boundaryPoint>)
(<boundaryPoint> X5.351 Y2.382 Z1.1 </boundaryPoint>)
(<boundaryPoint> X5.729 Y1.218 Z1.1 </boundaryPoint>)
(<boundaryPoint> X5.857 Y0.0 Z1.1 </boundaryPoint>)
(<boundaryPoint> X5.729 Y-1.218 Z1.1 </boundaryPoint>)
(<boundaryPoint> X5.351 Y-2.382 Z1.1 </boundaryPoint>)
(<boundaryPoint> X4.738 Y-3.443 Z1.1 </boundaryPoint>)
(<boundaryPoint> X3.919 Y-4.353 Z1.1 </boundaryPoint>)
(<boundaryPoint> X2.929 Y-5.072 Z1.1 </boundaryPoint>)
(<boundaryPoint> X1.81 Y-5.57 Z1.1 </boundaryPoint>)
(<boundaryPoint> X0.612 Y-5.825 Z1.1 </boundaryPoint>)
(<boundaryPoint> X-0.612 Y-5.825 Z1.1 </boundaryPoint>)
(<boundaryPoint> X-1.81 Y-5.57 Z1.1 </boundaryPoint>)
(<boundaryPoint> X-2.929 Y-5.072 Z1.1 </boundaryPoint>)
(<boundaryPoint> X-3.919 Y-4.353 Z1.1 </boundaryPoint>)
(<boundaryPoint> X-4.739 Y-3.443 Z1.1 </boundaryPoint>)
(<boundaryPoint> X-5.351 Y-2.382 Z1.1 </boundaryPoint>)
(<boundaryPoint> X-5.729 Y-1.218 Z1.1 </boundaryPoint>)
(<boundaryPoint> X-5.857 Y-0.0 Z1.1 </boundaryPoint>)
(<boundaryPoint> X-5.729 Y1.218 Z1.1 </boundaryPoint>)
(<perimeter> inner )
G1 X-2.87 Y-6.19 Z1.1 F3000.0
M108 R30.0
M101
G1 X-2.55 Y-5.46 Z1.1 F3000.0
M108 R3.569
G1 X-3.03 Y-5.24 Z1.1 F1800.0
G1 X-4.05 Y-4.5 Z1.1 F1800.0
G1 X-4.9 Y-3.56 Z1.1 F1800.0
G1 X-5.53 Y-2.46 Z1.1 F1800.0
G1 X-5.92 Y-1.26 Z1.1 F1800.0
G1 X-6.06 Y-0.0 Z1.1 F1800.0
G1 X-5.92 Y1.26 Z1.1 F1800.0
G1 X-5.53 Y2.46 Z1.1 F1800.0
G1 X-4.9 Y3.56 Z1.1 F1800.0
G1 X-4.05 Y4.5 Z1.1 F1800.0
G1 X-3.03 Y5.24 Z1.1 F1800.0
G1 X-1.87 Y5.76 Z1.1 F1800.0
G1 X-0.63 Y6.02 Z1.1 F1800.0
G1 X0.63 Y6.02 Z1.1 F1800.0
G1 X1.87 Y5.76 Z1.1 F1800.0
G1 X3.03 Y5.24 Z1.1 F1800.0
G1 X4.05 Y4.5 Z1.1 F1800.0
G1 X4.9 Y3.56 Z1.1 F1800.0
G1 X5.53 Y2.46 Z1.1 F1800.0
G1 X5.92 Y1.26 Z1.1 F1800.0
G1 X6.06 Y0.0 Z1.1 F1800.0
G1 X5.92 Y-1.26 Z1.1 F1800.0
G1 X5.53 Y-2.46 Z1.1 F1800.0
G1 X4.9 Y-3.56 Z1.1 F1800.0
G1 X4.05 Y-4.5 Z1.1 F1800.0
G1 X3.03 Y-5.24 Z1.1 F1800.0
G1 X1.87 Y-5.76 Z1.1 F1800.0
G1 X0.63 Y-6.02 Z1.1 F1800.0
G1 X-0.63 Y-6.02 Z1.1 F1800.0
G1 X-1.87 Y-5.76 Z1.1 F1800.0
G1 X-2.14 Y-5.64 Z1.1 F1800.0
M108 R30.0
M102
G1 X-2.55 Y-5.46 Z1.1 F1800.0
M108 R3.569
M103
(</perimeter>)
(</boundaryPerimeter>)
(</surroundingLoop>)
G1 X0.12 Y-6.37 Z1.1 F3000.0
M108 R30.0
M101
G1 X0.87 Y-6.63 Z1.1 F3000.0
M108 R3.569
G1 X2.18 Y-6.33 Z1.1 F1800.0
G1 X2.8 Y-6.53 Z1.1 F1800.0
G1 X3.16 Y-7.51 Z1.1 F1800.0
G1 X3.16 Y-7.76 Z1.1 F1800.0
G1 X3.49 Y-8.78 Z1.1 F1800.0
G1 X-0.44 Y-8.78 Z1.1 F1800.0
G1 X0.44 Y-7.11 Z1.1 F1800.0
G1 X-0.0 Y-6.67 Z1.1 F1800.0
G1 X-0.44 Y-7.11 Z1.1 F1800.0
G1 X-0.89 Y-7.07 Z1.1 F1800.0
G1 X-1.09 Y-7.51 Z1.1 F1800.0
G1 X-1.09 Y-7.76 Z1.1 F1800.0
G1 X-0.87 Y-8.78 Z1.1 F1800.0
G1 X-2.62 Y-8.78 Z1.1 F1800.0
G1 X-1.31 Y-6.54 Z1.1 F1800.0
G1 X-2.18 Y-6.33 Z1.1 F1800.0
G1 X-2.8 Y-6.53 Z1.1 F1800.0
G1 X-3.05 Y-8.78 Z1.1 F1800.0
G1 X-4.36 Y-8.78 Z1.1 F1800.0
G1 X-5.34 Y-7.76 Z1.1 F1800.0
G1 X-5.34 Y-7.51 Z1.1 F1800.0
G1 X-3.05 Y-5.94 Z1.1 F1800.0
G1 X-3.49 Y-5.71 Z1.1 F1800.0
G1 X-4.36 Y-5.07 Z1.1 F1800.0
G1 X-4.48 Y-4.96 Z1.1 F1800.0
M108 R30.0
M102
G1 X-4.8 Y-4.64 Z1.1 F1800.0
M108 R3.569
M103
G1 X-6.16 Y-2.14 Z1.1 F3000.0
M108 R30.0
M101
G1 X-6.55 Y-1.44 Z1.1 F3000.0
M108 R3.569
G1 X-6.52 Y-2.9 Z1.1 F1800.0
G1 X-5.67 Y-3.52 Z1.1 F1800.0
G1 X-5.6 Y-4.4 Z1.1 F1800.0
G1 X-7.52 Y-5.33 Z1.1 F1800.0
G1 X-7.52 Y-5.58 Z1.1 F1800.0
G1 X-5.57 Y-7.51 Z1.1 F1800.0
G1 X-5.57 Y-7.76 Z1.1 F1800.0
G1 X-4.8 Y-8.78 Z1.1 F1800.0
G1 X-8.73 Y-8.78 Z1.1 F1800.0
G1 X-7.75 Y-5.58 Z1.1 F1800.0
G1 X-7.75 Y7.76 Z1.1 F1800.0
G1 X-8.73 Y8.78 Z1.1 F1800.0
G1 X-4.8 Y8.78 Z1.1 F1800.0
G1 X-5.24 Y8.34 Z1.1 F1800.0
G1 X-7.52 Y7.76 Z1.1 F1800.0
G1 X-7.52 Y7.51 Z1.1 F1800.0
G1 X-5.57 Y5.58 Z1.1 F1800.0
G1 X-5.67 Y3.52 Z1.1 F1800.0
G1 X-7.52 Y3.4 Z1.1 F1800.0
G1 X-7.52 Y3.15 Z1.1 F1800.0
G1 X-6.52 Y2.9 Z1.1 F1800.0
G1 X-6.54 Y1.89 Z1.1 F1800.0
M108 R30.0
M102
G1 X-6.55 Y1.44 Z1.1 F1800.0
M108 R3.569
M103
G1 X-3.54 Y5.31 Z1.1 F3000.0
M108 R30.0
M101
G1 X-3.05 Y5.94 Z1.1 F3000.0
M108 R3.569
G1 X-3.49 Y5.71 Z1.1 F1800.0
G1 X-4.36 Y5.07 Z1.1 F1800.0
G1 X-4.8 Y4.64 Z1.1 F1800.0
G1 X-5.34 Y5.33 Z1.1 F1800.0
G1 X-5.34 Y5.58 Z1.1 F1800.0
G1 X-3.39 Y7.51 Z1.1 F1800.0
G1 X-3.39 Y7.76 Z1.1 F1800.0
G1 X-4.36 Y8.78 Z1.1 F1800.0
G1 X-1.75 Y8.78 Z1.1 F1800.0
G1 X-3.16 Y7.76 Z1.1 F1800.0
G1 X-3.16 Y7.51 Z1.1 F1800.0
G1 X-2.8 Y6.53 Z1.1 F1800.0
G1 X-2.18 Y6.33 Z1.1 F1800.0
G1 X-1.31 Y6.54 Z1.1 F1800.0
G1 X-1.86 Y6.87 Z1.1 F1800.0
G1 X-1.31 Y8.78 Z1.1 F1800.0
G1 X0.87 Y8.78 Z1.1 F1800.0
G1 X-0.44 Y7.11 Z1.1 F1800.0
G1 X0.0 Y6.67 Z1.1 F1800.0
G1 X0.44 Y7.11 Z1.1 F1800.0
G1 X0.87 Y6.63 Z1.1 F1800.0
G1 X1.4 Y6.97 Z1.1 F1800.0
G1 X1.09 Y7.51 Z1.1 F1800.0
G1 X1.09 Y7.76 Z1.1 F1800.0
G1 X1.31 Y8.78 Z1.1 F1800.0
G1 X3.05 Y8.78 Z1.1 F1800.0
G1 X1.75 Y6.45 Z1.1 F1800.0
G1 X2.18 Y6.33 Z1.1 F1800.0
G1 X2.8 Y6.53 Z1.1 F1800.0
G1 X3.49 Y8.78 Z1.1 F1800.0
G1 X6.11 Y8.78 Z1.1 F1800.0
G1 X5.34 Y7.76 Z1.1 F1800.0
G1 X5.34 Y7.51 Z1.1 F1800.0
G1 X3.05 Y5.94 Z1.1 F1800.0
G1 X3.49 Y5.71 Z1.1 F1800.0
G1 X4.36 Y5.07 Z1.1 F1800.0
G1 X4.93 Y4.48 Z1.1 F1800.0
M108 R30.0
M102
G1 X5.24 Y4.15 Z1.1 F1800.0
M108 R3.569
M103
G1 X8.11 Y-8.0 Z1.1 F3000.0
M108 R30.0
M101
G1 X8.29 Y-8.78 Z1.1 F3000.0
M108 R3.569
G1 X8.73 Y-8.78 Z1.1 F1800.0
G1 X8.73 Y8.78 Z1.1 F1800.0
G1 X6.55 Y8.78 Z1.1 F1800.0
G1 X5.57 Y7.76 Z1.1 F1800.0
G1 X5.57 Y7.51 Z1.1 F1800.0
G1 X6.52 Y2.9 Z1.1 F1800.0
G1 X6.54 Y1.89 Z1.1 F1800.0
M108 R30.0
M102
G1 X6.55 Y1.44 Z1.1 F1800.0
M108 R3.569
M103
G1 X6.55 Y-0.64 Z1.1 F3000.0
M108 R30.0
M101
G1 X6.55 Y-1.44 Z1.1 F3000.0
M108 R3.569
G1 X6.55 Y-2.76 Z1.1 F1800.0
G1 X6.11 Y-3.54 Z1.1 F1800.0
G1 X5.24 Y-4.15 Z1.1 F1800.0
G1 X5.57 Y-5.33 Z1.1 F1800.0
G1 X5.57 Y-5.58 Z1.1 F1800.0
G1 X7.85 Y-8.78 Z1.1 F1800.0
G1 X3.93 Y-8.78 Z1.1 F1800.0
G1 X3.39 Y-7.76 Z1.1 F1800.0
G1 X3.39 Y-7.51 Z1.1 F1800.0
G1 X3.05 Y-5.94 Z1.1 F1800.0
G1 X3.49 Y-5.71 Z1.1 F1800.0
G1 X3.93 Y-5.39 Z1.1 F1800.0
G1 X5.34 Y-5.58 Z1.1 F1800.0
G1 X5.34 Y-5.33 Z1.1 F1800.0
G1 X4.8 Y-4.64 Z1.1 F1800.0
G1 X4.36 Y-5.07 Z1.1 F1800.0
M103
(</surroundingLoop>)
(</layer>)
(<layer> 1.42 )
(<surroundingLoop>)
(<boundaryPerimeter>)
(<boundaryPoint> X9.625 Y9.625 Z1.42 </boundaryPoint>)
(<boundaryPoint> X-9.625 Y9.625 Z1.42 </boundaryPoint>)
(<boundaryPoint> X-9.625 Y-9.625 Z1.42 </boundaryPoint>)
(<boundaryPoint> X9.625 Y-9.625 Z1.42 </boundaryPoint>)
(<loop> inner )
G1 X4.33 Y-4.78 Z1.42 F3000.0
M101
G1 X4.32 Y-4.79 Z1.42 F1800.0
G1 X3.23 Y-5.59 Z1.42 F1800.0
G1 X1.99 Y-6.13 Z1.42 F1800.0
G1 X0.67 Y-6.41 Z1.42 F1800.0
G1 X-0.67 Y-6.41 Z1.42 F1800.0
G1 X-1.99 Y-6.13 Z1.42 F1800.0
G1 X-3.23 Y-5.59 Z1.42 F1800.0
G1 X-4.32 Y-4.79 Z1.42 F1800.0
G1 X-5.22 Y-3.79 Z1.42 F1800.0
G1 X-5.89 Y-2.62 Z1.42 F1800.0
G1 X-6.31 Y-1.34 Z1.42 F1800.0
G1 X-6.45 Y-0.0 Z1.42 F1800.0
G1 X-6.31 Y1.34 Z1.42 F1800.0
G1 X-5.89 Y2.62 Z1.42 F1800.0
G1 X-5.22 Y3.79 Z1.42 F1800.0
G1 X-4.32 Y4.79 Z1.42 F1800.0
G1 X-3.23 Y5.59 Z1.42 F1800.0
G1 X-1.99 Y6.14 Z1.42 F1800.0
G1 X-0.67 Y6.41 Z1.42 F1800.0
G1 X0.67 Y6.41 Z1.42 F1800.0
G1 X1.99 Y6.14 Z1.42 F1800.0
G1 X3.23 Y5.59 Z1.42 F1800.0
G1 X4.32 Y4.79 Z1.42 F1800.0
G1 X5.22 Y3.79 Z1.42 F1800.0
G1 X5.89 Y2.62 Z1.42 F1800.0
G1 X6.31 Y1.34 Z1.42 F1800.0
G1 X6.45 Y0.0 Z1.42 F1800.0
G1 X6.31 Y-1.34 Z1.42 F1800.0
G1 X5.89 Y-2.62 Z1.42 F1800.0
G1 X5.22 Y-3.79 Z1.42 F1800.0
G1 X4.63 Y-4.44 Z1.42 F1800.0
M108 R30.0
M102
G1 X4.33 Y-4.78 Z1.42 F1800.0
M108 R3.569
M103
(</loop>)
(<loop> outer )
G1 X4.32 Y-8.24 Z1.42 F3000.0
M108 R30.0
M101
G1 X4.32 Y-9.04 Z1.42 F3000.0
M108 R3.569
G1 X9.04 Y-9.04 Z1.42 F1800.0
G1 X9.04 Y9.04 Z1.42 F1800.0
G1 X-9.04 Y9.04 Z1.42 F1800.0
G1 X-9.04 Y-9.04 Z1.42 F1800.0
G1 X4.32 Y-9.04 Z1.42 F1800.0
M103
(</loop>)
(<perimeter> outer )
G1 X4.32 Y-9.43 Z1.42 F3000.0
M101
G1 X9.43 Y-9.43 Z1.42 F1800.0
G1 X9.43 Y9.43 Z1.42 F1800.0
G1 X-9.43 Y9.43 Z1.42 F1800.0
G1 X-9.43 Y-9.43 Z1.42 F1800.0
G1 X3.87 Y-9.43 Z1.42 F1800.0
M108 R30.0
M102
G1 X4.32 Y-9.43 Z1.42 F1800.0
M108 R3.569
M103
(</perimeter>)
(</boundaryPerimeter>)
(<surroundingLoop>)
(<boundaryPerimeter>)
(<boundaryPoint> X-5.351 Y2.382 Z1.42 </boundaryPoint>)
(<boundaryPoint> X-4.739 Y3.443 Z1.42 </boundaryPoint>)
(<boundaryPoint> X-3.919 Y4.353 Z1.42 </boundaryPoint>)
(<boundaryPoint> X-2.929 Y5.072 Z1.42 </boundaryPoint>)
(<boundaryPoint> X-1.81 Y5.571 Z1.42 </boundaryPoint>)
(<boundaryPoint> X-0.612 Y5.825 Z1.42 </boundaryPoint>)
(<boundaryPoint> X0.612 Y5.825 Z1.42 </boundaryPoint>)
(<boundaryPoint> X1.81 Y5.571 Z1.42 </boundaryPoint>)
(<boundaryPoint> X2.929 Y5.072 Z1.42 </boundaryPoint>)
(<boundaryPoint> X3.919 Y4.353 Z1.42 </boundaryPoint>)
(<boundaryPoint> X4.738 Y3.443 Z1.42 </boundaryPoint>)
(<boundaryPoint> X5.351 Y2.382 Z1.42 </boundaryPoint>)
(<boundaryPoint> X5.729 Y1.218 Z1.42 </boundaryPoint>)
(<boundaryPoint> X5.857 Y0.0 Z1.42 </boundaryPoint>)
(<boundaryPoint> X5.729 Y-1.218 Z1.42 </boundaryPoint>)
(<boundaryPoint> X5.351 Y-2.382 Z1.42 </boundaryPoint>)
(<boundaryPoint> X4.738 Y-3.443 Z1.42 </boundaryPoint>)
(<boundaryPoint> X3.919 Y-4.353 Z1.42 </boundaryPoint>)
(<boundaryPoint> X2.929 Y-5.072 Z1.42 </boundaryPoint>)
(<boundaryPoint> X1.81 Y-5.57 Z1.42 </boundaryPoint>)
(<boundaryPoint> X0.612 Y-5.825 Z1.42 </boundaryPoint>)
(<boundaryPoint> X-0.612 Y-5.825 Z1.42 </boundaryPoint>)
(<boundaryPoint> X-1.81 Y-5.57 Z1.42 </boundaryPoint>)
(<boundaryPoint> X-2.929 Y-5.072 Z1.42 </boundaryPoint>)
(<boundaryPoint> X-3.919 Y-4.353 Z1.42 </boundaryPoint>)
(<boundaryPoint> X-4.739 Y-3.443 Z1.42 </boundaryPoint>)
(<boundaryPoint> X-5.351 Y-2.382 Z1.42 </boundaryPoint>)
(<boundaryPoint> X-5.729 Y-1.218 Z1.42 </boundaryPoint>)
(<boundaryPoint> X-5.857 Y-0.0 Z1.42 </boundaryPoint>)
(<boundaryPoint> X-5.729 Y1.218 Z1.42 </boundaryPoint>)
(<perimeter> inner )
G1 X2.87 Y-6.19 Z1.42 F3000.0
M108 R30.0
M101
G1 X2.55 Y-5.46 Z1.42 F3000.0
M108 R3.569
G1 X1.87 Y-5.76 Z1.42 F1800.0
G1 X0.63 Y-6.02 Z1.42 F1800.0
G1 X-0.63 Y-6.02 Z1.42 F1800.0
G1 X-1.87 Y-5.76 Z1.42 F1800.0
G1 X-3.03 Y-5.24 Z1.42 F1800.0
G1 X-4.05 Y-4.5 Z1.42 F1800.0
G1 X-4.9 Y-3.56 Z1.42 F1800.0
G1 X-5.53 Y-2.46 Z1.42 F1800.0
G1 X-5.92 Y-1.26 Z1.42 F1800.0
G1 X-6.06 Y-0.0 Z1.42 F1800.0
G1 X-5.92 Y1.26 Z1.42 F1800.0
G1 X-5.53 Y2.46 Z1.42 F1800.0
G1 X-4.9 Y3.56 Z1.42 F1800.0
G1 X-4.05 Y4.5 Z1.42 F1800.0
G1 X-3.03 Y5.24 Z1.42 F1800.0
G1 X-1.87 Y5.76 Z1.42 F1800.0
G1 X-0.63 Y6.02 Z1.42 F1800.0
G1 X0.63 Y6.02 Z1.42 F1800.0
G1 X1.87 Y5.76 Z1.42 F1800.0
G1 X3.03 Y5.24 Z1.42 F1800.0
G1 X4.05 Y4.5 Z1.42 F1800.0
G1 X4.9 Y3.56 Z1.42 F1800.0
G1 X5.53 Y2.46 Z1.42 F1800.0
G1 X5.92 Y1.26 Z1.42 F1800.0
G1 X6.06 Y0.0 Z1.42 F1800.0
G1 X5.92 Y-1.26 Z1.42 F1800.0
G1 X5.53 Y-2.46 Z1.42 F1800.0
G1 X4.9 Y-3.56 Z1.42 F1800.0
G1 X4.05 Y-4.5 Z1.42 F1800.0
G1 X3.03 Y-5.24 Z1.42 F1800.0
G1 X2.96 Y-5.27 Z1.42 F1800.0
M108 R30.0
M102
G1 X2.55 Y-5.46 Z1.42 F1800.0
M108 R3.569
M103
(</perimeter>)
(</boundaryPerimeter>)
(</surroundingLoop>)
G1 X8.0 Y-6.79 Z1.42 F3000.0
M108 R30.0
M101
G1 X8.78 Y-6.98 Z1.42 F3000.0
M108 R3.569
G1 X8.78 Y-4.8 Z1.42 F1800.0
G1 X5.58 Y-5.57 Z1.42 F1800.0
G1 X5.33 Y-5.57 Z1.42 F1800.0
G1 X4.14 Y-5.24 Z1.42 F1800.0
G1 X3.54 Y-5.67 Z1.42 F1800.0
G1 X3.4 Y-7.52 Z1.42 F1800.0
G1 X3.15 Y-7.52 Z1.42 F1800.0
G1 X2.81 Y-6.53 Z1.42 F1800.0
G1 X1.74 Y-6.54 Z1.42 F1800.0
M108 R30.0
M102
G1 X1.29 Y-6.55 Z1.42 F1800.0
M108 R3.569
M103
G1 X-0.49 Y-6.55 Z1.42 F3000.0
M108 R30.0
M101
G1 X-1.29 Y-6.55 Z1.42 F3000.0
M108 R3.569
G1 X-2.81 Y-6.53 Z1.42 F1800.0
G1 X-3.54 Y-5.67 Z1.42 F1800.0
G1 X-4.14 Y-5.24 Z1.42 F1800.0
G1 X-5.33 Y-7.52 Z1.42 F1800.0
G1 X-5.58 Y-7.52 Z1.42 F1800.0
G1 X-7.51 Y-5.57 Z1.42 F1800.0
G1 X-7.76 Y-5.57 Z1.42 F1800.0
G1 X-8.78 Y-6.98 Z1.42 F1800.0
G1 X-8.78 Y-3.05 Z1.42 F1800.0
G1 X-8.34 Y-3.05 Z1.42 F1800.0
G1 X-7.76 Y-5.34 Z1.42 F1800.0
G1 X-7.51 Y-5.34 Z1.42 F1800.0
G1 X-6.32 Y-3.27 Z1.42 F1800.0
G1 X-5.69 Y-3.49 Z1.42 F1800.0
G1 X-5.44 Y-3.93 Z1.42 F1800.0
G1 X-4.95 Y-4.47 Z1.42 F1800.0
M108 R30.0
M102
G1 X-4.65 Y-4.8 Z1.42 F1800.0
M108 R3.569
M103
G1 X-5.88 Y-2.86 Z1.42 F3000.0
M108 R30.0
M101
G1 X-6.3 Y-2.18 Z1.42 F3000.0
M108 R3.569
G1 X-6.57 Y-1.31 Z1.42 F1800.0
G1 X-6.62 Y-0.87 Z1.42 F1800.0
G1 X-8.78 Y-2.62 Z1.42 F1800.0
G1 X-8.78 Y0.44 Z1.42 F1800.0
G1 X-7.09 Y-0.48 Z1.42 F1800.0
G1 X-6.71 Y0.0 Z1.42 F1800.0
G1 X-7.09 Y0.48 Z1.42 F1800.0
G1 X-8.78 Y0.87 Z1.42 F1800.0
G1 X-8.78 Y3.05 Z1.42 F1800.0
G1 X-6.99 Y1.44 Z1.42 F1800.0
G1 X-6.45 Y1.75 Z1.42 F1800.0
G1 X-6.3 Y2.18 Z1.42 F1800.0
G1 X-6.58 Y2.75 Z1.42 F1800.0
G1 X-7.51 Y3.27 Z1.42 F1800.0
G1 X-7.76 Y3.27 Z1.42 F1800.0
G1 X-8.78 Y3.49 Z1.42 F1800.0
G1 X-8.78 Y6.11 Z1.42 F1800.0
G1 X-5.58 Y5.45 Z1.42 F1800.0
G1 X-4.42 Y5.57 Z1.42 F1800.0
G1 X-4.65 Y4.8 Z1.42 F1800.0
G1 X-5.44 Y3.93 Z1.42 F1800.0
G1 X-5.46 Y3.88 Z1.42 F1800.0
M108 R30.0
M102
G1 X-5.69 Y3.49 Z1.42 F1800.0
M108 R3.569
M103
G1 X-3.07 Y5.31 Z1.42 F3000.0
G1 X-1.9 Y5.83 Z1.42 F3000.0
G1 X8.01 Y8.52 Z1.42 F3000.0
M108 R30.0
M101
G1 X8.78 Y8.73 Z1.42 F3000.0
M108 R3.569
G1 X8.78 Y8.29 Z1.42 F1800.0
G1 X5.58 Y7.75 Z1.42 F1800.0
G1 X-3.4 Y7.64 Z1.42 F1800.0
G1 X-7.76 Y7.75 Z1.42 F1800.0
G1 X-8.78 Y8.73 Z1.42 F1800.0
G1 X-8.78 Y6.55 Z1.42 F1800.0
G1 X-7.76 Y7.52 Z1.42 F1800.0
G1 X-7.51 Y7.52 Z1.42 F1800.0
G1 X-2.81 Y6.53 Z1.42 F1800.0
G1 X-1.74 Y6.54 Z1.42 F1800.0
M108 R30.0
M102
G1 X-1.29 Y6.55 Z1.42 F1800.0
M108 R3.569
M103
G1 X0.49 Y6.55 Z1.42 F3000.0
M108 R30.0
M101
G1 X1.29 Y6.55 Z1.42 F3000.0
M108 R3.569
G1 X2.81 Y6.53 Z1.42 F1800.0
G1 X5.33 Y7.52 Z1.42 F1800.0
G1 X8.78 Y7.85 Z1.42 F1800.0
G1 X8.78 Y3.93 Z1.42 F1800.0
G1 X5.94 Y3.05 Z1.42 F1800.0
G1 X6.04 Y3.75 Z1.42 F1800.0
G1 X5.43 Y3.93 Z1.42 F1800.0
G1 X4.95 Y4.47 Z1.42 F1800.0
M108 R30.0
M102
G1 X4.65 Y4.8 Z1.42 F1800.0
M108 R3.569
M103
G1 X5.88 Y2.86 Z1.42 F3000.0
M108 R30.0
M101
G1 X6.3 Y2.18 Z1.42 F3000.0
M108 R3.569
G1 X6.45 Y1.75 Z1.42 F1800.0
G1 X6.99 Y1.44 Z1.42 F1800.0
G1 X8.78 Y3.49 Z1.42 F1800.0
G1 X8.78 Y-0.44 Z1.42 F1800.0
G1 X7.09 Y0.48 Z1.42 F1800.0
G1 X6.71 Y-0.0 Z1.42 F1800.0
G1 X7.09 Y-0.48 Z1.42 F1800.0
G1 X7.05 Y-0.92 Z1.42 F1800.0
G1 X8.34 Y-1.31 Z1.42 F1800.0
G1 X8.78 Y-0.87 Z1.42 F1800.0
G1 X8.78 Y-3.05 Z1.42 F1800.0
G1 X6.57 Y-1.31 Z1.42 F1800.0
G1 X6.3 Y-2.18 Z1.42 F1800.0
G1 X6.58 Y-2.75 Z1.42 F1800.0
G1 X8.34 Y-3.49 Z1.42 F1800.0
G1 X8.78 Y-3.93 Z1.42 F1800.0
G1 X8.78 Y-4.36 Z1.42 F1800.0
G1 X5.58 Y-5.34 Z1.42 F1800.0
G1 X5.33 Y-5.34 Z1.42 F1800.0
G1 X4.65 Y-4.8 Z1.42 F1800.0
G1 X5.43 Y-3.93 Z1.42 F1800.0
G1 X5.46 Y-3.88 Z1.42 F1800.0
M108 R30.0
M102
G1 X5.69 Y-3.49 Z1.42 F1800.0
M108 R3.569
M103
G1 X3.07 Y-5.31 Z1.42 F3000.0
G1 X1.9 Y-5.83 Z1.42 F3000.0
G1 X-8.01 Y-8.52 Z1.42 F3000.0
M108 R30.0
M101
G1 X-8.78 Y-8.73 Z1.42 F3000.0
M108 R3.569
G1 X-8.78 Y-7.42 Z1.42 F1800.0
G1 X-5.58 Y-7.75 Z1.42 F1800.0
G1 X-1.22 Y-7.64 Z1.42 F1800.0
G1 X3.4 Y-7.75 Z1.42 F1800.0
G1 X8.78 Y-7.42 Z1.42 F1800.0
G1 X8.78 Y-8.28 Z1.42 F1800.0
M108 R30.0
M102
G1 X8.78 Y-8.73 Z1.42 F1800.0
M108 R3.569
M103
(</surroundingLoop>)
(</layer>)
(<layer> 1.74 )
(<surroundingLoop>)
(<boundaryPerimeter>)
(<boundaryPoint> X9.625 Y9.625 Z1.74 </boundaryPoint>)
(<boundaryPoint> X-9.625 Y9.625 Z1.74 </boundaryPoint>)
(<boundaryPoint> X-9.625 Y-9.625 Z1.74 </boundaryPoint>)
(<boundaryPoint> X9.625 Y-9.625 Z1.74 </boundaryPoint>)
(<loop> inner )
G1 X5.1 Y-5.11 Z1.7 F3000.0
M108 R30.0
M101
G1 X4.53 Y-4.55 Z1.74 F3000.0
M108 R3.569
G1 X4.32 Y-4.79 Z1.74 F1800.0
G1 X3.23 Y-5.59 Z1.74 F1800.0
G1 X1.99 Y-6.13 Z1.74 F1800.0
G1 X0.67 Y-6.41 Z1.74 F1800.0
G1 X-0.67 Y-6.41 Z1.74 F1800.0
G1 X-1.99 Y-6.13 Z1.74 F1800.0
G1 X-3.23 Y-5.59 Z1.74 F1800.0
G1 X-4.32 Y-4.79 Z1.74 F1800.0
G1 X-5.22 Y-3.79 Z1.74 F1800.0
G1 X-5.89 Y-2.62 Z1.74 F1800.0
G1 X-6.31 Y-1.34 Z1.74 F1800.0
G1 X-6.45 Y-0.0 Z1.74 F1800.0
G1 X-6.31 Y1.34 Z1.74 F1800.0
G1 X-5.89 Y2.62 Z1.74 F1800.0
G1 X-5.22 Y3.79 Z1.74 F1800.0
G1 X-4.32 Y4.79 Z1.74 F1800.0
G1 X-3.23 Y5.59 Z1.74 F1800.0
G1 X-1.99 Y6.14 Z1.74 F1800.0
G1 X-0.67 Y6.41 Z1.74 F1800.0
G1 X0.67 Y6.41 Z1.74 F1800.0
G1 X1.99 Y6.14 Z1.74 F1800.0
G1 X3.23 Y5.59 Z1.74 F1800.0
G1 X4.32 Y4.79 Z1.74 F1800.0
G1 X5.22 Y3.79 Z1.74 F1800.0
G1 X5.89 Y2.62 Z1.74 F1800.0
G1 X6.31 Y1.34 Z1.74 F1800.0
G1 X6.45 Y0.0 Z1.74 F1800.0
G1 X6.31 Y-1.34 Z1.74 F1800.0
G1 X5.89 Y-2.62 Z1.74 F1800.0
G1 X5.22 Y-3.79 Z1.74 F1800.0
G1 X4.83 Y-4.22 Z1.74 F1800.0
M108 R30.0
M102
G1 X4.53 Y-4.55 Z1.74 F1800.0
M108 R3.569
M103
(</loop>)
(<loop> outer )
G1 X4.53 Y-8.24 Z1.74 F3000.0
M108 R30.0
M101
G1 X4.53 Y-9.04 Z1.74 F3000.0
M108 R3.569
G1 X9.04 Y-9.04 Z1.74 F1800.0
G1 X9.04 Y9.04 Z1.74 F1800.0
G1 X-9.04 Y9.04 Z1.74 F1800.0
G1 X-9.04 Y-9.04 Z1.74 F1800.0
G1 X4.32 Y-9.04 Z1.74 F1800.0
G1 X4.53 Y-9.04 Z1.74 F1800.0
M103
(</loop>)
(<perimeter> outer )
G1 X4.53 Y-9.43 Z1.74 F3000.0
M101
G1 X9.43 Y-9.43 Z1.74 F1800.0
G1 X9.43 Y9.43 Z1.74 F1800.0
G1 X-9.43 Y9.43 Z1.74 F1800.0
G1 X-9.43 Y-9.43 Z1.74 F1800.0
G1 X4.08 Y-9.43 Z1.74 F1800.0
M108 R30.0
M102
G1 X4.32 Y-9.43 Z1.74 F1800.0
G1 X4.53 Y-9.43 Z1.74 F1800.0
M108 R3.569
M103
(</perimeter>)
(</boundaryPerimeter>)
(<surroundingLoop>)
(<boundaryPerimeter>)
(<boundaryPoint> X-5.351 Y2.382 Z1.74 </boundaryPoint>)
(<boundaryPoint> X-4.739 Y3.443 Z1.74 </boundaryPoint>)
(<boundaryPoint> X-3.919 Y4.353 Z1.74 </boundaryPoint>)
(<boundaryPoint> X-2.929 Y5.072 Z1.74 </boundaryPoint>)
(<boundaryPoint> X-1.81 Y5.571 Z1.74 </boundaryPoint>)
(<boundaryPoint> X-0.612 Y5.825 Z1.74 </boundaryPoint>)
(<boundaryPoint> X0.612 Y5.825 Z1.74 </boundaryPoint>)
(<boundaryPoint> X1.81 Y5.571 Z1.74 </boundaryPoint>)
(<boundaryPoint> X2.929 Y5.072 Z1.74 </boundaryPoint>)
(<boundaryPoint> X3.919 Y4.353 Z1.74 </boundaryPoint>)
(<boundaryPoint> X4.738 Y3.443 Z1.74 </boundaryPoint>)
(<boundaryPoint> X5.351 Y2.382 Z1.74 </boundaryPoint>)
(<boundaryPoint> X5.729 Y1.218 Z1.74 </boundaryPoint>)
(<boundaryPoint> X5.857 Y0.0 Z1.74 </boundaryPoint>)
(<boundaryPoint> X5.729 Y-1.218 Z1.74 </boundaryPoint>)
(<boundaryPoint> X5.351 Y-2.382 Z1.74 </boundaryPoint>)
(<boundaryPoint> X4.738 Y-3.443 Z1.74 </boundaryPoint>)
(<boundaryPoint> X3.919 Y-4.353 Z1.74 </boundaryPoint>)
(<boundaryPoint> X2.929 Y-5.072 Z1.74 </boundaryPoint>)
(<boundaryPoint> X1.81 Y-5.57 Z1.74 </boundaryPoint>)
(<boundaryPoint> X0.612 Y-5.825 Z1.74 </boundaryPoint>)
(<boundaryPoint> X-0.612 Y-5.825 Z1.74 </boundaryPoint>)
(<boundaryPoint> X-1.81 Y-5.57 Z1.74 </boundaryPoint>)
(<boundaryPoint> X-2.929 Y-5.072 Z1.74 </boundaryPoint>)
(<boundaryPoint> X-3.919 Y-4.353 Z1.74 </boundaryPoint>)
(<boundaryPoint> X-4.739 Y-3.443 Z1.74 </boundaryPoint>)
(<boundaryPoint> X-5.351 Y-2.382 Z1.74 </boundaryPoint>)
(<boundaryPoint> X-5.729 Y-1.218 Z1.74 </boundaryPoint>)
(<boundaryPoint> X-5.857 Y-0.0 Z1.74 </boundaryPoint>)
(<boundaryPoint> X-5.729 Y1.218 Z1.74 </boundaryPoint>)
(<perimeter> inner )
G1 X3.05 Y-6.11 Z1.74 F3000.0
M108 R30.0
M101
G1 X2.73 Y-5.38 Z1.74 F3000.0
M108 R3.569
G1 X2.55 Y-5.46 Z1.74 F1800.0
G1 X1.87 Y-5.76 Z1.74 F1800.0
G1 X0.63 Y-6.02 Z1.74 F1800.0
G1 X-0.63 Y-6.02 Z1.74 F1800.0
G1 X-1.87 Y-5.76 Z1.74 F1800.0
G1 X-3.03 Y-5.24 Z1.74 F1800.0
G1 X-4.05 Y-4.5 Z1.74 F1800.0
G1 X-4.9 Y-3.56 Z1.74 F1800.0
G1 X-5.53 Y-2.46 Z1.74 F1800.0
G1 X-5.92 Y-1.26 Z1.74 F1800.0
G1 X-6.06 Y-0.0 Z1.74 F1800.0
G1 X-5.92 Y1.26 Z1.74 F1800.0
G1 X-5.53 Y2.46 Z1.74 F1800.0
G1 X-4.9 Y3.56 Z1.74 F1800.0
G1 X-4.05 Y4.5 Z1.74 F1800.0
G1 X-3.03 Y5.24 Z1.74 F1800.0
G1 X-1.87 Y5.76 Z1.74 F1800.0
G1 X-0.63 Y6.02 Z1.74 F1800.0
G1 X0.63 Y6.02 Z1.74 F1800.0
G1 X1.87 Y5.76 Z1.74 F1800.0
G1 X3.03 Y5.24 Z1.74 F1800.0
G1 X4.05 Y4.5 Z1.74 F1800.0
G1 X4.9 Y3.56 Z1.74 F1800.0
G1 X5.53 Y2.46 Z1.74 F1800.0
G1 X5.92 Y1.26 Z1.74 F1800.0
G1 X6.06 Y0.0 Z1.74 F1800.0
G1 X5.92 Y-1.26 Z1.74 F1800.0
G1 X5.53 Y-2.46 Z1.74 F1800.0
G1 X4.9 Y-3.56 Z1.74 F1800.0
G1 X4.05 Y-4.5 Z1.74 F1800.0
G1 X3.13 Y-5.17 Z1.74 F1800.0
M108 R30.0
M102
G1 X3.03 Y-5.24 Z1.74 F1800.0
G1 X2.73 Y-5.38 Z1.74 F1800.0
M108 R3.569
M103
(</perimeter>)
(</boundaryPerimeter>)
(</surroundingLoop>)
G1 X4.1 Y-4.56 Z1.74 F3000.0
G1 X6.05 Y-2.07 Z1.74 F3000.0
M108 R30.0
M101
G1 X6.55 Y-1.44 Z1.74 F3000.0
M108 R3.569
G1 X6.55 Y-2.76 Z1.74 F1800.0
G1 X6.11 Y-3.54 Z1.74 F1800.0
G1 X5.24 Y-4.15 Z1.74 F1800.0
G1 X5.57 Y-5.33 Z1.74 F1800.0
G1 X5.57 Y-5.58 Z1.74 F1800.0
G1 X7.85 Y-8.78 Z1.74 F1800.0
G1 X3.93 Y-8.78 Z1.74 F1800.0
G1 X3.39 Y-7.76 Z1.74 F1800.0
G1 X3.39 Y-7.51 Z1.74 F1800.0
G1 X3.05 Y-5.94 Z1.74 F1800.0
G1 X3.49 Y-5.71 Z1.74 F1800.0
G1 X3.93 Y-5.39 Z1.74 F1800.0
G1 X5.34 Y-5.58 Z1.74 F1800.0
G1 X5.34 Y-5.33 Z1.74 F1800.0
G1 X4.8 Y-4.64 Z1.74 F1800.0
G1 X4.68 Y-4.76 Z1.74 F1800.0
M108 R30.0
M102
G1 X4.36 Y-5.07 Z1.74 F1800.0
M108 R3.569
M103
G1 X1.6 Y-6.31 Z1.74 F3000.0
M108 R30.0
M101
G1 X0.87 Y-6.63 Z1.74 F3000.0
M108 R3.569
G1 X2.18 Y-6.33 Z1.74 F1800.0
G1 X2.8 Y-6.53 Z1.74 F1800.0
G1 X3.16 Y-7.51 Z1.74 F1800.0
G1 X3.16 Y-7.76 Z1.74 F1800.0
G1 X3.49 Y-8.78 Z1.74 F1800.0
G1 X-0.44 Y-8.78 Z1.74 F1800.0
G1 X0.44 Y-7.11 Z1.74 F1800.0
G1 X-0.0 Y-6.67 Z1.74 F1800.0
G1 X-0.44 Y-7.11 Z1.74 F1800.0
G1 X-0.89 Y-7.07 Z1.74 F1800.0
G1 X-1.09 Y-7.51 Z1.74 F1800.0
G1 X-1.09 Y-7.76 Z1.74 F1800.0
G1 X-0.87 Y-8.78 Z1.74 F1800.0
G1 X-2.62 Y-8.78 Z1.74 F1800.0
G1 X-1.31 Y-6.54 Z1.74 F1800.0
G1 X-2.18 Y-6.33 Z1.74 F1800.0
G1 X-2.8 Y-6.53 Z1.74 F1800.0
G1 X-3.05 Y-8.78 Z1.74 F1800.0
G1 X-4.36 Y-8.78 Z1.74 F1800.0
G1 X-5.34 Y-7.76 Z1.74 F1800.0
G1 X-5.34 Y-7.51 Z1.74 F1800.0
G1 X-3.05 Y-5.94 Z1.74 F1800.0
G1 X-3.49 Y-5.71 Z1.74 F1800.0
G1 X-4.36 Y-5.07 Z1.74 F1800.0
G1 X-4.48 Y-4.96 Z1.74 F1800.0
M108 R30.0
M102
G1 X-4.8 Y-4.64 Z1.74 F1800.0
M108 R3.569
M103
G1 X-6.16 Y-2.14 Z1.74 F3000.0
M108 R30.0
M101
G1 X-6.55 Y-1.44 Z1.74 F3000.0
M108 R3.569
G1 X-6.52 Y-2.9 Z1.74 F1800.0
G1 X-5.67 Y-3.52 Z1.74 F1800.0
G1 X-5.6 Y-4.4 Z1.74 F1800.0
G1 X-7.52 Y-5.33 Z1.74 F1800.0
G1 X-7.52 Y-5.58 Z1.74 F1800.0
G1 X-5.57 Y-7.51 Z1.74 F1800.0
G1 X-5.57 Y-7.76 Z1.74 F1800.0
G1 X-4.8 Y-8.78 Z1.74 F1800.0
G1 X-8.73 Y-8.78 Z1.74 F1800.0
G1 X-7.75 Y-5.58 Z1.74 F1800.0
G1 X-7.75 Y7.76 Z1.74 F1800.0
G1 X-8.73 Y8.78 Z1.74 F1800.0
G1 X-4.8 Y8.78 Z1.74 F1800.0
G1 X-5.24 Y8.34 Z1.74 F1800.0
G1 X-7.52 Y7.76 Z1.74 F1800.0
G1 X-7.52 Y7.51 Z1.74 F1800.0
G1 X-5.57 Y5.58 Z1.74 F1800.0
G1 X-5.67 Y3.52 Z1.74 F1800.0
G1 X-7.52 Y3.4 Z1.74 F1800.0
G1 X-7.52 Y3.15 Z1.74 F1800.0
G1 X-6.52 Y2.9 Z1.74 F1800.0
G1 X-6.54 Y1.89 Z1.74 F1800.0
M108 R30.0
M102
G1 X-6.55 Y1.44 Z1.74 F1800.0
M108 R3.569
M103
G1 X-3.54 Y5.31 Z1.74 F3000.0
M108 R30.0
M101
G1 X-3.05 Y5.94 Z1.74 F3000.0
M108 R3.569
G1 X-3.49 Y5.71 Z1.74 F1800.0
G1 X-4.36 Y5.07 Z1.74 F1800.0
G1 X-4.8 Y4.64 Z1.74 F1800.0
G1 X-5.34 Y5.33 Z1.74 F1800.0
G1 X-5.34 Y5.58 Z1.74 F1800.0
G1 X-3.39 Y7.51 Z1.74 F1800.0
G1 X-3.39 Y7.76 Z1.74 F1800.0
G1 X-4.36 Y8.78 Z1.74 F1800.0
G1 X-1.75 Y8.78 Z1.74 F1800.0
G1 X-3.16 Y7.76 Z1.74 F1800.0
G1 X-3.16 Y7.51 Z1.74 F1800.0
G1 X-2.8 Y6.53 Z1.74 F1800.0
G1 X-2.18 Y6.33 Z1.74 F1800.0
G1 X-1.31 Y6.54 Z1.74 F1800.0
G1 X-1.86 Y6.87 Z1.74 F1800.0
G1 X-1.31 Y8.78 Z1.74 F1800.0
G1 X0.87 Y8.78 Z1.74 F1800.0
G1 X-0.44 Y7.11 Z1.74 F1800.0
G1 X0.0 Y6.67 Z1.74 F1800.0
G1 X0.44 Y7.11 Z1.74 F1800.0
G1 X0.87 Y6.63 Z1.74 F1800.0
G1 X1.4 Y6.97 Z1.74 F1800.0
G1 X1.09 Y7.51 Z1.74 F1800.0
G1 X1.09 Y7.76 Z1.74 F1800.0
G1 X1.31 Y8.78 Z1.74 F1800.0
G1 X3.05 Y8.78 Z1.74 F1800.0
G1 X1.75 Y6.45 Z1.74 F1800.0
G1 X2.18 Y6.33 Z1.74 F1800.0
G1 X2.8 Y6.53 Z1.74 F1800.0
G1 X3.49 Y8.78 Z1.74 F1800.0
G1 X6.11 Y8.78 Z1.74 F1800.0
G1 X5.34 Y7.76 Z1.74 F1800.0
G1 X5.34 Y7.51 Z1.74 F1800.0
G1 X3.05 Y5.94 Z1.74 F1800.0
G1 X3.49 Y5.71 Z1.74 F1800.0
G1 X4.36 Y5.07 Z1.74 F1800.0
G1 X4.93 Y4.48 Z1.74 F1800.0
M108 R30.0
M102
G1 X5.24 Y4.15 Z1.74 F1800.0
M108 R3.569
M103
G1 X8.11 Y-8.0 Z1.74 F3000.0
M108 R30.0
M101
G1 X8.29 Y-8.78 Z1.74 F3000.0
M108 R3.569
G1 X8.73 Y-8.78 Z1.74 F1800.0
G1 X8.73 Y8.78 Z1.74 F1800.0
G1 X6.55 Y8.78 Z1.74 F1800.0
G1 X5.57 Y7.76 Z1.74 F1800.0
G1 X5.57 Y7.51 Z1.74 F1800.0
G1 X6.52 Y2.9 Z1.74 F1800.0
G1 X6.55 Y1.44 Z1.74 F1800.0
M103
(</surroundingLoop>)
(</layer>)
(<layer> 2.06 )
(<surroundingLoop>)
(<boundaryPerimeter>)
(<boundaryPoint> X9.625 Y9.625 Z2.06 </boundaryPoint>)
(<boundaryPoint> X-9.625 Y9.625 Z2.06 </boundaryPoint>)
(<boundaryPoint> X-9.625 Y-9.625 Z2.06 </boundaryPoint>)
(<boundaryPoint> X9.625 Y-9.625 Z2.06 </boundaryPoint>)
(<loop> inner )
G1 X6.33 Y1.18 Z2.06 F3000.0
M101
G1 X6.45 Y0.0 Z2.06 F1800.0
G1 X6.31 Y-1.34 Z2.06 F1800.0
G1 X5.89 Y-2.62 Z2.06 F1800.0
G1 X5.22 Y-3.79 Z2.06 F1800.0
G1 X4.32 Y-4.79 Z2.06 F1800.0
G1 X3.23 Y-5.59 Z2.06 F1800.0
G1 X1.99 Y-6.13 Z2.06 F1800.0
G1 X0.67 Y-6.41 Z2.06 F1800.0
G1 X-0.67 Y-6.41 Z2.06 F1800.0
G1 X-1.99 Y-6.13 Z2.06 F1800.0
G1 X-3.23 Y-5.59 Z2.06 F1800.0
G1 X-4.32 Y-4.79 Z2.06 F1800.0
G1 X-5.22 Y-3.79 Z2.06 F1800.0
G1 X-5.89 Y-2.62 Z2.06 F1800.0
G1 X-6.31 Y-1.34 Z2.06 F1800.0
G1 X-6.45 Y-0.0 Z2.06 F1800.0
G1 X-6.31 Y1.34 Z2.06 F1800.0
G1 X-5.89 Y2.62 Z2.06 F1800.0
G1 X-5.22 Y3.79 Z2.06 F1800.0
G1 X-4.32 Y4.79 Z2.06 F1800.0
G1 X-3.23 Y5.59 Z2.06 F1800.0
G1 X-1.99 Y6.14 Z2.06 F1800.0
G1 X-0.67 Y6.41 Z2.06 F1800.0
G1 X0.67 Y6.41 Z2.06 F1800.0
G1 X1.99 Y6.14 Z2.06 F1800.0
G1 X3.23 Y5.59 Z2.06 F1800.0
G1 X4.32 Y4.79 Z2.06 F1800.0
G1 X5.22 Y3.79 Z2.06 F1800.0
G1 X5.89 Y2.62 Z2.06 F1800.0
G1 X6.22 Y1.61 Z2.06 F1800.0
M108 R30.0
M102
G1 X6.31 Y1.34 Z2.06 F1800.0
G1 X6.33 Y1.18 Z2.06 F1800.0
M108 R3.569
M103
(</loop>)
(<loop> outer )
G1 X8.24 Y1.29 Z2.06 F3000.0
M108 R30.0
M101
G1 X9.04 Y1.34 Z2.06 F3000.0
M108 R3.569
G1 X9.04 Y9.04 Z2.06 F1800.0
G1 X-9.04 Y9.04 Z2.06 F1800.0
G1 X-9.04 Y-9.04 Z2.06 F1800.0
G1 X9.04 Y-9.04 Z2.06 F1800.0
G1 X9.04 Y1.34 Z2.06 F1800.0
M103
(</loop>)
(<perimeter> outer )
G1 X9.43 Y1.34 Z2.06 F3000.0
M101
G1 X9.43 Y9.43 Z2.06 F1800.0
G1 X-9.43 Y9.43 Z2.06 F1800.0
G1 X-9.43 Y-9.43 Z2.06 F1800.0
G1 X9.43 Y-9.43 Z2.06 F1800.0
G1 X9.43 Y0.89 Z2.06 F1800.0
M108 R30.0
M102
G1 X9.43 Y1.34 Z2.06 F1800.0
M108 R3.569
M103
(</perimeter>)
(</boundaryPerimeter>)
(<surroundingLoop>)
(<boundaryPerimeter>)
(<boundaryPoint> X-5.351 Y2.382 Z2.06 </boundaryPoint>)
(<boundaryPoint> X-4.739 Y3.443 Z2.06 </boundaryPoint>)
(<boundaryPoint> X-3.919 Y4.353 Z2.06 </boundaryPoint>)
(<boundaryPoint> X-2.929 Y5.072 Z2.06 </boundaryPoint>)
(<boundaryPoint> X-1.81 Y5.571 Z2.06 </boundaryPoint>)
(<boundaryPoint> X-0.612 Y5.825 Z2.06 </boundaryPoint>)
(<boundaryPoint> X0.612 Y5.825 Z2.06 </boundaryPoint>)
(<boundaryPoint> X1.81 Y5.571 Z2.06 </boundaryPoint>)
(<boundaryPoint> X2.929 Y5.072 Z2.06 </boundaryPoint>)
(<boundaryPoint> X3.919 Y4.353 Z2.06 </boundaryPoint>)
(<boundaryPoint> X4.738 Y3.443 Z2.06 </boundaryPoint>)
(<boundaryPoint> X5.351 Y2.382 Z2.06 </boundaryPoint>)
(<boundaryPoint> X5.729 Y1.218 Z2.06 </boundaryPoint>)
(<boundaryPoint> X5.857 Y0.0 Z2.06 </boundaryPoint>)
(<boundaryPoint> X5.729 Y-1.218 Z2.06 </boundaryPoint>)
(<boundaryPoint> X5.351 Y-2.382 Z2.06 </boundaryPoint>)
(<boundaryPoint> X4.738 Y-3.443 Z2.06 </boundaryPoint>)
(<boundaryPoint> X3.919 Y-4.353 Z2.06 </boundaryPoint>)
(<boundaryPoint> X2.929 Y-5.072 Z2.06 </boundaryPoint>)
(<boundaryPoint> X1.81 Y-5.57 Z2.06 </boundaryPoint>)
(<boundaryPoint> X0.612 Y-5.825 Z2.06 </boundaryPoint>)
(<boundaryPoint> X-0.612 Y-5.825 Z2.06 </boundaryPoint>)
(<boundaryPoint> X-1.81 Y-5.57 Z2.06 </boundaryPoint>)
(<boundaryPoint> X-2.929 Y-5.072 Z2.06 </boundaryPoint>)
(<boundaryPoint> X-3.919 Y-4.353 Z2.06 </boundaryPoint>)
(<boundaryPoint> X-4.739 Y-3.443 Z2.06 </boundaryPoint>)
(<boundaryPoint> X-5.351 Y-2.382 Z2.06 </boundaryPoint>)
(<boundaryPoint> X-5.729 Y-1.218 Z2.06 </boundaryPoint>)
(<boundaryPoint> X-5.857 Y-0.0 Z2.06 </boundaryPoint>)
(<boundaryPoint> X-5.729 Y1.218 Z2.06 </boundaryPoint>)
(<perimeter> inner )
G1 X6.75 Y1.06 Z2.06 F3000.0
M108 R30.0
M101
G1 X5.95 Y0.97 Z2.06 F3000.0
M108 R3.569
G1 X6.06 Y0.0 Z2.06 F1800.0
G1 X5.92 Y-1.26 Z2.06 F1800.0
G1 X5.53 Y-2.46 Z2.06 F1800.0
G1 X4.9 Y-3.56 Z2.06 F1800.0
G1 X4.05 Y-4.5 Z2.06 F1800.0
G1 X3.03 Y-5.24 Z2.06 F1800.0
G1 X1.87 Y-5.76 Z2.06 F1800.0
G1 X0.63 Y-6.02 Z2.06 F1800.0
G1 X-0.63 Y-6.02 Z2.06 F1800.0
G1 X-1.87 Y-5.76 Z2.06 F1800.0
G1 X-3.03 Y-5.24 Z2.06 F1800.0
G1 X-4.05 Y-4.5 Z2.06 F1800.0
G1 X-4.9 Y-3.56 Z2.06 F1800.0
G1 X-5.53 Y-2.46 Z2.06 F1800.0
G1 X-5.92 Y-1.26 Z2.06 F1800.0
G1 X-6.06 Y-0.0 Z2.06 F1800.0
G1 X-5.92 Y1.26 Z2.06 F1800.0
G1 X-5.53 Y2.46 Z2.06 F1800.0
G1 X-4.9 Y3.56 Z2.06 F1800.0
G1 X-4.05 Y4.5 Z2.06 F1800.0
G1 X-3.03 Y5.24 Z2.06 F1800.0
G1 X-1.87 Y5.76 Z2.06 F1800.0
G1 X-0.63 Y6.02 Z2.06 F1800.0
G1 X0.63 Y6.02 Z2.06 F1800.0
G1 X1.87 Y5.76 Z2.06 F1800.0
G1 X3.03 Y5.24 Z2.06 F1800.0
G1 X4.05 Y4.5 Z2.06 F1800.0
G1 X4.9 Y3.56 Z2.06 F1800.0
G1 X5.53 Y2.46 Z2.06 F1800.0
G1 X5.87 Y1.41 Z2.06 F1800.0
M108 R30.0
M102
G1 X5.92 Y1.26 Z2.06 F1800.0
G1 X5.95 Y0.97 Z2.06 F1800.0
M108 R3.569
M103
(</perimeter>)
(</boundaryPerimeter>)
(</surroundingLoop>)
G1 X6.08 Y1.41 Z2.06 F3000.0
M108 R30.0
M101
G1 X6.3 Y2.18 Z2.06 F3000.0
M108 R3.569
G1 X6.45 Y1.75 Z2.06 F1800.0
G1 X6.99 Y1.44 Z2.06 F1800.0
G1 X8.78 Y3.49 Z2.06 F1800.0
G1 X8.78 Y-0.44 Z2.06 F1800.0
G1 X7.09 Y0.48 Z2.06 F1800.0
G1 X6.71 Y-0.0 Z2.06 F1800.0
G1 X7.09 Y-0.48 Z2.06 F1800.0
G1 X7.05 Y-0.92 Z2.06 F1800.0
G1 X8.34 Y-1.31 Z2.06 F1800.0
G1 X8.78 Y-0.87 Z2.06 F1800.0
G1 X8.78 Y-3.05 Z2.06 F1800.0
G1 X6.57 Y-1.31 Z2.06 F1800.0
G1 X6.3 Y-2.18 Z2.06 F1800.0
G1 X6.58 Y-2.75 Z2.06 F1800.0
G1 X8.34 Y-3.49 Z2.06 F1800.0
G1 X8.78 Y-3.93 Z2.06 F1800.0
G1 X8.78 Y-4.36 Z2.06 F1800.0
G1 X5.58 Y-5.34 Z2.06 F1800.0
G1 X5.33 Y-5.34 Z2.06 F1800.0
G1 X4.65 Y-4.8 Z2.06 F1800.0
G1 X5.43 Y-3.93 Z2.06 F1800.0
G1 X5.46 Y-3.88 Z2.06 F1800.0
M108 R30.0
M102
G1 X5.69 Y-3.49 Z2.06 F1800.0
M108 R3.569
M103
G1 X8.25 Y-6.38 Z2.06 F3000.0
M108 R30.0
M101
G1 X8.78 Y-6.98 Z2.06 F3000.0
M108 R3.569
G1 X8.78 Y-4.8 Z2.06 F1800.0
G1 X5.58 Y-5.57 Z2.06 F1800.0
G1 X5.33 Y-5.57 Z2.06 F1800.0
G1 X4.14 Y-5.24 Z2.06 F1800.0
G1 X3.54 Y-5.67 Z2.06 F1800.0
G1 X3.4 Y-7.52 Z2.06 F1800.0
G1 X3.15 Y-7.52 Z2.06 F1800.0
G1 X2.81 Y-6.53 Z2.06 F1800.0
G1 X1.74 Y-6.54 Z2.06 F1800.0
M108 R30.0
M102
G1 X1.29 Y-6.55 Z2.06 F1800.0
M108 R3.569
M103
G1 X-0.49 Y-6.55 Z2.06 F3000.0
M108 R30.0
M101
G1 X-1.29 Y-6.55 Z2.06 F3000.0
M108 R3.569
G1 X-2.81 Y-6.53 Z2.06 F1800.0
G1 X-3.54 Y-5.67 Z2.06 F1800.0
G1 X-4.14 Y-5.24 Z2.06 F1800.0
G1 X-5.33 Y-7.52 Z2.06 F1800.0
G1 X-5.58 Y-7.52 Z2.06 F1800.0
G1 X-7.51 Y-5.57 Z2.06 F1800.0
G1 X-7.76 Y-5.57 Z2.06 F1800.0
G1 X-8.78 Y-6.98 Z2.06 F1800.0
G1 X-8.78 Y-3.05 Z2.06 F1800.0
G1 X-8.34 Y-3.05 Z2.06 F1800.0
G1 X-7.76 Y-5.34 Z2.06 F1800.0
G1 X-7.51 Y-5.34 Z2.06 F1800.0
G1 X-6.32 Y-3.27 Z2.06 F1800.0
G1 X-5.69 Y-3.49 Z2.06 F1800.0
G1 X-5.44 Y-3.93 Z2.06 F1800.0
G1 X-4.95 Y-4.47 Z2.06 F1800.0
M108 R30.0
M102
G1 X-4.65 Y-4.8 Z2.06 F1800.0
M108 R3.569
M103
G1 X-5.88 Y-2.86 Z2.06 F3000.0
M108 R30.0
M101
G1 X-6.3 Y-2.18 Z2.06 F3000.0
M108 R3.569
G1 X-6.57 Y-1.31 Z2.06 F1800.0
G1 X-6.62 Y-0.87 Z2.06 F1800.0
G1 X-8.78 Y-2.62 Z2.06 F1800.0
G1 X-8.78 Y0.44 Z2.06 F1800.0
G1 X-7.09 Y-0.48 Z2.06 F1800.0
G1 X-6.71 Y0.0 Z2.06 F1800.0
G1 X-7.09 Y0.48 Z2.06 F1800.0
G1 X-8.78 Y0.87 Z2.06 F1800.0
G1 X-8.78 Y3.05 Z2.06 F1800.0
G1 X-6.99 Y1.44 Z2.06 F1800.0
G1 X-6.45 Y1.75 Z2.06 F1800.0
G1 X-6.3 Y2.18 Z2.06 F1800.0
G1 X-6.58 Y2.75 Z2.06 F1800.0
G1 X-7.51 Y3.27 Z2.06 F1800.0
G1 X-7.76 Y3.27 Z2.06 F1800.0
G1 X-8.78 Y3.49 Z2.06 F1800.0
G1 X-8.78 Y6.11 Z2.06 F1800.0
G1 X-5.58 Y5.45 Z2.06 F1800.0
G1 X-4.42 Y5.57 Z2.06 F1800.0
G1 X-4.65 Y4.8 Z2.06 F1800.0
G1 X-5.44 Y3.93 Z2.06 F1800.0
G1 X-5.46 Y3.88 Z2.06 F1800.0
M108 R30.0
M102
G1 X-5.69 Y3.49 Z2.06 F1800.0
M108 R3.569
M103
G1 X-3.07 Y5.31 Z2.06 F3000.0
G1 X-1.9 Y5.83 Z2.06 F3000.0
G1 X8.01 Y8.52 Z2.06 F3000.0
M108 R30.0
M101
G1 X8.78 Y8.73 Z2.06 F3000.0
M108 R3.569
G1 X8.78 Y8.29 Z2.06 F1800.0
G1 X5.58 Y7.75 Z2.06 F1800.0
G1 X-3.4 Y7.64 Z2.06 F1800.0
G1 X-7.76 Y7.75 Z2.06 F1800.0
G1 X-8.78 Y8.73 Z2.06 F1800.0
G1 X-8.78 Y6.55 Z2.06 F1800.0
G1 X-7.76 Y7.52 Z2.06 F1800.0
G1 X-7.51 Y7.52 Z2.06 F1800.0
G1 X-2.81 Y6.53 Z2.06 F1800.0
G1 X-1.74 Y6.54 Z2.06 F1800.0
M108 R30.0
M102
G1 X-1.29 Y6.55 Z2.06 F1800.0
M108 R3.569
M103
G1 X0.49 Y6.55 Z2.06 F3000.0
M108 R30.0
M101
G1 X1.29 Y6.55 Z2.06 F3000.0
M108 R3.569
G1 X2.81 Y6.53 Z2.06 F1800.0
G1 X5.33 Y7.52 Z2.06 F1800.0
G1 X8.78 Y7.85 Z2.06 F1800.0
G1 X8.78 Y3.93 Z2.06 F1800.0
G1 X5.94 Y3.05 Z2.06 F1800.0
G1 X6.04 Y3.75 Z2.06 F1800.0
G1 X5.43 Y3.93 Z2.06 F1800.0
G1 X4.95 Y4.47 Z2.06 F1800.0
M108 R30.0
M102
G1 X4.65 Y4.8 Z2.06 F1800.0
M108 R3.569
M103
G1 X1.9 Y5.83 Z2.06 F3000.0
G1 X0.64 Y6.1 Z2.06 F3000.0
G1 X-0.64 Y6.1 Z2.06 F3000.0
G1 X-1.9 Y5.83 Z2.06 F3000.0
G1 X-3.07 Y5.31 Z2.06 F3000.0
G1 X-4.1 Y4.56 Z2.06 F3000.0
G1 X-4.96 Y3.6 Z2.06 F3000.0
G1 X-5.6 Y2.49 Z2.06 F3000.0
G1 X-8.56 Y-7.96 Z2.06 F3000.0
M108 R30.0
M101
G1 X-8.78 Y-8.73 Z2.06 F3000.0
M108 R3.569
G1 X-8.78 Y-7.42 Z2.06 F1800.0
G1 X-5.58 Y-7.75 Z2.06 F1800.0
G1 X-1.22 Y-7.64 Z2.06 F1800.0
G1 X3.4 Y-7.75 Z2.06 F1800.0
G1 X8.78 Y-7.42 Z2.06 F1800.0
G1 X8.78 Y-8.28 Z2.06 F1800.0
M108 R30.0
M102
G1 X8.78 Y-8.73 Z2.06 F1800.0
M108 R3.569
M103
(</surroundingLoop>)
(</layer>)
(<layer> 2.38 )
(<surroundingLoop>)
(<boundaryPerimeter>)
(<boundaryPoint> X9.625 Y9.625 Z2.38 </boundaryPoint>)
(<boundaryPoint> X-9.625 Y9.625 Z2.38 </boundaryPoint>)
(<boundaryPoint> X-9.625 Y-9.625 Z2.38 </boundaryPoint>)
(<boundaryPoint> X9.625 Y-9.625 Z2.38 </boundaryPoint>)
(<loop> inner )
G1 X4.99 Y-5.23 Z2.34 F3000.0
M108 R30.0
M101
G1 X4.41 Y-4.69 Z2.38 F3000.0
M108 R3.569
G1 X4.32 Y-4.79 Z2.38 F1800.0
G1 X3.23 Y-5.59 Z2.38 F1800.0
G1 X1.99 Y-6.13 Z2.38 F1800.0
G1 X0.67 Y-6.41 Z2.38 F1800.0
G1 X-0.67 Y-6.41 Z2.38 F1800.0
G1 X-1.99 Y-6.13 Z2.38 F1800.0
G1 X-3.23 Y-5.59 Z2.38 F1800.0
G1 X-4.32 Y-4.79 Z2.38 F1800.0
G1 X-5.22 Y-3.79 Z2.38 F1800.0
G1 X-5.89 Y-2.62 Z2.38 F1800.0
G1 X-6.31 Y-1.34 Z2.38 F1800.0
G1 X-6.45 Y-0.0 Z2.38 F1800.0
G1 X-6.31 Y1.34 Z2.38 F1800.0
G1 X-5.89 Y2.62 Z2.38 F1800.0
G1 X-5.22 Y3.79 Z2.38 F1800.0
G1 X-4.32 Y4.79 Z2.38 F1800.0
G1 X-3.23 Y5.59 Z2.38 F1800.0
G1 X-1.99 Y6.14 Z2.38 F1800.0
G1 X-0.67 Y6.41 Z2.38 F1800.0
G1 X0.67 Y6.41 Z2.38 F1800.0
G1 X1.99 Y6.14 Z2.38 F1800.0
G1 X3.23 Y5.59 Z2.38 F1800.0
G1 X4.32 Y4.79 Z2.38 F1800.0
G1 X5.22 Y3.79 Z2.38 F1800.0
G1 X5.89 Y2.62 Z2.38 F1800.0
G1 X6.31 Y1.34 Z2.38 F1800.0
G1 X6.45 Y0.0 Z2.38 F1800.0
G1 X6.31 Y-1.34 Z2.38 F1800.0
G1 X5.89 Y-2.62 Z2.38 F1800.0
G1 X5.22 Y-3.79 Z2.38 F1800.0
G1 X4.71 Y-4.36 Z2.38 F1800.0
M108 R30.0
M102
G1 X4.41 Y-4.69 Z2.38 F1800.0
M108 R3.569
M103
(</loop>)
(<loop> outer )
G1 X4.33 Y-8.24 Z2.38 F3000.0
M108 R30.0
M101
G1 X4.32 Y-9.04 Z2.38 F3000.0
M108 R3.569
G1 X9.04 Y-9.04 Z2.38 F1800.0
G1 X9.04 Y9.04 Z2.38 F1800.0
G1 X-9.04 Y9.04 Z2.38 F1800.0
G1 X-9.04 Y-9.04 Z2.38 F1800.0
G1 X4.32 Y-9.04 Z2.38 F1800.0
M103
(</loop>)
(<perimeter> outer )
G1 X4.32 Y-9.43 Z2.38 F3000.0
M101
G1 X9.43 Y-9.43 Z2.38 F1800.0
G1 X9.43 Y9.43 Z2.38 F1800.0
G1 X-9.43 Y9.43 Z2.38 F1800.0
G1 X-9.43 Y-9.43 Z2.38 F1800.0
G1 X3.87 Y-9.43 Z2.38 F1800.0
M108 R30.0
M102
G1 X4.32 Y-9.43 Z2.38 F1800.0
M108 R3.569
M103
(</perimeter>)
(</boundaryPerimeter>)
(<surroundingLoop>)
(<boundaryPerimeter>)
(<boundaryPoint> X-5.351 Y2.382 Z2.38 </boundaryPoint>)
(<boundaryPoint> X-4.739 Y3.443 Z2.38 </boundaryPoint>)
(<boundaryPoint> X-3.919 Y4.353 Z2.38 </boundaryPoint>)
(<boundaryPoint> X-2.929 Y5.072 Z2.38 </boundaryPoint>)
(<boundaryPoint> X-1.81 Y5.571 Z2.38 </boundaryPoint>)
(<boundaryPoint> X-0.612 Y5.825 Z2.38 </boundaryPoint>)
(<boundaryPoint> X0.612 Y5.825 Z2.38 </boundaryPoint>)
(<boundaryPoint> X1.81 Y5.571 Z2.38 </boundaryPoint>)
(<boundaryPoint> X2.929 Y5.072 Z2.38 </boundaryPoint>)
(<boundaryPoint> X3.919 Y4.353 Z2.38 </boundaryPoint>)
(<boundaryPoint> X4.738 Y3.443 Z2.38 </boundaryPoint>)
(<boundaryPoint> X5.351 Y2.382 Z2.38 </boundaryPoint>)
(<boundaryPoint> X5.729 Y1.218 Z2.38 </boundaryPoint>)
(<boundaryPoint> X5.857 Y0.0 Z2.38 </boundaryPoint>)
(<boundaryPoint> X5.729 Y-1.218 Z2.38 </boundaryPoint>)
(<boundaryPoint> X5.351 Y-2.382 Z2.38 </boundaryPoint>)
(<boundaryPoint> X4.738 Y-3.443 Z2.38 </boundaryPoint>)
(<boundaryPoint> X3.919 Y-4.353 Z2.38 </boundaryPoint>)
(<boundaryPoint> X2.929 Y-5.072 Z2.38 </boundaryPoint>)
(<boundaryPoint> X1.81 Y-5.57 Z2.38 </boundaryPoint>)
(<boundaryPoint> X0.612 Y-5.825 Z2.38 </boundaryPoint>)
(<boundaryPoint> X-0.612 Y-5.825 Z2.38 </boundaryPoint>)
(<boundaryPoint> X-1.81 Y-5.57 Z2.38 </boundaryPoint>)
(<boundaryPoint> X-2.929 Y-5.072 Z2.38 </boundaryPoint>)
(<boundaryPoint> X-3.919 Y-4.353 Z2.38 </boundaryPoint>)
(<boundaryPoint> X-4.739 Y-3.443 Z2.38 </boundaryPoint>)
(<boundaryPoint> X-5.351 Y-2.382 Z2.38 </boundaryPoint>)
(<boundaryPoint> X-5.729 Y-1.218 Z2.38 </boundaryPoint>)
(<boundaryPoint> X-5.857 Y-0.0 Z2.38 </boundaryPoint>)
(<boundaryPoint> X-5.729 Y1.218 Z2.38 </boundaryPoint>)
(<perimeter> inner )
G1 X2.87 Y-6.19 Z2.38 F3000.0
M108 R30.0
M101
G1 X2.55 Y-5.46 Z2.38 F3000.0
M108 R3.569
G1 X1.87 Y-5.76 Z2.38 F1800.0
G1 X0.63 Y-6.02 Z2.38 F1800.0
G1 X-0.63 Y-6.02 Z2.38 F1800.0
G1 X-1.87 Y-5.76 Z2.38 F1800.0
G1 X-3.03 Y-5.24 Z2.38 F1800.0
G1 X-4.05 Y-4.5 Z2.38 F1800.0
G1 X-4.9 Y-3.56 Z2.38 F1800.0
G1 X-5.53 Y-2.46 Z2.38 F1800.0
G1 X-5.92 Y-1.26 Z2.38 F1800.0
G1 X-6.06 Y-0.0 Z2.38 F1800.0
G1 X-5.92 Y1.26 Z2.38 F1800.0
G1 X-5.53 Y2.46 Z2.38 F1800.0
G1 X-4.9 Y3.56 Z2.38 F1800.0
G1 X-4.05 Y4.5 Z2.38 F1800.0
G1 X-3.03 Y5.24 Z2.38 F1800.0
G1 X-1.87 Y5.76 Z2.38 F1800.0
G1 X-0.63 Y6.02 Z2.38 F1800.0
G1 X0.63 Y6.02 Z2.38 F1800.0
G1 X1.87 Y5.76 Z2.38 F1800.0
G1 X3.03 Y5.24 Z2.38 F1800.0
G1 X4.05 Y4.5 Z2.38 F1800.0
G1 X4.9 Y3.56 Z2.38 F1800.0
G1 X5.53 Y2.46 Z2.38 F1800.0
G1 X5.92 Y1.26 Z2.38 F1800.0
G1 X6.06 Y0.0 Z2.38 F1800.0
G1 X5.92 Y-1.26 Z2.38 F1800.0
G1 X5.53 Y-2.46 Z2.38 F1800.0
G1 X4.9 Y-3.56 Z2.38 F1800.0
G1 X4.05 Y-4.5 Z2.38 F1800.0
G1 X3.03 Y-5.24 Z2.38 F1800.0
G1 X2.96 Y-5.27 Z2.38 F1800.0
M108 R30.0
M102
G1 X2.55 Y-5.46 Z2.38 F1800.0
M108 R3.569
M103
(</perimeter>)
(</boundaryPerimeter>)
(</surroundingLoop>)
G1 X3.1 Y-5.29 Z2.38 F3000.0
G1 X4.1 Y-4.56 Z2.38 F3000.0
G1 X6.05 Y-2.07 Z2.38 F3000.0
M108 R30.0
M101
G1 X6.55 Y-1.44 Z2.38 F3000.0
M108 R3.569
G1 X6.55 Y-2.76 Z2.38 F1800.0
G1 X6.11 Y-3.54 Z2.38 F1800.0
G1 X5.24 Y-4.15 Z2.38 F1800.0
G1 X5.57 Y-5.33 Z2.38 F1800.0
G1 X5.57 Y-5.58 Z2.38 F1800.0
G1 X7.85 Y-8.78 Z2.38 F1800.0
G1 X3.93 Y-8.78 Z2.38 F1800.0
G1 X3.39 Y-7.76 Z2.38 F1800.0
G1 X3.39 Y-7.51 Z2.38 F1800.0
G1 X3.05 Y-5.94 Z2.38 F1800.0
G1 X3.49 Y-5.71 Z2.38 F1800.0
G1 X3.93 Y-5.39 Z2.38 F1800.0
G1 X5.34 Y-5.58 Z2.38 F1800.0
G1 X5.34 Y-5.33 Z2.38 F1800.0
G1 X4.8 Y-4.64 Z2.38 F1800.0
G1 X4.68 Y-4.76 Z2.38 F1800.0
M108 R30.0
M102
G1 X4.36 Y-5.07 Z2.38 F1800.0
M108 R3.569
M103
G1 X1.6 Y-6.31 Z2.38 F3000.0
M108 R30.0
M101
G1 X0.87 Y-6.63 Z2.38 F3000.0
M108 R3.569
G1 X2.18 Y-6.33 Z2.38 F1800.0
G1 X2.8 Y-6.53 Z2.38 F1800.0
G1 X3.16 Y-7.51 Z2.38 F1800.0
G1 X3.16 Y-7.76 Z2.38 F1800.0
G1 X3.49 Y-8.78 Z2.38 F1800.0
G1 X-0.44 Y-8.78 Z2.38 F1800.0
G1 X0.44 Y-7.11 Z2.38 F1800.0
G1 X-0.0 Y-6.67 Z2.38 F1800.0
G1 X-0.44 Y-7.11 Z2.38 F1800.0
G1 X-0.89 Y-7.07 Z2.38 F1800.0
G1 X-1.09 Y-7.51 Z2.38 F1800.0
G1 X-1.09 Y-7.76 Z2.38 F1800.0
G1 X-0.87 Y-8.78 Z2.38 F1800.0
G1 X-2.62 Y-8.78 Z2.38 F1800.0
G1 X-1.31 Y-6.54 Z2.38 F1800.0
G1 X-2.18 Y-6.33 Z2.38 F1800.0
G1 X-2.8 Y-6.53 Z2.38 F1800.0
G1 X-3.05 Y-8.78 Z2.38 F1800.0
G1 X-4.36 Y-8.78 Z2.38 F1800.0
G1 X-5.34 Y-7.76 Z2.38 F1800.0
G1 X-5.34 Y-7.51 Z2.38 F1800.0
G1 X-3.05 Y-5.94 Z2.38 F1800.0
G1 X-3.49 Y-5.71 Z2.38 F1800.0
G1 X-4.36 Y-5.07 Z2.38 F1800.0
G1 X-4.48 Y-4.96 Z2.38 F1800.0
M108 R30.0
M102
G1 X-4.8 Y-4.64 Z2.38 F1800.0
M108 R3.569
M103
G1 X-6.16 Y-2.14 Z2.38 F3000.0
M108 R30.0
M101
G1 X-6.55 Y-1.44 Z2.38 F3000.0
M108 R3.569
G1 X-6.52 Y-2.9 Z2.38 F1800.0
G1 X-5.67 Y-3.52 Z2.38 F1800.0
G1 X-5.6 Y-4.4 Z2.38 F1800.0
G1 X-7.52 Y-5.33 Z2.38 F1800.0
G1 X-7.52 Y-5.58 Z2.38 F1800.0
G1 X-5.57 Y-7.51 Z2.38 F1800.0
G1 X-5.57 Y-7.76 Z2.38 F1800.0
G1 X-4.8 Y-8.78 Z2.38 F1800.0
G1 X-8.73 Y-8.78 Z2.38 F1800.0
G1 X-7.75 Y-5.58 Z2.38 F1800.0
G1 X-7.75 Y7.76 Z2.38 F1800.0
G1 X-8.73 Y8.78 Z2.38 F1800.0
G1 X-4.8 Y8.78 Z2.38 F1800.0
G1 X-5.24 Y8.34 Z2.38 F1800.0
G1 X-7.52 Y7.76 Z2.38 F1800.0
G1 X-7.52 Y7.51 Z2.38 F1800.0
G1 X-5.57 Y5.58 Z2.38 F1800.0
G1 X-5.67 Y3.52 Z2.38 F1800.0
G1 X-7.52 Y3.4 Z2.38 F1800.0
G1 X-7.52 Y3.15 Z2.38 F1800.0
G1 X-6.52 Y2.9 Z2.38 F1800.0
G1 X-6.54 Y1.89 Z2.38 F1800.0
M108 R30.0
M102
G1 X-6.55 Y1.44 Z2.38 F1800.0
M108 R3.569
M103
G1 X-3.54 Y5.31 Z2.38 F3000.0
M108 R30.0
M101
G1 X-3.05 Y5.94 Z2.38 F3000.0
M108 R3.569
G1 X-3.49 Y5.71 Z2.38 F1800.0
G1 X-4.36 Y5.07 Z2.38 F1800.0
G1 X-4.8 Y4.64 Z2.38 F1800.0
G1 X-5.34 Y5.33 Z2.38 F1800.0
G1 X-5.34 Y5.58 Z2.38 F1800.0
G1 X-3.39 Y7.51 Z2.38 F1800.0
G1 X-3.39 Y7.76 Z2.38 F1800.0
G1 X-4.36 Y8.78 Z2.38 F1800.0
G1 X-1.75 Y8.78 Z2.38 F1800.0
G1 X-3.16 Y7.76 Z2.38 F1800.0
G1 X-3.16 Y7.51 Z2.38 F1800.0
G1 X-2.8 Y6.53 Z2.38 F1800.0
G1 X-2.18 Y6.33 Z2.38 F1800.0
G1 X-1.31 Y6.54 Z2.38 F1800.0
G1 X-1.86 Y6.87 Z2.38 F1800.0
G1 X-1.31 Y8.78 Z2.38 F1800.0
G1 X0.87 Y8.78 Z2.38 F1800.0
G1 X-0.44 Y7.11 Z2.38 F1800.0
G1 X0.0 Y6.67 Z2.38 F1800.0
G1 X0.44 Y7.11 Z2.38 F1800.0
G1 X0.87 Y6.63 Z2.38 F1800.0
G1 X1.4 Y6.97 Z2.38 F1800.0
G1 X1.09 Y7.51 Z2.38 F1800.0
G1 X1.09 Y7.76 Z2.38 F1800.0
G1 X1.31 Y8.78 Z2.38 F1800.0
G1 X3.05 Y8.78 Z2.38 F1800.0
G1 X1.75 Y6.45 Z2.38 F1800.0
G1 X2.18 Y6.33 Z2.38 F1800.0
G1 X2.8 Y6.53 Z2.38 F1800.0
G1 X3.49 Y8.78 Z2.38 F1800.0
G1 X6.11 Y8.78 Z2.38 F1800.0
G1 X5.34 Y7.76 Z2.38 F1800.0
G1 X5.34 Y7.51 Z2.38 F1800.0
G1 X3.05 Y5.94 Z2.38 F1800.0
G1 X3.49 Y5.71 Z2.38 F1800.0
G1 X4.36 Y5.07 Z2.38 F1800.0
G1 X4.93 Y4.48 Z2.38 F1800.0
M108 R30.0
M102
G1 X5.24 Y4.15 Z2.38 F1800.0
M108 R3.569
M103
G1 X8.11 Y-8.0 Z2.38 F3000.0
M108 R30.0
M101
G1 X8.29 Y-8.78 Z2.38 F3000.0
M108 R3.569
G1 X8.73 Y-8.78 Z2.38 F1800.0
G1 X8.73 Y8.78 Z2.38 F1800.0
G1 X6.55 Y8.78 Z2.38 F1800.0
G1 X5.57 Y7.76 Z2.38 F1800.0
G1 X5.57 Y7.51 Z2.38 F1800.0
G1 X6.52 Y2.9 Z2.38 F1800.0
G1 X6.54 Y1.89 Z2.38 F1800.0
M108 R30.0
M102
G1 X6.55 Y1.44 Z2.38 F1800.0
M108 R3.569
M103
(</surroundingLoop>)
(</layer>)
(<layer> 2.7 )
(<surroundingLoop>)
(<boundaryPerimeter>)
(<boundaryPoint> X9.625 Y9.625 Z2.7 </boundaryPoint>)
(<boundaryPoint> X-9.625 Y9.625 Z2.7 </boundaryPoint>)
(<boundaryPoint> X-9.625 Y-9.625 Z2.7 </boundaryPoint>)
(<boundaryPoint> X9.625 Y-9.625 Z2.7 </boundaryPoint>)
(<loop> outer )
G1 X8.25 Y1.68 Z2.6 F3000.0
M108 R30.0
M101
G1 X9.04 Y1.79 Z2.7 F3000.0
M108 R3.569
G1 X9.04 Y9.04 Z2.7 F1800.0
G1 X-9.04 Y9.04 Z2.7 F1800.0
G1 X-9.04 Y-9.04 Z2.7 F1800.0
G1 X9.04 Y-9.04 Z2.7 F1800.0
G1 X9.04 Y1.44 Z2.7 F1800.0
G1 X9.04 Y1.79 Z2.7 F1800.0
M103
(</loop>)
(<perimeter> outer )
G1 X9.43 Y1.79 Z2.7 F3000.0
M101
G1 X9.43 Y9.43 Z2.7 F1800.0
G1 X-9.43 Y9.43 Z2.7 F1800.0
G1 X-9.43 Y-9.43 Z2.7 F1800.0
G1 X9.43 Y-9.43 Z2.7 F1800.0
G1 X9.43 Y1.34 Z2.7 F1800.0
M108 R30.0
M102
G1 X9.43 Y1.44 Z2.7 F1800.0
G1 X9.43 Y1.79 Z2.7 F1800.0
M108 R3.569
M103
(</perimeter>)
(</boundaryPerimeter>)
G1 X8.86 Y7.84 Z2.7 F3000.0
M108 R30.0
M101
G1 X8.78 Y8.64 Z2.7 F3000.0
M108 R3.569
G1 X-8.78 Y8.64 Z2.7 F1800.0
G1 X-8.78 Y8.25 Z2.7 F1800.0
G1 X8.78 Y8.25 Z2.7 F1800.0
G1 X8.78 Y7.85 Z2.7 F1800.0
G1 X-8.78 Y7.85 Z2.7 F1800.0
G1 X-8.78 Y7.46 Z2.7 F1800.0
G1 X8.78 Y7.46 Z2.7 F1800.0
G1 X8.78 Y7.07 Z2.7 F1800.0
G1 X-8.78 Y7.07 Z2.7 F1800.0
G1 X-8.78 Y6.68 Z2.7 F1800.0
G1 X8.78 Y6.68 Z2.7 F1800.0
G1 X8.78 Y6.28 Z2.7 F1800.0
G1 X-8.78 Y6.28 Z2.7 F1800.0
G1 X-8.78 Y5.89 Z2.7 F1800.0
G1 X8.78 Y5.89 Z2.7 F1800.0
G1 X8.78 Y5.5 Z2.7 F1800.0
G1 X-8.78 Y5.5 Z2.7 F1800.0
G1 X-8.78 Y5.11 Z2.7 F1800.0
G1 X8.78 Y5.11 Z2.7 F1800.0
G1 X8.78 Y4.71 Z2.7 F1800.0
G1 X-8.78 Y4.71 Z2.7 F1800.0
G1 X-8.78 Y4.32 Z2.7 F1800.0
G1 X8.78 Y4.32 Z2.7 F1800.0
G1 X8.78 Y3.93 Z2.7 F1800.0
G1 X-8.78 Y3.93 Z2.7 F1800.0
G1 X-8.78 Y3.53 Z2.7 F1800.0
G1 X8.78 Y3.53 Z2.7 F1800.0
G1 X8.78 Y3.14 Z2.7 F1800.0
G1 X-8.78 Y3.14 Z2.7 F1800.0
G1 X-8.78 Y2.75 Z2.7 F1800.0
G1 X8.78 Y2.75 Z2.7 F1800.0
G1 X8.78 Y2.36 Z2.7 F1800.0
G1 X-8.78 Y2.36 Z2.7 F1800.0
G1 X-8.78 Y1.96 Z2.7 F1800.0
G1 X8.78 Y1.96 Z2.7 F1800.0
G1 X8.78 Y1.57 Z2.7 F1800.0
G1 X-8.78 Y1.57 Z2.7 F1800.0
G1 X-8.78 Y1.18 Z2.7 F1800.0
G1 X8.78 Y1.18 Z2.7 F1800.0
G1 X8.78 Y0.79 Z2.7 F1800.0
G1 X-8.78 Y0.79 Z2.7 F1800.0
G1 X-8.78 Y0.39 Z2.7 F1800.0
G1 X8.78 Y0.39 Z2.7 F1800.0
G1 X8.78 Y-0.0 Z2.7 F1800.0
G1 X-8.78 Y0.0 Z2.7 F1800.0
G1 X-8.78 Y-0.39 Z2.7 F1800.0
G1 X8.78 Y-0.39 Z2.7 F1800.0
G1 X8.78 Y-0.79 Z2.7 F1800.0
G1 X-8.78 Y-0.79 Z2.7 F1800.0
G1 X-8.78 Y-1.18 Z2.7 F1800.0
G1 X8.78 Y-1.18 Z2.7 F1800.0
G1 X8.78 Y-1.57 Z2.7 F1800.0
G1 X-8.78 Y-1.57 Z2.7 F1800.0
G1 X-8.78 Y-1.96 Z2.7 F1800.0
G1 X8.78 Y-1.96 Z2.7 F1800.0
G1 X8.78 Y-2.36 Z2.7 F1800.0
G1 X-8.78 Y-2.36 Z2.7 F1800.0
G1 X-8.78 Y-2.75 Z2.7 F1800.0
G1 X8.78 Y-2.75 Z2.7 F1800.0
G1 X8.78 Y-3.14 Z2.7 F1800.0
G1 X-8.78 Y-3.14 Z2.7 F1800.0
G1 X-8.78 Y-3.53 Z2.7 F1800.0
G1 X8.78 Y-3.53 Z2.7 F1800.0
G1 X8.78 Y-3.93 Z2.7 F1800.0
G1 X-8.78 Y-3.93 Z2.7 F1800.0
G1 X-8.78 Y-4.32 Z2.7 F1800.0
G1 X8.78 Y-4.32 Z2.7 F1800.0
G1 X8.78 Y-4.71 Z2.7 F1800.0
G1 X-8.78 Y-4.71 Z2.7 F1800.0
G1 X-8.78 Y-5.11 Z2.7 F1800.0
G1 X8.78 Y-5.11 Z2.7 F1800.0
G1 X8.78 Y-5.5 Z2.7 F1800.0
G1 X-8.78 Y-5.5 Z2.7 F1800.0
G1 X-8.78 Y-5.89 Z2.7 F1800.0
G1 X8.78 Y-5.89 Z2.7 F1800.0
G1 X8.78 Y-6.28 Z2.7 F1800.0
G1 X-8.78 Y-6.28 Z2.7 F1800.0
G1 X-8.78 Y-6.68 Z2.7 F1800.0
G1 X8.78 Y-6.68 Z2.7 F1800.0
G1 X8.78 Y-7.07 Z2.7 F1800.0
G1 X-8.78 Y-7.07 Z2.7 F1800.0
G1 X-8.78 Y-7.46 Z2.7 F1800.0
G1 X8.78 Y-7.46 Z2.7 F1800.0
G1 X8.78 Y-7.85 Z2.7 F1800.0
G1 X-8.78 Y-7.85 Z2.7 F1800.0
G1 X-8.78 Y-8.25 Z2.7 F1800.0
G1 X8.78 Y-8.25 Z2.7 F1800.0
G1 X8.78 Y-8.64 Z2.7 F1800.0
G1 X-8.78 Y-8.64 Z2.7 F1800.0
M103
(</surroundingLoop>)
(</layer>)
(<layer> 3.02 )
(<surroundingLoop>)
(<boundaryPerimeter>)
(<boundaryPoint> X9.625 Y9.625 Z3.02 </boundaryPoint>)
(<boundaryPoint> X-9.625 Y9.625 Z3.02 </boundaryPoint>)
(<boundaryPoint> X-9.625 Y-9.625 Z3.02 </boundaryPoint>)
(<boundaryPoint> X9.625 Y-9.625 Z3.02 </boundaryPoint>)
(<loop> outer )
G1 X-9.04 Y-8.69 Z3.02 F3000.0
M101
G1 X-9.04 Y-9.04 Z3.02 F1800.0
G1 X9.04 Y-9.04 Z3.02 F1800.0
G1 X9.04 Y9.04 Z3.02 F1800.0
G1 X-9.04 Y9.04 Z3.02 F1800.0
G1 X-9.04 Y-8.64 Z3.02 F1800.0
G1 X-9.04 Y-8.69 Z3.02 F1800.0
M103
(</loop>)
(<perimeter> outer )
G1 X-9.43 Y-8.64 Z3.02 F3000.0
M101
G1 X-9.43 Y-9.43 Z3.02 F1800.0
G1 X9.43 Y-9.43 Z3.02 F1800.0
G1 X9.43 Y9.43 Z3.02 F1800.0
G1 X-9.43 Y9.43 Z3.02 F1800.0
G1 X-9.43 Y-8.19 Z3.02 F1800.0
M108 R30.0
M102
G1 X-9.43 Y-8.64 Z3.02 F1800.0
M108 R3.569
M103
(</perimeter>)
(</boundaryPerimeter>)
G1 X7.84 Y-8.77 Z3.02 F3000.0
M108 R30.0
M101
G1 X8.64 Y-8.78 Z3.02 F3000.0
M108 R3.569
G1 X8.64 Y8.78 Z3.02 F1800.0
G1 X8.25 Y8.78 Z3.02 F1800.0
G1 X8.25 Y-8.78 Z3.02 F1800.0
G1 X7.85 Y-8.78 Z3.02 F1800.0
G1 X7.85 Y8.78 Z3.02 F1800.0
G1 X7.46 Y8.78 Z3.02 F1800.0
G1 X7.46 Y-8.78 Z3.02 F1800.0
G1 X7.07 Y-8.78 Z3.02 F1800.0
G1 X7.07 Y8.78 Z3.02 F1800.0
G1 X6.68 Y8.78 Z3.02 F1800.0
G1 X6.68 Y-8.78 Z3.02 F1800.0
G1 X6.28 Y-8.78 Z3.02 F1800.0
G1 X6.28 Y8.78 Z3.02 F1800.0
G1 X5.89 Y8.78 Z3.02 F1800.0
G1 X5.89 Y-8.78 Z3.02 F1800.0
G1 X5.5 Y-8.78 Z3.02 F1800.0
G1 X5.5 Y8.78 Z3.02 F1800.0
G1 X5.11 Y8.78 Z3.02 F1800.0
G1 X5.11 Y-8.78 Z3.02 F1800.0
G1 X4.71 Y-8.78 Z3.02 F1800.0
G1 X4.71 Y8.78 Z3.02 F1800.0
G1 X4.32 Y8.78 Z3.02 F1800.0
G1 X4.32 Y-8.78 Z3.02 F1800.0
G1 X3.93 Y-8.78 Z3.02 F1800.0
G1 X3.93 Y8.78 Z3.02 F1800.0
G1 X3.53 Y8.78 Z3.02 F1800.0
G1 X3.53 Y-8.78 Z3.02 F1800.0
G1 X3.14 Y-8.78 Z3.02 F1800.0
G1 X3.14 Y8.78 Z3.02 F1800.0
G1 X2.75 Y8.78 Z3.02 F1800.0
G1 X2.75 Y-8.78 Z3.02 F1800.0
G1 X2.36 Y-8.78 Z3.02 F1800.0
G1 X2.36 Y8.78 Z3.02 F1800.0
G1 X1.96 Y8.78 Z3.02 F1800.0
G1 X1.96 Y-8.78 Z3.02 F1800.0
G1 X1.57 Y-8.78 Z3.02 F1800.0
G1 X1.57 Y8.78 Z3.02 F1800.0
G1 X1.18 Y8.78 Z3.02 F1800.0
G1 X1.18 Y-8.78 Z3.02 F1800.0
G1 X0.79 Y-8.78 Z3.02 F1800.0
G1 X0.79 Y8.78 Z3.02 F1800.0
G1 X0.39 Y8.78 Z3.02 F1800.0
G1 X0.39 Y-8.78 Z3.02 F1800.0
G1 X-0.0 Y-8.78 Z3.02 F1800.0
G1 X0.0 Y8.78 Z3.02 F1800.0
G1 X-0.39 Y8.78 Z3.02 F1800.0
G1 X-0.39 Y-8.78 Z3.02 F1800.0
G1 X-0.79 Y-8.78 Z3.02 F1800.0
G1 X-0.79 Y8.78 Z3.02 F1800.0
G1 X-1.18 Y8.78 Z3.02 F1800.0
G1 X-1.18 Y-8.78 Z3.02 F1800.0
G1 X-1.57 Y-8.78 Z3.02 F1800.0
G1 X-1.57 Y8.78 Z3.02 F1800.0
G1 X-1.96 Y8.78 Z3.02 F1800.0
G1 X-1.96 Y-8.78 Z3.02 F1800.0
G1 X-2.36 Y-8.78 Z3.02 F1800.0
G1 X-2.36 Y8.78 Z3.02 F1800.0
G1 X-2.75 Y8.78 Z3.02 F1800.0
G1 X-2.75 Y-8.78 Z3.02 F1800.0
G1 X-3.14 Y-8.78 Z3.02 F1800.0
G1 X-3.14 Y8.78 Z3.02 F1800.0
G1 X-3.53 Y8.78 Z3.02 F1800.0
G1 X-3.53 Y-8.78 Z3.02 F1800.0
G1 X-3.93 Y-8.78 Z3.02 F1800.0
G1 X-3.93 Y8.78 Z3.02 F1800.0
G1 X-4.32 Y8.78 Z3.02 F1800.0
G1 X-4.32 Y-8.78 Z3.02 F1800.0
G1 X-4.71 Y-8.78 Z3.02 F1800.0
G1 X-4.71 Y8.78 Z3.02 F1800.0
G1 X-5.11 Y8.78 Z3.02 F1800.0
G1 X-5.11 Y-8.78 Z3.02 F1800.0
G1 X-5.5 Y-8.78 Z3.02 F1800.0
G1 X-5.5 Y8.78 Z3.02 F1800.0
G1 X-5.89 Y8.78 Z3.02 F1800.0
G1 X-5.89 Y-8.78 Z3.02 F1800.0
G1 X-6.28 Y-8.78 Z3.02 F1800.0
G1 X-6.28 Y8.78 Z3.02 F1800.0
G1 X-6.68 Y8.78 Z3.02 F1800.0
G1 X-6.68 Y-8.78 Z3.02 F1800.0
G1 X-7.07 Y-8.78 Z3.02 F1800.0
G1 X-7.07 Y8.78 Z3.02 F1800.0
G1 X-7.46 Y8.78 Z3.02 F1800.0
G1 X-7.46 Y-8.78 Z3.02 F1800.0
G1 X-7.85 Y-8.78 Z3.02 F1800.0
G1 X-7.85 Y8.78 Z3.02 F1800.0
G1 X-8.25 Y8.78 Z3.02 F1800.0
G1 X-8.25 Y-8.78 Z3.02 F1800.0
G1 X-8.64 Y-8.78 Z3.02 F1800.0
G1 X-8.64 Y8.33 Z3.02 F1800.0
M108 R30.0
M102
G1 X-8.64 Y8.78 Z3.02 F1800.0
M108 R3.569
M103
(</surroundingLoop>)
(</layer>)
(<layer> 3.34 )
(<surroundingLoop>)
(<boundaryPerimeter>)
(<boundaryPoint> X-1.584 Y4.874 Z3.34 </boundaryPoint>)
(<boundaryPoint> X-2.563 Y4.438 Z3.34 </boundaryPoint>)
(<boundaryPoint> X-3.429 Y3.809 Z3.34 </boundaryPoint>)
(<boundaryPoint> X-4.146 Y3.012 Z3.34 </boundaryPoint>)
(<boundaryPoint> X-4.682 Y2.085 Z3.34 </boundaryPoint>)
(<boundaryPoint> X-5.013 Y1.066 Z3.34 </boundaryPoint>)
(<boundaryPoint> X-5.125 Y0.0 Z3.34 </boundaryPoint>)
(<boundaryPoint> X-5.013 Y-1.066 Z3.34 </boundaryPoint>)
(<boundaryPoint> X-4.682 Y-2.085 Z3.34 </boundaryPoint>)
(<boundaryPoint> X-4.146 Y-3.012 Z3.34 </boundaryPoint>)
(<boundaryPoint> X-3.429 Y-3.809 Z3.34 </boundaryPoint>)
(<boundaryPoint> X-2.563 Y-4.438 Z3.34 </boundaryPoint>)
(<boundaryPoint> X-1.584 Y-4.874 Z3.34 </boundaryPoint>)
(<boundaryPoint> X-0.536 Y-5.097 Z3.34 </boundaryPoint>)
(<boundaryPoint> X0.536 Y-5.097 Z3.34 </boundaryPoint>)
(<boundaryPoint> X1.584 Y-4.874 Z3.34 </boundaryPoint>)
(<boundaryPoint> X2.563 Y-4.438 Z3.34 </boundaryPoint>)
(<boundaryPoint> X3.429 Y-3.809 Z3.34 </boundaryPoint>)
(<boundaryPoint> X4.146 Y-3.012 Z3.34 </boundaryPoint>)
(<boundaryPoint> X4.682 Y-2.085 Z3.34 </boundaryPoint>)
(<boundaryPoint> X5.013 Y-1.066 Z3.34 </boundaryPoint>)
(<boundaryPoint> X5.125 Y-0.0 Z3.34 </boundaryPoint>)
(<boundaryPoint> X5.013 Y1.066 Z3.34 </boundaryPoint>)
(<boundaryPoint> X4.682 Y2.085 Z3.34 </boundaryPoint>)
(<boundaryPoint> X4.146 Y3.012 Z3.34 </boundaryPoint>)
(<boundaryPoint> X3.429 Y3.809 Z3.34 </boundaryPoint>)
(<boundaryPoint> X2.563 Y4.438 Z3.34 </boundaryPoint>)
(<boundaryPoint> X1.584 Y4.874 Z3.34 </boundaryPoint>)
(<boundaryPoint> X0.536 Y5.097 Z3.34 </boundaryPoint>)
(<boundaryPoint> X-0.536 Y5.097 Z3.34 </boundaryPoint>)
(<loop> outer )
M108 R2.894
G1 X-3.31 Y3.95 Z3.31 F2432.814
M108 R30.0
M101
G1 X-2.83 Y3.52 Z3.34 F2432.814
M108 R2.894
G1 X-3.03 Y3.37 Z3.34 F1459.688
G1 X-3.67 Y2.66 Z3.34 F1459.688
G1 X-4.14 Y1.84 Z3.34 F1459.688
G1 X-4.43 Y0.94 Z3.34 F1459.688
G1 X-4.53 Y0.0 Z3.34 F1459.688
G1 X-4.43 Y-0.94 Z3.34 F1459.688
G1 X-4.14 Y-1.84 Z3.34 F1459.688
G1 X-3.67 Y-2.66 Z3.34 F1459.688
G1 X-3.03 Y-3.37 Z3.34 F1459.688
G1 X-2.27 Y-3.93 Z3.34 F1459.688
G1 X-1.4 Y-4.31 Z3.34 F1459.688
G1 X-0.47 Y-4.51 Z3.34 F1459.688
G1 X0.47 Y-4.51 Z3.34 F1459.688
G1 X1.4 Y-4.31 Z3.34 F1459.688
G1 X2.27 Y-3.93 Z3.34 F1459.688
G1 X3.03 Y-3.37 Z3.34 F1459.688
G1 X3.67 Y-2.66 Z3.34 F1459.688
G1 X4.14 Y-1.84 Z3.34 F1459.688
G1 X4.43 Y-0.94 Z3.34 F1459.688
G1 X4.53 Y-0.0 Z3.34 F1459.688
G1 X4.43 Y0.94 Z3.34 F1459.688
G1 X4.14 Y1.84 Z3.34 F1459.688
G1 X3.67 Y2.66 Z3.34 F1459.688
G1 X3.03 Y3.37 Z3.34 F1459.688
G1 X2.27 Y3.93 Z3.34 F1459.688
G1 X1.4 Y4.31 Z3.34 F1459.688
G1 X0.47 Y4.51 Z3.34 F1459.688
G1 X-0.47 Y4.51 Z3.34 F1459.688
G1 X-1.4 Y4.31 Z3.34 F1459.688
G1 X-2.27 Y3.93 Z3.34 F1459.688
G1 X-2.83 Y3.52 Z3.34 F1459.688
M103
(</loop>)
(<perimeter> outer )
G1 X-3.06 Y3.83 Z3.34 F2432.814
M101
G1 X-3.3 Y3.66 Z3.34 F1459.688
G1 X-3.99 Y2.9 Z3.34 F1459.688
G1 X-4.5 Y2.01 Z3.34 F1459.688
G1 X-4.82 Y1.02 Z3.34 F1459.688
G1 X-4.93 Y0.0 Z3.34 F1459.688
G1 X-4.82 Y-1.02 Z3.34 F1459.688
G1 X-4.5 Y-2.01 Z3.34 F1459.688
G1 X-3.99 Y-2.9 Z3.34 F1459.688
G1 X-3.3 Y-3.66 Z3.34 F1459.688
G1 X-2.46 Y-4.27 Z3.34 F1459.688
G1 X-1.52 Y-4.69 Z3.34 F1459.688
G1 X-0.52 Y-4.9 Z3.34 F1459.688
G1 X0.52 Y-4.9 Z3.34 F1459.688
G1 X1.52 Y-4.69 Z3.34 F1459.688
G1 X2.46 Y-4.27 Z3.34 F1459.688
G1 X3.3 Y-3.66 Z3.34 F1459.688
G1 X3.99 Y-2.9 Z3.34 F1459.688
G1 X4.5 Y-2.01 Z3.34 F1459.688
G1 X4.82 Y-1.02 Z3.34 F1459.688
G1 X4.93 Y-0.0 Z3.34 F1459.688
G1 X4.82 Y1.02 Z3.34 F1459.688
G1 X4.5 Y2.01 Z3.34 F1459.688
G1 X3.99 Y2.9 Z3.34 F1459.688
G1 X3.3 Y3.66 Z3.34 F1459.688
G1 X2.46 Y4.27 Z3.34 F1459.688
G1 X1.52 Y4.69 Z3.34 F1459.688
G1 X0.52 Y4.9 Z3.34 F1459.688
G1 X-0.52 Y4.9 Z3.34 F1459.688
G1 X-1.52 Y4.69 Z3.34 F1459.688
G1 X-2.46 Y4.27 Z3.34 F1459.688
G1 X-2.77 Y4.05 Z3.34 F1459.688
M108 R30.0
M102
G1 X-3.06 Y3.83 Z3.34 F1459.688
M108 R2.894
M103
(</perimeter>)
(</boundaryPerimeter>)
G1 X0.99 Y3.91 Z3.34 F2432.814
M108 R30.0
M101
G1 X1.63 Y3.93 Z3.34 F2432.814
M108 R2.894
G1 X1.22 Y3.39 Z3.34 F1459.688
G1 X0.96 Y3.39 Z3.34 F1459.688
G1 X-1.63 Y3.93 Z3.34 F1459.688
G1 X-2.37 Y3.53 Z3.34 F1459.688
G1 X-2.89 Y3.14 Z3.34 F1459.688
G1 X-3.55 Y2.36 Z3.34 F1459.688
G1 X-1.22 Y1.21 Z3.34 F1459.688
G1 X-0.96 Y1.21 Z3.34 F1459.688
G1 X0.96 Y3.16 Z3.34 F1459.688
G1 X1.22 Y3.16 Z3.34 F1459.688
G1 X2.37 Y3.53 Z3.34 F1459.688
G1 X2.89 Y3.14 Z3.34 F1459.688
G1 X3.55 Y2.36 Z3.34 F1459.688
G1 X3.96 Y1.57 Z3.34 F1459.688
G1 X4.19 Y0.79 Z3.34 F1459.688
G1 X4.28 Y-0.0 Z3.34 F1459.688
G1 X1.22 Y-0.98 Z3.34 F1459.688
G1 X0.96 Y-0.98 Z3.34 F1459.688
G1 X-0.96 Y0.98 Z3.34 F1459.688
G1 X-1.22 Y0.98 Z3.34 F1459.688
G1 X-3.78 Y1.96 Z3.34 F1459.688
G1 X-3.96 Y1.57 Z3.34 F1459.688
G1 X-4.19 Y0.79 Z3.34 F1459.688
G1 X-4.28 Y0.0 Z3.34 F1459.688
G1 X-3.84 Y-0.35 Z3.34 F1459.688
G1 X-4.19 Y-0.79 Z3.34 F1459.688
G1 X-3.96 Y-1.57 Z3.34 F1459.688
G1 X-3.4 Y-1.09 Z3.34 F1459.688
G1 X-3.15 Y-1.09 Z3.34 F1459.688
G1 X-3.78 Y-1.96 Z3.34 F1459.688
G1 X-3.55 Y-2.36 Z3.34 F1459.688
G1 X-2.89 Y-3.14 Z3.34 F1459.688
G1 X-0.96 Y-3.16 Z3.34 F1459.688
G1 X0.96 Y-1.21 Z3.34 F1459.688
G1 X1.22 Y-1.21 Z3.34 F1459.688
G1 X3.84 Y-0.35 Z3.34 F1459.688
G1 X4.19 Y-0.79 Z3.34 F1459.688
G1 X3.96 Y-1.57 Z3.34 F1459.688
G1 X3.55 Y-2.36 Z3.34 F1459.688
G1 X2.89 Y-3.14 Z3.34 F1459.688
G1 X2.37 Y-3.53 Z3.34 F1459.688
G1 X-1.22 Y-3.39 Z3.34 F1459.688
G1 X-2.37 Y-3.53 Z3.34 F1459.688
G1 X-1.63 Y-3.93 Z3.34 F1459.688
G1 X1.63 Y-3.93 Z3.34 F1459.688
M103
(</surroundingLoop>)
M108 R3.569
(</layer>)
(<layer> 3.66 )
(<surroundingLoop>)
(<boundaryPerimeter>)
(<boundaryPoint> X-1.584 Y4.874 Z3.66 </boundaryPoint>)
(<boundaryPoint> X-2.563 Y4.438 Z3.66 </boundaryPoint>)
(<boundaryPoint> X-3.429 Y3.809 Z3.66 </boundaryPoint>)
(<boundaryPoint> X-4.146 Y3.012 Z3.66 </boundaryPoint>)
(<boundaryPoint> X-4.682 Y2.085 Z3.66 </boundaryPoint>)
(<boundaryPoint> X-5.013 Y1.066 Z3.66 </boundaryPoint>)
(<boundaryPoint> X-5.125 Y0.0 Z3.66 </boundaryPoint>)
(<boundaryPoint> X-5.013 Y-1.066 Z3.66 </boundaryPoint>)
(<boundaryPoint> X-4.682 Y-2.085 Z3.66 </boundaryPoint>)
(<boundaryPoint> X-4.146 Y-3.012 Z3.66 </boundaryPoint>)
(<boundaryPoint> X-3.429 Y-3.809 Z3.66 </boundaryPoint>)
(<boundaryPoint> X-2.563 Y-4.438 Z3.66 </boundaryPoint>)
(<boundaryPoint> X-1.584 Y-4.874 Z3.66 </boundaryPoint>)
(<boundaryPoint> X-0.536 Y-5.097 Z3.66 </boundaryPoint>)
(<boundaryPoint> X0.536 Y-5.097 Z3.66 </boundaryPoint>)
(<boundaryPoint> X1.584 Y-4.874 Z3.66 </boundaryPoint>)
(<boundaryPoint> X2.563 Y-4.438 Z3.66 </boundaryPoint>)
(<boundaryPoint> X3.429 Y-3.809 Z3.66 </boundaryPoint>)
(<boundaryPoint> X4.146 Y-3.012 Z3.66 </boundaryPoint>)
(<boundaryPoint> X4.682 Y-2.085 Z3.66 </boundaryPoint>)
(<boundaryPoint> X5.013 Y-1.066 Z3.66 </boundaryPoint>)
(<boundaryPoint> X5.125 Y-0.0 Z3.66 </boundaryPoint>)
(<boundaryPoint> X5.013 Y1.066 Z3.66 </boundaryPoint>)
(<boundaryPoint> X4.682 Y2.085 Z3.66 </boundaryPoint>)
(<boundaryPoint> X4.146 Y3.012 Z3.66 </boundaryPoint>)
(<boundaryPoint> X3.429 Y3.809 Z3.66 </boundaryPoint>)
(<boundaryPoint> X2.563 Y4.438 Z3.66 </boundaryPoint>)
(<boundaryPoint> X1.584 Y4.874 Z3.66 </boundaryPoint>)
(<boundaryPoint> X0.536 Y5.097 Z3.66 </boundaryPoint>)
(<boundaryPoint> X-0.536 Y5.097 Z3.66 </boundaryPoint>)
(<loop> outer )
M108 R2.855
G1 X1.95 Y-4.07 Z3.66 F2399.829
M101
G1 X2.27 Y-3.93 Z3.66 F1439.898
G1 X3.03 Y-3.37 Z3.66 F1439.898
G1 X3.67 Y-2.66 Z3.66 F1439.898
G1 X4.14 Y-1.84 Z3.66 F1439.898
G1 X4.43 Y-0.94 Z3.66 F1439.898
G1 X4.53 Y-0.0 Z3.66 F1439.898
G1 X4.43 Y0.94 Z3.66 F1439.898
G1 X4.14 Y1.84 Z3.66 F1439.898
G1 X3.67 Y2.66 Z3.66 F1439.898
G1 X3.03 Y3.37 Z3.66 F1439.898
G1 X2.27 Y3.93 Z3.66 F1439.898
G1 X1.4 Y4.31 Z3.66 F1439.898
G1 X0.47 Y4.51 Z3.66 F1439.898
G1 X-0.47 Y4.51 Z3.66 F1439.898
G1 X-1.4 Y4.31 Z3.66 F1439.898
G1 X-2.27 Y3.93 Z3.66 F1439.898
G1 X-3.03 Y3.37 Z3.66 F1439.898
G1 X-3.67 Y2.66 Z3.66 F1439.898
G1 X-4.14 Y1.84 Z3.66 F1439.898
G1 X-4.43 Y0.94 Z3.66 F1439.898
G1 X-4.53 Y0.0 Z3.66 F1439.898
G1 X-4.43 Y-0.94 Z3.66 F1439.898
G1 X-4.14 Y-1.84 Z3.66 F1439.898
G1 X-3.67 Y-2.66 Z3.66 F1439.898
G1 X-3.03 Y-3.37 Z3.66 F1439.898
G1 X-2.27 Y-3.93 Z3.66 F1439.898
G1 X-1.4 Y-4.31 Z3.66 F1439.898
G1 X-0.47 Y-4.51 Z3.66 F1439.898
G1 X0.47 Y-4.51 Z3.66 F1439.898
G1 X1.4 Y-4.31 Z3.66 F1439.898
G1 X1.74 Y-4.16 Z3.66 F1439.898
G1 X1.95 Y-4.07 Z3.66 F1439.898
M103
(</loop>)
(<perimeter> outer )
G1 X2.11 Y-4.42 Z3.66 F2399.829
M101
G1 X2.46 Y-4.27 Z3.66 F1439.898
G1 X3.3 Y-3.66 Z3.66 F1439.898
G1 X3.99 Y-2.9 Z3.66 F1439.898
G1 X4.5 Y-2.01 Z3.66 F1439.898
G1 X4.82 Y-1.02 Z3.66 F1439.898
G1 X4.93 Y-0.0 Z3.66 F1439.898
G1 X4.82 Y1.02 Z3.66 F1439.898
G1 X4.5 Y2.01 Z3.66 F1439.898
G1 X3.99 Y2.9 Z3.66 F1439.898
G1 X3.3 Y3.66 Z3.66 F1439.898
G1 X2.46 Y4.27 Z3.66 F1439.898
G1 X1.52 Y4.69 Z3.66 F1439.898
G1 X0.52 Y4.9 Z3.66 F1439.898
G1 X-0.52 Y4.9 Z3.66 F1439.898
G1 X-1.52 Y4.69 Z3.66 F1439.898
G1 X-2.46 Y4.27 Z3.66 F1439.898
G1 X-3.3 Y3.66 Z3.66 F1439.898
G1 X-3.99 Y2.9 Z3.66 F1439.898
G1 X-4.5 Y2.01 Z3.66 F1439.898
G1 X-4.82 Y1.02 Z3.66 F1439.898
G1 X-4.93 Y0.0 Z3.66 F1439.898
G1 X-4.82 Y-1.02 Z3.66 F1439.898
G1 X-4.5 Y-2.01 Z3.66 F1439.898
G1 X-3.99 Y-2.9 Z3.66 F1439.898
G1 X-3.3 Y-3.66 Z3.66 F1439.898
G1 X-2.46 Y-4.27 Z3.66 F1439.898
G1 X-1.52 Y-4.69 Z3.66 F1439.898
G1 X-0.52 Y-4.9 Z3.66 F1439.898
G1 X0.52 Y-4.9 Z3.66 F1439.898
G1 X1.52 Y-4.69 Z3.66 F1439.898
G1 X1.78 Y-4.57 Z3.66 F1439.898
M108 R30.0
M102
G1 X1.9 Y-4.52 Z3.66 F1439.898
G1 X2.11 Y-4.42 Z3.66 F1439.898
M108 R2.855
M103
(</perimeter>)
(</boundaryPerimeter>)
G1 X3.57 Y-2.21 Z3.66 F2399.829
M108 R30.0
M101
G1 X3.93 Y-1.68 Z3.66 F2399.829
M108 R2.855
G1 X3.93 Y1.68 Z3.66 F1439.898
G1 X3.53 Y2.38 Z3.66 F1439.898
G1 X2.75 Y3.26 Z3.66 F1439.898
G1 X1.96 Y3.78 Z3.66 F1439.898
G1 X1.57 Y3.96 Z3.66 F1439.898
G1 X1.21 Y3.4 Z3.66 F1439.898
G1 X1.21 Y-1.22 Z3.66 F1439.898
G1 X3.53 Y-2.38 Z3.66 F1439.898
G1 X2.75 Y-3.26 Z3.66 F1439.898
G1 X1.96 Y-3.78 Z3.66 F1439.898
G1 X1.18 Y-4.1 Z3.66 F1439.898
G1 X0.39 Y-4.25 Z3.66 F1439.898
G1 X-0.0 Y-3.86 Z3.66 F1439.898
G1 X-0.98 Y-3.4 Z3.66 F1439.898
G1 X-0.98 Y-3.15 Z3.66 F1439.898
G1 X0.98 Y-1.22 Z3.66 F1439.898
G1 X0.98 Y-0.96 Z3.66 F1439.898
G1 X-0.98 Y0.96 Z3.66 F1439.898
G1 X-0.98 Y1.22 Z3.66 F1439.898
G1 X0.98 Y3.15 Z3.66 F1439.898
G1 X0.98 Y3.4 Z3.66 F1439.898
G1 X1.18 Y4.1 Z3.66 F1439.898
G1 X0.39 Y4.25 Z3.66 F1439.898
M103
G1 X-0.39 Y4.25 Z3.66 F2399.829
M101
G1 X-1.18 Y4.1 Z3.66 F1439.898
G1 X-1.96 Y3.78 Z3.66 F1439.898
G1 X-2.36 Y3.54 Z3.66 F1439.898
G1 X-1.21 Y1.22 Z3.66 F1439.898
G1 X-1.21 Y0.96 Z3.66 F1439.898
G1 X-3.16 Y-0.96 Z3.66 F1439.898
G1 X-3.16 Y-1.22 Z3.66 F1439.898
G1 X-1.21 Y-3.15 Z3.66 F1439.898
G1 X-1.21 Y-3.4 Z3.66 F1439.898
G1 X-0.39 Y-4.25 Z3.66 F1439.898
G1 X-1.18 Y-4.1 Z3.66 F1439.898
G1 X-1.96 Y-3.78 Z3.66 F1439.898
G1 X-2.75 Y-3.26 Z3.66 F1439.898
G1 X-3.53 Y-2.38 Z3.66 F1439.898
G1 X-2.75 Y3.26 Z3.66 F1439.898
G1 X-3.53 Y2.38 Z3.66 F1439.898
G1 X-3.93 Y1.68 Z3.66 F1439.898
G1 X-3.93 Y-1.68 Z3.66 F1439.898
M103
(</surroundingLoop>)
M108 R3.569
(</layer>)
(<layer> 3.98 )
(<surroundingLoop>)
(<boundaryPerimeter>)
(<boundaryPoint> X-1.584 Y4.874 Z3.98 </boundaryPoint>)
(<boundaryPoint> X-2.563 Y4.438 Z3.98 </boundaryPoint>)
(<boundaryPoint> X-3.429 Y3.809 Z3.98 </boundaryPoint>)
(<boundaryPoint> X-4.146 Y3.012 Z3.98 </boundaryPoint>)
(<boundaryPoint> X-4.682 Y2.085 Z3.98 </boundaryPoint>)
(<boundaryPoint> X-5.013 Y1.066 Z3.98 </boundaryPoint>)
(<boundaryPoint> X-5.125 Y0.0 Z3.98 </boundaryPoint>)
(<boundaryPoint> X-5.013 Y-1.066 Z3.98 </boundaryPoint>)
(<boundaryPoint> X-4.682 Y-2.085 Z3.98 </boundaryPoint>)
(<boundaryPoint> X-4.146 Y-3.012 Z3.98 </boundaryPoint>)
(<boundaryPoint> X-3.429 Y-3.809 Z3.98 </boundaryPoint>)
(<boundaryPoint> X-2.563 Y-4.438 Z3.98 </boundaryPoint>)
(<boundaryPoint> X-1.584 Y-4.874 Z3.98 </boundaryPoint>)
(<boundaryPoint> X-0.536 Y-5.097 Z3.98 </boundaryPoint>)
(<boundaryPoint> X0.536 Y-5.097 Z3.98 </boundaryPoint>)
(<boundaryPoint> X1.584 Y-4.874 Z3.98 </boundaryPoint>)
(<boundaryPoint> X2.563 Y-4.438 Z3.98 </boundaryPoint>)
(<boundaryPoint> X3.429 Y-3.809 Z3.98 </boundaryPoint>)
(<boundaryPoint> X4.146 Y-3.012 Z3.98 </boundaryPoint>)
(<boundaryPoint> X4.682 Y-2.085 Z3.98 </boundaryPoint>)
(<boundaryPoint> X5.013 Y-1.066 Z3.98 </boundaryPoint>)
(<boundaryPoint> X5.125 Y-0.0 Z3.98 </boundaryPoint>)
(<boundaryPoint> X5.013 Y1.066 Z3.98 </boundaryPoint>)
(<boundaryPoint> X4.682 Y2.085 Z3.98 </boundaryPoint>)
(<boundaryPoint> X4.146 Y3.012 Z3.98 </boundaryPoint>)
(<boundaryPoint> X3.429 Y3.809 Z3.98 </boundaryPoint>)
(<boundaryPoint> X2.563 Y4.438 Z3.98 </boundaryPoint>)
(<boundaryPoint> X1.584 Y4.874 Z3.98 </boundaryPoint>)
(<boundaryPoint> X0.536 Y5.097 Z3.98 </boundaryPoint>)
(<boundaryPoint> X-0.536 Y5.097 Z3.98 </boundaryPoint>)
(<loop> outer )
M108 R2.815
G1 X-4.16 Y-1.78 Z3.98 F2365.936
M101
G1 X-4.14 Y-1.84 Z3.98 F1419.562
G1 X-3.67 Y-2.66 Z3.98 F1419.562
G1 X-3.03 Y-3.37 Z3.98 F1419.562
G1 X-2.27 Y-3.93 Z3.98 F1419.562
G1 X-1.4 Y-4.31 Z3.98 F1419.562
G1 X-0.47 Y-4.51 Z3.98 F1419.562
G1 X0.47 Y-4.51 Z3.98 F1419.562
G1 X1.4 Y-4.31 Z3.98 F1419.562
G1 X2.27 Y-3.93 Z3.98 F1419.562
G1 X3.03 Y-3.37 Z3.98 F1419.562
G1 X3.67 Y-2.66 Z3.98 F1419.562
G1 X4.14 Y-1.84 Z3.98 F1419.562
G1 X4.43 Y-0.94 Z3.98 F1419.562
G1 X4.53 Y-0.0 Z3.98 F1419.562
G1 X4.43 Y0.94 Z3.98 F1419.562
G1 X4.14 Y1.84 Z3.98 F1419.562
G1 X3.67 Y2.66 Z3.98 F1419.562
G1 X3.03 Y3.37 Z3.98 F1419.562
G1 X2.27 Y3.93 Z3.98 F1419.562
G1 X1.4 Y4.31 Z3.98 F1419.562
G1 X0.47 Y4.51 Z3.98 F1419.562
G1 X-0.47 Y4.51 Z3.98 F1419.562
G1 X-1.4 Y4.31 Z3.98 F1419.562
G1 X-2.27 Y3.93 Z3.98 F1419.562
G1 X-3.03 Y3.37 Z3.98 F1419.562
G1 X-3.67 Y2.66 Z3.98 F1419.562
G1 X-4.14 Y1.84 Z3.98 F1419.562
G1 X-4.43 Y0.94 Z3.98 F1419.562
G1 X-4.53 Y0.0 Z3.98 F1419.562
G1 X-4.43 Y-0.94 Z3.98 F1419.562
G1 X-4.16 Y-1.78 Z3.98 F1419.562
M103
(</loop>)
(<perimeter> outer )
G1 X-4.5 Y-2.01 Z3.98 F2365.936
M101
G1 X-3.99 Y-2.9 Z3.98 F1419.562
G1 X-3.3 Y-3.66 Z3.98 F1419.562
G1 X-2.46 Y-4.27 Z3.98 F1419.562
G1 X-1.52 Y-4.69 Z3.98 F1419.562
G1 X-0.52 Y-4.9 Z3.98 F1419.562
G1 X0.52 Y-4.9 Z3.98 F1419.562
G1 X1.52 Y-4.69 Z3.98 F1419.562
G1 X2.46 Y-4.27 Z3.98 F1419.562
G1 X3.3 Y-3.66 Z3.98 F1419.562
G1 X3.99 Y-2.9 Z3.98 F1419.562
G1 X4.5 Y-2.01 Z3.98 F1419.562
G1 X4.82 Y-1.02 Z3.98 F1419.562
G1 X4.93 Y-0.0 Z3.98 F1419.562
G1 X4.82 Y1.02 Z3.98 F1419.562
G1 X4.5 Y2.01 Z3.98 F1419.562
G1 X3.99 Y2.9 Z3.98 F1419.562
G1 X3.3 Y3.66 Z3.98 F1419.562
G1 X2.46 Y4.27 Z3.98 F1419.562
G1 X1.52 Y4.69 Z3.98 F1419.562
G1 X0.52 Y4.9 Z3.98 F1419.562
G1 X-0.52 Y4.9 Z3.98 F1419.562
G1 X-1.52 Y4.69 Z3.98 F1419.562
G1 X-2.46 Y4.27 Z3.98 F1419.562
G1 X-3.3 Y3.66 Z3.98 F1419.562
G1 X-3.99 Y2.9 Z3.98 F1419.562
G1 X-4.5 Y2.01 Z3.98 F1419.562
G1 X-4.82 Y1.02 Z3.98 F1419.562
G1 X-4.93 Y0.0 Z3.98 F1419.562
G1 X-4.82 Y-1.02 Z3.98 F1419.562
G1 X-4.61 Y-1.67 Z3.98 F1419.562
M108 R30.0
M102
G1 X-4.5 Y-2.01 Z3.98 F1419.562
M108 R2.815
M103
(</perimeter>)
(</boundaryPerimeter>)
G1 X1.18 Y3.49 Z3.98 F2365.936
M108 R30.0
M101
G1 X1.63 Y3.93 Z3.98 F2365.936
M108 R2.815
G1 X1.22 Y3.39 Z3.98 F1419.562
G1 X0.96 Y3.39 Z3.98 F1419.562
G1 X-1.63 Y3.93 Z3.98 F1419.562
G1 X-2.43 Y3.49 Z3.98 F1419.562
G1 X-2.97 Y3.05 Z3.98 F1419.562
G1 X-3.36 Y2.62 Z3.98 F1419.562
G1 X-3.65 Y2.18 Z3.98 F1419.562
G1 X-4.05 Y1.31 Z3.98 F1419.562
G1 X-3.77 Y0.74 Z3.98 F1419.562
G1 X-0.96 Y1.21 Z3.98 F1419.562
G1 X0.96 Y3.16 Z3.98 F1419.562
G1 X1.22 Y3.16 Z3.98 F1419.562
G1 X2.43 Y3.49 Z3.98 F1419.562
G1 X2.97 Y3.05 Z3.98 F1419.562
G1 X3.36 Y2.62 Z3.98 F1419.562
G1 X3.65 Y2.18 Z3.98 F1419.562
G1 X3.49 Y1.61 Z3.98 F1419.562
G1 X4.05 Y1.31 Z3.98 F1419.562
G1 X3.84 Y1.15 Z3.98 F1419.562
G1 X3.8 Y0.39 Z3.98 F1419.562
G1 X4.28 Y-0.0 Z3.98 F1419.562
G1 X3.8 Y-0.39 Z3.98 F1419.562
G1 X3.75 Y-0.83 Z3.98 F1419.562
G1 X0.96 Y-0.98 Z3.98 F1419.562
G1 X-0.96 Y0.98 Z3.98 F1419.562
G1 X-1.22 Y0.98 Z3.98 F1419.562
G1 X-3.27 Y-0.98 Z3.98 F1419.562
G1 X-3.8 Y0.39 Z3.98 F1419.562
G1 X-4.28 Y0.0 Z3.98 F1419.562
G1 X-3.8 Y-0.39 Z3.98 F1419.562
G1 X-3.65 Y-1.13 Z3.98 F1419.562
G1 X-3.65 Y-2.18 Z3.98 F1419.562
G1 X-3.27 Y-1.21 Z3.98 F1419.562
G1 X-3.15 Y-1.21 Z3.98 F1419.562
G1 X-1.22 Y-3.16 Z3.98 F1419.562
G1 X-0.96 Y-3.16 Z3.98 F1419.562
G1 X0.96 Y-1.21 Z3.98 F1419.562
G1 X3.53 Y-1.53 Z3.98 F1419.562
G1 X4.05 Y-1.31 Z3.98 F1419.562
G1 X3.65 Y-2.18 Z3.98 F1419.562
G1 X3.36 Y-2.62 Z3.98 F1419.562
G1 X2.97 Y-3.05 Z3.98 F1419.562
G1 X2.43 Y-3.49 Z3.98 F1419.562
G1 X1.63 Y-3.93 Z3.98 F1419.562
G1 X-0.96 Y-3.39 Z3.98 F1419.562
G1 X-1.22 Y-3.39 Z3.98 F1419.562
G1 X-1.63 Y-3.93 Z3.98 F1419.562
G1 X-2.43 Y-3.49 Z3.98 F1419.562
G1 X-2.97 Y-3.05 Z3.98 F1419.562
G1 X-3.36 Y-2.62 Z3.98 F1419.562
M103
(</surroundingLoop>)
M108 R3.569
(</layer>)
(<layer> 4.3 )
(<surroundingLoop>)
(<boundaryPerimeter>)
(<boundaryPoint> X-1.584 Y4.874 Z4.3 </boundaryPoint>)
(<boundaryPoint> X-2.563 Y4.438 Z4.3 </boundaryPoint>)
(<boundaryPoint> X-3.429 Y3.809 Z4.3 </boundaryPoint>)
(<boundaryPoint> X-4.146 Y3.012 Z4.3 </boundaryPoint>)
(<boundaryPoint> X-4.682 Y2.085 Z4.3 </boundaryPoint>)
(<boundaryPoint> X-5.013 Y1.066 Z4.3 </boundaryPoint>)
(<boundaryPoint> X-5.125 Y0.0 Z4.3 </boundaryPoint>)
(<boundaryPoint> X-5.013 Y-1.066 Z4.3 </boundaryPoint>)
(<boundaryPoint> X-4.682 Y-2.085 Z4.3 </boundaryPoint>)
(<boundaryPoint> X-4.146 Y-3.012 Z4.3 </boundaryPoint>)
(<boundaryPoint> X-3.429 Y-3.809 Z4.3 </boundaryPoint>)
(<boundaryPoint> X-2.563 Y-4.438 Z4.3 </boundaryPoint>)
(<boundaryPoint> X-1.584 Y-4.874 Z4.3 </boundaryPoint>)
(<boundaryPoint> X-0.536 Y-5.097 Z4.3 </boundaryPoint>)
(<boundaryPoint> X0.536 Y-5.097 Z4.3 </boundaryPoint>)
(<boundaryPoint> X1.584 Y-4.874 Z4.3 </boundaryPoint>)
(<boundaryPoint> X2.563 Y-4.438 Z4.3 </boundaryPoint>)
(<boundaryPoint> X3.429 Y-3.809 Z4.3 </boundaryPoint>)
(<boundaryPoint> X4.146 Y-3.012 Z4.3 </boundaryPoint>)
(<boundaryPoint> X4.682 Y-2.085 Z4.3 </boundaryPoint>)
(<boundaryPoint> X5.013 Y-1.066 Z4.3 </boundaryPoint>)
(<boundaryPoint> X5.125 Y-0.0 Z4.3 </boundaryPoint>)
(<boundaryPoint> X5.013 Y1.066 Z4.3 </boundaryPoint>)
(<boundaryPoint> X4.682 Y2.085 Z4.3 </boundaryPoint>)
(<boundaryPoint> X4.146 Y3.012 Z4.3 </boundaryPoint>)
(<boundaryPoint> X3.429 Y3.809 Z4.3 </boundaryPoint>)
(<boundaryPoint> X2.563 Y4.438 Z4.3 </boundaryPoint>)
(<boundaryPoint> X1.584 Y4.874 Z4.3 </boundaryPoint>)
(<boundaryPoint> X0.536 Y5.097 Z4.3 </boundaryPoint>)
(<boundaryPoint> X-0.536 Y5.097 Z4.3 </boundaryPoint>)
(<loop> outer )
M108 R2.841
G1 X-3.85 Y-2.35 Z4.3 F2387.871
M101
G1 X-3.67 Y-2.66 Z4.3 F1432.723
G1 X-3.03 Y-3.37 Z4.3 F1432.723
G1 X-2.27 Y-3.93 Z4.3 F1432.723
G1 X-1.4 Y-4.31 Z4.3 F1432.723
G1 X-0.47 Y-4.51 Z4.3 F1432.723
G1 X0.47 Y-4.51 Z4.3 F1432.723
G1 X1.4 Y-4.31 Z4.3 F1432.723
G1 X2.27 Y-3.93 Z4.3 F1432.723
G1 X3.03 Y-3.37 Z4.3 F1432.723
G1 X3.67 Y-2.66 Z4.3 F1432.723
G1 X4.14 Y-1.84 Z4.3 F1432.723
G1 X4.43 Y-0.94 Z4.3 F1432.723
G1 X4.53 Y-0.0 Z4.3 F1432.723
G1 X4.43 Y0.94 Z4.3 F1432.723
G1 X4.14 Y1.84 Z4.3 F1432.723
G1 X3.67 Y2.66 Z4.3 F1432.723
G1 X3.03 Y3.37 Z4.3 F1432.723
G1 X2.27 Y3.93 Z4.3 F1432.723
G1 X1.4 Y4.31 Z4.3 F1432.723
G1 X0.47 Y4.51 Z4.3 F1432.723
G1 X-0.47 Y4.51 Z4.3 F1432.723
G1 X-1.4 Y4.31 Z4.3 F1432.723
G1 X-2.27 Y3.93 Z4.3 F1432.723
G1 X-3.03 Y3.37 Z4.3 F1432.723
G1 X-3.67 Y2.66 Z4.3 F1432.723
G1 X-4.14 Y1.84 Z4.3 F1432.723
G1 X-4.43 Y0.94 Z4.3 F1432.723
G1 X-4.53 Y0.0 Z4.3 F1432.723
G1 X-4.43 Y-0.94 Z4.3 F1432.723
G1 X-4.14 Y-1.84 Z4.3 F1432.723
G1 X-3.85 Y-2.35 Z4.3 F1432.723
M103
(</loop>)
(<perimeter> outer )
G1 X-4.19 Y-2.54 Z4.3 F2387.871
M101
G1 X-3.99 Y-2.9 Z4.3 F1432.723
G1 X-3.3 Y-3.66 Z4.3 F1432.723
G1 X-2.46 Y-4.27 Z4.3 F1432.723
G1 X-1.52 Y-4.69 Z4.3 F1432.723
G1 X-0.52 Y-4.9 Z4.3 F1432.723
G1 X0.52 Y-4.9 Z4.3 F1432.723
G1 X1.52 Y-4.69 Z4.3 F1432.723
G1 X2.46 Y-4.27 Z4.3 F1432.723
G1 X3.3 Y-3.66 Z4.3 F1432.723
G1 X3.99 Y-2.9 Z4.3 F1432.723
G1 X4.5 Y-2.01 Z4.3 F1432.723
G1 X4.82 Y-1.02 Z4.3 F1432.723
G1 X4.93 Y-0.0 Z4.3 F1432.723
G1 X4.82 Y1.02 Z4.3 F1432.723
G1 X4.5 Y2.01 Z4.3 F1432.723
G1 X3.99 Y2.9 Z4.3 F1432.723
G1 X3.3 Y3.66 Z4.3 F1432.723
G1 X2.46 Y4.27 Z4.3 F1432.723
G1 X1.52 Y4.69 Z4.3 F1432.723
G1 X0.52 Y4.9 Z4.3 F1432.723
G1 X-0.52 Y4.9 Z4.3 F1432.723
G1 X-1.52 Y4.69 Z4.3 F1432.723
G1 X-2.46 Y4.27 Z4.3 F1432.723
G1 X-3.3 Y3.66 Z4.3 F1432.723
G1 X-3.99 Y2.9 Z4.3 F1432.723
G1 X-4.5 Y2.01 Z4.3 F1432.723
G1 X-4.82 Y1.02 Z4.3 F1432.723
G1 X-4.93 Y0.0 Z4.3 F1432.723
G1 X-4.82 Y-1.02 Z4.3 F1432.723
G1 X-4.5 Y-2.01 Z4.3 F1432.723
G1 X-4.37 Y-2.23 Z4.3 F1432.723
M108 R30.0
M102
G1 X-4.19 Y-2.54 Z4.3 F1432.723
M108 R2.841
M103
(</perimeter>)
(</boundaryPerimeter>)
G1 X-0.59 Y-4.01 Z4.3 F2387.871
M108 R30.0
M101
G1 X-0.0 Y-4.25 Z4.3 F2387.871
M108 R2.841
G1 X-0.44 Y-3.82 Z4.3 F1432.723
G1 X-0.98 Y-3.4 Z4.3 F1432.723
G1 X-0.98 Y-3.15 Z4.3 F1432.723
G1 X0.98 Y-1.22 Z4.3 F1432.723
G1 X0.98 Y-0.96 Z4.3 F1432.723
G1 X-0.98 Y0.96 Z4.3 F1432.723
G1 X-0.98 Y1.22 Z4.3 F1432.723
G1 X0.98 Y3.15 Z4.3 F1432.723
G1 X0.98 Y3.4 Z4.3 F1432.723
G1 X1.75 Y3.88 Z4.3 F1432.723
G1 X1.31 Y4.07 Z4.3 F1432.723
G1 X0.87 Y4.16 Z4.3 F1432.723
G1 X0.44 Y3.82 Z4.3 F1432.723
G1 X0.25 Y4.0 Z4.3 F1432.723
M108 R30.0
M102
G1 X0.0 Y4.25 Z4.3 F1432.723
M108 R2.841
M103
G1 X-0.68 Y4.16 Z4.3 F2387.871
M108 R30.0
M101
G1 X-1.31 Y4.07 Z4.3 F2387.871
M108 R2.841
G1 X-2.18 Y3.67 Z4.3 F1432.723
G1 X-2.62 Y3.35 Z4.3 F1432.723
G1 X-1.21 Y1.22 Z4.3 F1432.723
G1 X-1.21 Y0.96 Z4.3 F1432.723
G1 X-3.16 Y-0.96 Z4.3 F1432.723
G1 X-3.16 Y-1.22 Z4.3 F1432.723
G1 X-1.21 Y-3.15 Z4.3 F1432.723
G1 X-1.21 Y-3.4 Z4.3 F1432.723
G1 X-0.78 Y-3.74 Z4.3 F1432.723
G1 X-1.31 Y-4.07 Z4.3 F1432.723
G1 X-2.18 Y-3.67 Z4.3 F1432.723
G1 X-3.05 Y-2.96 Z4.3 F1432.723
G1 X-3.49 Y-2.46 Z4.3 F1432.723
G1 X-3.93 Y-1.68 Z4.3 F1432.723
G1 X-3.39 Y-1.22 Z4.3 F1432.723
G1 X-3.39 Y-0.96 Z4.3 F1432.723
G1 X-3.93 Y1.68 Z4.3 F1432.723
G1 X-3.49 Y2.46 Z4.3 F1432.723
G1 X-3.29 Y2.69 Z4.3 F1432.723
M108 R30.0
M102
G1 X-3.05 Y2.96 Z4.3 F1432.723
M108 R2.841
M103
G1 X3.4 Y-1.32 Z4.3 F2387.871
M108 R30.0
M101
G1 X3.93 Y-1.68 Z4.3 F2387.871
M108 R2.841
G1 X3.93 Y1.68 Z4.3 F1432.723
G1 X3.49 Y2.46 Z4.3 F1432.723
G1 X3.05 Y2.96 Z4.3 F1432.723
G1 X2.18 Y3.67 Z4.3 F1432.723
G1 X1.21 Y3.4 Z4.3 F1432.723
G1 X1.21 Y-1.22 Z4.3 F1432.723
G1 X3.49 Y-2.46 Z4.3 F1432.723
G1 X3.05 Y-2.96 Z4.3 F1432.723
G1 X2.18 Y-3.67 Z4.3 F1432.723
G1 X1.31 Y-4.07 Z4.3 F1432.723
M103
(</surroundingLoop>)
M108 R3.569
(</layer>)
(<layer> 4.62 )
(<surroundingLoop>)
(<boundaryPerimeter>)
(<boundaryPoint> X-1.584 Y4.874 Z4.62 </boundaryPoint>)
(<boundaryPoint> X-2.563 Y4.438 Z4.62 </boundaryPoint>)
(<boundaryPoint> X-3.429 Y3.809 Z4.62 </boundaryPoint>)
(<boundaryPoint> X-4.146 Y3.012 Z4.62 </boundaryPoint>)
(<boundaryPoint> X-4.682 Y2.085 Z4.62 </boundaryPoint>)
(<boundaryPoint> X-5.013 Y1.066 Z4.62 </boundaryPoint>)
(<boundaryPoint> X-5.125 Y0.0 Z4.62 </boundaryPoint>)
(<boundaryPoint> X-5.013 Y-1.066 Z4.62 </boundaryPoint>)
(<boundaryPoint> X-4.682 Y-2.085 Z4.62 </boundaryPoint>)
(<boundaryPoint> X-4.146 Y-3.012 Z4.62 </boundaryPoint>)
(<boundaryPoint> X-3.429 Y-3.809 Z4.62 </boundaryPoint>)
(<boundaryPoint> X-2.563 Y-4.438 Z4.62 </boundaryPoint>)
(<boundaryPoint> X-1.584 Y-4.874 Z4.62 </boundaryPoint>)
