(** This GCode was generated by ReplicatorG 0034 **)
(*  using Skeinforge (35)  *)
(*  for a Single headed Thing-O-Matic  *)
(*  on 2012/04/21 12:36:11 (-0400) *)
(<alteration>)
(**** beginning of start.gcode ****)
(This file is for a MakerBot Thing-O-Matic)
(**** begin initialization commands ****)
G21 (set units to mm)
G90 (set positioning to absolute)
M108 R5.0 (set extruder speed)
M103 (Make sure extruder is off)
M104 S225 T0 (set extruder temperature)
M109 S120 T0 (set heated-build-platform temperature)
(**** end initialization commands ****)
(**** begin homing ****)
G162 Z F1000 (home Z axis maximum)
G92 Z10 (set Z to 0)
G1 Z0.0 (move z down 10)
G162 Z F150 (home Z axis maximum)
G161 X Y F2500 (home XY axes minimum)
M132 X Y Z A B (Recall stored home offsets for XYZAB axis)
(**** end homing ****)
(**** begin pre-wipe commands ****)
( Some people have had problems with the nozzle hitting )
( bolts or wipers during this pre-extrusion warmup.     )
( If this happens to you, you can change the values for )
( the X and Y positions in the following code.          )
( The goal is to have the toolhead wipe its initial     )
( extrusion near the edge of the platform, [anchor it]  )
( so as not to have it interfere with the print.        )
( This file can be found in:                            )
( replicatorg/skein_engines/skeinforge-##/skeinforge_application/ )
( prefs/<profile name [e.g. Thingomatic-ABP-Mk7]>/alterations )
G1 X25.0 Y-60.0 Z10.0 F3300.0 (move to waiting position)
M6 T0 (wait for toolhead parts, nozzle, HBP, etc., to reach temperature)
G0 X25 Y-57 (Position Nozzle)
G0 Z0.6     (Position Height)
M108 R4.0   (Set Extruder Speed)
M101        (Start Extruder)
G4 P1500    (Create Anchor)
(**** end pre-wipe commands ****)
(**** end of start.gcode ****)
(</alteration>)
(<creation> skeinforge </creation>)
(<version> 10.11.05 </version>)
(<extruderInitialization>)
(<craftTypeName> extrusion </craftTypeName>)
M105
(<bridgeWidthMultiplier> 1.0 </bridgeWidthMultiplier>)
(<decimalPlacesCarried> 3 </decimalPlacesCarried>)
(<layerThickness> 0.32 </layerThickness>)
(<threadSequenceString> loops perimeter infill </threadSequenceString>)
(<operatingFeedRatePerSecond> 30.0 </operatingFeedRatePerSecond>)
(<operatingFlowRate> 3.56914845556 </operatingFlowRate>)
(<orbitalFeedRatePerSecond> 15.0 </orbitalFeedRatePerSecond>)
(<travelFeedRatePerSecond> 50.0 </travelFeedRatePerSecond>)
(<perimeterWidth> 0.393 </perimeterWidth>)
(<profileName> ABS </profileName>)
(<procedureDone> carve,bottom </procedureDone>)
(<procedureDone> preface </procedureDone>)
(<procedureDone> inset </procedureDone>)
(<procedureDone> fill </procedureDone>)
(<procedureDone> speed </procedureDone>)
(<procedureDone> raft </procedureDone>)
(<procedureDone> jitter </procedureDone>)
(<procedureDone> comb </procedureDone>)
(<procedureDone> cool </procedureDone>)
(<procedureDone> outline </procedureDone>)
(<procedureDone> reversal </procedureDone>)
(<procedureDone> export </procedureDone>)
(</extruderInitialization>)
(<extrusion>)
;M113 S1.0
M108 R3.569
(<layer> 0.46 )
(<surroundingLoop>)
(<boundaryPerimeter>)
(<boundaryPoint> X32.569 Y10.2 Z0.46 </boundaryPoint>)
(<boundaryPoint> X-32.569 Y10.2 Z0.46 </boundaryPoint>)
(<boundaryPoint> X-32.569 Y-10.2 Z0.46 </boundaryPoint>)
(<boundaryPoint> X32.569 Y-10.2 Z0.46 </boundaryPoint>)
(<loop> inner )
M108 R2.141
G1 X34.37 Y-12.0 Z0.46 F1080.0
M101
G1 X-34.37 Y-12.0 Z0.46 F1080.0
G1 X-34.37 Y12.0 Z0.46 F1080.0
G1 X34.37 Y12.0 Z0.46 F1080.0
G1 X34.37 Y-11.73 Z0.46 F1080.0
M108 R30.0
M102
G1 X34.37 Y-12.0 Z0.46 F1080.0
M108 R2.141
M103
G1 X-9.83 Y-0.3 Z0.46 F3000.0
M108 R30.0
M101
G1 X-10.6 Y-0.09 Z0.46 F3000.0
M108 R2.141
G1 X-10.72 Y-1.18 Z0.46 F1080.0
G1 X-11.08 Y-2.32 Z0.46 F1080.0
G1 X-11.68 Y-3.35 Z0.46 F1080.0
G1 X-12.48 Y-4.23 Z0.46 F1080.0
G1 X-13.44 Y-4.93 Z0.46 F1080.0
G1 X-14.53 Y-5.41 Z0.46 F1080.0
G1 X-15.69 Y-5.66 Z0.46 F1080.0
G1 X-16.88 Y-5.66 Z0.46 F1080.0
G1 X-18.04 Y-5.41 Z0.46 F1080.0
G1 X-19.13 Y-4.93 Z0.46 F1080.0
G1 X-20.09 Y-4.23 Z0.46 F1080.0
G1 X-20.89 Y-3.35 Z0.46 F1080.0
G1 X-21.48 Y-2.32 Z0.46 F1080.0
G1 X-21.85 Y-1.18 Z0.46 F1080.0
G1 X-21.98 Y-0.0 Z0.46 F1080.0
G1 X-21.85 Y1.18 Z0.46 F1080.0
G1 X-21.48 Y2.32 Z0.46 F1080.0
G1 X-20.89 Y3.35 Z0.46 F1080.0
G1 X-20.09 Y4.23 Z0.46 F1080.0
G1 X-19.13 Y4.93 Z0.46 F1080.0
G1 X-18.04 Y5.41 Z0.46 F1080.0
G1 X-16.88 Y5.66 Z0.46 F1080.0
G1 X-15.69 Y5.66 Z0.46 F1080.0
G1 X-14.53 Y5.41 Z0.46 F1080.0
G1 X-13.44 Y4.93 Z0.46 F1080.0
G1 X-12.48 Y4.23 Z0.46 F1080.0
G1 X-11.68 Y3.35 Z0.46 F1080.0
G1 X-11.08 Y2.32 Z0.46 F1080.0
G1 X-10.72 Y1.18 Z0.46 F1080.0
G1 X-10.61 Y0.18 Z0.46 F1080.0
M108 R30.0
M102
G1 X-10.59 Y0.0 Z0.46 F1080.0
G1 X-10.6 Y-0.09 Z0.46 F1080.0
M108 R2.141
M103
(</loop>)
(<loop> inner )
G1 X9.79 Y-0.0 Z0.46 F3000.0
M108 R30.0
M101
G1 X10.59 Y-0.0 Z0.46 F3000.0
M108 R2.141
G1 X10.72 Y1.18 Z0.46 F1080.0
G1 X11.08 Y2.32 Z0.46 F1080.0
G1 X11.68 Y3.35 Z0.46 F1080.0
G1 X12.48 Y4.23 Z0.46 F1080.0
G1 X13.44 Y4.93 Z0.46 F1080.0
G1 X14.53 Y5.41 Z0.46 F1080.0
G1 X15.69 Y5.66 Z0.46 F1080.0
G1 X16.88 Y5.66 Z0.46 F1080.0
G1 X18.04 Y5.41 Z0.46 F1080.0
G1 X19.13 Y4.93 Z0.46 F1080.0
G1 X20.09 Y4.23 Z0.46 F1080.0
G1 X20.89 Y3.35 Z0.46 F1080.0
G1 X21.48 Y2.32 Z0.46 F1080.0
G1 X21.85 Y1.18 Z0.46 F1080.0
G1 X21.98 Y0.0 Z0.46 F1080.0
G1 X21.85 Y-1.18 Z0.46 F1080.0
G1 X21.48 Y-2.32 Z0.46 F1080.0
G1 X20.89 Y-3.35 Z0.46 F1080.0
G1 X20.09 Y-4.23 Z0.46 F1080.0
G1 X19.13 Y-4.93 Z0.46 F1080.0
G1 X18.04 Y-5.41 Z0.46 F1080.0
G1 X16.88 Y-5.66 Z0.46 F1080.0
G1 X15.69 Y-5.66 Z0.46 F1080.0
G1 X14.53 Y-5.41 Z0.46 F1080.0
G1 X13.44 Y-4.93 Z0.46 F1080.0
G1 X12.48 Y-4.23 Z0.46 F1080.0
G1 X11.68 Y-3.35 Z0.46 F1080.0
G1 X11.08 Y-2.32 Z0.46 F1080.0
G1 X10.72 Y-1.18 Z0.46 F1080.0
G1 X10.62 Y-0.27 Z0.46 F1080.0
M108 R30.0
M102
G1 X10.59 Y-0.0 Z0.46 F1080.0
M108 R2.141
M103
(</loop>)
(<loop> outer )
G1 X10.59 Y8.81 Z0.46 F3000.0
M108 R30.0
M101
G1 X10.59 Y9.61 Z0.46 F3000.0
M108 R2.141
G1 X-31.98 Y9.61 Z0.46 F1080.0
G1 X-31.98 Y-9.61 Z0.46 F1080.0
G1 X31.98 Y-9.61 Z0.46 F1080.0
G1 X31.98 Y9.61 Z0.46 F1080.0
G1 X10.59 Y9.61 Z0.46 F1080.0
M103
(</loop>)
(<perimeter> outer )
G1 X10.59 Y10.0 Z0.46 F3000.0
M101
G1 X-32.37 Y10.0 Z0.46 F1080.0
G1 X-32.37 Y-10.0 Z0.46 F1080.0
G1 X32.37 Y-10.0 Z0.46 F1080.0
G1 X32.37 Y10.0 Z0.46 F1080.0
G1 X10.86 Y10.0 Z0.46 F1080.0
M108 R30.0
M102
G1 X10.59 Y10.0 Z0.46 F1080.0
M108 R2.141
M103
(</perimeter>)
(</boundaryPerimeter>)
(<surroundingLoop>)
(<boundaryPerimeter>)
(<boundaryPoint> X12.158 Y2.998 Z0.46 </boundaryPoint>)
(<boundaryPoint> X12.872 Y3.79 Z0.46 </boundaryPoint>)
(<boundaryPoint> X13.734 Y4.417 Z0.46 </boundaryPoint>)
(<boundaryPoint> X14.708 Y4.85 Z0.46 </boundaryPoint>)
(<boundaryPoint> X15.751 Y5.072 Z0.46 </boundaryPoint>)
(<boundaryPoint> X16.817 Y5.072 Z0.46 </boundaryPoint>)
(<boundaryPoint> X17.86 Y4.85 Z0.46 </boundaryPoint>)
(<boundaryPoint> X18.834 Y4.417 Z0.46 </boundaryPoint>)
(<boundaryPoint> X19.697 Y3.79 Z0.46 </boundaryPoint>)
(<boundaryPoint> X20.41 Y2.998 Z0.46 </boundaryPoint>)
(<boundaryPoint> X20.943 Y2.074 Z0.46 </boundaryPoint>)
(<boundaryPoint> X21.273 Y1.06 Z0.46 </boundaryPoint>)
(<boundaryPoint> X21.384 Y-0.0 Z0.46 </boundaryPoint>)
(<boundaryPoint> X21.273 Y-1.06 Z0.46 </boundaryPoint>)
(<boundaryPoint> X20.943 Y-2.074 Z0.46 </boundaryPoint>)
(<boundaryPoint> X20.41 Y-2.998 Z0.46 </boundaryPoint>)
(<boundaryPoint> X19.697 Y-3.79 Z0.46 </boundaryPoint>)
(<boundaryPoint> X18.834 Y-4.417 Z0.46 </boundaryPoint>)
(<boundaryPoint> X17.86 Y-4.85 Z0.46 </boundaryPoint>)
(<boundaryPoint> X16.817 Y-5.072 Z0.46 </boundaryPoint>)
(<boundaryPoint> X15.751 Y-5.072 Z0.46 </boundaryPoint>)
(<boundaryPoint> X14.708 Y-4.85 Z0.46 </boundaryPoint>)
(<boundaryPoint> X13.734 Y-4.417 Z0.46 </boundaryPoint>)
(<boundaryPoint> X12.872 Y-3.79 Z0.46 </boundaryPoint>)
(<boundaryPoint> X12.158 Y-2.998 Z0.46 </boundaryPoint>)
(<boundaryPoint> X11.625 Y-2.074 Z0.46 </boundaryPoint>)
(<boundaryPoint> X11.296 Y-1.06 Z0.46 </boundaryPoint>)
(<boundaryPoint> X11.184 Y0.0 Z0.46 </boundaryPoint>)
(<boundaryPoint> X11.296 Y1.06 Z0.46 </boundaryPoint>)
(<boundaryPoint> X11.625 Y2.074 Z0.46 </boundaryPoint>)
(<perimeter> inner )
G1 X13.24 Y5.29 Z0.46 F3000.0
M108 R30.0
M101
G1 X13.64 Y4.59 Z0.46 F3000.0
M108 R2.141
G1 X14.65 Y5.04 Z0.46 F1080.0
G1 X15.73 Y5.27 Z0.46 F1080.0
G1 X16.84 Y5.27 Z0.46 F1080.0
G1 X17.92 Y5.04 Z0.46 F1080.0
G1 X18.93 Y4.59 Z0.46 F1080.0
G1 X19.83 Y3.94 Z0.46 F1080.0
G1 X20.57 Y3.11 Z0.46 F1080.0
G1 X21.12 Y2.15 Z0.46 F1080.0
G1 X21.47 Y1.1 Z0.46 F1080.0
G1 X21.58 Y-0.0 Z0.46 F1080.0
G1 X21.47 Y-1.1 Z0.46 F1080.0
G1 X21.12 Y-2.15 Z0.46 F1080.0
G1 X20.57 Y-3.11 Z0.46 F1080.0
G1 X19.83 Y-3.94 Z0.46 F1080.0
G1 X18.93 Y-4.59 Z0.46 F1080.0
G1 X17.92 Y-5.04 Z0.46 F1080.0
G1 X16.84 Y-5.27 Z0.46 F1080.0
G1 X15.73 Y-5.27 Z0.46 F1080.0
G1 X14.65 Y-5.04 Z0.46 F1080.0
G1 X13.64 Y-4.59 Z0.46 F1080.0
G1 X12.74 Y-3.94 Z0.46 F1080.0
G1 X12.0 Y-3.11 Z0.46 F1080.0
G1 X11.44 Y-2.15 Z0.46 F1080.0
G1 X11.1 Y-1.1 Z0.46 F1080.0
G1 X10.99 Y0.0 Z0.46 F1080.0
G1 X11.1 Y1.1 Z0.46 F1080.0
G1 X11.44 Y2.15 Z0.46 F1080.0
G1 X12.0 Y3.11 Z0.46 F1080.0
G1 X12.74 Y3.94 Z0.46 F1080.0
G1 X13.42 Y4.43 Z0.46 F1080.0
M108 R30.0
M102
G1 X13.64 Y4.59 Z0.46 F1080.0
M108 R2.141
M103
(</perimeter>)
(</boundaryPerimeter>)
(</surroundingLoop>)
(<surroundingLoop>)
(<boundaryPerimeter>)
(<boundaryPoint> X-20.41 Y2.998 Z0.46 </boundaryPoint>)
(<boundaryPoint> X-19.697 Y3.79 Z0.46 </boundaryPoint>)
(<boundaryPoint> X-18.834 Y4.417 Z0.46 </boundaryPoint>)
(<boundaryPoint> X-17.86 Y4.85 Z0.46 </boundaryPoint>)
(<boundaryPoint> X-16.817 Y5.072 Z0.46 </boundaryPoint>)
(<boundaryPoint> X-15.751 Y5.072 Z0.46 </boundaryPoint>)
(<boundaryPoint> X-14.708 Y4.85 Z0.46 </boundaryPoint>)
(<boundaryPoint> X-13.734 Y4.417 Z0.46 </boundaryPoint>)
(<boundaryPoint> X-12.872 Y3.79 Z0.46 </boundaryPoint>)
(<boundaryPoint> X-12.158 Y2.998 Z0.46 </boundaryPoint>)
(<boundaryPoint> X-11.625 Y2.074 Z0.46 </boundaryPoint>)
(<boundaryPoint> X-11.296 Y1.06 Z0.46 </boundaryPoint>)
(<boundaryPoint> X-11.184 Y-0.0 Z0.46 </boundaryPoint>)
(<boundaryPoint> X-11.296 Y-1.06 Z0.46 </boundaryPoint>)
(<boundaryPoint> X-11.625 Y-2.074 Z0.46 </boundaryPoint>)
(<boundaryPoint> X-12.158 Y-2.998 Z0.46 </boundaryPoint>)
(<boundaryPoint> X-12.872 Y-3.79 Z0.46 </boundaryPoint>)
(<boundaryPoint> X-13.734 Y-4.417 Z0.46 </boundaryPoint>)
(<boundaryPoint> X-14.708 Y-4.85 Z0.46 </boundaryPoint>)
(<boundaryPoint> X-15.751 Y-5.072 Z0.46 </boundaryPoint>)
(<boundaryPoint> X-16.817 Y-5.072 Z0.46 </boundaryPoint>)
(<boundaryPoint> X-17.86 Y-4.85 Z0.46 </boundaryPoint>)
(<boundaryPoint> X-18.834 Y-4.417 Z0.46 </boundaryPoint>)
(<boundaryPoint> X-19.697 Y-3.79 Z0.46 </boundaryPoint>)
(<boundaryPoint> X-20.41 Y-2.998 Z0.46 </boundaryPoint>)
(<boundaryPoint> X-20.943 Y-2.074 Z0.46 </boundaryPoint>)
(<boundaryPoint> X-21.273 Y-1.06 Z0.46 </boundaryPoint>)
(<boundaryPoint> X-21.384 Y0.0 Z0.46 </boundaryPoint>)
(<boundaryPoint> X-21.273 Y1.06 Z0.46 </boundaryPoint>)
(<boundaryPoint> X-20.943 Y2.074 Z0.46 </boundaryPoint>)
(<perimeter> inner )
G1 X-10.31 Y1.21 Z0.46 F3000.0
M108 R30.0
M101
G1 X-11.1 Y1.1 Z0.46 F3000.0
M108 R2.141
G1 X-10.99 Y-0.0 Z0.46 F1080.0
G1 X-11.1 Y-1.1 Z0.46 F1080.0
G1 X-11.44 Y-2.15 Z0.46 F1080.0
G1 X-12.0 Y-3.11 Z0.46 F1080.0
G1 X-12.74 Y-3.94 Z0.46 F1080.0
G1 X-13.64 Y-4.59 Z0.46 F1080.0
G1 X-14.65 Y-5.04 Z0.46 F1080.0
G1 X-15.73 Y-5.27 Z0.46 F1080.0
G1 X-16.84 Y-5.27 Z0.46 F1080.0
G1 X-17.92 Y-5.04 Z0.46 F1080.0
G1 X-18.93 Y-4.59 Z0.46 F1080.0
G1 X-19.83 Y-3.94 Z0.46 F1080.0
G1 X-20.57 Y-3.11 Z0.46 F1080.0
G1 X-21.12 Y-2.15 Z0.46 F1080.0
G1 X-21.47 Y-1.1 Z0.46 F1080.0
G1 X-21.58 Y0.0 Z0.46 F1080.0
G1 X-21.47 Y1.1 Z0.46 F1080.0
G1 X-21.12 Y2.15 Z0.46 F1080.0
G1 X-20.57 Y3.11 Z0.46 F1080.0
G1 X-19.83 Y3.94 Z0.46 F1080.0
G1 X-18.93 Y4.59 Z0.46 F1080.0
G1 X-17.92 Y5.04 Z0.46 F1080.0
G1 X-16.84 Y5.27 Z0.46 F1080.0
G1 X-15.73 Y5.27 Z0.46 F1080.0
G1 X-14.65 Y5.04 Z0.46 F1080.0
G1 X-13.64 Y4.59 Z0.46 F1080.0
G1 X-12.74 Y3.94 Z0.46 F1080.0
G1 X-12.0 Y3.11 Z0.46 F1080.0
G1 X-11.44 Y2.15 Z0.46 F1080.0
G1 X-11.19 Y1.36 Z0.46 F1080.0
M108 R30.0
M102
G1 X-11.1 Y1.1 Z0.46 F1080.0
M108 R2.141
M103
(</perimeter>)
(</boundaryPerimeter>)
(</surroundingLoop>)
G1 X-10.63 Y8.88 Z0.46 F1800.0
M108 R30.0
M101
G1 X-10.6 Y9.36 Z0.46 F1800.0
M108 R2.141
G1 X-10.6 Y1.93 Z0.46 F1080.0
M108 R30.0
M102
G1 X-10.6 Y1.66 Z0.46 F1080.0
M108 R2.141
M103
G1 X-10.82 Y2.23 Z0.46 F1800.0
M108 R30.0
M101
G1 X-11.0 Y2.67 Z0.46 F1800.0
M108 R2.141
G1 X-11.0 Y9.36 Z0.46 F1080.0
M103
G1 X-11.39 Y9.36 Z0.46 F1800.0
M101
G1 X-11.39 Y3.35 Z0.46 F1080.0
G1 X-11.78 Y3.84 Z0.46 F1080.0
G1 X-11.78 Y9.36 Z0.46 F1080.0
M103
G1 X-12.17 Y9.36 Z0.46 F1800.0
M101
G1 X-12.17 Y4.28 Z0.46 F1080.0
G1 X-12.57 Y4.61 Z0.46 F1080.0
G1 X-12.57 Y9.36 Z0.46 F1080.0
M103
G1 X-12.96 Y9.36 Z0.46 F1800.0
M101
G1 X-12.96 Y5.17 Z0.46 F1080.0
M108 R30.0
M102
G1 X-12.96 Y4.9 Z0.46 F1080.0
M108 R2.141
M103
G1 X-13.71 Y5.3 Z0.46 F1800.0
M108 R30.0
M101
G1 X-14.14 Y5.52 Z0.46 F1800.0
M108 R2.141
G1 X-14.14 Y9.36 Z0.46 F1080.0
M103
G1 X-14.53 Y9.36 Z0.46 F1800.0
M101
G1 X-14.53 Y5.68 Z0.46 F1080.0
G1 X-14.92 Y5.76 Z0.46 F1080.0
G1 X-14.92 Y9.36 Z0.46 F1080.0
M103
G1 X-15.32 Y9.36 Z0.46 F1800.0
M101
G1 X-15.32 Y5.84 Z0.46 F1080.0
M103
G1 X-15.71 Y5.92 Z0.46 F1800.0
M101
G1 X-15.71 Y9.36 Z0.46 F1080.0
M103
G1 X-16.1 Y9.36 Z0.46 F1800.0
M101
G1 X-16.1 Y5.92 Z0.46 F1080.0
G1 X-16.49 Y5.92 Z0.46 F1080.0
G1 X-16.49 Y9.36 Z0.46 F1080.0
M103
G1 X-16.89 Y9.36 Z0.46 F1800.0
M101
G1 X-16.89 Y5.92 Z0.46 F1080.0
M103
G1 X-17.28 Y5.84 Z0.46 F1800.0
M101
G1 X-17.28 Y9.36 Z0.46 F1080.0
M103
G1 X-17.67 Y9.36 Z0.46 F1800.0
M101
G1 X-17.67 Y5.75 Z0.46 F1080.0
M103
G1 X-18.06 Y5.67 Z0.46 F1800.0
M101
G1 X-18.06 Y9.36 Z0.46 F1080.0
M103
G1 X-18.46 Y9.36 Z0.46 F1800.0
M101
G1 X-18.46 Y5.51 Z0.46 F1080.0
M103
G1 X-18.85 Y5.33 Z0.46 F1800.0
M101
G1 X-18.85 Y9.36 Z0.46 F1080.0
M103
G1 X-19.24 Y9.36 Z0.46 F1800.0
M101
G1 X-19.24 Y5.16 Z0.46 F1080.0
G1 X-19.64 Y4.88 Z0.46 F1080.0
G1 X-19.64 Y9.36 Z0.46 F1080.0
M103
G1 X-20.03 Y9.36 Z0.46 F1800.0
M101
G1 X-20.03 Y4.59 Z0.46 F1080.0
G1 X-20.42 Y4.25 Z0.46 F1080.0
G1 X-20.42 Y9.36 Z0.46 F1080.0
M103
G1 X-20.81 Y9.36 Z0.46 F1800.0
M101
G1 X-20.81 Y3.81 Z0.46 F1080.0
M103
G1 X-21.21 Y3.31 Z0.46 F1800.0
M101
G1 X-21.21 Y9.36 Z0.46 F1080.0
M103
G1 X-21.6 Y9.36 Z0.46 F1800.0
M101
G1 X-21.6 Y2.9 Z0.46 F1080.0
M108 R30.0
M102
G1 X-21.6 Y2.63 Z0.46 F1080.0
M108 R2.141
M103
G1 X-21.82 Y2.03 Z0.46 F1800.0
M108 R30.0
M101
G1 X-21.99 Y1.58 Z0.46 F1800.0
M108 R2.141
G1 X-21.99 Y9.36 Z0.46 F1080.0
M103
G1 X-22.38 Y9.36 Z0.46 F1800.0
M101
G1 X-22.38 Y-9.36 Z0.46 F1080.0
M103
G1 X-22.78 Y-9.36 Z0.46 F1800.0
M101
G1 X-22.78 Y9.36 Z0.46 F1080.0
M103
G1 X-23.17 Y9.36 Z0.46 F1800.0
M101
G1 X-23.17 Y-9.36 Z0.46 F1080.0
M103
G1 X-23.56 Y-9.36 Z0.46 F1800.0
M101
G1 X-23.56 Y9.36 Z0.46 F1080.0
M103
G1 X-23.96 Y9.36 Z0.46 F1800.0
M101
G1 X-23.96 Y-9.36 Z0.46 F1080.0
M103
G1 X-24.35 Y-9.36 Z0.46 F1800.0
M101
G1 X-24.35 Y9.36 Z0.46 F1080.0
M103
G1 X-24.74 Y9.36 Z0.46 F1800.0
M101
G1 X-24.74 Y-9.36 Z0.46 F1080.0
M103
G1 X-25.13 Y-9.36 Z0.46 F1800.0
M101
G1 X-25.13 Y9.36 Z0.46 F1080.0
M103
G1 X-25.53 Y9.36 Z0.46 F1800.0
M101
G1 X-25.53 Y-9.36 Z0.46 F1080.0
M103
G1 X-25.92 Y-9.36 Z0.46 F1800.0
M101
G1 X-25.92 Y9.36 Z0.46 F1080.0
M103
G1 X-26.31 Y9.36 Z0.46 F1800.0
M101
G1 X-26.31 Y-9.36 Z0.46 F1080.0
M103
G1 X-26.7 Y-9.36 Z0.46 F1800.0
M101
G1 X-26.7 Y9.36 Z0.46 F1080.0
M103
G1 X-27.1 Y9.36 Z0.46 F1800.0
M101
G1 X-27.1 Y-9.36 Z0.46 F1080.0
M103
G1 X-27.49 Y-9.36 Z0.46 F1800.0
M101
G1 X-27.49 Y9.36 Z0.46 F1080.0
M103
G1 X-27.88 Y9.36 Z0.46 F1800.0
M101
G1 X-27.88 Y-9.36 Z0.46 F1080.0
M103
G1 X-28.27 Y-9.36 Z0.46 F1800.0
M101
G1 X-28.27 Y9.36 Z0.46 F1080.0
M103
G1 X-28.67 Y9.36 Z0.46 F1800.0
M101
G1 X-28.67 Y-9.36 Z0.46 F1080.0
M103
G1 X-29.06 Y-9.36 Z0.46 F1800.0
M101
G1 X-29.06 Y9.36 Z0.46 F1080.0
M103
G1 X-29.45 Y9.36 Z0.46 F1800.0
M101
G1 X-29.45 Y-9.36 Z0.46 F1080.0
M103
G1 X-29.85 Y-9.36 Z0.46 F1800.0
M101
G1 X-29.85 Y9.36 Z0.46 F1080.0
M103
G1 X-30.24 Y9.36 Z0.46 F1800.0
M101
G1 X-30.24 Y-9.36 Z0.46 F1080.0
M103
G1 X-30.63 Y-9.36 Z0.46 F1800.0
M101
G1 X-30.63 Y9.36 Z0.46 F1080.0
M103
G1 X-31.02 Y9.36 Z0.46 F1800.0
M101
G1 X-31.02 Y-9.36 Z0.46 F1080.0
M103
G1 X-31.42 Y-9.36 Z0.46 F1800.0
M101
G1 X-31.42 Y9.09 Z0.46 F1080.0
M108 R30.0
M102
G1 X-31.42 Y9.36 Z0.46 F1080.0
M108 R2.141
M103
G1 X-22.21 Y-8.93 Z0.46 F1800.0
M108 R30.0
M101
G1 X-21.99 Y-9.36 Z0.46 F1800.0
M108 R2.141
G1 X-21.99 Y-1.85 Z0.46 F1080.0
M108 R30.0
M102
G1 X-21.99 Y-1.58 Z0.46 F1080.0
M108 R2.141
M103
G1 X-21.77 Y-2.18 Z0.46 F1800.0
M108 R30.0
M101
G1 X-21.6 Y-2.63 Z0.46 F1800.0
M108 R2.141
G1 X-21.6 Y-9.36 Z0.46 F1080.0
M103
G1 X-21.21 Y-9.36 Z0.46 F1800.0
M101
G1 X-21.21 Y-3.31 Z0.46 F1080.0
M103
G1 X-20.81 Y-3.81 Z0.46 F1800.0
M101
G1 X-20.81 Y-9.36 Z0.46 F1080.0
M103
G1 X-20.42 Y-9.36 Z0.46 F1800.0
M101
G1 X-20.42 Y-4.25 Z0.46 F1080.0
G1 X-20.03 Y-4.59 Z0.46 F1080.0
G1 X-20.03 Y-9.36 Z0.46 F1080.0
M103
G1 X-19.64 Y-9.36 Z0.46 F1800.0
M101
G1 X-19.64 Y-4.88 Z0.46 F1080.0
G1 X-19.24 Y-5.16 Z0.46 F1080.0
G1 X-19.24 Y-9.36 Z0.46 F1080.0
M103
G1 X-18.85 Y-9.36 Z0.46 F1800.0
M101
G1 X-18.85 Y-5.33 Z0.46 F1080.0
M103
G1 X-18.46 Y-5.51 Z0.46 F1800.0
M101
G1 X-18.46 Y-9.36 Z0.46 F1080.0
M103
G1 X-18.06 Y-9.36 Z0.46 F1800.0
M101
G1 X-18.06 Y-5.67 Z0.46 F1080.0
M103
G1 X-17.67 Y-5.75 Z0.46 F1800.0
M101
G1 X-17.67 Y-9.36 Z0.46 F1080.0
M103
G1 X-17.28 Y-9.36 Z0.46 F1800.0
M101
G1 X-17.28 Y-5.84 Z0.46 F1080.0
M103
G1 X-16.89 Y-5.92 Z0.46 F1800.0
M101
G1 X-16.89 Y-9.36 Z0.46 F1080.0
M103
G1 X-16.49 Y-9.36 Z0.46 F1800.0
M101
G1 X-16.49 Y-5.92 Z0.46 F1080.0
G1 X-16.1 Y-5.92 Z0.46 F1080.0
G1 X-16.1 Y-9.36 Z0.46 F1080.0
M103
G1 X-15.71 Y-9.36 Z0.46 F1800.0
M101
G1 X-15.71 Y-5.92 Z0.46 F1080.0
M103
G1 X-15.32 Y-5.84 Z0.46 F1800.0
M101
G1 X-15.32 Y-9.36 Z0.46 F1080.0
M103
G1 X-14.92 Y-9.36 Z0.46 F1800.0
M101
G1 X-14.92 Y-5.76 Z0.46 F1080.0
G1 X-14.53 Y-5.68 Z0.46 F1080.0
G1 X-14.53 Y-9.36 Z0.46 F1080.0
M103
G1 X-14.14 Y-9.36 Z0.46 F1800.0
M101
G1 X-14.14 Y-5.79 Z0.46 F1080.0
M108 R30.0
M102
G1 X-14.14 Y-5.52 Z0.46 F1080.0
M108 R2.141
M103
G1 X-13.38 Y-5.12 Z0.46 F1800.0
M108 R30.0
M101
G1 X-12.96 Y-4.9 Z0.46 F1800.0
M108 R2.141
G1 X-12.96 Y-9.36 Z0.46 F1080.0
M103
G1 X-12.57 Y-9.36 Z0.46 F1800.0
M101
G1 X-12.57 Y-4.61 Z0.46 F1080.0
G1 X-12.17 Y-4.28 Z0.46 F1080.0
G1 X-12.17 Y-9.36 Z0.46 F1080.0
M103
G1 X-11.78 Y-9.36 Z0.46 F1800.0
M101
G1 X-11.78 Y-3.84 Z0.46 F1080.0
G1 X-11.39 Y-3.35 Z0.46 F1080.0
G1 X-11.39 Y-9.36 Z0.46 F1080.0
M103
G1 X-11.0 Y-9.36 Z0.46 F1800.0
M101
G1 X-11.0 Y-2.94 Z0.46 F1080.0
M108 R30.0
M102
G1 X-11.0 Y-2.67 Z0.46 F1080.0
M108 R2.141
M103
G1 X-10.78 Y-2.11 Z0.46 F1800.0
M108 R30.0
M101
G1 X-10.6 Y-1.66 Z0.46 F1800.0
M108 R2.141
G1 X-10.6 Y-9.36 Z0.46 F1080.0
M103
G1 X-10.21 Y-9.36 Z0.46 F1800.0
M101
G1 X-10.21 Y9.36 Z0.46 F1080.0
M103
G1 X-9.82 Y9.36 Z0.46 F1800.0
M101
G1 X-9.82 Y-9.36 Z0.46 F1080.0
M103
G1 X-9.43 Y-9.36 Z0.46 F1800.0
M101
G1 X-9.43 Y9.36 Z0.46 F1080.0
M103
G1 X-9.03 Y9.36 Z0.46 F1800.0
M101
G1 X-9.03 Y-9.36 Z0.46 F1080.0
M103
G1 X-8.64 Y-9.36 Z0.46 F1800.0
M101
G1 X-8.64 Y9.36 Z0.46 F1080.0
M103
G1 X-8.25 Y9.36 Z0.46 F1800.0
M101
G1 X-8.25 Y-9.36 Z0.46 F1080.0
M103
G1 X-7.85 Y-9.36 Z0.46 F1800.0
M101
G1 X-7.85 Y9.36 Z0.46 F1080.0
M103
G1 X-7.46 Y9.36 Z0.46 F1800.0
M101
G1 X-7.46 Y-9.36 Z0.46 F1080.0
M103
G1 X-7.07 Y-9.36 Z0.46 F1800.0
M101
G1 X-7.07 Y9.36 Z0.46 F1080.0
M103
G1 X-6.68 Y9.36 Z0.46 F1800.0
M101
G1 X-6.68 Y-9.36 Z0.46 F1080.0
M103
G1 X-6.28 Y-9.36 Z0.46 F1800.0
M101
G1 X-6.28 Y9.36 Z0.46 F1080.0
M103
G1 X-5.89 Y9.36 Z0.46 F1800.0
M101
G1 X-5.89 Y-9.36 Z0.46 F1080.0
M103
G1 X-5.5 Y-9.36 Z0.46 F1800.0
M101
G1 X-5.5 Y9.36 Z0.46 F1080.0
M103
G1 X-5.11 Y9.36 Z0.46 F1800.0
M101
G1 X-5.11 Y-9.36 Z0.46 F1080.0
M103
G1 X-4.71 Y-9.36 Z0.46 F1800.0
M101
G1 X-4.71 Y9.36 Z0.46 F1080.0
M103
G1 X-4.32 Y9.36 Z0.46 F1800.0
M101
G1 X-4.32 Y-9.36 Z0.46 F1080.0
M103
G1 X-3.93 Y-9.36 Z0.46 F1800.0
M101
G1 X-3.93 Y9.36 Z0.46 F1080.0
M103
G1 X-3.53 Y9.36 Z0.46 F1800.0
M101
G1 X-3.53 Y-9.36 Z0.46 F1080.0
M103
G1 X-3.14 Y-9.36 Z0.46 F1800.0
M101
G1 X-3.14 Y9.36 Z0.46 F1080.0
M103
G1 X-2.75 Y9.36 Z0.46 F1800.0
M101
G1 X-2.75 Y-9.36 Z0.46 F1080.0
M103
G1 X-2.36 Y-9.36 Z0.46 F1800.0
M101
G1 X-2.36 Y9.36 Z0.46 F1080.0
M103
G1 X-1.96 Y9.36 Z0.46 F1800.0
M101
G1 X-1.96 Y-9.36 Z0.46 F1080.0
M103
G1 X-1.57 Y-9.36 Z0.46 F1800.0
M101
G1 X-1.57 Y9.36 Z0.46 F1080.0
M103
G1 X-1.18 Y9.36 Z0.46 F1800.0
M101
G1 X-1.18 Y-9.36 Z0.46 F1080.0
M103
G1 X-0.79 Y-9.36 Z0.46 F1800.0
M101
G1 X-0.79 Y9.36 Z0.46 F1080.0
M103
G1 X-0.39 Y9.36 Z0.46 F1800.0
M101
G1 X-0.39 Y-9.36 Z0.46 F1080.0
M103
G1 X-0.0 Y-9.36 Z0.46 F1800.0
M101
G1 X0.0 Y9.36 Z0.46 F1080.0
M103
G1 X0.39 Y9.36 Z0.46 F1800.0
M101
G1 X0.39 Y-9.36 Z0.46 F1080.0
M103
G1 X0.79 Y-9.36 Z0.46 F1800.0
M101
G1 X0.79 Y9.36 Z0.46 F1080.0
M103
G1 X1.18 Y9.36 Z0.46 F1800.0
M101
G1 X1.18 Y-9.36 Z0.46 F1080.0
M103
G1 X1.57 Y-9.36 Z0.46 F1800.0
M101
G1 X1.57 Y9.36 Z0.46 F1080.0
M103
G1 X1.96 Y9.36 Z0.46 F1800.0
M101
G1 X1.96 Y-9.36 Z0.46 F1080.0
M103
G1 X2.36 Y-9.36 Z0.46 F1800.0
M101
G1 X2.36 Y9.36 Z0.46 F1080.0
M103
G1 X2.75 Y9.36 Z0.46 F1800.0
M101
G1 X2.75 Y-9.36 Z0.46 F1080.0
M103
G1 X3.14 Y-9.36 Z0.46 F1800.0
M101
G1 X3.14 Y9.36 Z0.46 F1080.0
M103
G1 X3.53 Y9.36 Z0.46 F1800.0
M101
G1 X3.53 Y-9.36 Z0.46 F1080.0
M103
G1 X3.93 Y-9.36 Z0.46 F1800.0
M101
G1 X3.93 Y9.36 Z0.46 F1080.0
M103
G1 X4.32 Y9.36 Z0.46 F1800.0
M101
G1 X4.32 Y-9.36 Z0.46 F1080.0
M103
G1 X4.71 Y-9.36 Z0.46 F1800.0
M101
G1 X4.71 Y9.36 Z0.46 F1080.0
M103
G1 X5.11 Y9.36 Z0.46 F1800.0
M101
G1 X5.11 Y-9.36 Z0.46 F1080.0
M103
G1 X5.5 Y-9.36 Z0.46 F1800.0
M101
G1 X5.5 Y9.36 Z0.46 F1080.0
M103
G1 X5.89 Y9.36 Z0.46 F1800.0
M101
G1 X5.89 Y-9.36 Z0.46 F1080.0
M103
G1 X6.28 Y-9.36 Z0.46 F1800.0
M101
G1 X6.28 Y9.36 Z0.46 F1080.0
M103
G1 X6.68 Y9.36 Z0.46 F1800.0
M101
G1 X6.68 Y-9.36 Z0.46 F1080.0
M103
G1 X7.07 Y-9.36 Z0.46 F1800.0
M101
G1 X7.07 Y9.36 Z0.46 F1080.0
M103
G1 X7.46 Y9.36 Z0.46 F1800.0
M101
G1 X7.46 Y-9.36 Z0.46 F1080.0
M103
G1 X7.85 Y-9.36 Z0.46 F1800.0
M101
G1 X7.85 Y9.36 Z0.46 F1080.0
M103
G1 X8.25 Y9.36 Z0.46 F1800.0
M101
G1 X8.25 Y-9.36 Z0.46 F1080.0
M103
G1 X8.64 Y-9.36 Z0.46 F1800.0
M101
G1 X8.64 Y9.36 Z0.46 F1080.0
M103
G1 X9.03 Y9.36 Z0.46 F1800.0
M101
G1 X9.03 Y-9.36 Z0.46 F1080.0
M103
G1 X9.43 Y-9.36 Z0.46 F1800.0
M101
G1 X9.43 Y9.36 Z0.46 F1080.0
M103
G1 X9.82 Y9.36 Z0.46 F1800.0
M101
G1 X9.82 Y-9.36 Z0.46 F1080.0
M103
G1 X10.21 Y-9.36 Z0.46 F1800.0
M101
G1 X10.21 Y9.36 Z0.46 F1080.0
M103
G1 X10.6 Y9.36 Z0.46 F1800.0
M101
G1 X10.6 Y1.93 Z0.46 F1080.0
M108 R30.0
M102
G1 X10.6 Y1.66 Z0.46 F1080.0
M108 R2.141
M103
G1 X10.82 Y2.23 Z0.46 F1800.0
M108 R30.0
M101
G1 X11.0 Y2.67 Z0.46 F1800.0
M108 R2.141
G1 X11.0 Y9.36 Z0.46 F1080.0
M103
G1 X11.39 Y9.36 Z0.46 F1800.0
M101
G1 X11.39 Y3.35 Z0.46 F1080.0
G1 X11.78 Y3.84 Z0.46 F1080.0
G1 X11.78 Y9.36 Z0.46 F1080.0
M103
G1 X12.17 Y9.36 Z0.46 F1800.0
M101
G1 X12.17 Y4.28 Z0.46 F1080.0
G1 X12.57 Y4.61 Z0.46 F1080.0
G1 X12.57 Y9.36 Z0.46 F1080.0
M103
G1 X12.96 Y9.36 Z0.46 F1800.0
M101
G1 X12.96 Y5.17 Z0.46 F1080.0
M108 R30.0
M102
G1 X12.96 Y4.9 Z0.46 F1080.0
M108 R2.141
M103
G1 X13.71 Y5.3 Z0.46 F1800.0
M108 R30.0
M101
G1 X14.14 Y5.52 Z0.46 F1800.0
M108 R2.141
G1 X14.14 Y9.36 Z0.46 F1080.0
M103
G1 X13.35 Y9.36 Z0.46 F1800.0
M101
G1 X13.35 Y5.17 Z0.46 F1080.0
G1 X13.74 Y5.35 Z0.46 F1080.0
G1 X13.74 Y9.36 Z0.46 F1080.0
M103
G1 X14.53 Y9.36 Z0.46 F1800.0
M101
G1 X14.53 Y5.68 Z0.46 F1080.0
G1 X14.92 Y5.76 Z0.46 F1080.0
G1 X14.92 Y9.36 Z0.46 F1080.0
M103
G1 X15.32 Y9.36 Z0.46 F1800.0
M101
G1 X15.32 Y5.84 Z0.46 F1080.0
M103
G1 X15.71 Y5.92 Z0.46 F1800.0
M101
G1 X15.71 Y9.36 Z0.46 F1080.0
M103
G1 X16.1 Y9.36 Z0.46 F1800.0
M101
G1 X16.1 Y5.92 Z0.46 F1080.0
G1 X16.49 Y5.92 Z0.46 F1080.0
G1 X16.49 Y9.36 Z0.46 F1080.0
M103
G1 X16.89 Y9.36 Z0.46 F1800.0
M101
G1 X16.89 Y5.92 Z0.46 F1080.0
M103
G1 X17.28 Y5.84 Z0.46 F1800.0
M101
G1 X17.28 Y9.36 Z0.46 F1080.0
M103
G1 X17.67 Y9.36 Z0.46 F1800.0
M101
G1 X17.67 Y5.75 Z0.46 F1080.0
M103
G1 X18.06 Y5.67 Z0.46 F1800.0
M101
G1 X18.06 Y9.36 Z0.46 F1080.0
M103
G1 X18.46 Y9.36 Z0.46 F1800.0
M101
G1 X18.46 Y5.51 Z0.46 F1080.0
M103
G1 X18.85 Y5.33 Z0.46 F1800.0
M101
G1 X18.85 Y9.36 Z0.46 F1080.0
M103
G1 X19.24 Y9.36 Z0.46 F1800.0
M101
G1 X19.24 Y5.16 Z0.46 F1080.0
G1 X19.64 Y4.88 Z0.46 F1080.0
G1 X19.64 Y9.36 Z0.46 F1080.0
M103
G1 X20.03 Y9.36 Z0.46 F1800.0
M101
G1 X20.03 Y4.59 Z0.46 F1080.0
G1 X20.42 Y4.25 Z0.46 F1080.0
G1 X20.42 Y9.36 Z0.46 F1080.0
M103
G1 X20.81 Y9.36 Z0.46 F1800.0
M101
G1 X20.81 Y3.81 Z0.46 F1080.0
M103
G1 X21.21 Y3.31 Z0.46 F1800.0
M101
G1 X21.21 Y9.36 Z0.46 F1080.0
M103
G1 X21.6 Y9.36 Z0.46 F1800.0
M101
G1 X21.6 Y2.9 Z0.46 F1080.0
M108 R30.0
M102
G1 X21.6 Y2.63 Z0.46 F1080.0
M108 R2.141
M103
G1 X21.82 Y2.03 Z0.46 F1800.0
M108 R30.0
M101
G1 X21.99 Y1.58 Z0.46 F1800.0
M108 R2.141
G1 X21.99 Y9.36 Z0.46 F1080.0
M103
G1 X22.38 Y9.36 Z0.46 F1800.0
M101
G1 X22.38 Y-9.36 Z0.46 F1080.0
M103
G1 X21.99 Y-9.36 Z0.46 F1800.0
M101
G1 X21.99 Y-1.85 Z0.46 F1080.0
M108 R30.0
M102
G1 X21.99 Y-1.58 Z0.46 F1080.0
M108 R2.141
M103
G1 X21.77 Y-2.18 Z0.46 F1800.0
M108 R30.0
M101
G1 X21.6 Y-2.63 Z0.46 F1800.0
M108 R2.141
G1 X21.6 Y-9.36 Z0.46 F1080.0
M103
G1 X21.21 Y-9.36 Z0.46 F1800.0
M101
G1 X21.21 Y-3.31 Z0.46 F1080.0
M103
G1 X20.81 Y-3.81 Z0.46 F1800.0
M101
G1 X20.81 Y-9.36 Z0.46 F1080.0
M103
G1 X20.42 Y-9.36 Z0.46 F1800.0
M101
G1 X20.42 Y-4.25 Z0.46 F1080.0
G1 X20.03 Y-4.59 Z0.46 F1080.0
G1 X20.03 Y-9.36 Z0.46 F1080.0
M103
G1 X19.64 Y-9.36 Z0.46 F1800.0
M101
G1 X19.64 Y-4.88 Z0.46 F1080.0
G1 X19.24 Y-5.16 Z0.46 F1080.0
G1 X19.24 Y-9.36 Z0.46 F1080.0
M103
G1 X18.85 Y-9.36 Z0.46 F1800.0
M101
G1 X18.85 Y-5.33 Z0.46 F1080.0
M103
G1 X18.46 Y-5.51 Z0.46 F1800.0
M101
G1 X18.46 Y-9.36 Z0.46 F1080.0
M103
G1 X18.06 Y-9.36 Z0.46 F1800.0
M101
G1 X18.06 Y-5.67 Z0.46 F1080.0
M103
G1 X17.67 Y-5.75 Z0.46 F1800.0
M101
G1 X17.67 Y-9.36 Z0.46 F1080.0
M103
G1 X17.28 Y-9.36 Z0.46 F1800.0
M101
G1 X17.28 Y-5.84 Z0.46 F1080.0
M103
G1 X16.89 Y-5.92 Z0.46 F1800.0
M101
G1 X16.89 Y-9.36 Z0.46 F1080.0
M103
G1 X16.49 Y-9.36 Z0.46 F1800.0
M101
G1 X16.49 Y-5.92 Z0.46 F1080.0
G1 X16.1 Y-5.92 Z0.46 F1080.0
G1 X16.1 Y-9.36 Z0.46 F1080.0
M103
G1 X15.71 Y-9.36 Z0.46 F1800.0
M101
G1 X15.71 Y-5.92 Z0.46 F1080.0
M103
G1 X15.32 Y-5.84 Z0.46 F1800.0
M101
G1 X15.32 Y-9.36 Z0.46 F1080.0
M103
G1 X14.92 Y-9.36 Z0.46 F1800.0
M101
G1 X14.92 Y-5.76 Z0.46 F1080.0
G1 X14.53 Y-5.68 Z0.46 F1080.0
G1 X14.53 Y-9.36 Z0.46 F1080.0
M103
G1 X14.14 Y-9.36 Z0.46 F1800.0
M101
G1 X14.14 Y-5.79 Z0.46 F1080.0
M108 R30.0
M102
G1 X14.14 Y-5.52 Z0.46 F1080.0
M108 R2.141
M103
G1 X13.38 Y-5.12 Z0.46 F1800.0
M108 R30.0
M101
G1 X12.96 Y-4.9 Z0.46 F1800.0
M108 R2.141
G1 X12.96 Y-9.36 Z0.46 F1080.0
M103
G1 X12.57 Y-9.36 Z0.46 F1800.0
M101
G1 X12.57 Y-4.61 Z0.46 F1080.0
G1 X12.17 Y-4.28 Z0.46 F1080.0
G1 X12.17 Y-9.36 Z0.46 F1080.0
M103
G1 X11.78 Y-9.36 Z0.46 F1800.0
M101
G1 X11.78 Y-3.84 Z0.46 F1080.0
G1 X11.39 Y-3.35 Z0.46 F1080.0
G1 X11.39 Y-9.36 Z0.46 F1080.0
M103
G1 X11.0 Y-9.36 Z0.46 F1800.0
M101
G1 X11.0 Y-2.94 Z0.46 F1080.0
M108 R30.0
M102
G1 X11.0 Y-2.67 Z0.46 F1080.0
M108 R2.141
M103
G1 X10.78 Y-2.11 Z0.46 F1800.0
M108 R30.0
M101
G1 X10.6 Y-1.66 Z0.46 F1800.0
M108 R2.141
G1 X10.6 Y-9.09 Z0.46 F1080.0
M108 R30.0
M102
G1 X10.6 Y-9.36 Z0.46 F1080.0
M108 R2.141
M103
G1 X13.26 Y-9.36 Z0.46 F1800.0
M108 R30.0
M101
G1 X13.74 Y-9.36 Z0.46 F1800.0
M108 R2.141
G1 X13.74 Y-5.35 Z0.46 F1080.0
G1 X13.35 Y-5.17 Z0.46 F1080.0
G1 X13.35 Y-9.09 Z0.46 F1080.0
M108 R30.0
M102
G1 X13.35 Y-9.36 Z0.46 F1080.0
M108 R2.141
M103
G1 X22.3 Y-9.36 Z0.46 F1800.0
M108 R30.0
M101
G1 X22.78 Y-9.36 Z0.46 F1800.0
M108 R2.141
G1 X22.78 Y9.36 Z0.46 F1080.0
M103
G1 X23.17 Y9.36 Z0.46 F1800.0
M101
G1 X23.17 Y-9.36 Z0.46 F1080.0
M103
G1 X23.56 Y-9.36 Z0.46 F1800.0
M101
G1 X23.56 Y9.36 Z0.46 F1080.0
M103
G1 X23.96 Y9.36 Z0.46 F1800.0
M101
G1 X23.96 Y-9.36 Z0.46 F1080.0
M103
G1 X24.35 Y-9.36 Z0.46 F1800.0
M101
G1 X24.35 Y9.36 Z0.46 F1080.0
M103
G1 X24.74 Y9.36 Z0.46 F1800.0
M101
G1 X24.74 Y-9.36 Z0.46 F1080.0
M103
G1 X25.13 Y-9.36 Z0.46 F1800.0
M101
G1 X25.13 Y9.36 Z0.46 F1080.0
M103
G1 X25.53 Y9.36 Z0.46 F1800.0
M101
G1 X25.53 Y-9.36 Z0.46 F1080.0
M103
G1 X25.92 Y-9.36 Z0.46 F1800.0
M101
G1 X25.92 Y9.36 Z0.46 F1080.0
M103
G1 X26.31 Y9.36 Z0.46 F1800.0
M101
G1 X26.31 Y-9.36 Z0.46 F1080.0
M103
G1 X26.7 Y-9.36 Z0.46 F1800.0
M101
G1 X26.7 Y9.36 Z0.46 F1080.0
M103
G1 X27.1 Y9.36 Z0.46 F1800.0
M101
G1 X27.1 Y-9.36 Z0.46 F1080.0
M103
G1 X27.49 Y-9.36 Z0.46 F1800.0
M101
G1 X27.49 Y9.36 Z0.46 F1080.0
M103
G1 X27.88 Y9.36 Z0.46 F1800.0
M101
G1 X27.88 Y-9.36 Z0.46 F1080.0
M103
G1 X28.27 Y-9.36 Z0.46 F1800.0
M101
G1 X28.27 Y9.36 Z0.46 F1080.0
M103
G1 X28.67 Y9.36 Z0.46 F1800.0
M101
G1 X28.67 Y-9.36 Z0.46 F1080.0
M103
G1 X29.06 Y-9.36 Z0.46 F1800.0
M101
G1 X29.06 Y9.36 Z0.46 F1080.0
M103
G1 X29.45 Y9.36 Z0.46 F1800.0
M101
G1 X29.45 Y-9.36 Z0.46 F1080.0
M103
G1 X29.85 Y-9.36 Z0.46 F1800.0
M101
G1 X29.85 Y9.36 Z0.46 F1080.0
M103
G1 X30.24 Y9.36 Z0.46 F1800.0
M101
G1 X30.24 Y-9.36 Z0.46 F1080.0
M103
G1 X30.63 Y-9.36 Z0.46 F1800.0
M101
G1 X30.63 Y9.36 Z0.46 F1080.0
M103
G1 X31.02 Y9.36 Z0.46 F1800.0
M101
G1 X31.02 Y-9.36 Z0.46 F1080.0
M103
G1 X31.42 Y-9.36 Z0.46 F1800.0
M101
G1 X31.42 Y9.09 Z0.46 F1080.0
M108 R30.0
M102
G1 X31.42 Y9.36 Z0.46 F1080.0
M108 R2.141
M103
G1 X-12.87 Y9.36 Z0.46 F1800.0
M108 R30.0
M101
G1 X-13.35 Y9.36 Z0.46 F1800.0
M108 R2.141
G1 X-13.35 Y5.17 Z0.46 F1080.0
G1 X-13.74 Y5.35 Z0.46 F1080.0
G1 X-13.74 Y9.09 Z0.46 F1080.0
M108 R30.0
M102
G1 X-13.74 Y9.36 Z0.46 F1080.0
M108 R2.141
M103
G1 X-11.03 Y1.12 Z0.46 F3000.0
G1 X-10.91 Y-0.0 Z0.46 F3000.0
G1 X-11.03 Y-1.12 Z0.46 F3000.0
G1 X-13.59 Y-8.9 Z0.46 F1800.0
M108 R30.0
M101
G1 X-13.74 Y-9.36 Z0.46 F1800.0
M108 R2.141
G1 X-13.74 Y-5.35 Z0.46 F1080.0
G1 X-13.35 Y-5.17 Z0.46 F1080.0
G1 X-13.35 Y-9.09 Z0.46 F1080.0
M108 R30.0
M102
G1 X-13.35 Y-9.36 Z0.46 F1080.0
M108 R2.141
M103
(</surroundingLoop>)
(</layer>)
(<layer> 0.78 )
(<surroundingLoop>)
(<boundaryPerimeter>)
(<boundaryPoint> X32.569 Y10.2 Z0.78 </boundaryPoint>)
(<boundaryPoint> X-32.569 Y10.2 Z0.78 </boundaryPoint>)
(<boundaryPoint> X-32.569 Y-10.2 Z0.78 </boundaryPoint>)
(<boundaryPoint> X32.569 Y-10.2 Z0.78 </boundaryPoint>)
(<loop> inner )
M108 R3.569
G1 X-14.15 Y-6.11 Z0.72 F3000.0
M108 R30.0
M101
G1 X-14.34 Y-5.33 Z0.78 F3000.0
M108 R3.569
G1 X-14.53 Y-5.41 Z0.78 F1800.0
G1 X-15.69 Y-5.66 Z0.78 F1800.0
G1 X-16.88 Y-5.66 Z0.78 F1800.0
G1 X-18.04 Y-5.41 Z0.78 F1800.0
G1 X-19.13 Y-4.93 Z0.78 F1800.0
G1 X-20.09 Y-4.23 Z0.78 F1800.0
G1 X-20.89 Y-3.35 Z0.78 F1800.0
G1 X-21.48 Y-2.32 Z0.78 F1800.0
G1 X-21.85 Y-1.18 Z0.78 F1800.0
G1 X-21.98 Y-0.0 Z0.78 F1800.0
G1 X-21.85 Y1.18 Z0.78 F1800.0
G1 X-21.48 Y2.32 Z0.78 F1800.0
G1 X-20.89 Y3.35 Z0.78 F1800.0
G1 X-20.09 Y4.23 Z0.78 F1800.0
G1 X-19.13 Y4.93 Z0.78 F1800.0
G1 X-18.04 Y5.41 Z0.78 F1800.0
G1 X-16.88 Y5.66 Z0.78 F1800.0
G1 X-15.69 Y5.66 Z0.78 F1800.0
G1 X-14.53 Y5.41 Z0.78 F1800.0
G1 X-13.44 Y4.93 Z0.78 F1800.0
G1 X-12.48 Y4.23 Z0.78 F1800.0
G1 X-11.68 Y3.35 Z0.78 F1800.0
G1 X-11.08 Y2.32 Z0.78 F1800.0
G1 X-10.72 Y1.18 Z0.78 F1800.0
G1 X-10.59 Y0.0 Z0.78 F1800.0
G1 X-10.72 Y-1.18 Z0.78 F1800.0
G1 X-11.08 Y-2.32 Z0.78 F1800.0
G1 X-11.68 Y-3.35 Z0.78 F1800.0
G1 X-12.48 Y-4.23 Z0.78 F1800.0
G1 X-13.44 Y-4.93 Z0.78 F1800.0
G1 X-13.92 Y-5.15 Z0.78 F1800.0
M108 R30.0
M102
G1 X-14.34 Y-5.33 Z0.78 F1800.0
M108 R3.569
M103
(</loop>)
(<loop> inner )
G1 X9.93 Y-1.31 Z0.78 F3000.0
M108 R30.0
M101
G1 X10.72 Y-1.18 Z0.78 F3000.0
M108 R3.569
G1 X10.59 Y-0.0 Z0.78 F1800.0
G1 X10.72 Y1.18 Z0.78 F1800.0
G1 X11.08 Y2.32 Z0.78 F1800.0
G1 X11.68 Y3.35 Z0.78 F1800.0
G1 X12.48 Y4.23 Z0.78 F1800.0
G1 X13.44 Y4.93 Z0.78 F1800.0
G1 X14.53 Y5.41 Z0.78 F1800.0
G1 X15.69 Y5.66 Z0.78 F1800.0
G1 X16.88 Y5.66 Z0.78 F1800.0
G1 X18.04 Y5.41 Z0.78 F1800.0
G1 X19.13 Y4.93 Z0.78 F1800.0
G1 X20.09 Y4.23 Z0.78 F1800.0
G1 X20.89 Y3.35 Z0.78 F1800.0
G1 X21.48 Y2.32 Z0.78 F1800.0
G1 X21.85 Y1.18 Z0.78 F1800.0
G1 X21.98 Y0.0 Z0.78 F1800.0
G1 X21.85 Y-1.18 Z0.78 F1800.0
G1 X21.48 Y-2.32 Z0.78 F1800.0
G1 X20.89 Y-3.35 Z0.78 F1800.0
G1 X20.09 Y-4.23 Z0.78 F1800.0
G1 X19.13 Y-4.93 Z0.78 F1800.0
G1 X18.04 Y-5.41 Z0.78 F1800.0
G1 X16.88 Y-5.66 Z0.78 F1800.0
G1 X15.69 Y-5.66 Z0.78 F1800.0
G1 X14.53 Y-5.41 Z0.78 F1800.0
G1 X13.44 Y-4.93 Z0.78 F1800.0
G1 X12.48 Y-4.23 Z0.78 F1800.0
G1 X11.68 Y-3.35 Z0.78 F1800.0
G1 X11.08 Y-2.32 Z0.78 F1800.0
G1 X10.86 Y-1.61 Z0.78 F1800.0
M108 R30.0
M102
G1 X10.72 Y-1.18 Z0.78 F1800.0
M108 R3.569
M103
(</loop>)
(<loop> outer )
G1 X10.72 Y-8.81 Z0.78 F3000.0
M108 R30.0
M101
G1 X10.72 Y-9.61 Z0.78 F3000.0
M108 R3.569
G1 X31.98 Y-9.61 Z0.78 F1800.0
G1 X31.98 Y9.61 Z0.78 F1800.0
G1 X-31.98 Y9.61 Z0.78 F1800.0
G1 X-31.98 Y-9.61 Z0.78 F1800.0
G1 X10.72 Y-9.61 Z0.78 F1800.0
M103
(</loop>)
(<perimeter> outer )
G1 X10.72 Y-10.0 Z0.78 F3000.0
M101
G1 X32.37 Y-10.0 Z0.78 F1800.0
G1 X32.37 Y10.0 Z0.78 F1800.0
G1 X-32.37 Y10.0 Z0.78 F1800.0
G1 X-32.37 Y-10.0 Z0.78 F1800.0
G1 X10.27 Y-10.0 Z0.78 F1800.0
M108 R30.0
M102
G1 X10.72 Y-10.0 Z0.78 F1800.0
M108 R3.569
M103
(</perimeter>)
(</boundaryPerimeter>)
(<surroundingLoop>)
(<boundaryPerimeter>)
(<boundaryPoint> X12.158 Y2.998 Z0.78 </boundaryPoint>)
(<boundaryPoint> X12.872 Y3.79 Z0.78 </boundaryPoint>)
(<boundaryPoint> X13.734 Y4.417 Z0.78 </boundaryPoint>)
(<boundaryPoint> X14.708 Y4.85 Z0.78 </boundaryPoint>)
(<boundaryPoint> X15.751 Y5.072 Z0.78 </boundaryPoint>)
(<boundaryPoint> X16.817 Y5.072 Z0.78 </boundaryPoint>)
(<boundaryPoint> X17.86 Y4.85 Z0.78 </boundaryPoint>)
(<boundaryPoint> X18.834 Y4.417 Z0.78 </boundaryPoint>)
(<boundaryPoint> X19.697 Y3.79 Z0.78 </boundaryPoint>)
(<boundaryPoint> X20.41 Y2.998 Z0.78 </boundaryPoint>)
(<boundaryPoint> X20.943 Y2.074 Z0.78 </boundaryPoint>)
(<boundaryPoint> X21.273 Y1.06 Z0.78 </boundaryPoint>)
(<boundaryPoint> X21.384 Y-0.0 Z0.78 </boundaryPoint>)
(<boundaryPoint> X21.273 Y-1.06 Z0.78 </boundaryPoint>)
(<boundaryPoint> X20.943 Y-2.074 Z0.78 </boundaryPoint>)
(<boundaryPoint> X20.41 Y-2.998 Z0.78 </boundaryPoint>)
(<boundaryPoint> X19.697 Y-3.79 Z0.78 </boundaryPoint>)
(<boundaryPoint> X18.834 Y-4.417 Z0.78 </boundaryPoint>)
(<boundaryPoint> X17.86 Y-4.85 Z0.78 </boundaryPoint>)
(<boundaryPoint> X16.817 Y-5.072 Z0.78 </boundaryPoint>)
(<boundaryPoint> X15.751 Y-5.072 Z0.78 </boundaryPoint>)
(<boundaryPoint> X14.708 Y-4.85 Z0.78 </boundaryPoint>)
(<boundaryPoint> X13.734 Y-4.417 Z0.78 </boundaryPoint>)
(<boundaryPoint> X12.872 Y-3.79 Z0.78 </boundaryPoint>)
(<boundaryPoint> X12.158 Y-2.998 Z0.78 </boundaryPoint>)
(<boundaryPoint> X11.625 Y-2.074 Z0.78 </boundaryPoint>)
(<boundaryPoint> X11.296 Y-1.06 Z0.78 </boundaryPoint>)
(<boundaryPoint> X11.184 Y0.0 Z0.78 </boundaryPoint>)
(<boundaryPoint> X11.296 Y1.06 Z0.78 </boundaryPoint>)
(<boundaryPoint> X11.625 Y2.074 Z0.78 </boundaryPoint>)
(<perimeter> inner )
G1 X13.26 Y-5.29 Z0.78 F3000.0
M108 R30.0
M101
G1 X13.64 Y-4.59 Z0.78 F3000.0
M108 R3.569
G1 X12.74 Y-3.94 Z0.78 F1800.0
G1 X12.0 Y-3.11 Z0.78 F1800.0
G1 X11.44 Y-2.15 Z0.78 F1800.0
G1 X11.1 Y-1.1 Z0.78 F1800.0
G1 X10.99 Y0.0 Z0.78 F1800.0
G1 X11.1 Y1.1 Z0.78 F1800.0
G1 X11.44 Y2.15 Z0.78 F1800.0
G1 X12.0 Y3.11 Z0.78 F1800.0
G1 X12.74 Y3.94 Z0.78 F1800.0
G1 X13.64 Y4.59 Z0.78 F1800.0
G1 X14.65 Y5.04 Z0.78 F1800.0
G1 X15.73 Y5.27 Z0.78 F1800.0
G1 X16.84 Y5.27 Z0.78 F1800.0
G1 X17.92 Y5.04 Z0.78 F1800.0
G1 X18.93 Y4.59 Z0.78 F1800.0
G1 X19.83 Y3.94 Z0.78 F1800.0
G1 X20.57 Y3.11 Z0.78 F1800.0
G1 X21.12 Y2.15 Z0.78 F1800.0
G1 X21.47 Y1.1 Z0.78 F1800.0
G1 X21.58 Y-0.0 Z0.78 F1800.0
G1 X21.47 Y-1.1 Z0.78 F1800.0
G1 X21.12 Y-2.15 Z0.78 F1800.0
G1 X20.57 Y-3.11 Z0.78 F1800.0
G1 X19.83 Y-3.94 Z0.78 F1800.0
G1 X18.93 Y-4.59 Z0.78 F1800.0
G1 X17.92 Y-5.04 Z0.78 F1800.0
G1 X16.84 Y-5.27 Z0.78 F1800.0
G1 X15.73 Y-5.27 Z0.78 F1800.0
G1 X14.65 Y-5.04 Z0.78 F1800.0
G1 X14.05 Y-4.77 Z0.78 F1800.0
M108 R30.0
M102
G1 X13.64 Y-4.59 Z0.78 F1800.0
M108 R3.569
M103
(</perimeter>)
(</boundaryPerimeter>)
(</surroundingLoop>)
(<surroundingLoop>)
(<boundaryPerimeter>)
(<boundaryPoint> X-20.41 Y2.998 Z0.78 </boundaryPoint>)
(<boundaryPoint> X-19.697 Y3.79 Z0.78 </boundaryPoint>)
(<boundaryPoint> X-18.834 Y4.417 Z0.78 </boundaryPoint>)
(<boundaryPoint> X-17.86 Y4.85 Z0.78 </boundaryPoint>)
(<boundaryPoint> X-16.817 Y5.072 Z0.78 </boundaryPoint>)
(<boundaryPoint> X-15.751 Y5.072 Z0.78 </boundaryPoint>)
(<boundaryPoint> X-14.708 Y4.85 Z0.78 </boundaryPoint>)
(<boundaryPoint> X-13.734 Y4.417 Z0.78 </boundaryPoint>)
(<boundaryPoint> X-12.872 Y3.79 Z0.78 </boundaryPoint>)
(<boundaryPoint> X-12.158 Y2.998 Z0.78 </boundaryPoint>)
(<boundaryPoint> X-11.625 Y2.074 Z0.78 </boundaryPoint>)
(<boundaryPoint> X-11.296 Y1.06 Z0.78 </boundaryPoint>)
(<boundaryPoint> X-11.184 Y-0.0 Z0.78 </boundaryPoint>)
(<boundaryPoint> X-11.296 Y-1.06 Z0.78 </boundaryPoint>)
(<boundaryPoint> X-11.625 Y-2.074 Z0.78 </boundaryPoint>)
(<boundaryPoint> X-12.158 Y-2.998 Z0.78 </boundaryPoint>)
(<boundaryPoint> X-12.872 Y-3.79 Z0.78 </boundaryPoint>)
(<boundaryPoint> X-13.734 Y-4.417 Z0.78 </boundaryPoint>)
(<boundaryPoint> X-14.708 Y-4.85 Z0.78 </boundaryPoint>)
(<boundaryPoint> X-15.751 Y-5.072 Z0.78 </boundaryPoint>)
(<boundaryPoint> X-16.817 Y-5.072 Z0.78 </boundaryPoint>)
(<boundaryPoint> X-17.86 Y-4.85 Z0.78 </boundaryPoint>)
(<boundaryPoint> X-18.834 Y-4.417 Z0.78 </boundaryPoint>)
(<boundaryPoint> X-19.697 Y-3.79 Z0.78 </boundaryPoint>)
(<boundaryPoint> X-20.41 Y-2.998 Z0.78 </boundaryPoint>)
(<boundaryPoint> X-20.943 Y-2.074 Z0.78 </boundaryPoint>)
(<boundaryPoint> X-21.273 Y-1.06 Z0.78 </boundaryPoint>)
(<boundaryPoint> X-21.384 Y0.0 Z0.78 </boundaryPoint>)
(<boundaryPoint> X-21.273 Y1.06 Z0.78 </boundaryPoint>)
(<boundaryPoint> X-20.943 Y2.074 Z0.78 </boundaryPoint>)
(<perimeter> inner )
G1 X-10.31 Y-1.21 Z0.78 F3000.0
M108 R30.0
M101
G1 X-11.1 Y-1.1 Z0.78 F3000.0
M108 R3.569
G1 X-11.44 Y-2.15 Z0.78 F1800.0
G1 X-12.0 Y-3.11 Z0.78 F1800.0
G1 X-12.74 Y-3.94 Z0.78 F1800.0
G1 X-13.64 Y-4.59 Z0.78 F1800.0
G1 X-14.65 Y-5.04 Z0.78 F1800.0
G1 X-15.73 Y-5.27 Z0.78 F1800.0
G1 X-16.84 Y-5.27 Z0.78 F1800.0
G1 X-17.92 Y-5.04 Z0.78 F1800.0
G1 X-18.93 Y-4.59 Z0.78 F1800.0
G1 X-19.83 Y-3.94 Z0.78 F1800.0
G1 X-20.57 Y-3.11 Z0.78 F1800.0
G1 X-21.12 Y-2.15 Z0.78 F1800.0
G1 X-21.47 Y-1.1 Z0.78 F1800.0
G1 X-21.58 Y0.0 Z0.78 F1800.0
G1 X-21.47 Y1.1 Z0.78 F1800.0
G1 X-21.12 Y2.15 Z0.78 F1800.0
G1 X-20.57 Y3.11 Z0.78 F1800.0
G1 X-19.83 Y3.94 Z0.78 F1800.0
G1 X-18.93 Y4.59 Z0.78 F1800.0
G1 X-17.92 Y5.04 Z0.78 F1800.0
G1 X-16.84 Y5.27 Z0.78 F1800.0
G1 X-15.73 Y5.27 Z0.78 F1800.0
G1 X-14.65 Y5.04 Z0.78 F1800.0
G1 X-13.64 Y4.59 Z0.78 F1800.0
G1 X-12.74 Y3.94 Z0.78 F1800.0
G1 X-12.0 Y3.11 Z0.78 F1800.0
G1 X-11.44 Y2.15 Z0.78 F1800.0
G1 X-11.1 Y1.1 Z0.78 F1800.0
G1 X-10.99 Y-0.0 Z0.78 F1800.0
G1 X-11.1 Y-1.1 Z0.78 F1800.0
M103
(</perimeter>)
(</boundaryPerimeter>)
(</surroundingLoop>)
G1 X-10.46 Y-1.18 Z0.78 F3000.0
M101
G1 X10.46 Y-1.18 Z0.78 F1800.0
M103
G1 X10.42 Y-0.79 Z0.78 F3000.0
M101
G1 X-10.42 Y-0.79 Z0.78 F1800.0
M103
G1 X-10.38 Y-0.39 Z0.78 F3000.0
M101
G1 X10.38 Y-0.39 Z0.78 F1800.0
M103
G1 X10.34 Y-0.0 Z0.78 F3000.0
M101
G1 X-10.34 Y0.0 Z0.78 F1800.0
M103
G1 X-10.38 Y0.39 Z0.78 F3000.0
M101
G1 X10.38 Y0.39 Z0.78 F1800.0
M103
G1 X10.42 Y0.79 Z0.78 F3000.0
M101
G1 X-10.42 Y0.79 Z0.78 F1800.0
M103
G1 X-10.46 Y1.18 Z0.78 F3000.0
M101
G1 X10.46 Y1.18 Z0.78 F1800.0
M103
G1 X10.57 Y1.57 Z0.78 F3000.0
M101
G1 X-10.12 Y1.57 Z0.78 F1800.0
M108 R30.0
M102
G1 X-10.57 Y1.57 Z0.78 F1800.0
M108 R3.569
M103
G1 X-10.75 Y2.01 Z0.78 F3000.0
M108 R30.0
M101
G1 X-11.04 Y2.75 Z0.78 F3000.0
M108 R3.569
G1 X11.04 Y2.75 Z0.78 F1800.0
G1 X10.83 Y2.36 Z0.78 F1800.0
G1 X-10.83 Y2.36 Z0.78 F1800.0
G1 X-10.7 Y1.96 Z0.78 F1800.0
G1 X10.25 Y1.96 Z0.78 F1800.0
M108 R30.0
M102
G1 X10.7 Y1.96 Z0.78 F1800.0
M108 R3.569
M103
G1 X10.6 Y-0.77 Z0.78 F3000.0
M108 R30.0
M101
G1 X10.57 Y-1.57 Z0.78 F3000.0
M108 R3.569
G1 X-10.57 Y-1.57 Z0.78 F1800.0
M103
G1 X-10.7 Y-1.96 Z0.78 F3000.0
M101
G1 X10.7 Y-1.96 Z0.78 F1800.0
G1 X10.83 Y-2.36 Z0.78 F1800.0
G1 X-10.83 Y-2.36 Z0.78 F1800.0
G1 X-11.04 Y-2.75 Z0.78 F1800.0
G1 X11.04 Y-2.75 Z0.78 F1800.0
M103
G1 X11.27 Y-3.14 Z0.78 F3000.0
M101
G1 X-11.27 Y-3.14 Z0.78 F1800.0
G1 X-11.5 Y-3.53 Z0.78 F1800.0
G1 X11.5 Y-3.53 Z0.78 F1800.0
G1 X11.86 Y-3.93 Z0.78 F1800.0
G1 X-11.86 Y-3.93 Z0.78 F1800.0
G1 X-12.21 Y-4.32 Z0.78 F1800.0
G1 X12.21 Y-4.32 Z0.78 F1800.0
G1 X12.7 Y-4.71 Z0.78 F1800.0
G1 X-12.7 Y-4.71 Z0.78 F1800.0
G1 X-13.24 Y-5.11 Z0.78 F1800.0
G1 X13.24 Y-5.11 Z0.78 F1800.0
M103
G1 X14.09 Y-5.5 Z0.78 F3000.0
M101
G1 X-13.64 Y-5.5 Z0.78 F1800.0
M108 R30.0
M102
G1 X-14.09 Y-5.5 Z0.78 F1800.0
M108 R3.569
M103
G1 X-14.77 Y-5.68 Z0.78 F3000.0
M108 R30.0
M101
G1 X-15.54 Y-5.89 Z0.78 F3000.0
M108 R3.569
G1 X15.09 Y-5.89 Z0.78 F1800.0
M108 R30.0
M102
G1 X15.54 Y-5.89 Z0.78 F1800.0
M108 R3.569
M103
G1 X16.23 Y-5.89 Z0.78 F3000.0
M108 R30.0
M101
G1 X17.03 Y-5.89 Z0.78 F3000.0
M108 R3.569
G1 X31.72 Y-5.89 Z0.78 F1800.0
M103
G1 X31.72 Y-5.5 Z0.78 F3000.0
M101
G1 X18.48 Y-5.5 Z0.78 F1800.0
M103
G1 X19.32 Y-5.11 Z0.78 F3000.0
M101
G1 X31.72 Y-5.11 Z0.78 F1800.0
M103
G1 X31.72 Y-4.71 Z0.78 F3000.0
M101
G1 X19.86 Y-4.71 Z0.78 F1800.0
G1 X20.36 Y-4.32 Z0.78 F1800.0
G1 X31.72 Y-4.32 Z0.78 F1800.0
M103
G1 X31.72 Y-3.93 Z0.78 F3000.0
M101
G1 X20.71 Y-3.93 Z0.78 F1800.0
G1 X21.06 Y-3.53 Z0.78 F1800.0
G1 X31.72 Y-3.53 Z0.78 F1800.0
M103
G1 X31.72 Y-3.14 Z0.78 F3000.0
M101
G1 X21.3 Y-3.14 Z0.78 F1800.0
G1 X21.53 Y-2.75 Z0.78 F1800.0
G1 X31.72 Y-2.75 Z0.78 F1800.0
M103
G1 X31.72 Y-2.36 Z0.78 F3000.0
M101
G1 X21.74 Y-2.36 Z0.78 F1800.0
M103
G1 X21.87 Y-1.96 Z0.78 F3000.0
M101
G1 X31.72 Y-1.96 Z0.78 F1800.0
M103
G1 X31.72 Y-1.57 Z0.78 F3000.0
M101
G1 X22.45 Y-1.57 Z0.78 F1800.0
M108 R30.0
M102
G1 X22.0 Y-1.57 Z0.78 F1800.0
M108 R3.569
M103
G1 X22.06 Y-1.18 Z0.78 F3000.0
M108 R30.0
M101
G1 X22.19 Y-0.39 Z0.78 F3000.0
M108 R3.569
G1 X31.72 Y-0.39 Z0.78 F1800.0
M103
G1 X31.72 Y-0.0 Z0.78 F3000.0
M101
G1 X22.23 Y-0.0 Z0.78 F1800.0
G1 X22.19 Y0.39 Z0.78 F1800.0
G1 X31.72 Y0.39 Z0.78 F1800.0
M103
G1 X31.72 Y0.79 Z0.78 F3000.0
M101
G1 X22.15 Y0.79 Z0.78 F1800.0
G1 X22.11 Y1.18 Z0.78 F1800.0
G1 X31.72 Y1.18 Z0.78 F1800.0
M103
G1 X31.72 Y1.57 Z0.78 F3000.0
M101
G1 X22.0 Y1.57 Z0.78 F1800.0
M103
G1 X21.87 Y1.96 Z0.78 F3000.0
M101
G1 X31.72 Y1.96 Z0.78 F1800.0
M103
G1 X31.72 Y2.36 Z0.78 F3000.0
M101
G1 X21.74 Y2.36 Z0.78 F1800.0
M103
G1 X21.53 Y2.75 Z0.78 F3000.0
M101
G1 X31.72 Y2.75 Z0.78 F1800.0
M103
G1 X31.72 Y3.14 Z0.78 F3000.0
M101
G1 X21.3 Y3.14 Z0.78 F1800.0
G1 X21.06 Y3.53 Z0.78 F1800.0
G1 X31.72 Y3.53 Z0.78 F1800.0
M103
G1 X31.72 Y3.93 Z0.78 F3000.0
M101
G1 X20.71 Y3.93 Z0.78 F1800.0
G1 X20.36 Y4.32 Z0.78 F1800.0
G1 X31.72 Y4.32 Z0.78 F1800.0
M103
G1 X31.72 Y4.71 Z0.78 F3000.0
M101
G1 X19.86 Y4.71 Z0.78 F1800.0
G1 X19.32 Y5.11 Z0.78 F1800.0
G1 X31.72 Y5.11 Z0.78 F1800.0
M103
G1 X31.72 Y5.5 Z0.78 F3000.0
M101
G1 X18.93 Y5.5 Z0.78 F1800.0
M108 R30.0
M102
G1 X18.48 Y5.5 Z0.78 F1800.0
M108 R3.569
M103
G1 X30.92 Y5.87 Z0.78 F3000.0
M108 R30.0
M101
G1 X31.72 Y5.89 Z0.78 F3000.0
M108 R3.569
G1 X17.48 Y5.89 Z0.78 F1800.0
M108 R30.0
M102
G1 X17.03 Y5.89 Z0.78 F1800.0
M108 R3.569
M103
G1 X16.34 Y5.89 Z0.78 F3000.0
M108 R30.0
M101
G1 X15.54 Y5.89 Z0.78 F3000.0
M108 R3.569
G1 X-15.09 Y5.89 Z0.78 F1800.0
M108 R30.0
M102
G1 X-15.54 Y5.89 Z0.78 F1800.0
M108 R3.569
M103
G1 X-16.23 Y5.89 Z0.78 F3000.0
M108 R30.0
M101
G1 X-17.03 Y5.89 Z0.78 F3000.0
M108 R3.569
G1 X-31.72 Y5.89 Z0.78 F1800.0
M103
G1 X-31.72 Y5.5 Z0.78 F3000.0
M101
G1 X-18.48 Y5.5 Z0.78 F1800.0
M103
G1 X-19.32 Y5.11 Z0.78 F3000.0
M101
G1 X-31.72 Y5.11 Z0.78 F1800.0
M103
G1 X-31.72 Y4.71 Z0.78 F3000.0
M101
G1 X-19.86 Y4.71 Z0.78 F1800.0
G1 X-20.36 Y4.32 Z0.78 F1800.0
G1 X-31.72 Y4.32 Z0.78 F1800.0
M103
G1 X-31.72 Y3.93 Z0.78 F3000.0
M101
G1 X-20.71 Y3.93 Z0.78 F1800.0
G1 X-21.06 Y3.53 Z0.78 F1800.0
G1 X-31.72 Y3.53 Z0.78 F1800.0
M103
G1 X-31.72 Y3.14 Z0.78 F3000.0
M101
G1 X-21.3 Y3.14 Z0.78 F1800.0
G1 X-21.53 Y2.75 Z0.78 F1800.0
G1 X-31.72 Y2.75 Z0.78 F1800.0
M103
G1 X-31.72 Y2.36 Z0.78 F3000.0
M101
G1 X-21.74 Y2.36 Z0.78 F1800.0
M103
G1 X-21.87 Y1.96 Z0.78 F3000.0
M101
G1 X-31.72 Y1.96 Z0.78 F1800.0
M103
G1 X-31.72 Y1.57 Z0.78 F3000.0
M101
G1 X-22.45 Y1.57 Z0.78 F1800.0
M108 R30.0
M102
G1 X-22.0 Y1.57 Z0.78 F1800.0
M108 R3.569
M103
G1 X-22.06 Y1.18 Z0.78 F3000.0
M108 R30.0
M101
G1 X-22.19 Y0.39 Z0.78 F3000.0
M108 R3.569
G1 X-31.72 Y0.39 Z0.78 F1800.0
M103
G1 X-31.72 Y0.0 Z0.78 F3000.0
M101
G1 X-22.23 Y0.0 Z0.78 F1800.0
G1 X-22.19 Y-0.39 Z0.78 F1800.0
G1 X-31.72 Y-0.39 Z0.78 F1800.0
M103
G1 X-31.72 Y-0.79 Z0.78 F3000.0
M101
G1 X-22.15 Y-0.79 Z0.78 F1800.0
G1 X-22.11 Y-1.18 Z0.78 F1800.0
G1 X-31.72 Y-1.18 Z0.78 F1800.0
M103
G1 X-31.72 Y-1.57 Z0.78 F3000.0
M101
G1 X-22.0 Y-1.57 Z0.78 F1800.0
M103
G1 X-21.87 Y-1.96 Z0.78 F3000.0
M101
G1 X-31.72 Y-1.96 Z0.78 F1800.0
M103
G1 X-31.72 Y-2.36 Z0.78 F3000.0
M101
G1 X-21.74 Y-2.36 Z0.78 F1800.0
M103
G1 X-21.53 Y-2.75 Z0.78 F3000.0
M101
G1 X-31.72 Y-2.75 Z0.78 F1800.0
M103
G1 X-31.72 Y-3.14 Z0.78 F3000.0
M101
G1 X-21.3 Y-3.14 Z0.78 F1800.0
G1 X-21.06 Y-3.53 Z0.78 F1800.0
G1 X-31.72 Y-3.53 Z0.78 F1800.0
M103
G1 X-31.72 Y-3.93 Z0.78 F3000.0
M101
G1 X-20.71 Y-3.93 Z0.78 F1800.0
G1 X-20.36 Y-4.32 Z0.78 F1800.0
G1 X-31.72 Y-4.32 Z0.78 F1800.0
M103
G1 X-31.72 Y-4.71 Z0.78 F3000.0
M101
G1 X-19.86 Y-4.71 Z0.78 F1800.0
G1 X-19.32 Y-5.11 Z0.78 F1800.0
G1 X-31.72 Y-5.11 Z0.78 F1800.0
M103
G1 X-31.72 Y-5.5 Z0.78 F3000.0
M101
G1 X-18.93 Y-5.5 Z0.78 F1800.0
M108 R30.0
M102
G1 X-18.48 Y-5.5 Z0.78 F1800.0
M108 R3.569
M103
G1 X-17.8 Y-5.68 Z0.78 F3000.0
M108 R30.0
M101
G1 X-17.03 Y-5.89 Z0.78 F3000.0
M108 R3.569
G1 X-31.72 Y-5.89 Z0.78 F1800.0
M103
G1 X-31.72 Y-6.28 Z0.78 F3000.0
M101
G1 X31.72 Y-6.28 Z0.78 F1800.0
M103
G1 X31.72 Y-6.68 Z0.78 F3000.0
M101
G1 X-31.72 Y-6.68 Z0.78 F1800.0
M103
G1 X-31.72 Y-7.07 Z0.78 F3000.0
M101
G1 X31.72 Y-7.07 Z0.78 F1800.0
M103
G1 X31.72 Y-7.46 Z0.78 F3000.0
M101
G1 X-31.72 Y-7.46 Z0.78 F1800.0
M103
G1 X-31.72 Y-7.85 Z0.78 F3000.0
M101
G1 X31.72 Y-7.85 Z0.78 F1800.0
M103
G1 X31.72 Y-8.25 Z0.78 F3000.0
M101
G1 X-31.72 Y-8.25 Z0.78 F1800.0
M103
G1 X-31.72 Y-8.64 Z0.78 F3000.0
M101
G1 X31.72 Y-8.64 Z0.78 F1800.0
M103
G1 X31.72 Y-9.03 Z0.78 F3000.0
M101
G1 X-31.27 Y-9.03 Z0.78 F1800.0
M108 R30.0
M102
G1 X-31.72 Y-9.03 Z0.78 F1800.0
M108 R3.569
M103
G1 X-31.72 Y0.38 Z0.78 F3000.0
M108 R30.0
M101
G1 X-31.72 Y1.18 Z0.78 F3000.0
M108 R3.569
G1 X-22.11 Y1.18 Z0.78 F1800.0
G1 X-22.15 Y0.79 Z0.78 F1800.0
G1 X-31.27 Y0.79 Z0.78 F1800.0
M108 R30.0
M102
G1 X-31.72 Y0.79 Z0.78 F1800.0
M108 R3.569
M103
G1 X-31.72 Y5.48 Z0.78 F3000.0
M108 R30.0
M101
G1 X-31.72 Y6.28 Z0.78 F3000.0
M108 R3.569
G1 X31.72 Y6.28 Z0.78 F1800.0
M103
G1 X31.72 Y6.68 Z0.78 F3000.0
M101
G1 X-31.72 Y6.68 Z0.78 F1800.0
M103
G1 X-31.72 Y7.07 Z0.78 F3000.0
M101
G1 X31.72 Y7.07 Z0.78 F1800.0
M103
G1 X31.72 Y7.46 Z0.78 F3000.0
M101
G1 X-31.72 Y7.46 Z0.78 F1800.0
M103
G1 X-31.72 Y7.85 Z0.78 F3000.0
M101
G1 X31.72 Y7.85 Z0.78 F1800.0
M103
G1 X31.72 Y8.25 Z0.78 F3000.0
M101
G1 X-31.72 Y8.25 Z0.78 F1800.0
M103
G1 X-31.72 Y8.64 Z0.78 F3000.0
M101
G1 X31.72 Y8.64 Z0.78 F1800.0
M103
G1 X31.72 Y9.03 Z0.78 F3000.0
M101
G1 X-31.27 Y9.03 Z0.78 F1800.0
M108 R30.0
M102
G1 X-31.72 Y9.03 Z0.78 F1800.0
M108 R3.569
M103
G1 X13.29 Y5.56 Z0.78 F3000.0
M108 R30.0
M101
G1 X14.09 Y5.5 Z0.78 F3000.0
M108 R3.569
G1 X-14.09 Y5.5 Z0.78 F1800.0
M103
G1 X-13.24 Y5.11 Z0.78 F3000.0
M101
G1 X13.24 Y5.11 Z0.78 F1800.0
G1 X12.7 Y4.71 Z0.78 F1800.0
G1 X-12.7 Y4.71 Z0.78 F1800.0
G1 X-12.21 Y4.32 Z0.78 F1800.0
G1 X12.21 Y4.32 Z0.78 F1800.0
G1 X11.86 Y3.93 Z0.78 F1800.0
G1 X-11.86 Y3.93 Z0.78 F1800.0
G1 X-11.5 Y3.53 Z0.78 F1800.0
G1 X11.5 Y3.53 Z0.78 F1800.0
G1 X11.27 Y3.14 Z0.78 F1800.0
G1 X-10.82 Y3.14 Z0.78 F1800.0
M108 R30.0
M102
G1 X-11.27 Y3.14 Z0.78 F1800.0
M108 R3.569
M103
G1 X16.85 Y5.34 Z0.78 F3000.0
G1 X17.95 Y5.11 Z0.78 F3000.0
G1 X31.0 Y-0.85 Z0.78 F3000.0
M108 R30.0
M101
G1 X31.72 Y-1.18 Z0.78 F3000.0
M108 R3.569
G1 X22.11 Y-1.18 Z0.78 F1800.0
G1 X22.15 Y-0.79 Z0.78 F1800.0
G1 X31.27 Y-0.79 Z0.78 F1800.0
M108 R30.0
M102
G1 X31.72 Y-0.79 Z0.78 F1800.0
M108 R3.569
M103
(</surroundingLoop>)
(</layer>)
(<operatingLayerEnd> </operatingLayerEnd>)
(<layer> 1.1 )
(<surroundingLoop>)
(<boundaryPerimeter>)
(<boundaryPoint> X32.569 Y10.2 Z1.1 </boundaryPoint>)
(<boundaryPoint> X-32.569 Y10.2 Z1.1 </boundaryPoint>)
(<boundaryPoint> X-32.569 Y-10.2 Z1.1 </boundaryPoint>)
(<boundaryPoint> X32.569 Y-10.2 Z1.1 </boundaryPoint>)
(<loop> inner )
G1 X16.85 Y-5.34 Z1.1 F3000.0
G1 X15.72 Y-5.34 Z1.1 F3000.0
G1 X-9.83 Y-0.43 Z1.1 F3000.0
M108 R30.0
M101
G1 X-10.62 Y-0.28 Z1.1 F3000.0
M108 R3.569
G1 X-10.72 Y-1.18 Z1.1 F1800.0
G1 X-11.08 Y-2.32 Z1.1 F1800.0
G1 X-11.68 Y-3.35 Z1.1 F1800.0
G1 X-12.48 Y-4.23 Z1.1 F1800.0
G1 X-13.44 Y-4.93 Z1.1 F1800.0
G1 X-14.53 Y-5.41 Z1.1 F1800.0
G1 X-15.69 Y-5.66 Z1.1 F1800.0
G1 X-16.88 Y-5.66 Z1.1 F1800.0
G1 X-18.04 Y-5.41 Z1.1 F1800.0
G1 X-19.13 Y-4.93 Z1.1 F1800.0
G1 X-20.09 Y-4.23 Z1.1 F1800.0
G1 X-20.89 Y-3.35 Z1.1 F1800.0
G1 X-21.48 Y-2.32 Z1.1 F1800.0
G1 X-21.85 Y-1.18 Z1.1 F1800.0
G1 X-21.98 Y-0.0 Z1.1 F1800.0
G1 X-21.85 Y1.18 Z1.1 F1800.0
G1 X-21.48 Y2.32 Z1.1 F1800.0
G1 X-20.89 Y3.35 Z1.1 F1800.0
G1 X-20.09 Y4.23 Z1.1 F1800.0
G1 X-19.13 Y4.93 Z1.1 F1800.0
G1 X-18.04 Y5.41 Z1.1 F1800.0
G1 X-16.88 Y5.66 Z1.1 F1800.0
G1 X-15.69 Y5.66 Z1.1 F1800.0
G1 X-14.53 Y5.41 Z1.1 F1800.0
G1 X-13.44 Y4.93 Z1.1 F1800.0
G1 X-12.48 Y4.23 Z1.1 F1800.0
G1 X-11.68 Y3.35 Z1.1 F1800.0
G1 X-11.08 Y2.32 Z1.1 F1800.0
G1 X-10.72 Y1.18 Z1.1 F1800.0
G1 X-10.61 Y0.17 Z1.1 F1800.0
M108 R30.0
M102
G1 X-10.59 Y0.0 Z1.1 F1800.0
G1 X-10.62 Y-0.28 Z1.1 F1800.0
M108 R3.569
M103
(</loop>)
(<loop> inner )
G1 X9.79 Y-0.01 Z1.1 F3000.0
M108 R30.0
M101
G1 X10.59 Y-0.0 Z1.1 F3000.0
M108 R3.569
G1 X10.72 Y1.18 Z1.1 F1800.0
G1 X11.08 Y2.32 Z1.1 F1800.0
G1 X11.68 Y3.35 Z1.1 F1800.0
G1 X12.48 Y4.23 Z1.1 F1800.0
G1 X13.44 Y4.93 Z1.1 F1800.0
G1 X14.53 Y5.41 Z1.1 F1800.0
G1 X15.69 Y5.66 Z1.1 F1800.0
G1 X16.88 Y5.66 Z1.1 F1800.0
G1 X18.04 Y5.41 Z1.1 F1800.0
G1 X19.13 Y4.93 Z1.1 F1800.0
G1 X20.09 Y4.23 Z1.1 F1800.0
G1 X20.89 Y3.35 Z1.1 F1800.0
G1 X21.48 Y2.32 Z1.1 F1800.0
G1 X21.85 Y1.18 Z1.1 F1800.0
G1 X21.98 Y0.0 Z1.1 F1800.0
G1 X21.85 Y-1.18 Z1.1 F1800.0
G1 X21.48 Y-2.32 Z1.1 F1800.0
G1 X20.89 Y-3.35 Z1.1 F1800.0
G1 X20.09 Y-4.23 Z1.1 F1800.0
G1 X19.13 Y-4.93 Z1.1 F1800.0
G1 X18.04 Y-5.41 Z1.1 F1800.0
G1 X16.88 Y-5.66 Z1.1 F1800.0
G1 X15.69 Y-5.66 Z1.1 F1800.0
G1 X14.53 Y-5.41 Z1.1 F1800.0
G1 X13.44 Y-4.93 Z1.1 F1800.0
G1 X12.48 Y-4.23 Z1.1 F1800.0
G1 X11.68 Y-3.35 Z1.1 F1800.0
G1 X11.08 Y-2.32 Z1.1 F1800.0
G1 X10.72 Y-1.18 Z1.1 F1800.0
G1 X10.64 Y-0.45 Z1.1 F1800.0
M108 R30.0
M102
G1 X10.59 Y-0.0 Z1.1 F1800.0
M108 R3.569
M103
(</loop>)
(<loop> outer )
G1 X10.59 Y8.81 Z1.1 F3000.0
M108 R30.0
M101
G1 X10.59 Y9.61 Z1.1 F3000.0
M108 R3.569
G1 X-31.98 Y9.61 Z1.1 F1800.0
G1 X-31.98 Y-9.61 Z1.1 F1800.0
G1 X31.98 Y-9.61 Z1.1 F1800.0
G1 X31.98 Y9.61 Z1.1 F1800.0
G1 X10.59 Y9.61 Z1.1 F1800.0
M103
(</loop>)
(<perimeter> outer )
G1 X10.59 Y10.0 Z1.1 F3000.0
M101
G1 X-32.37 Y10.0 Z1.1 F1800.0
G1 X-32.37 Y-10.0 Z1.1 F1800.0
G1 X32.37 Y-10.0 Z1.1 F1800.0
G1 X32.37 Y10.0 Z1.1 F1800.0
G1 X11.04 Y10.0 Z1.1 F1800.0
M108 R30.0
M102
G1 X10.59 Y10.0 Z1.1 F1800.0
M108 R3.569
M103
(</perimeter>)
(</boundaryPerimeter>)
(<surroundingLoop>)
(<boundaryPerimeter>)
(<boundaryPoint> X12.158 Y2.998 Z1.1 </boundaryPoint>)
(<boundaryPoint> X12.872 Y3.79 Z1.1 </boundaryPoint>)
(<boundaryPoint> X13.734 Y4.417 Z1.1 </boundaryPoint>)
(<boundaryPoint> X14.708 Y4.85 Z1.1 </boundaryPoint>)
(<boundaryPoint> X15.751 Y5.072 Z1.1 </boundaryPoint>)
(<boundaryPoint> X16.817 Y5.072 Z1.1 </boundaryPoint>)
(<boundaryPoint> X17.86 Y4.85 Z1.1 </boundaryPoint>)
(<boundaryPoint> X18.834 Y4.417 Z1.1 </boundaryPoint>)
(<boundaryPoint> X19.697 Y3.79 Z1.1 </boundaryPoint>)
(<boundaryPoint> X20.41 Y2.998 Z1.1 </boundaryPoint>)
(<boundaryPoint> X20.943 Y2.074 Z1.1 </boundaryPoint>)
(<boundaryPoint> X21.273 Y1.06 Z1.1 </boundaryPoint>)
(<boundaryPoint> X21.384 Y-0.0 Z1.1 </boundaryPoint>)
(<boundaryPoint> X21.273 Y-1.06 Z1.1 </boundaryPoint>)
(<boundaryPoint> X20.943 Y-2.074 Z1.1 </boundaryPoint>)
(<boundaryPoint> X20.41 Y-2.998 Z1.1 </boundaryPoint>)
(<boundaryPoint> X19.697 Y-3.79 Z1.1 </boundaryPoint>)
(<boundaryPoint> X18.834 Y-4.417 Z1.1 </boundaryPoint>)
(<boundaryPoint> X17.86 Y-4.85 Z1.1 </boundaryPoint>)
(<boundaryPoint> X16.817 Y-5.072 Z1.1 </boundaryPoint>)
(<boundaryPoint> X15.751 Y-5.072 Z1.1 </boundaryPoint>)
(<boundaryPoint> X14.708 Y-4.85 Z1.1 </boundaryPoint>)
(<boundaryPoint> X13.734 Y-4.417 Z1.1 </boundaryPoint>)
(<boundaryPoint> X12.872 Y-3.79 Z1.1 </boundaryPoint>)
(<boundaryPoint> X12.158 Y-2.998 Z1.1 </boundaryPoint>)
(<boundaryPoint> X11.625 Y-2.074 Z1.1 </boundaryPoint>)
(<boundaryPoint> X11.296 Y-1.06 Z1.1 </boundaryPoint>)
(<boundaryPoint> X11.184 Y0.0 Z1.1 </boundaryPoint>)
(<boundaryPoint> X11.296 Y1.06 Z1.1 </boundaryPoint>)
(<boundaryPoint> X11.625 Y2.074 Z1.1 </boundaryPoint>)
(<perimeter> inner )
G1 X13.24 Y5.29 Z1.1 F3000.0
M108 R30.0
M101
G1 X13.64 Y4.59 Z1.1 F3000.0
M108 R3.569
G1 X14.65 Y5.04 Z1.1 F1800.0
G1 X15.73 Y5.27 Z1.1 F1800.0
G1 X16.84 Y5.27 Z1.1 F1800.0
G1 X17.92 Y5.04 Z1.1 F1800.0
G1 X18.93 Y4.59 Z1.1 F1800.0
G1 X19.83 Y3.94 Z1.1 F1800.0
G1 X20.57 Y3.11 Z1.1 F1800.0
G1 X21.12 Y2.15 Z1.1 F1800.0
G1 X21.47 Y1.1 Z1.1 F1800.0
G1 X21.58 Y-0.0 Z1.1 F1800.0
G1 X21.47 Y-1.1 Z1.1 F1800.0
G1 X21.12 Y-2.15 Z1.1 F1800.0
G1 X20.57 Y-3.11 Z1.1 F1800.0
G1 X19.83 Y-3.94 Z1.1 F1800.0
G1 X18.93 Y-4.59 Z1.1 F1800.0
G1 X17.92 Y-5.04 Z1.1 F1800.0
G1 X16.84 Y-5.27 Z1.1 F1800.0
G1 X15.73 Y-5.27 Z1.1 F1800.0
G1 X14.65 Y-5.04 Z1.1 F1800.0
G1 X13.64 Y-4.59 Z1.1 F1800.0
G1 X12.74 Y-3.94 Z1.1 F1800.0
G1 X12.0 Y-3.11 Z1.1 F1800.0
G1 X11.44 Y-2.15 Z1.1 F1800.0
G1 X11.1 Y-1.1 Z1.1 F1800.0
G1 X10.99 Y0.0 Z1.1 F1800.0
G1 X11.1 Y1.1 Z1.1 F1800.0
G1 X11.44 Y2.15 Z1.1 F1800.0
G1 X12.0 Y3.11 Z1.1 F1800.0
G1 X12.74 Y3.94 Z1.1 F1800.0
G1 X13.27 Y4.32 Z1.1 F1800.0
M108 R30.0
M102
G1 X13.64 Y4.59 Z1.1 F1800.0
M108 R3.569
M103
(</perimeter>)
(</boundaryPerimeter>)
(</surroundingLoop>)
(<surroundingLoop>)
(<boundaryPerimeter>)
(<boundaryPoint> X-20.41 Y2.998 Z1.1 </boundaryPoint>)
(<boundaryPoint> X-19.697 Y3.79 Z1.1 </boundaryPoint>)
(<boundaryPoint> X-18.834 Y4.417 Z1.1 </boundaryPoint>)
(<boundaryPoint> X-17.86 Y4.85 Z1.1 </boundaryPoint>)
(<boundaryPoint> X-16.817 Y5.072 Z1.1 </boundaryPoint>)
(<boundaryPoint> X-15.751 Y5.072 Z1.1 </boundaryPoint>)
(<boundaryPoint> X-14.708 Y4.85 Z1.1 </boundaryPoint>)
(<boundaryPoint> X-13.734 Y4.417 Z1.1 </boundaryPoint>)
(<boundaryPoint> X-12.872 Y3.79 Z1.1 </boundaryPoint>)
(<boundaryPoint> X-12.158 Y2.998 Z1.1 </boundaryPoint>)
(<boundaryPoint> X-11.625 Y2.074 Z1.1 </boundaryPoint>)
(<boundaryPoint> X-11.296 Y1.06 Z1.1 </boundaryPoint>)
(<boundaryPoint> X-11.184 Y-0.0 Z1.1 </boundaryPoint>)
(<boundaryPoint> X-11.296 Y-1.06 Z1.1 </boundaryPoint>)
(<boundaryPoint> X-11.625 Y-2.074 Z1.1 </boundaryPoint>)
(<boundaryPoint> X-12.158 Y-2.998 Z1.1 </boundaryPoint>)
(<boundaryPoint> X-12.872 Y-3.79 Z1.1 </boundaryPoint>)
(<boundaryPoint> X-13.734 Y-4.417 Z1.1 </boundaryPoint>)
(<boundaryPoint> X-14.708 Y-4.85 Z1.1 </boundaryPoint>)
(<boundaryPoint> X-15.751 Y-5.072 Z1.1 </boundaryPoint>)
(<boundaryPoint> X-16.817 Y-5.072 Z1.1 </boundaryPoint>)
(<boundaryPoint> X-17.86 Y-4.85 Z1.1 </boundaryPoint>)
(<boundaryPoint> X-18.834 Y-4.417 Z1.1 </boundaryPoint>)
(<boundaryPoint> X-19.697 Y-3.79 Z1.1 </boundaryPoint>)
(<boundaryPoint> X-20.41 Y-2.998 Z1.1 </boundaryPoint>)
(<boundaryPoint> X-20.943 Y-2.074 Z1.1 </boundaryPoint>)
(<boundaryPoint> X-21.273 Y-1.06 Z1.1 </boundaryPoint>)
(<boundaryPoint> X-21.384 Y0.0 Z1.1 </boundaryPoint>)
(<boundaryPoint> X-21.273 Y1.06 Z1.1 </boundaryPoint>)
(<boundaryPoint> X-20.943 Y2.074 Z1.1 </boundaryPoint>)
(<perimeter> inner )
G1 X-10.31 Y1.21 Z1.1 F3000.0
M108 R30.0
M101
G1 X-11.1 Y1.1 Z1.1 F3000.0
M108 R3.569
G1 X-10.99 Y-0.0 Z1.1 F1800.0
G1 X-11.1 Y-1.1 Z1.1 F1800.0
G1 X-11.44 Y-2.15 Z1.1 F1800.0
G1 X-12.0 Y-3.11 Z1.1 F1800.0
G1 X-12.74 Y-3.94 Z1.1 F1800.0
G1 X-13.64 Y-4.59 Z1.1 F1800.0
G1 X-14.65 Y-5.04 Z1.1 F1800.0
G1 X-15.73 Y-5.27 Z1.1 F1800.0
G1 X-16.84 Y-5.27 Z1.1 F1800.0
G1 X-17.92 Y-5.04 Z1.1 F1800.0
G1 X-18.93 Y-4.59 Z1.1 F1800.0
G1 X-19.83 Y-3.94 Z1.1 F1800.0
G1 X-20.57 Y-3.11 Z1.1 F1800.0
G1 X-21.12 Y-2.15 Z1.1 F1800.0
G1 X-21.47 Y-1.1 Z1.1 F1800.0
G1 X-21.58 Y0.0 Z1.1 F1800.0
G1 X-21.47 Y1.1 Z1.1 F1800.0
G1 X-21.12 Y2.15 Z1.1 F1800.0
G1 X-20.57 Y3.11 Z1.1 F1800.0
G1 X-19.83 Y3.94 Z1.1 F1800.0
G1 X-18.93 Y4.59 Z1.1 F1800.0
G1 X-17.92 Y5.04 Z1.1 F1800.0
G1 X-16.84 Y5.27 Z1.1 F1800.0
G1 X-15.73 Y5.27 Z1.1 F1800.0
G1 X-14.65 Y5.04 Z1.1 F1800.0
G1 X-13.64 Y4.59 Z1.1 F1800.0
G1 X-12.74 Y3.94 Z1.1 F1800.0
G1 X-12.0 Y3.11 Z1.1 F1800.0
G1 X-11.44 Y2.15 Z1.1 F1800.0
G1 X-11.24 Y1.53 Z1.1 F1800.0
M108 R30.0
M102
G1 X-11.1 Y1.1 Z1.1 F1800.0
M108 R3.569
M103
(</perimeter>)
(</boundaryPerimeter>)
(</surroundingLoop>)
G1 X-11.72 Y8.56 Z1.1 F3000.0
M108 R30.0
M101
G1 X-11.78 Y9.36 Z1.1 F3000.0
M108 R3.569
G1 X-11.88 Y7.51 Z1.1 F1800.0
G1 X-9.93 Y5.58 Z1.1 F1800.0
G1 X-9.93 Y5.33 Z1.1 F1800.0
G1 X-11.0 Y3.55 Z1.1 F1800.0
G1 X-11.78 Y3.84 Z1.1 F1800.0
G1 X-12.22 Y4.33 Z1.1 F1800.0
G1 X-12.3 Y4.39 Z1.1 F1800.0
M108 R30.0
M102
G1 X-12.65 Y4.68 Z1.1 F1800.0
M108 R3.569
M103
G1 X-14.12 Y5.39 Z1.1 F3000.0
M108 R30.0
M101
G1 X-14.84 Y5.74 Z1.1 F3000.0
M108 R3.569
G1 X-14.4 Y5.64 Z1.1 F1800.0
G1 X-13.53 Y5.25 Z1.1 F1800.0
G1 X-12.87 Y5.37 Z1.1 F1800.0
G1 X-12.11 Y7.51 Z1.1 F1800.0
G1 X-12.11 Y7.76 Z1.1 F1800.0
G1 X-12.65 Y8.92 Z1.1 F1800.0
G1 X-13.09 Y9.36 Z1.1 F1800.0
G1 X-13.53 Y8.92 Z1.1 F1800.0
G1 X-13.96 Y9.36 Z1.1 F1800.0
G1 X-14.4 Y8.92 Z1.1 F1800.0
G1 X-14.84 Y8.92 Z1.1 F1800.0
G1 X-15.19 Y6.26 Z1.1 F1800.0
G1 X-15.71 Y5.92 Z1.1 F1800.0
G1 X-17.02 Y5.89 Z1.1 F1800.0
G1 X-17.45 Y5.8 Z1.1 F1800.0
G1 X-15.71 Y8.92 Z1.1 F1800.0
G1 X-16.14 Y9.36 Z1.1 F1800.0
G1 X-16.18 Y9.19 Z1.1 F1800.0
G1 X-17.45 Y8.92 Z1.1 F1800.0
G1 X-18.02 Y6.12 Z1.1 F1800.0
G1 X-18.33 Y5.57 Z1.1 F1800.0
G1 X-18.33 Y8.9 Z1.1 F1800.0
M108 R30.0
M102
G1 X-18.33 Y9.36 Z1.1 F1800.0
M108 R3.569
M103
G1 X-19.71 Y9.36 Z1.1 F3000.0
M108 R30.0
M101
G1 X-20.51 Y9.36 Z1.1 F3000.0
M108 R3.569
G1 X-20.61 Y7.51 Z1.1 F1800.0
G1 X-18.94 Y5.77 Z1.1 F1800.0
G1 X-19.2 Y5.18 Z1.1 F1800.0
G1 X-20.07 Y4.56 Z1.1 F1800.0
G1 X-20.63 Y3.99 Z1.1 F1800.0
M108 R30.0
M102
G1 X-20.94 Y3.67 Z1.1 F1800.0
M108 R3.569
M103
G1 X-22.45 Y8.59 Z1.1 F3000.0
M108 R30.0
M101
G1 X-22.69 Y9.36 Z1.1 F3000.0
M108 R3.569
G1 X-22.25 Y8.92 Z1.1 F1800.0
G1 X-21.82 Y9.36 Z1.1 F1800.0
G1 X-21.38 Y8.92 Z1.1 F1800.0
G1 X-20.84 Y7.76 Z1.1 F1800.0
G1 X-20.84 Y7.51 Z1.1 F1800.0
G1 X-22.79 Y5.58 Z1.1 F1800.0
G1 X-22.13 Y-1.82 Z1.1 F1800.0
G1 X-22.79 Y-3.15 Z1.1 F1800.0
G1 X-22.79 Y-3.4 Z1.1 F1800.0
G1 X-21.38 Y-3.01 Z1.1 F1800.0
G1 X-20.84 Y-5.33 Z1.1 F1800.0
G1 X-20.84 Y-5.58 Z1.1 F1800.0
G1 X-22.79 Y-7.51 Z1.1 F1800.0
G1 X-22.71 Y-8.91 Z1.1 F1800.0
M108 R30.0
M102
G1 X-22.69 Y-9.36 Z1.1 F1800.0
M108 R3.569
M103
G1 X-24.07 Y-9.36 Z1.1 F3000.0
M108 R30.0
M101
G1 X-24.87 Y-9.36 Z1.1 F3000.0
M108 R3.569
G1 X-24.44 Y-8.92 Z1.1 F1800.0
G1 X-24.0 Y-9.36 Z1.1 F1800.0
G1 X-23.56 Y-8.92 Z1.1 F1800.0
G1 X-23.02 Y-7.76 Z1.1 F1800.0
G1 X-23.02 Y-7.51 Z1.1 F1800.0
G1 X-24.97 Y-5.58 Z1.1 F1800.0
G1 X-24.97 Y-5.33 Z1.1 F1800.0
G1 X-23.02 Y-3.4 Z1.1 F1800.0
G1 X-23.02 Y-3.15 Z1.1 F1800.0
G1 X-24.97 Y-1.22 Z1.1 F1800.0
G1 X-24.97 Y3.4 Z1.1 F1800.0
G1 X-23.02 Y5.33 Z1.1 F1800.0
G1 X-23.02 Y5.58 Z1.1 F1800.0
G1 X-24.97 Y7.51 Z1.1 F1800.0
G1 X-24.9 Y8.91 Z1.1 F1800.0
M108 R30.0
M102
G1 X-24.87 Y9.36 Z1.1 F1800.0
M108 R3.569
M103
G1 X-26.25 Y9.36 Z1.1 F3000.0
M108 R30.0
M101
G1 X-27.05 Y9.36 Z1.1 F3000.0
M108 R3.569
G1 X-26.62 Y8.92 Z1.1 F1800.0
G1 X-26.18 Y9.36 Z1.1 F1800.0
G1 X-25.74 Y8.92 Z1.1 F1800.0
G1 X-25.2 Y7.76 Z1.1 F1800.0
G1 X-25.2 Y7.51 Z1.1 F1800.0
G1 X-27.16 Y5.58 Z1.1 F1800.0
G1 X-27.16 Y5.33 Z1.1 F1800.0
G1 X-25.2 Y3.4 Z1.1 F1800.0
G1 X-25.2 Y3.15 Z1.1 F1800.0
G1 X-27.16 Y1.22 Z1.1 F1800.0
G1 X-27.16 Y0.96 Z1.1 F1800.0
G1 X-25.2 Y-0.96 Z1.1 F1800.0
G1 X-25.2 Y-1.22 Z1.1 F1800.0
G1 X-27.16 Y-3.15 Z1.1 F1800.0
G1 X-27.16 Y-3.4 Z1.1 F1800.0
G1 X-25.2 Y-5.33 Z1.1 F1800.0
G1 X-25.2 Y-5.58 Z1.1 F1800.0
G1 X-27.16 Y-7.51 Z1.1 F1800.0
G1 X-27.08 Y-8.91 Z1.1 F1800.0
M108 R30.0
M102
G1 X-27.05 Y-9.36 Z1.1 F1800.0
M108 R3.569
M103
G1 X-28.43 Y-9.36 Z1.1 F3000.0
M108 R30.0
M101
G1 X-29.23 Y-9.36 Z1.1 F3000.0
M108 R3.569
G1 X-28.8 Y-8.92 Z1.1 F1800.0
G1 X-28.36 Y-9.36 Z1.1 F1800.0
G1 X-27.93 Y-8.92 Z1.1 F1800.0
G1 X-27.39 Y-7.76 Z1.1 F1800.0
G1 X-27.39 Y-7.51 Z1.1 F1800.0
G1 X-29.34 Y-5.58 Z1.1 F1800.0
G1 X-29.34 Y-5.33 Z1.1 F1800.0
G1 X-27.39 Y-3.4 Z1.1 F1800.0
G1 X-27.39 Y-3.15 Z1.1 F1800.0
G1 X-29.34 Y-1.22 Z1.1 F1800.0
G1 X-29.34 Y-0.96 Z1.1 F1800.0
G1 X-27.39 Y0.96 Z1.1 F1800.0
G1 X-27.39 Y1.22 Z1.1 F1800.0
G1 X-29.34 Y3.15 Z1.1 F1800.0
G1 X-29.34 Y3.4 Z1.1 F1800.0
G1 X-27.39 Y5.33 Z1.1 F1800.0
G1 X-27.39 Y5.58 Z1.1 F1800.0
G1 X-29.34 Y7.51 Z1.1 F1800.0
G1 X-29.26 Y8.91 Z1.1 F1800.0
M108 R30.0
M102
G1 X-29.23 Y9.36 Z1.1 F1800.0
M108 R3.569
M103
G1 X-30.62 Y9.36 Z1.1 F3000.0
M108 R30.0
M101
G1 X-31.42 Y9.36 Z1.1 F3000.0
M108 R3.569
G1 X-30.98 Y8.92 Z1.1 F1800.0
G1 X-30.54 Y9.36 Z1.1 F1800.0
G1 X-30.11 Y8.92 Z1.1 F1800.0
G1 X-29.57 Y7.76 Z1.1 F1800.0
G1 X-29.57 Y-5.58 Z1.1 F1800.0
G1 X-30.98 Y-8.92 Z1.1 F1800.0
G1 X-31.1 Y-9.04 Z1.1 F1800.0
M108 R30.0
M102
G1 X-31.42 Y-9.36 Z1.1 F1800.0
M108 R3.569
M103
G1 X-21.31 Y-9.36 Z1.1 F3000.0
M108 R30.0
M101
G1 X-20.51 Y-9.36 Z1.1 F3000.0
M108 R3.569
G1 X-20.07 Y-8.92 Z1.1 F1800.0
G1 X-19.64 Y-9.36 Z1.1 F1800.0
G1 X-19.2 Y-8.92 Z1.1 F1800.0
G1 X-18.66 Y-7.76 Z1.1 F1800.0
G1 X-18.66 Y-7.51 Z1.1 F1800.0
G1 X-20.61 Y-5.58 Z1.1 F1800.0
G1 X-20.61 Y-5.33 Z1.1 F1800.0
G1 X-18.94 Y-5.77 Z1.1 F1800.0
G1 X-19.2 Y-5.18 Z1.1 F1800.0
G1 X-20.07 Y-4.56 Z1.1 F1800.0
G1 X-20.63 Y-3.99 Z1.1 F1800.0
M108 R30.0
M102
G1 X-20.94 Y-3.67 Z1.1 F1800.0
M108 R3.569
M103
G1 X-18.97 Y-5.1 Z1.1 F3000.0
M108 R30.0
M101
G1 X-18.33 Y-5.57 Z1.1 F3000.0
M108 R3.569
G1 X-18.02 Y-6.12 Z1.1 F1800.0
G1 X-18.43 Y-7.51 Z1.1 F1800.0
G1 X-18.43 Y-7.76 Z1.1 F1800.0
G1 X-18.76 Y-8.92 Z1.1 F1800.0
G1 X-18.33 Y-9.36 Z1.1 F1800.0
G1 X-17.89 Y-8.92 Z1.1 F1800.0
G1 X-17.45 Y-9.36 Z1.1 F1800.0
G1 X-17.02 Y-8.92 Z1.1 F1800.0
G1 X-17.45 Y-5.8 Z1.1 F1800.0
G1 X-17.02 Y-5.89 Z1.1 F1800.0
G1 X-15.71 Y-5.92 Z1.1 F1800.0
G1 X-15.19 Y-6.26 Z1.1 F1800.0
G1 X-14.3 Y-7.51 Z1.1 F1800.0
G1 X-14.3 Y-7.76 Z1.1 F1800.0
G1 X-14.84 Y-8.92 Z1.1 F1800.0
G1 X-15.27 Y-9.36 Z1.1 F1800.0
G1 X-15.71 Y-8.92 Z1.1 F1800.0
G1 X-15.83 Y-9.04 Z1.1 F1800.0
M108 R30.0
M102
G1 X-16.14 Y-9.36 Z1.1 F1800.0
M108 R3.569
M103
G1 X-14.76 Y-9.36 Z1.1 F3000.0
M108 R30.0
M101
G1 X-13.96 Y-9.36 Z1.1 F3000.0
M108 R3.569
G1 X-14.07 Y-7.51 Z1.1 F1800.0
G1 X-12.11 Y-5.58 Z1.1 F1800.0
G1 X-12.22 Y-4.33 Z1.1 F1800.0
G1 X-12.65 Y-4.68 Z1.1 F1800.0
G1 X-12.87 Y-5.37 Z1.1 F1800.0
G1 X-13.53 Y-5.25 Z1.1 F1800.0
G1 X-14.4 Y-5.64 Z1.1 F1800.0
M108 R30.0
M102
G1 X-14.4 Y-5.64 Z1.1 F1800.0
G1 X-14.84 Y-5.74 Z1.1 F1800.0
M108 R3.569
M103
G1 X-12.46 Y-4.26 Z1.1 F3000.0
M108 R30.0
M101
G1 X-11.78 Y-3.84 Z1.1 F3000.0
M108 R3.569
G1 X-11.88 Y-5.58 Z1.1 F1800.0
G1 X-9.93 Y-7.51 Z1.1 F1800.0
G1 X-9.93 Y-7.76 Z1.1 F1800.0
G1 X-10.47 Y-8.92 Z1.1 F1800.0
G1 X-10.91 Y-9.36 Z1.1 F1800.0
G1 X-11.35 Y-8.92 Z1.1 F1800.0
G1 X-11.46 Y-9.04 Z1.1 F1800.0
M108 R30.0
M102
G1 X-11.78 Y-9.36 Z1.1 F1800.0
M108 R3.569
M103
G1 X-10.4 Y-9.36 Z1.1 F3000.0
M108 R30.0
M101
G1 X-9.6 Y-9.36 Z1.1 F3000.0
M108 R3.569
G1 X-9.7 Y-7.51 Z1.1 F1800.0
G1 X-7.75 Y-5.58 Z1.1 F1800.0
G1 X-7.75 Y-5.33 Z1.1 F1800.0
G1 X-9.82 Y-3.4 Z1.1 F1800.0
G1 X-9.82 Y-3.15 Z1.1 F1800.0
G1 X-10.91 Y-2.52 Z1.1 F1800.0
G1 X-10.06 Y-1.4 Z1.1 F1800.0
G1 X-7.75 Y-1.22 Z1.1 F1800.0
G1 X-7.75 Y-0.96 Z1.1 F1800.0
G1 X-9.82 Y0.96 Z1.1 F1800.0
G1 X-9.82 Y1.22 Z1.1 F1800.0
G1 X-7.75 Y3.15 Z1.1 F1800.0
G1 X-7.75 Y3.4 Z1.1 F1800.0
G1 X-9.7 Y5.33 Z1.1 F1800.0
G1 X-9.7 Y5.58 Z1.1 F1800.0
G1 X-7.75 Y7.51 Z1.1 F1800.0
G1 X-7.75 Y7.76 Z1.1 F1800.0
G1 X-8.29 Y8.92 Z1.1 F1800.0
G1 X-8.73 Y9.36 Z1.1 F1800.0
G1 X-9.16 Y8.92 Z1.1 F1800.0
G1 X-9.28 Y9.04 Z1.1 F1800.0
M108 R30.0
M102
G1 X-9.6 Y9.36 Z1.1 F1800.0
M108 R3.569
M103
G1 X-8.22 Y9.36 Z1.1 F3000.0
M108 R30.0
M101
G1 X-7.42 Y9.36 Z1.1 F3000.0
M108 R3.569
G1 X-7.52 Y7.51 Z1.1 F1800.0
G1 X-5.57 Y5.58 Z1.1 F1800.0
G1 X-5.57 Y5.33 Z1.1 F1800.0
G1 X-7.52 Y3.4 Z1.1 F1800.0
G1 X-7.52 Y3.15 Z1.1 F1800.0
G1 X-5.57 Y1.22 Z1.1 F1800.0
G1 X-5.57 Y0.96 Z1.1 F1800.0
G1 X-7.52 Y-0.96 Z1.1 F1800.0
G1 X-7.52 Y-1.22 Z1.1 F1800.0
G1 X-5.57 Y-3.15 Z1.1 F1800.0
G1 X-5.57 Y-3.4 Z1.1 F1800.0
G1 X-7.52 Y-5.33 Z1.1 F1800.0
G1 X-7.52 Y-5.58 Z1.1 F1800.0
G1 X-5.57 Y-7.51 Z1.1 F1800.0
G1 X-5.57 Y-7.76 Z1.1 F1800.0
G1 X-6.11 Y-8.92 Z1.1 F1800.0
G1 X-6.55 Y-9.36 Z1.1 F1800.0
G1 X-6.98 Y-8.92 Z1.1 F1800.0
G1 X-7.1 Y-9.04 Z1.1 F1800.0
M108 R30.0
M102
G1 X-7.42 Y-9.36 Z1.1 F1800.0
M108 R3.569
M103
G1 X-6.04 Y-9.36 Z1.1 F3000.0
M108 R30.0
M101
G1 X-5.24 Y-9.36 Z1.1 F3000.0
M108 R3.569
G1 X-5.34 Y-7.51 Z1.1 F1800.0
G1 X-3.39 Y-5.58 Z1.1 F1800.0
G1 X-3.39 Y-5.33 Z1.1 F1800.0
G1 X-5.34 Y-3.4 Z1.1 F1800.0
G1 X-5.34 Y-3.15 Z1.1 F1800.0
G1 X-3.39 Y-1.22 Z1.1 F1800.0
G1 X-3.39 Y-0.96 Z1.1 F1800.0
G1 X-5.34 Y0.96 Z1.1 F1800.0
G1 X-5.34 Y1.22 Z1.1 F1800.0
G1 X-3.39 Y3.15 Z1.1 F1800.0
G1 X-3.39 Y3.4 Z1.1 F1800.0
G1 X-5.34 Y5.33 Z1.1 F1800.0
G1 X-5.34 Y5.58 Z1.1 F1800.0
G1 X-3.39 Y7.51 Z1.1 F1800.0
G1 X-3.39 Y7.76 Z1.1 F1800.0
G1 X-3.93 Y8.92 Z1.1 F1800.0
G1 X-4.36 Y9.36 Z1.1 F1800.0
G1 X-4.8 Y8.92 Z1.1 F1800.0
G1 X-4.92 Y9.04 Z1.1 F1800.0
M108 R30.0
M102
G1 X-5.24 Y9.36 Z1.1 F1800.0
M108 R3.569
M103
G1 X-3.85 Y9.36 Z1.1 F3000.0
M108 R30.0
M101
G1 X-3.05 Y9.36 Z1.1 F3000.0
M108 R3.569
G1 X-3.16 Y7.51 Z1.1 F1800.0
G1 X-1.21 Y5.58 Z1.1 F1800.0
G1 X-1.21 Y5.33 Z1.1 F1800.0
G1 X-3.16 Y3.4 Z1.1 F1800.0
G1 X-3.16 Y3.15 Z1.1 F1800.0
G1 X-1.21 Y1.22 Z1.1 F1800.0
G1 X-1.21 Y0.96 Z1.1 F1800.0
G1 X-3.16 Y-0.96 Z1.1 F1800.0
G1 X-3.16 Y-1.22 Z1.1 F1800.0
G1 X-1.21 Y-3.15 Z1.1 F1800.0
G1 X-1.21 Y-3.4 Z1.1 F1800.0
G1 X-3.16 Y-5.33 Z1.1 F1800.0
G1 X-3.16 Y-5.58 Z1.1 F1800.0
G1 X-1.21 Y-7.51 Z1.1 F1800.0
G1 X-1.21 Y-7.76 Z1.1 F1800.0
G1 X-1.75 Y-8.92 Z1.1 F1800.0
G1 X-2.18 Y-9.36 Z1.1 F1800.0
G1 X-2.62 Y-8.92 Z1.1 F1800.0
G1 X-2.74 Y-9.04 Z1.1 F1800.0
M108 R30.0
M102
G1 X-3.05 Y-9.36 Z1.1 F1800.0
M108 R3.569
M103
G1 X-1.67 Y-9.36 Z1.1 F3000.0
M108 R30.0
M101
G1 X-0.87 Y-9.36 Z1.1 F3000.0
M108 R3.569
G1 X-0.98 Y-7.51 Z1.1 F1800.0
G1 X0.98 Y-5.58 Z1.1 F1800.0
G1 X0.98 Y-5.33 Z1.1 F1800.0
G1 X-0.98 Y-3.4 Z1.1 F1800.0
G1 X-0.98 Y-3.15 Z1.1 F1800.0
G1 X0.98 Y-1.22 Z1.1 F1800.0
G1 X0.98 Y-0.96 Z1.1 F1800.0
G1 X-0.98 Y0.96 Z1.1 F1800.0
G1 X-0.98 Y1.22 Z1.1 F1800.0
G1 X0.98 Y3.15 Z1.1 F1800.0
G1 X0.98 Y3.4 Z1.1 F1800.0
G1 X-0.98 Y5.33 Z1.1 F1800.0
G1 X-0.98 Y5.58 Z1.1 F1800.0
G1 X0.98 Y7.51 Z1.1 F1800.0
G1 X0.98 Y7.76 Z1.1 F1800.0
G1 X0.44 Y8.92 Z1.1 F1800.0
G1 X0.0 Y9.36 Z1.1 F1800.0
G1 X-0.44 Y8.92 Z1.1 F1800.0
G1 X-0.55 Y9.04 Z1.1 F1800.0
M108 R30.0
M102
G1 X-0.87 Y9.36 Z1.1 F1800.0
M108 R3.569
M103
G1 X0.51 Y9.36 Z1.1 F3000.0
M108 R30.0
M101
G1 X1.31 Y9.36 Z1.1 F3000.0
M108 R3.569
G1 X1.21 Y7.51 Z1.1 F1800.0
G1 X3.16 Y5.58 Z1.1 F1800.0
G1 X3.16 Y5.33 Z1.1 F1800.0
G1 X1.21 Y3.4 Z1.1 F1800.0
G1 X1.21 Y3.15 Z1.1 F1800.0
G1 X3.16 Y1.22 Z1.1 F1800.0
G1 X3.16 Y0.96 Z1.1 F1800.0
G1 X1.21 Y-0.96 Z1.1 F1800.0
G1 X1.21 Y-1.22 Z1.1 F1800.0
G1 X3.16 Y-3.15 Z1.1 F1800.0
G1 X3.16 Y-3.4 Z1.1 F1800.0
G1 X1.21 Y-5.33 Z1.1 F1800.0
G1 X1.21 Y-5.58 Z1.1 F1800.0
G1 X3.16 Y-7.51 Z1.1 F1800.0
G1 X3.16 Y-7.76 Z1.1 F1800.0
G1 X2.62 Y-8.92 Z1.1 F1800.0
G1 X2.18 Y-9.36 Z1.1 F1800.0
G1 X1.75 Y-8.92 Z1.1 F1800.0
G1 X1.63 Y-9.04 Z1.1 F1800.0
M108 R30.0
M102
G1 X1.31 Y-9.36 Z1.1 F1800.0
M108 R3.569
M103
G1 X2.69 Y-9.36 Z1.1 F3000.0
M108 R30.0
M101
G1 X3.49 Y-9.36 Z1.1 F3000.0
M108 R3.569
G1 X3.39 Y5.58 Z1.1 F1800.0
G1 X5.34 Y7.51 Z1.1 F1800.0
G1 X5.34 Y7.76 Z1.1 F1800.0
G1 X4.8 Y8.92 Z1.1 F1800.0
G1 X4.36 Y9.36 Z1.1 F1800.0
G1 X3.93 Y8.92 Z1.1 F1800.0
G1 X3.81 Y9.04 Z1.1 F1800.0
M108 R30.0
M102
G1 X3.49 Y9.36 Z1.1 F1800.0
M108 R3.569
M103
G1 X4.87 Y9.36 Z1.1 F3000.0
M108 R30.0
M101
G1 X5.67 Y9.36 Z1.1 F3000.0
M108 R3.569
G1 X5.57 Y7.51 Z1.1 F1800.0
G1 X7.52 Y5.58 Z1.1 F1800.0
G1 X7.52 Y5.33 Z1.1 F1800.0
G1 X5.45 Y3.4 Z1.1 F1800.0
G1 X5.45 Y3.15 Z1.1 F1800.0
G1 X7.52 Y1.22 Z1.1 F1800.0
G1 X7.52 Y0.96 Z1.1 F1800.0
G1 X5.45 Y-0.96 Z1.1 F1800.0
G1 X5.45 Y-1.22 Z1.1 F1800.0
G1 X7.52 Y-3.15 Z1.1 F1800.0
G1 X7.52 Y-3.4 Z1.1 F1800.0
G1 X5.45 Y-5.33 Z1.1 F1800.0
G1 X5.45 Y-5.58 Z1.1 F1800.0
G1 X7.52 Y-7.51 Z1.1 F1800.0
G1 X7.52 Y-7.76 Z1.1 F1800.0
G1 X6.98 Y-8.92 Z1.1 F1800.0
G1 X6.55 Y-9.36 Z1.1 F1800.0
G1 X6.11 Y-8.92 Z1.1 F1800.0
G1 X5.99 Y-9.04 Z1.1 F1800.0
M108 R30.0
M102
G1 X5.67 Y-9.36 Z1.1 F1800.0
M108 R3.569
M103
G1 X7.05 Y-9.36 Z1.1 F3000.0
M108 R30.0
M101
G1 X7.85 Y-9.36 Z1.1 F3000.0
M108 R3.569
G1 X7.75 Y-7.51 Z1.1 F1800.0
G1 X9.7 Y-5.58 Z1.1 F1800.0
G1 X9.7 Y-5.33 Z1.1 F1800.0
G1 X7.75 Y-3.4 Z1.1 F1800.0
G1 X7.75 Y1.22 Z1.1 F1800.0
G1 X9.7 Y3.15 Z1.1 F1800.0
G1 X9.7 Y3.4 Z1.1 F1800.0
G1 X7.75 Y5.33 Z1.1 F1800.0
G1 X7.75 Y5.58 Z1.1 F1800.0
G1 X9.7 Y7.51 Z1.1 F1800.0
G1 X9.7 Y7.76 Z1.1 F1800.0
G1 X9.16 Y8.92 Z1.1 F1800.0
G1 X8.73 Y9.36 Z1.1 F1800.0
G1 X8.29 Y8.92 Z1.1 F1800.0
G1 X8.17 Y9.04 Z1.1 F1800.0
M108 R30.0
M102
G1 X7.85 Y9.36 Z1.1 F1800.0
M108 R3.569
M103
G1 X9.24 Y9.36 Z1.1 F3000.0
M108 R30.0
M101
G1 X10.04 Y9.36 Z1.1 F3000.0
M108 R3.569
G1 X9.93 Y7.51 Z1.1 F1800.0
G1 X11.88 Y5.58 Z1.1 F1800.0
G1 X11.88 Y5.33 Z1.1 F1800.0
G1 X11.35 Y3.28 Z1.1 F1800.0
G1 X9.93 Y3.4 Z1.1 F1800.0
G1 X9.93 Y3.15 Z1.1 F1800.0
G1 X10.91 Y2.52 Z1.1 F1800.0
G1 X10.67 Y2.15 Z1.1 F1800.0
G1 X10.47 Y1.26 Z1.1 F1800.0
G1 X10.05 Y1.14 Z1.1 F1800.0
G1 X10.04 Y-1.33 Z1.1 F1800.0
G1 X10.91 Y-2.52 Z1.1 F1800.0
G1 X10.97 Y-3.5 Z1.1 F1800.0
G1 X9.93 Y-5.33 Z1.1 F1800.0
G1 X9.93 Y-5.58 Z1.1 F1800.0
G1 X11.88 Y-7.51 Z1.1 F1800.0
G1 X11.88 Y-7.76 Z1.1 F1800.0
G1 X11.35 Y-8.92 Z1.1 F1800.0
G1 X10.91 Y-9.36 Z1.1 F1800.0
G1 X10.47 Y-8.92 Z1.1 F1800.0
G1 X10.35 Y-9.04 Z1.1 F1800.0
M108 R30.0
M102
G1 X10.04 Y-9.36 Z1.1 F1800.0
M108 R3.569
M103
G1 X11.42 Y-9.36 Z1.1 F3000.0
M108 R30.0
M101
G1 X12.22 Y-9.36 Z1.1 F3000.0
M108 R3.569
G1 X12.11 Y-7.51 Z1.1 F1800.0
G1 X13.53 Y-5.25 Z1.1 F1800.0
G1 X13.09 Y-4.99 Z1.1 F1800.0
G1 X12.22 Y-4.33 Z1.1 F1800.0
G1 X12.08 Y-4.18 Z1.1 F1800.0
M108 R30.0
M102
G1 X11.78 Y-3.84 Z1.1 F1800.0
M108 R3.569
M103
G1 X15.0 Y-5.54 Z1.1 F3000.0
M108 R30.0
M101
G1 X15.71 Y-5.92 Z1.1 F3000.0
M108 R3.569
G1 X14.4 Y-5.64 Z1.1 F1800.0
G1 X13.79 Y-5.84 Z1.1 F1800.0
G1 X12.65 Y-8.92 Z1.1 F1800.0
G1 X13.09 Y-9.36 Z1.1 F1800.0
G1 X13.53 Y-8.92 Z1.1 F1800.0
G1 X13.96 Y-8.92 Z1.1 F1800.0
G1 X14.4 Y-9.36 Z1.1 F1800.0
G1 X14.84 Y-8.92 Z1.1 F1800.0
G1 X16.14 Y-5.92 Z1.1 F1800.0
G1 X17.02 Y-5.89 Z1.1 F1800.0
G1 X17.89 Y-5.71 Z1.1 F1800.0
G1 X18.46 Y-5.98 Z1.1 F1800.0
G1 X16.36 Y-7.51 Z1.1 F1800.0
G1 X16.36 Y-7.76 Z1.1 F1800.0
G1 X16.14 Y-8.92 Z1.1 F1800.0
G1 X16.26 Y-9.04 Z1.1 F1800.0
M108 R30.0
M102
G1 X16.58 Y-9.36 Z1.1 F1800.0
M108 R3.569
M103
G1 X17.96 Y-9.36 Z1.1 F3000.0
M108 R30.0
M101
G1 X18.76 Y-9.36 Z1.1 F3000.0
M108 R3.569
G1 X19.2 Y-8.92 Z1.1 F1800.0
G1 X19.64 Y-9.36 Z1.1 F1800.0
G1 X20.07 Y-8.92 Z1.1 F1800.0
G1 X20.61 Y-7.76 Z1.1 F1800.0
G1 X20.51 Y-4.15 Z1.1 F1800.0
G1 X20.07 Y-4.56 Z1.1 F1800.0
G1 X19.2 Y-5.18 Z1.1 F1800.0
G1 X19.17 Y-5.19 Z1.1 F1800.0
M108 R30.0
M102
G1 X18.76 Y-5.37 Z1.1 F1800.0
M108 R3.569
M103
G1 X20.31 Y-4.16 Z1.1 F3000.0
M108 R30.0
M101
G1 X20.94 Y-3.67 Z1.1 F3000.0
M108 R3.569
G1 X22.79 Y-5.33 Z1.1 F1800.0
G1 X22.79 Y-5.58 Z1.1 F1800.0
G1 X20.84 Y-7.51 Z1.1 F1800.0
G1 X20.92 Y-8.91 Z1.1 F1800.0
M108 R30.0
M102
G1 X20.94 Y-9.36 Z1.1 F1800.0
M108 R3.569
M103
G1 X22.33 Y-9.36 Z1.1 F3000.0
M108 R30.0
M101
G1 X23.13 Y-9.36 Z1.1 F3000.0
M108 R3.569
G1 X23.56 Y-8.92 Z1.1 F1800.0
G1 X24.0 Y-9.36 Z1.1 F1800.0
G1 X24.44 Y-8.92 Z1.1 F1800.0
G1 X24.97 Y-7.76 Z1.1 F1800.0
G1 X24.97 Y-7.51 Z1.1 F1800.0
G1 X23.02 Y-5.58 Z1.1 F1800.0
G1 X23.02 Y-5.33 Z1.1 F1800.0
G1 X24.97 Y-3.4 Z1.1 F1800.0
G1 X24.97 Y-3.15 Z1.1 F1800.0
G1 X21.82 Y-2.12 Z1.1 F1800.0
G1 X22.91 Y-1.22 Z1.1 F1800.0
G1 X22.91 Y-0.96 Z1.1 F1800.0
G1 X24.97 Y0.96 Z1.1 F1800.0
G1 X24.97 Y1.22 Z1.1 F1800.0
G1 X21.82 Y2.12 Z1.1 F1800.0
G1 X22.91 Y3.15 Z1.1 F1800.0
G1 X22.91 Y3.4 Z1.1 F1800.0
G1 X24.97 Y5.33 Z1.1 F1800.0
G1 X24.97 Y5.58 Z1.1 F1800.0
G1 X23.02 Y7.51 Z1.1 F1800.0
G1 X23.1 Y8.91 Z1.1 F1800.0
M108 R30.0
M102
G1 X23.13 Y9.36 Z1.1 F1800.0
M108 R3.569
M103
G1 X21.74 Y9.36 Z1.1 F3000.0
M108 R30.0
M101
G1 X20.94 Y9.36 Z1.1 F3000.0
M108 R3.569
G1 X21.38 Y8.92 Z1.1 F1800.0
G1 X21.82 Y9.36 Z1.1 F1800.0
G1 X22.25 Y8.92 Z1.1 F1800.0
G1 X22.79 Y7.76 Z1.1 F1800.0
G1 X22.79 Y7.51 Z1.1 F1800.0
G1 X20.84 Y5.58 Z1.1 F1800.0
G1 X20.92 Y4.12 Z1.1 F1800.0
M108 R30.0
M102
G1 X20.94 Y3.67 Z1.1 F1800.0
M108 R3.569
M103
G1 X18.97 Y5.1 Z1.1 F3000.0
M108 R30.0
M101
G1 X18.33 Y5.57 Z1.1 F3000.0
M108 R3.569
G1 X19.2 Y5.18 Z1.1 F1800.0
G1 X20.07 Y4.56 Z1.1 F1800.0
G1 X20.51 Y4.15 Z1.1 F1800.0
G1 X20.61 Y5.58 Z1.1 F1800.0
G1 X19.2 Y8.92 Z1.1 F1800.0
G1 X18.76 Y9.36 Z1.1 F1800.0
G1 X17.89 Y8.92 Z1.1 F1800.0
G1 X18.54 Y7.76 Z1.1 F1800.0
G1 X18.54 Y7.51 Z1.1 F1800.0
G1 X17.89 Y5.71 Z1.1 F1800.0
G1 X17.02 Y5.89 Z1.1 F1800.0
G1 X15.71 Y5.92 Z1.1 F1800.0
G1 X15.19 Y6.26 Z1.1 F1800.0
G1 X17.02 Y8.92 Z1.1 F1800.0
G1 X16.58 Y9.36 Z1.1 F1800.0
G1 X16.55 Y9.19 Z1.1 F1800.0
G1 X15.27 Y8.92 Z1.1 F1800.0
G1 X14.73 Y6.17 Z1.1 F1800.0
G1 X14.4 Y5.64 Z1.1 F1800.0
G1 X13.79 Y5.84 Z1.1 F1800.0
G1 X14.3 Y7.51 Z1.1 F1800.0
G1 X14.37 Y8.91 Z1.1 F1800.0
M108 R30.0
M102
G1 X14.4 Y9.36 Z1.1 F1800.0
M108 R3.569
M103
G1 X13.02 Y9.36 Z1.1 F3000.0
M108 R30.0
M101
G1 X12.22 Y9.36 Z1.1 F3000.0
M108 R3.569
G1 X12.65 Y8.92 Z1.1 F1800.0
G1 X13.09 Y9.36 Z1.1 F1800.0
G1 X13.53 Y8.92 Z1.1 F1800.0
G1 X14.07 Y7.76 Z1.1 F1800.0
G1 X14.07 Y7.51 Z1.1 F1800.0
G1 X12.11 Y5.58 Z1.1 F1800.0
G1 X12.11 Y5.33 Z1.1 F1800.0
G1 X13.53 Y5.25 Z1.1 F1800.0
G1 X13.09 Y4.99 Z1.1 F1800.0
G1 X12.22 Y4.33 Z1.1 F1800.0
G1 X12.08 Y4.18 Z1.1 F1800.0
M108 R30.0
M102
G1 X11.78 Y3.84 Z1.1 F1800.0
M108 R3.569
M103
G1 X24.57 Y9.05 Z1.1 F3000.0
M108 R30.0
M101
G1 X25.31 Y9.36 Z1.1 F3000.0
M108 R3.569
G1 X25.74 Y8.92 Z1.1 F1800.0
G1 X26.18 Y9.36 Z1.1 F1800.0
G1 X26.62 Y8.92 Z1.1 F1800.0
G1 X27.16 Y7.76 Z1.1 F1800.0
G1 X27.16 Y7.51 Z1.1 F1800.0
G1 X25.2 Y5.58 Z1.1 F1800.0
G1 X25.2 Y5.33 Z1.1 F1800.0
G1 X27.16 Y3.4 Z1.1 F1800.0
G1 X27.16 Y3.15 Z1.1 F1800.0
G1 X25.2 Y1.22 Z1.1 F1800.0
G1 X25.2 Y0.96 Z1.1 F1800.0
G1 X27.16 Y-0.96 Z1.1 F1800.0
G1 X27.16 Y-1.22 Z1.1 F1800.0
G1 X25.2 Y-3.15 Z1.1 F1800.0
G1 X25.2 Y-3.4 Z1.1 F1800.0
G1 X27.16 Y-5.33 Z1.1 F1800.0
G1 X27.16 Y-5.58 Z1.1 F1800.0
G1 X25.2 Y-7.51 Z1.1 F1800.0
G1 X25.28 Y-8.91 Z1.1 F1800.0
M108 R30.0
M102
G1 X25.31 Y-9.36 Z1.1 F1800.0
M108 R3.569
M103
G1 X26.69 Y-9.36 Z1.1 F3000.0
M108 R30.0
M101
G1 X27.49 Y-9.36 Z1.1 F3000.0
M108 R3.569
G1 X27.93 Y-8.92 Z1.1 F1800.0
G1 X28.36 Y-9.36 Z1.1 F1800.0
G1 X28.8 Y-8.92 Z1.1 F1800.0
G1 X29.34 Y-7.76 Z1.1 F1800.0
G1 X29.34 Y-7.51 Z1.1 F1800.0
G1 X27.39 Y-5.58 Z1.1 F1800.0
G1 X27.39 Y-5.33 Z1.1 F1800.0
G1 X29.34 Y-3.4 Z1.1 F1800.0
G1 X29.34 Y-3.15 Z1.1 F1800.0
G1 X27.39 Y-1.22 Z1.1 F1800.0
G1 X27.39 Y-0.96 Z1.1 F1800.0
G1 X29.34 Y0.96 Z1.1 F1800.0
G1 X29.34 Y1.22 Z1.1 F1800.0
G1 X27.39 Y3.15 Z1.1 F1800.0
G1 X27.39 Y3.4 Z1.1 F1800.0
G1 X29.34 Y5.33 Z1.1 F1800.0
G1 X29.34 Y5.58 Z1.1 F1800.0
G1 X27.39 Y7.51 Z1.1 F1800.0
G1 X27.46 Y8.91 Z1.1 F1800.0
M108 R30.0
M102
G1 X27.49 Y9.36 Z1.1 F1800.0
M108 R3.569
M103
G1 X28.87 Y9.36 Z1.1 F3000.0
M108 R30.0
M101
G1 X29.67 Y9.36 Z1.1 F3000.0
M108 R3.569
G1 X29.57 Y-7.76 Z1.1 F1800.0
G1 X29.64 Y-8.91 Z1.1 F1800.0
M108 R30.0
M102
G1 X29.67 Y-9.36 Z1.1 F1800.0
M108 R3.569
M103
G1 X30.62 Y-9.36 Z1.1 F3000.0
M108 R30.0
M101
G1 X31.42 Y-9.36 Z1.1 F3000.0
M108 R3.569
G1 X31.42 Y8.9 Z1.1 F1800.0
M108 R30.0
M102
G1 X31.42 Y9.36 Z1.1 F1800.0
M108 R3.569
M103
(</surroundingLoop>)
(</layer>)
(<layer> 1.42 )
(<surroundingLoop>)
(<boundaryPerimeter>)
(<boundaryPoint> X32.569 Y10.2 Z1.42 </boundaryPoint>)
(<boundaryPoint> X-32.569 Y10.2 Z1.42 </boundaryPoint>)
(<boundaryPoint> X-32.569 Y-10.2 Z1.42 </boundaryPoint>)
(<boundaryPoint> X32.569 Y-10.2 Z1.42 </boundaryPoint>)
(<loop> inner )
G1 X-9.94 Y1.36 Z1.41 F3000.0
M108 R30.0
M101
G1 X-10.72 Y1.2 Z1.42 F3000.0
M108 R3.569
G1 X-10.72 Y1.18 Z1.42 F1800.0
G1 X-10.59 Y0.0 Z1.42 F1800.0
G1 X-10.72 Y-1.18 Z1.42 F1800.0
G1 X-11.08 Y-2.32 Z1.42 F1800.0
G1 X-11.68 Y-3.35 Z1.42 F1800.0
G1 X-12.48 Y-4.23 Z1.42 F1800.0
G1 X-13.44 Y-4.93 Z1.42 F1800.0
G1 X-14.53 Y-5.41 Z1.42 F1800.0
G1 X-15.69 Y-5.66 Z1.42 F1800.0
G1 X-16.88 Y-5.66 Z1.42 F1800.0
G1 X-18.04 Y-5.41 Z1.42 F1800.0
G1 X-19.13 Y-4.93 Z1.42 F1800.0
G1 X-20.09 Y-4.23 Z1.42 F1800.0
G1 X-20.89 Y-3.35 Z1.42 F1800.0
G1 X-21.48 Y-2.32 Z1.42 F1800.0
G1 X-21.85 Y-1.18 Z1.42 F1800.0
G1 X-21.98 Y-0.0 Z1.42 F1800.0
G1 X-21.85 Y1.18 Z1.42 F1800.0
G1 X-21.48 Y2.32 Z1.42 F1800.0
G1 X-20.89 Y3.35 Z1.42 F1800.0
G1 X-20.09 Y4.23 Z1.42 F1800.0
G1 X-19.13 Y4.93 Z1.42 F1800.0
G1 X-18.04 Y5.41 Z1.42 F1800.0
G1 X-16.88 Y5.66 Z1.42 F1800.0
G1 X-15.69 Y5.66 Z1.42 F1800.0
G1 X-14.53 Y5.41 Z1.42 F1800.0
G1 X-13.44 Y4.93 Z1.42 F1800.0
G1 X-12.48 Y4.23 Z1.42 F1800.0
G1 X-11.68 Y3.35 Z1.42 F1800.0
G1 X-11.08 Y2.32 Z1.42 F1800.0
G1 X-10.86 Y1.63 Z1.42 F1800.0
M108 R30.0
M102
G1 X-10.72 Y1.2 Z1.42 F1800.0
M108 R3.569
M103
(</loop>)
(<loop> inner )
G1 X9.79 Y0.05 Z1.42 F3000.0
M108 R30.0
M101
G1 X10.59 Y-0.0 Z1.42 F3000.0
M108 R3.569
G1 X10.72 Y1.18 Z1.42 F1800.0
G1 X11.08 Y2.32 Z1.42 F1800.0
G1 X11.68 Y3.35 Z1.42 F1800.0
G1 X12.48 Y4.23 Z1.42 F1800.0
G1 X13.44 Y4.93 Z1.42 F1800.0
G1 X14.53 Y5.41 Z1.42 F1800.0
G1 X15.69 Y5.66 Z1.42 F1800.0
G1 X16.88 Y5.66 Z1.42 F1800.0
G1 X18.04 Y5.41 Z1.42 F1800.0
G1 X19.13 Y4.93 Z1.42 F1800.0
G1 X20.09 Y4.23 Z1.42 F1800.0
G1 X20.89 Y3.35 Z1.42 F1800.0
G1 X21.48 Y2.32 Z1.42 F1800.0
G1 X21.85 Y1.18 Z1.42 F1800.0
G1 X21.98 Y0.0 Z1.42 F1800.0
G1 X21.85 Y-1.18 Z1.42 F1800.0
G1 X21.48 Y-2.32 Z1.42 F1800.0
G1 X20.89 Y-3.35 Z1.42 F1800.0
G1 X20.09 Y-4.23 Z1.42 F1800.0
G1 X19.13 Y-4.93 Z1.42 F1800.0
G1 X18.04 Y-5.41 Z1.42 F1800.0
G1 X16.88 Y-5.66 Z1.42 F1800.0
G1 X15.69 Y-5.66 Z1.42 F1800.0
G1 X14.53 Y-5.41 Z1.42 F1800.0
G1 X13.44 Y-4.93 Z1.42 F1800.0
G1 X12.48 Y-4.23 Z1.42 F1800.0
G1 X11.68 Y-3.35 Z1.42 F1800.0
G1 X11.08 Y-2.32 Z1.42 F1800.0
G1 X10.72 Y-1.18 Z1.42 F1800.0
G1 X10.64 Y-0.45 Z1.42 F1800.0
M108 R30.0
M102
G1 X10.59 Y-0.0 Z1.42 F1800.0
M108 R3.569
M103
(</loop>)
(<loop> outer )
G1 X10.59 Y8.81 Z1.42 F3000.0
M108 R30.0
M101
G1 X10.59 Y9.61 Z1.42 F3000.0
M108 R3.569
G1 X-31.98 Y9.61 Z1.42 F1800.0
G1 X-31.98 Y-9.61 Z1.42 F1800.0
G1 X31.98 Y-9.61 Z1.42 F1800.0
G1 X31.98 Y9.61 Z1.42 F1800.0
G1 X10.59 Y9.61 Z1.42 F1800.0
M103
(</loop>)
(<perimeter> outer )
G1 X10.59 Y10.0 Z1.42 F3000.0
M101
G1 X-32.37 Y10.0 Z1.42 F1800.0
G1 X-32.37 Y-10.0 Z1.42 F1800.0
G1 X32.37 Y-10.0 Z1.42 F1800.0
G1 X32.37 Y10.0 Z1.42 F1800.0
G1 X11.04 Y10.0 Z1.42 F1800.0
M108 R30.0
M102
G1 X10.59 Y10.0 Z1.42 F1800.0
M108 R3.569
M103
(</perimeter>)
(</boundaryPerimeter>)
(<surroundingLoop>)
(<boundaryPerimeter>)
(<boundaryPoint> X12.158 Y2.998 Z1.42 </boundaryPoint>)
(<boundaryPoint> X12.872 Y3.79 Z1.42 </boundaryPoint>)
(<boundaryPoint> X13.734 Y4.417 Z1.42 </boundaryPoint>)
(<boundaryPoint> X14.708 Y4.85 Z1.42 </boundaryPoint>)
(<boundaryPoint> X15.751 Y5.072 Z1.42 </boundaryPoint>)
(<boundaryPoint> X16.817 Y5.072 Z1.42 </boundaryPoint>)
(<boundaryPoint> X17.86 Y4.85 Z1.42 </boundaryPoint>)
(<boundaryPoint> X18.834 Y4.417 Z1.42 </boundaryPoint>)
(<boundaryPoint> X19.697 Y3.79 Z1.42 </boundaryPoint>)
(<boundaryPoint> X20.41 Y2.998 Z1.42 </boundaryPoint>)
(<boundaryPoint> X20.943 Y2.074 Z1.42 </boundaryPoint>)
(<boundaryPoint> X21.273 Y1.06 Z1.42 </boundaryPoint>)
(<boundaryPoint> X21.384 Y-0.0 Z1.42 </boundaryPoint>)
(<boundaryPoint> X21.273 Y-1.06 Z1.42 </boundaryPoint>)
(<boundaryPoint> X20.943 Y-2.074 Z1.42 </boundaryPoint>)
(<boundaryPoint> X20.41 Y-2.998 Z1.42 </boundaryPoint>)
(<boundaryPoint> X19.697 Y-3.79 Z1.42 </boundaryPoint>)
(<boundaryPoint> X18.834 Y-4.417 Z1.42 </boundaryPoint>)
(<boundaryPoint> X17.86 Y-4.85 Z1.42 </boundaryPoint>)
(<boundaryPoint> X16.817 Y-5.072 Z1.42 </boundaryPoint>)
(<boundaryPoint> X15.751 Y-5.072 Z1.42 </boundaryPoint>)
(<boundaryPoint> X14.708 Y-4.85 Z1.42 </boundaryPoint>)
(<boundaryPoint> X13.734 Y-4.417 Z1.42 </boundaryPoint>)
(<boundaryPoint> X12.872 Y-3.79 Z1.42 </boundaryPoint>)
(<boundaryPoint> X12.158 Y-2.998 Z1.42 </boundaryPoint>)
(<boundaryPoint> X11.625 Y-2.074 Z1.42 </boundaryPoint>)
(<boundaryPoint> X11.296 Y-1.06 Z1.42 </boundaryPoint>)
(<boundaryPoint> X11.184 Y0.0 Z1.42 </boundaryPoint>)
(<boundaryPoint> X11.296 Y1.06 Z1.42 </boundaryPoint>)
(<boundaryPoint> X11.625 Y2.074 Z1.42 </boundaryPoint>)
(<perimeter> inner )
G1 X13.24 Y5.29 Z1.42 F3000.0
M108 R30.0
M101
G1 X13.64 Y4.59 Z1.42 F3000.0
M108 R3.569
G1 X14.65 Y5.04 Z1.42 F1800.0
G1 X15.73 Y5.27 Z1.42 F1800.0
G1 X16.84 Y5.27 Z1.42 F1800.0
G1 X17.92 Y5.04 Z1.42 F1800.0
G1 X18.93 Y4.59 Z1.42 F1800.0
G1 X19.83 Y3.94 Z1.42 F1800.0
G1 X20.57 Y3.11 Z1.42 F1800.0
G1 X21.12 Y2.15 Z1.42 F1800.0
G1 X21.47 Y1.1 Z1.42 F1800.0
G1 X21.58 Y-0.0 Z1.42 F1800.0
G1 X21.47 Y-1.1 Z1.42 F1800.0
G1 X21.12 Y-2.15 Z1.42 F1800.0
G1 X20.57 Y-3.11 Z1.42 F1800.0
G1 X19.83 Y-3.94 Z1.42 F1800.0
G1 X18.93 Y-4.59 Z1.42 F1800.0
G1 X17.92 Y-5.04 Z1.42 F1800.0
G1 X16.84 Y-5.27 Z1.42 F1800.0
G1 X15.73 Y-5.27 Z1.42 F1800.0
G1 X14.65 Y-5.04 Z1.42 F1800.0
G1 X13.64 Y-4.59 Z1.42 F1800.0
G1 X12.74 Y-3.94 Z1.42 F1800.0
G1 X12.0 Y-3.11 Z1.42 F1800.0
G1 X11.44 Y-2.15 Z1.42 F1800.0
G1 X11.1 Y-1.1 Z1.42 F1800.0
G1 X10.99 Y0.0 Z1.42 F1800.0
G1 X11.1 Y1.1 Z1.42 F1800.0
G1 X11.44 Y2.15 Z1.42 F1800.0
G1 X12.0 Y3.11 Z1.42 F1800.0
G1 X12.74 Y3.94 Z1.42 F1800.0
G1 X13.27 Y4.32 Z1.42 F1800.0
M108 R30.0
M102
G1 X13.64 Y4.59 Z1.42 F1800.0
M108 R3.569
M103
(</perimeter>)
(</boundaryPerimeter>)
(</surroundingLoop>)
(<surroundingLoop>)
(<boundaryPerimeter>)
(<boundaryPoint> X-20.41 Y2.998 Z1.42 </boundaryPoint>)
(<boundaryPoint> X-19.697 Y3.79 Z1.42 </boundaryPoint>)
(<boundaryPoint> X-18.834 Y4.417 Z1.42 </boundaryPoint>)
(<boundaryPoint> X-17.86 Y4.85 Z1.42 </boundaryPoint>)
(<boundaryPoint> X-16.817 Y5.072 Z1.42 </boundaryPoint>)
(<boundaryPoint> X-15.751 Y5.072 Z1.42 </boundaryPoint>)
(<boundaryPoint> X-14.708 Y4.85 Z1.42 </boundaryPoint>)
(<boundaryPoint> X-13.734 Y4.417 Z1.42 </boundaryPoint>)
(<boundaryPoint> X-12.872 Y3.79 Z1.42 </boundaryPoint>)
(<boundaryPoint> X-12.158 Y2.998 Z1.42 </boundaryPoint>)
(<boundaryPoint> X-11.625 Y2.074 Z1.42 </boundaryPoint>)
(<boundaryPoint> X-11.296 Y1.06 Z1.42 </boundaryPoint>)
(<boundaryPoint> X-11.184 Y-0.0 Z1.42 </boundaryPoint>)
(<boundaryPoint> X-11.296 Y-1.06 Z1.42 </boundaryPoint>)
(<boundaryPoint> X-11.625 Y-2.074 Z1.42 </boundaryPoint>)
(<boundaryPoint> X-12.158 Y-2.998 Z1.42 </boundaryPoint>)
(<boundaryPoint> X-12.872 Y-3.79 Z1.42 </boundaryPoint>)
(<boundaryPoint> X-13.734 Y-4.417 Z1.42 </boundaryPoint>)
(<boundaryPoint> X-14.708 Y-4.85 Z1.42 </boundaryPoint>)
(<boundaryPoint> X-15.751 Y-5.072 Z1.42 </boundaryPoint>)
(<boundaryPoint> X-16.817 Y-5.072 Z1.42 </boundaryPoint>)
(<boundaryPoint> X-17.86 Y-4.85 Z1.42 </boundaryPoint>)
(<boundaryPoint> X-18.834 Y-4.417 Z1.42 </boundaryPoint>)
(<boundaryPoint> X-19.697 Y-3.79 Z1.42 </boundaryPoint>)
(<boundaryPoint> X-20.41 Y-2.998 Z1.42 </boundaryPoint>)
(<boundaryPoint> X-20.943 Y-2.074 Z1.42 </boundaryPoint>)
(<boundaryPoint> X-21.273 Y-1.06 Z1.42 </boundaryPoint>)
(<boundaryPoint> X-21.384 Y0.0 Z1.42 </boundaryPoint>)
(<boundaryPoint> X-21.273 Y1.06 Z1.42 </boundaryPoint>)
(<boundaryPoint> X-20.943 Y2.074 Z1.42 </boundaryPoint>)
(<perimeter> inner )
G1 X-10.31 Y1.21 Z1.42 F3000.0
M108 R30.0
M101
G1 X-11.1 Y1.1 Z1.42 F3000.0
M108 R3.569
G1 X-10.99 Y-0.0 Z1.42 F1800.0
G1 X-11.1 Y-1.1 Z1.42 F1800.0
G1 X-11.44 Y-2.15 Z1.42 F1800.0
G1 X-12.0 Y-3.11 Z1.42 F1800.0
G1 X-12.74 Y-3.94 Z1.42 F1800.0
G1 X-13.64 Y-4.59 Z1.42 F1800.0
G1 X-14.65 Y-5.04 Z1.42 F1800.0
G1 X-15.73 Y-5.27 Z1.42 F1800.0
G1 X-16.84 Y-5.27 Z1.42 F1800.0
G1 X-17.92 Y-5.04 Z1.42 F1800.0
G1 X-18.93 Y-4.59 Z1.42 F1800.0
G1 X-19.83 Y-3.94 Z1.42 F1800.0
G1 X-20.57 Y-3.11 Z1.42 F1800.0
G1 X-21.12 Y-2.15 Z1.42 F1800.0
G1 X-21.47 Y-1.1 Z1.42 F1800.0
G1 X-21.58 Y0.0 Z1.42 F1800.0
G1 X-21.47 Y1.1 Z1.42 F1800.0
G1 X-21.12 Y2.15 Z1.42 F1800.0
G1 X-20.57 Y3.11 Z1.42 F1800.0
G1 X-19.83 Y3.94 Z1.42 F1800.0
G1 X-18.93 Y4.59 Z1.42 F1800.0
G1 X-17.92 Y5.04 Z1.42 F1800.0
G1 X-16.84 Y5.27 Z1.42 F1800.0
G1 X-15.73 Y5.27 Z1.42 F1800.0
G1 X-14.65 Y5.04 Z1.42 F1800.0
G1 X-13.64 Y4.59 Z1.42 F1800.0
G1 X-12.74 Y3.94 Z1.42 F1800.0
G1 X-12.0 Y3.11 Z1.42 F1800.0
G1 X-11.44 Y2.15 Z1.42 F1800.0
G1 X-11.24 Y1.53 Z1.42 F1800.0
M108 R30.0
M102
G1 X-11.1 Y1.1 Z1.42 F1800.0
M108 R3.569
M103
(</perimeter>)
(</boundaryPerimeter>)
(</surroundingLoop>)
G1 X9.58 Y0.46 Z1.42 F3000.0
M108 R30.0
M101
G1 X10.38 Y0.44 Z1.42 F3000.0
M108 R3.569
G1 X9.99 Y0.92 Z1.42 F1800.0
G1 X7.51 Y0.98 Z1.42 F1800.0
G1 X5.58 Y-0.98 Z1.42 F1800.0
G1 X5.33 Y-0.98 Z1.42 F1800.0
G1 X3.4 Y0.98 Z1.42 F1800.0
G1 X3.15 Y0.98 Z1.42 F1800.0
G1 X1.22 Y-0.98 Z1.42 F1800.0
G1 X0.96 Y-0.98 Z1.42 F1800.0
G1 X-0.96 Y0.98 Z1.42 F1800.0
G1 X-1.22 Y0.98 Z1.42 F1800.0
G1 X-3.15 Y-0.98 Z1.42 F1800.0
G1 X-3.4 Y-0.98 Z1.42 F1800.0
G1 X-5.33 Y0.98 Z1.42 F1800.0
G1 X-5.58 Y0.98 Z1.42 F1800.0
G1 X-7.51 Y-0.98 Z1.42 F1800.0
G1 X-7.76 Y-0.98 Z1.42 F1800.0
G1 X-9.69 Y0.98 Z1.42 F1800.0
G1 X-9.95 Y0.98 Z1.42 F1800.0
G1 X-10.1 Y0.79 Z1.42 F1800.0
M108 R30.0
M102
G1 X-10.38 Y0.44 Z1.42 F1800.0
M108 R3.569
M103
G1 X-10.54 Y-0.95 Z1.42 F3000.0
M108 R30.0
M101
G1 X-10.63 Y-1.75 Z1.42 F3000.0
M108 R3.569
G1 X-10.77 Y-2.18 Z1.42 F1800.0
G1 X-9.95 Y-3.16 Z1.42 F1800.0
G1 X-9.69 Y-3.16 Z1.42 F1800.0
G1 X-7.76 Y-1.21 Z1.42 F1800.0
G1 X-7.51 Y-1.21 Z1.42 F1800.0
G1 X-5.58 Y-3.16 Z1.42 F1800.0
G1 X-5.33 Y-3.16 Z1.42 F1800.0
G1 X-3.4 Y-1.21 Z1.42 F1800.0
G1 X-3.15 Y-1.21 Z1.42 F1800.0
G1 X-1.22 Y-3.16 Z1.42 F1800.0
G1 X-0.96 Y-3.16 Z1.42 F1800.0
G1 X0.96 Y-1.21 Z1.42 F1800.0
G1 X1.22 Y-1.21 Z1.42 F1800.0
G1 X3.15 Y-3.16 Z1.42 F1800.0
G1 X3.4 Y-3.16 Z1.42 F1800.0
G1 X5.33 Y-1.21 Z1.42 F1800.0
G1 X5.58 Y-1.21 Z1.42 F1800.0
G1 X7.51 Y-3.16 Z1.42 F1800.0
G1 X7.76 Y-3.16 Z1.42 F1800.0
G1 X10.77 Y-2.18 Z1.42 F1800.0
G1 X10.77 Y-2.17 Z1.42 F1800.0
M108 R30.0
M102
G1 X10.63 Y-1.75 Z1.42 F1800.0
M108 R3.569
M103
G1 X12.36 Y-4.15 Z1.42 F3000.0
M108 R30.0
M101
G1 X12.82 Y-4.8 Z1.42 F3000.0
M108 R3.569
G1 X12.25 Y-4.36 Z1.42 F1800.0
G1 X11.47 Y-3.49 Z1.42 F1800.0
G1 X10.96 Y-2.62 Z1.42 F1800.0
G1 X9.95 Y-5.34 Z1.42 F1800.0
G1 X9.69 Y-5.34 Z1.42 F1800.0
G1 X7.76 Y-3.39 Z1.42 F1800.0
G1 X7.51 Y-3.39 Z1.42 F1800.0
G1 X5.58 Y-5.34 Z1.42 F1800.0
G1 X5.33 Y-5.34 Z1.42 F1800.0
G1 X3.4 Y-3.39 Z1.42 F1800.0
G1 X3.15 Y-3.39 Z1.42 F1800.0
G1 X1.22 Y-5.45 Z1.42 F1800.0
G1 X0.96 Y-5.45 Z1.42 F1800.0
G1 X-0.96 Y-3.39 Z1.42 F1800.0
G1 X-1.22 Y-3.39 Z1.42 F1800.0
G1 X-3.15 Y-5.45 Z1.42 F1800.0
G1 X-3.4 Y-5.45 Z1.42 F1800.0
G1 X-5.33 Y-3.39 Z1.42 F1800.0
G1 X-5.58 Y-3.39 Z1.42 F1800.0
G1 X-7.51 Y-5.45 Z1.42 F1800.0
G1 X-7.76 Y-5.45 Z1.42 F1800.0
G1 X-9.69 Y-3.39 Z1.42 F1800.0
G1 X-9.95 Y-3.39 Z1.42 F1800.0
G1 X-10.96 Y-2.62 Z1.42 F1800.0
G1 X-11.47 Y-3.49 Z1.42 F1800.0
G1 X-12.25 Y-4.36 Z1.42 F1800.0
G1 X-12.47 Y-4.53 Z1.42 F1800.0
M108 R30.0
M102
G1 X-12.82 Y-4.8 Z1.42 F1800.0
M108 R3.569
M103
G1 X-11.38 Y-2.19 Z1.42 F3000.0
G1 X-11.03 Y-1.12 Z1.42 F3000.0
G1 X-10.98 Y1.82 Z1.42 F3000.0
M108 R30.0
M101
G1 X-10.96 Y2.62 Z1.42 F3000.0
M108 R3.569
G1 X-10.77 Y2.62 Z1.42 F1800.0
G1 X-10.41 Y1.74 Z1.42 F1800.0
G1 X-9.95 Y1.21 Z1.42 F1800.0
G1 X-9.69 Y1.21 Z1.42 F1800.0
G1 X-7.76 Y3.16 Z1.42 F1800.0
G1 X-7.51 Y3.16 Z1.42 F1800.0
G1 X-5.58 Y1.21 Z1.42 F1800.0
G1 X-5.33 Y1.21 Z1.42 F1800.0
G1 X-3.4 Y3.16 Z1.42 F1800.0
G1 X-3.15 Y3.16 Z1.42 F1800.0
G1 X-1.22 Y1.21 Z1.42 F1800.0
G1 X-0.96 Y1.21 Z1.42 F1800.0
G1 X0.96 Y3.16 Z1.42 F1800.0
G1 X1.22 Y3.16 Z1.42 F1800.0
G1 X3.15 Y1.21 Z1.42 F1800.0
G1 X3.4 Y1.21 Z1.42 F1800.0
G1 X5.33 Y3.16 Z1.42 F1800.0
G1 X5.58 Y3.16 Z1.42 F1800.0
G1 X7.51 Y1.21 Z1.42 F1800.0
G1 X7.76 Y1.21 Z1.42 F1800.0
G1 X9.69 Y3.16 Z1.42 F1800.0
G1 X9.95 Y3.16 Z1.42 F1800.0
G1 X10.57 Y2.83 Z1.42 F1800.0
M108 R30.0
M102
G1 X10.96 Y2.62 Z1.42 F1800.0
M108 R3.569
M103
G1 X12.31 Y4.19 Z1.42 F3000.0
M108 R30.0
M101
G1 X12.82 Y4.8 Z1.42 F3000.0
M108 R3.569
G1 X12.13 Y5.34 Z1.42 F1800.0
G1 X11.87 Y5.34 Z1.42 F1800.0
G1 X12.25 Y4.36 Z1.42 F1800.0
G1 X11.47 Y3.49 Z1.42 F1800.0
G1 X9.69 Y3.39 Z1.42 F1800.0
G1 X7.76 Y5.34 Z1.42 F1800.0
G1 X7.51 Y5.34 Z1.42 F1800.0
G1 X5.58 Y3.39 Z1.42 F1800.0
G1 X5.33 Y3.39 Z1.42 F1800.0
G1 X3.4 Y5.34 Z1.42 F1800.0
G1 X3.15 Y5.34 Z1.42 F1800.0
G1 X1.22 Y3.39 Z1.42 F1800.0
G1 X0.96 Y3.39 Z1.42 F1800.0
G1 X-0.96 Y5.45 Z1.42 F1800.0
G1 X-1.22 Y5.45 Z1.42 F1800.0
G1 X-3.15 Y3.39 Z1.42 F1800.0
G1 X-3.4 Y3.39 Z1.42 F1800.0
G1 X-5.33 Y5.45 Z1.42 F1800.0
G1 X-5.58 Y5.45 Z1.42 F1800.0
G1 X-7.51 Y3.39 Z1.42 F1800.0
G1 X-7.76 Y3.39 Z1.42 F1800.0
G1 X-9.69 Y5.45 Z1.42 F1800.0
G1 X-9.95 Y5.45 Z1.42 F1800.0
G1 X-11.47 Y3.49 Z1.42 F1800.0
G1 X-11.57 Y4.25 Z1.42 F1800.0
G1 X-12.25 Y4.36 Z1.42 F1800.0
G1 X-12.47 Y4.53 Z1.42 F1800.0
M108 R30.0
M102
G1 X-12.82 Y4.8 Z1.42 F1800.0
M108 R3.569
M103
G1 X-15.72 Y5.34 Z1.42 F3000.0
G1 X-16.85 Y5.34 Z1.42 F3000.0
G1 X-17.95 Y5.11 Z1.42 F3000.0
G1 X-18.97 Y4.65 Z1.42 F3000.0
G1 X-19.88 Y3.99 Z1.42 F3000.0
G1 X-20.63 Y3.16 Z1.42 F3000.0
G1 X-21.79 Y1.13 Z1.42 F3000.0
M108 R30.0
M101
G1 X-22.19 Y0.44 Z1.42 F3000.0
M108 R3.569
G1 X-22.23 Y0.0 Z1.42 F1800.0
G1 X-22.19 Y-0.44 Z1.42 F1800.0
G1 X-22.58 Y-0.92 Z1.42 F1800.0
G1 X-25.22 Y-0.98 Z1.42 F1800.0
G1 X-27.14 Y0.98 Z1.42 F1800.0
G1 X-27.4 Y0.98 Z1.42 F1800.0
G1 X-29.33 Y-0.98 Z1.42 F1800.0
G1 X-29.58 Y-0.98 Z1.42 F1800.0
G1 X-31.63 Y0.98 Z1.42 F1800.0
G1 X-31.65 Y0.88 Z1.42 F1800.0
M108 R30.0
M102
G1 X-31.72 Y0.44 Z1.42 F1800.0
M108 R3.569
M103
G1 X-31.72 Y-0.95 Z1.42 F3000.0
M108 R30.0
M101
G1 X-31.72 Y-1.75 Z1.42 F3000.0
M108 R3.569
G1 X-31.29 Y-2.18 Z1.42 F1800.0
G1 X-31.29 Y-2.55 Z1.42 F1800.0
G1 X-31.63 Y-3.16 Z1.42 F1800.0
G1 X-31.51 Y-3.16 Z1.42 F1800.0
G1 X-29.58 Y-1.21 Z1.42 F1800.0
G1 X-29.33 Y-1.21 Z1.42 F1800.0
G1 X-27.4 Y-3.16 Z1.42 F1800.0
G1 X-27.14 Y-3.16 Z1.42 F1800.0
G1 X-25.22 Y-1.21 Z1.42 F1800.0
G1 X-24.96 Y-1.21 Z1.42 F1800.0
G1 X-23.04 Y-3.16 Z1.42 F1800.0
G1 X-22.78 Y-3.16 Z1.42 F1800.0
G1 X-22.01 Y-2.77 Z1.42 F1800.0
G1 X-21.8 Y-2.18 Z1.42 F1800.0
G1 X-21.8 Y-2.17 Z1.42 F1800.0
M108 R30.0
M102
G1 X-21.94 Y-1.75 Z1.42 F1800.0
M108 R3.569
M103
G1 X-21.45 Y-2.77 Z1.42 F3000.0
M108 R30.0
M101
G1 X-21.1 Y-3.49 Z1.42 F3000.0
M108 R3.569
G1 X-20.32 Y-4.36 Z1.42 F1800.0
G1 X-19.74 Y-4.8 Z1.42 F1800.0
G1 X-19.32 Y-5.59 Z1.42 F1800.0
G1 X-20.85 Y-5.45 Z1.42 F1800.0
G1 X-22.78 Y-3.39 Z1.42 F1800.0
G1 X-23.04 Y-3.39 Z1.42 F1800.0
G1 X-24.96 Y-5.34 Z1.42 F1800.0
G1 X-25.22 Y-5.34 Z1.42 F1800.0
G1 X-27.14 Y-3.39 Z1.42 F1800.0
G1 X-27.4 Y-3.39 Z1.42 F1800.0
G1 X-29.33 Y-5.34 Z1.42 F1800.0
G1 X-29.58 Y-5.34 Z1.42 F1800.0
G1 X-31.63 Y-3.39 Z1.42 F1800.0
G1 X-31.65 Y-3.48 Z1.42 F1800.0
M108 R30.0
M102
G1 X-31.72 Y-3.93 Z1.42 F1800.0
M108 R3.569
M103
G1 X-31.72 Y-5.31 Z1.42 F3000.0
M108 R30.0
M101
G1 X-31.72 Y-6.11 Z1.42 F3000.0
M108 R3.569
G1 X-31.29 Y-6.55 Z1.42 F1800.0
G1 X-31.29 Y-6.91 Z1.42 F1800.0
G1 X-31.63 Y-7.52 Z1.42 F1800.0
G1 X-31.51 Y-7.52 Z1.42 F1800.0
G1 X-29.58 Y-5.57 Z1.42 F1800.0
G1 X-24.96 Y-5.57 Z1.42 F1800.0
G1 X3.4 Y-7.52 Z1.42 F1800.0
G1 X5.33 Y-5.57 Z1.42 F1800.0
G1 X5.58 Y-5.57 Z1.42 F1800.0
G1 X7.51 Y-7.52 Z1.42 F1800.0
G1 X7.76 Y-7.52 Z1.42 F1800.0
G1 X9.69 Y-5.57 Z1.42 F1800.0
G1 X9.95 Y-5.57 Z1.42 F1800.0
G1 X11.87 Y-7.52 Z1.42 F1800.0
G1 X12.13 Y-7.52 Z1.42 F1800.0
G1 X14.51 Y-5.67 Z1.42 F1800.0
G1 X16.24 Y-7.52 Z1.42 F1800.0
G1 X16.49 Y-7.52 Z1.42 F1800.0
G1 X18.05 Y-5.67 Z1.42 F1800.0
G1 X18.42 Y-5.45 Z1.42 F1800.0
G1 X18.67 Y-5.45 Z1.42 F1800.0
G1 X19.07 Y-5.24 Z1.42 F1800.0
G1 X19.98 Y-5.17 Z1.42 F1800.0
G1 X20.6 Y-7.52 Z1.42 F1800.0
G1 X20.85 Y-7.52 Z1.42 F1800.0
G1 X22.78 Y-5.57 Z1.42 F1800.0
G1 X23.04 Y-5.57 Z1.42 F1800.0
G1 X24.96 Y-7.52 Z1.42 F1800.0
G1 X25.22 Y-7.52 Z1.42 F1800.0
G1 X27.14 Y-5.57 Z1.42 F1800.0
G1 X27.4 Y-5.57 Z1.42 F1800.0
G1 X29.33 Y-7.52 Z1.42 F1800.0
G1 X31.72 Y-7.42 Z1.42 F1800.0
G1 X31.29 Y-6.98 Z1.42 F1800.0
G1 X31.29 Y-6.55 Z1.42 F1800.0
G1 X31.41 Y-6.43 Z1.42 F1800.0
M108 R30.0
M102
G1 X31.72 Y-6.11 Z1.42 F1800.0
M108 R3.569
M103
G1 X31.72 Y-4.73 Z1.42 F3000.0
M108 R30.0
M101
G1 X31.72 Y-3.93 Z1.42 F3000.0
M108 R3.569
G1 X31.29 Y-3.49 Z1.42 F1800.0
G1 X29.33 Y-3.39 Z1.42 F1800.0
G1 X27.4 Y-5.34 Z1.42 F1800.0
G1 X27.14 Y-5.34 Z1.42 F1800.0
G1 X25.22 Y-3.39 Z1.42 F1800.0
G1 X24.96 Y-3.39 Z1.42 F1800.0
G1 X23.04 Y-5.34 Z1.42 F1800.0
G1 X22.78 Y-5.34 Z1.42 F1800.0
G1 X21.73 Y-3.27 Z1.42 F1800.0
G1 X21.1 Y-3.49 Z1.42 F1800.0
G1 X20.62 Y-4.03 Z1.42 F1800.0
M108 R30.0
M102
G1 X20.32 Y-4.36 Z1.42 F1800.0
M108 R3.569
M103
G1 X21.35 Y-2.84 Z1.42 F3000.0
M108 R30.0
M101
G1 X21.8 Y-2.18 Z1.42 F3000.0
M108 R3.569
G1 X21.94 Y-1.75 Z1.42 F1800.0
G1 X22.5 Y-1.44 Z1.42 F1800.0
G1 X22.78 Y-1.21 Z1.42 F1800.0
G1 X23.04 Y-1.21 Z1.42 F1800.0
G1 X24.96 Y-3.16 Z1.42 F1800.0
G1 X25.22 Y-3.16 Z1.42 F1800.0
G1 X27.14 Y-1.21 Z1.42 F1800.0
G1 X27.4 Y-1.21 Z1.42 F1800.0
G1 X29.33 Y-3.16 Z1.42 F1800.0
G1 X29.58 Y-3.16 Z1.42 F1800.0
G1 X31.29 Y-2.62 Z1.42 F1800.0
G1 X31.52 Y-2.15 Z1.42 F1800.0
M108 R30.0
M102
G1 X31.72 Y-1.75 Z1.42 F1800.0
M108 R3.569
M103
G1 X31.72 Y-0.36 Z1.42 F3000.0
M108 R30.0
M101
G1 X31.72 Y0.44 Z1.42 F3000.0
M108 R3.569
G1 X31.29 Y0.87 Z1.42 F1800.0
G1 X29.33 Y0.98 Z1.42 F1800.0
G1 X27.4 Y-0.98 Z1.42 F1800.0
G1 X27.14 Y-0.98 Z1.42 F1800.0
G1 X25.22 Y0.98 Z1.42 F1800.0
G1 X24.96 Y0.98 Z1.42 F1800.0
G1 X23.04 Y-0.98 Z1.42 F1800.0
G1 X22.78 Y-0.98 Z1.42 F1800.0
G1 X22.21 Y-0.44 Z1.42 F1800.0
G1 X22.23 Y-0.01 Z1.42 F1800.0
M108 R30.0
M102
G1 X22.23 Y-0.0 Z1.42 F1800.0
G1 X22.19 Y0.44 Z1.42 F1800.0
M108 R3.569
M103
G1 X20.66 Y3.64 Z1.42 F3000.0
M108 R30.0
M101
G1 X20.32 Y4.36 Z1.42 F3000.0
M108 R3.569
G1 X21.1 Y3.49 Z1.42 F1800.0
G1 X21.6 Y2.62 Z1.42 F1800.0
G1 X22.35 Y1.9 Z1.42 F1800.0
G1 X22.78 Y3.16 Z1.42 F1800.0
G1 X23.04 Y3.16 Z1.42 F1800.0
G1 X24.96 Y1.21 Z1.42 F1800.0
G1 X25.22 Y1.21 Z1.42 F1800.0
G1 X27.14 Y3.16 Z1.42 F1800.0
G1 X27.4 Y3.16 Z1.42 F1800.0
G1 X29.33 Y1.21 Z1.42 F1800.0
G1 X31.72 Y1.31 Z1.42 F1800.0
G1 X31.29 Y1.75 Z1.42 F1800.0
G1 X31.29 Y2.18 Z1.42 F1800.0
G1 X31.41 Y2.3 Z1.42 F1800.0
M108 R30.0
M102
G1 X31.72 Y2.62 Z1.42 F1800.0
M108 R3.569
M103
G1 X31.72 Y4.0 Z1.42 F3000.0
M108 R30.0
M101
G1 X31.72 Y4.8 Z1.42 F3000.0
M108 R3.569
G1 X31.29 Y5.24 Z1.42 F1800.0
G1 X29.33 Y5.34 Z1.42 F1800.0
G1 X27.4 Y3.39 Z1.42 F1800.0
G1 X27.14 Y3.39 Z1.42 F1800.0
G1 X25.22 Y5.34 Z1.42 F1800.0
G1 X24.96 Y5.34 Z1.42 F1800.0
G1 X23.04 Y3.39 Z1.42 F1800.0
G1 X22.78 Y3.39 Z1.42 F1800.0
G1 X20.85 Y5.34 Z1.42 F1800.0
G1 X20.6 Y5.34 Z1.42 F1800.0
G1 X20.13 Y5.04 Z1.42 F1800.0
M108 R30.0
M102
G1 X19.74 Y4.8 Z1.42 F1800.0
M108 R3.569
M103
G1 X16.85 Y5.34 Z1.42 F3000.0
G1 X-30.92 Y6.95 Z1.42 F3000.0
M108 R30.0
M101
G1 X-31.72 Y6.98 Z1.42 F3000.0
M108 R3.569
G1 X-31.29 Y6.55 Z1.42 F1800.0
G1 X-31.29 Y6.18 Z1.42 F1800.0
G1 X-31.63 Y5.57 Z1.42 F1800.0
G1 X-31.51 Y5.57 Z1.42 F1800.0
G1 X-29.58 Y7.52 Z1.42 F1800.0
G1 X-29.33 Y7.52 Z1.42 F1800.0
G1 X-27.4 Y5.57 Z1.42 F1800.0
G1 X-22.78 Y5.57 Z1.42 F1800.0
G1 X1.22 Y7.52 Z1.42 F1800.0
G1 X3.15 Y5.57 Z1.42 F1800.0
G1 X3.4 Y5.57 Z1.42 F1800.0
G1 X5.33 Y7.52 Z1.42 F1800.0
G1 X5.58 Y7.52 Z1.42 F1800.0
G1 X7.51 Y5.57 Z1.42 F1800.0
G1 X7.76 Y5.57 Z1.42 F1800.0
G1 X9.69 Y7.52 Z1.42 F1800.0
G1 X9.95 Y7.52 Z1.42 F1800.0
G1 X11.87 Y5.57 Z1.42 F1800.0
G1 X14.51 Y5.67 Z1.42 F1800.0
G1 X14.05 Y7.52 Z1.42 F1800.0
G1 X18.67 Y7.52 Z1.42 F1800.0
G1 X18.05 Y5.67 Z1.42 F1800.0
G1 X20.85 Y5.57 Z1.42 F1800.0
G1 X22.78 Y7.52 Z1.42 F1800.0
G1 X23.04 Y7.52 Z1.42 F1800.0
G1 X24.96 Y5.57 Z1.42 F1800.0
G1 X25.22 Y5.57 Z1.42 F1800.0
G1 X27.14 Y7.52 Z1.42 F1800.0
G1 X27.4 Y7.52 Z1.42 F1800.0
G1 X29.33 Y5.57 Z1.42 F1800.0
G1 X29.58 Y5.57 Z1.42 F1800.0
G1 X31.29 Y6.11 Z1.42 F1800.0
G1 X31.52 Y6.58 Z1.42 F1800.0
M108 R30.0
M102
G1 X31.72 Y6.98 Z1.42 F1800.0
M108 R3.569
M103
G1 X31.72 Y8.36 Z1.42 F3000.0
M108 R30.0
M101
G1 X31.72 Y9.16 Z1.42 F3000.0
M108 R3.569
G1 X31.29 Y8.73 Z1.42 F1800.0
G1 X31.29 Y8.29 Z1.42 F1800.0
G1 X31.72 Y7.85 Z1.42 F1800.0
G1 X31.29 Y7.42 Z1.42 F1800.0
G1 X27.4 Y7.75 Z1.42 F1800.0
G1 X-29.58 Y7.75 Z1.42 F1800.0
G1 X-31.29 Y7.42 Z1.42 F1800.0
G1 X-31.72 Y7.85 Z1.42 F1800.0
G1 X-31.29 Y8.29 Z1.42 F1800.0
G1 X-31.29 Y8.73 Z1.42 F1800.0
G1 X-31.41 Y8.85 Z1.42 F1800.0
M108 R30.0
M102
G1 X-31.72 Y9.16 Z1.42 F1800.0
M108 R3.569
M103
G1 X-31.72 Y5.6 Z1.42 F3000.0
M108 R30.0
M101
G1 X-31.72 Y4.8 Z1.42 F3000.0
M108 R3.569
G1 X-31.63 Y5.34 Z1.42 F1800.0
G1 X-29.58 Y3.39 Z1.42 F1800.0
G1 X-29.33 Y3.39 Z1.42 F1800.0
G1 X-27.4 Y5.34 Z1.42 F1800.0
G1 X-27.14 Y5.34 Z1.42 F1800.0
G1 X-25.22 Y3.39 Z1.42 F1800.0
G1 X-24.96 Y3.39 Z1.42 F1800.0
G1 X-23.04 Y5.34 Z1.42 F1800.0
G1 X-22.78 Y5.34 Z1.42 F1800.0
G1 X-19.74 Y4.8 Z1.42 F1800.0
G1 X-20.32 Y4.36 Z1.42 F1800.0
G1 X-21.1 Y3.49 Z1.42 F1800.0
G1 X-21.6 Y2.62 Z1.42 F1800.0
G1 X-22.2 Y2.36 Z1.42 F1800.0
G1 X-22.35 Y1.9 Z1.42 F1800.0
G1 X-22.08 Y1.31 Z1.42 F1800.0
G1 X-24.96 Y3.16 Z1.42 F1800.0
G1 X-25.22 Y3.16 Z1.42 F1800.0
G1 X-27.14 Y1.21 Z1.42 F1800.0
G1 X-27.4 Y1.21 Z1.42 F1800.0
G1 X-29.33 Y3.16 Z1.42 F1800.0
G1 X-29.58 Y3.16 Z1.42 F1800.0
G1 X-31.51 Y1.21 Z1.42 F1800.0
G1 X-31.63 Y1.21 Z1.42 F1800.0
G1 X-31.29 Y1.82 Z1.42 F1800.0
G1 X-31.29 Y2.18 Z1.42 F1800.0
G1 X-31.41 Y2.3 Z1.42 F1800.0
M108 R30.0
M102
G1 X-31.72 Y2.62 Z1.42 F1800.0
M108 R3.569
M103
G1 X-17.95 Y-5.11 Z1.42 F3000.0
G1 X-16.85 Y-5.34 Z1.42 F3000.0
G1 X30.93 Y-8.24 Z1.42 F3000.0
M108 R30.0
M101
G1 X31.72 Y-8.29 Z1.42 F3000.0
M108 R3.569
G1 X31.29 Y-7.85 Z1.42 F1800.0
G1 X-31.63 Y-7.75 Z1.42 F1800.0
G1 X-31.72 Y-8.29 Z1.42 F1800.0
M103
G1 X-31.72 Y-9.16 Z1.42 F3000.0
M101
G1 X31.27 Y-9.16 Z1.42 F1800.0
M108 R30.0
M102
G1 X31.72 Y-9.16 Z1.42 F1800.0
M108 R3.569
M103
(</surroundingLoop>)
(</layer>)
(<layer> 1.74 )
(<surroundingLoop>)
(<boundaryPerimeter>)
(<boundaryPoint> X32.569 Y10.2 Z1.74 </boundaryPoint>)
(<boundaryPoint> X-32.569 Y10.2 Z1.74 </boundaryPoint>)
(<boundaryPoint> X-32.569 Y-10.2 Z1.74 </boundaryPoint>)
(<boundaryPoint> X32.569 Y-10.2 Z1.74 </boundaryPoint>)
(<loop> inner )
G1 X-9.9 Y-1.02 Z1.73 F3000.0
M108 R30.0
M101
G1 X-10.68 Y-0.86 Z1.74 F3000.0
M108 R3.569
G1 X-10.72 Y-1.18 Z1.74 F1800.0
G1 X-11.08 Y-2.32 Z1.74 F1800.0
G1 X-11.68 Y-3.35 Z1.74 F1800.0
G1 X-12.48 Y-4.23 Z1.74 F1800.0
G1 X-13.44 Y-4.93 Z1.74 F1800.0
G1 X-14.53 Y-5.41 Z1.74 F1800.0
G1 X-15.69 Y-5.66 Z1.74 F1800.0
G1 X-16.88 Y-5.66 Z1.74 F1800.0
G1 X-18.04 Y-5.41 Z1.74 F1800.0
G1 X-19.13 Y-4.93 Z1.74 F1800.0
G1 X-20.09 Y-4.23 Z1.74 F1800.0
G1 X-20.89 Y-3.35 Z1.74 F1800.0
G1 X-21.48 Y-2.32 Z1.74 F1800.0
G1 X-21.85 Y-1.18 Z1.74 F1800.0
G1 X-21.98 Y-0.0 Z1.74 F1800.0
G1 X-21.85 Y1.18 Z1.74 F1800.0
G1 X-21.48 Y2.32 Z1.74 F1800.0
G1 X-20.89 Y3.35 Z1.74 F1800.0
G1 X-20.09 Y4.23 Z1.74 F1800.0
G1 X-19.13 Y4.93 Z1.74 F1800.0
G1 X-18.04 Y5.41 Z1.74 F1800.0
G1 X-16.88 Y5.66 Z1.74 F1800.0
G1 X-15.69 Y5.66 Z1.74 F1800.0
G1 X-14.53 Y5.41 Z1.74 F1800.0
G1 X-13.44 Y4.93 Z1.74 F1800.0
G1 X-12.48 Y4.23 Z1.74 F1800.0
G1 X-11.68 Y3.35 Z1.74 F1800.0
G1 X-11.08 Y2.32 Z1.74 F1800.0
G1 X-10.72 Y1.18 Z1.74 F1800.0
G1 X-10.59 Y0.0 Z1.74 F1800.0
G1 X-10.64 Y-0.42 Z1.74 F1800.0
M108 R30.0
M102
G1 X-10.68 Y-0.86 Z1.74 F1800.0
M108 R3.569
M103
(</loop>)
(<loop> inner )
G1 X9.79 Y-0.03 Z1.74 F3000.0
M108 R30.0
M101
G1 X10.59 Y-0.0 Z1.74 F3000.0
M108 R3.569
G1 X10.72 Y1.18 Z1.74 F1800.0
G1 X11.08 Y2.32 Z1.74 F1800.0
G1 X11.68 Y3.35 Z1.74 F1800.0
G1 X12.48 Y4.23 Z1.74 F1800.0
G1 X13.44 Y4.93 Z1.74 F1800.0
G1 X14.53 Y5.41 Z1.74 F1800.0
G1 X15.69 Y5.66 Z1.74 F1800.0
G1 X16.88 Y5.66 Z1.74 F1800.0
G1 X18.04 Y5.41 Z1.74 F1800.0
G1 X19.13 Y4.93 Z1.74 F1800.0
G1 X20.09 Y4.23 Z1.74 F1800.0
G1 X20.89 Y3.35 Z1.74 F1800.0
G1 X21.48 Y2.32 Z1.74 F1800.0
G1 X21.85 Y1.18 Z1.74 F1800.0
G1 X21.98 Y0.0 Z1.74 F1800.0
G1 X21.85 Y-1.18 Z1.74 F1800.0
G1 X21.48 Y-2.32 Z1.74 F1800.0
G1 X20.89 Y-3.35 Z1.74 F1800.0
G1 X20.09 Y-4.23 Z1.74 F1800.0
G1 X19.13 Y-4.93 Z1.74 F1800.0
G1 X18.04 Y-5.41 Z1.74 F1800.0
G1 X16.88 Y-5.66 Z1.74 F1800.0
G1 X15.69 Y-5.66 Z1.74 F1800.0
G1 X14.53 Y-5.41 Z1.74 F1800.0
G1 X13.44 Y-4.93 Z1.74 F1800.0
G1 X12.48 Y-4.23 Z1.74 F1800.0
G1 X11.68 Y-3.35 Z1.74 F1800.0
G1 X11.08 Y-2.32 Z1.74 F1800.0
G1 X10.72 Y-1.18 Z1.74 F1800.0
G1 X10.64 Y-0.45 Z1.74 F1800.0
M108 R30.0
M102
G1 X10.59 Y-0.0 Z1.74 F1800.0
M108 R3.569
M103
(</loop>)
