(** This GCode was generated by ReplicatorG 0034 **)
(*  using Skeinforge (35)  *)
(*  for a Single headed Thing-O-Matic  *)
(*  on 2012/04/21 23:39:58 (-0400) *)
(<alteration>)
(**** beginning of start.gcode ****)
(This file is for a MakerBot Thing-O-Matic)
(**** begin initialization commands ****)
G21 (set units to mm)
G90 (set positioning to absolute)
M108 R5.0 (set extruder speed)
M103 (Make sure extruder is off)
M104 S225 T0 (set extruder temperature)
M109 S120 T0 (set heated-build-platform temperature)
(**** end initialization commands ****)
(**** begin homing ****)
G162 Z F1000 (home Z axis maximum)
G92 Z10 (set Z to 0)
G1 Z0.0 (move z down 10)
G162 Z F150 (home Z axis maximum)
G161 X Y F2500 (home XY axes minimum)
M132 X Y Z A B (Recall stored home offsets for XYZAB axis)
(**** end homing ****)
(**** begin pre-wipe commands ****)
( Some people have had problems with the nozzle hitting )
( bolts or wipers during this pre-extrusion warmup.     )
( If this happens to you, you can change the values for )
( the X and Y positions in the following code.          )
( The goal is to have the toolhead wipe its initial     )
( extrusion near the edge of the platform, [anchor it]  )
( so as not to have it interfere with the print.        )
( This file can be found in:                            )
( replicatorg/skein_engines/skeinforge-##/skeinforge_application/ )
( prefs/<profile name [e.g. Thingomatic-ABP-Mk7]>/alterations )
G1 X25.0 Y-60.0 Z10.0 F3300.0 (move to waiting position)
M6 T0 (wait for toolhead parts, nozzle, HBP, etc., to reach temperature)
G0 X25 Y-57 (Position Nozzle)
G0 Z0.6     (Position Height)
M108 R4.0   (Set Extruder Speed)
M101        (Start Extruder)
G4 P1500    (Create Anchor)
(**** end pre-wipe commands ****)
(**** end of start.gcode ****)
(</alteration>)
(<creation> skeinforge </creation>)
(<version> 10.11.05 </version>)
(<extruderInitialization>)
(<craftTypeName> extrusion </craftTypeName>)
M105
(<bridgeWidthMultiplier> 1.0 </bridgeWidthMultiplier>)
(<decimalPlacesCarried> 3 </decimalPlacesCarried>)
(<layerThickness> 0.32 </layerThickness>)
(<threadSequenceString> loops perimeter infill </threadSequenceString>)
(<operatingFeedRatePerSecond> 30.0 </operatingFeedRatePerSecond>)
(<operatingFlowRate> 3.56914845556 </operatingFlowRate>)
(<orbitalFeedRatePerSecond> 15.0 </orbitalFeedRatePerSecond>)
(<travelFeedRatePerSecond> 50.0 </travelFeedRatePerSecond>)
(<perimeterWidth> 0.393 </perimeterWidth>)
(<profileName> ABS </profileName>)
(<procedureDone> carve,bottom </procedureDone>)
(<procedureDone> preface </procedureDone>)
(<procedureDone> inset </procedureDone>)
(<procedureDone> fill </procedureDone>)
(<procedureDone> speed </procedureDone>)
(<procedureDone> raft </procedureDone>)
(<procedureDone> jitter </procedureDone>)
(<procedureDone> comb </procedureDone>)
(<procedureDone> cool </procedureDone>)
(<procedureDone> outline </procedureDone>)
(<procedureDone> reversal </procedureDone>)
(<procedureDone> export </procedureDone>)
(</extruderInitialization>)
(<extrusion>)
;M113 S1.0
M108 R3.569
(<layer> 0.46 )
(<surroundingLoop>)
(<boundaryPerimeter>)
(<boundaryPoint> X32.693 Y-12.293 Z0.46 </boundaryPoint>)
(<boundaryPoint> X-12.293 Y-12.293 Z0.46 </boundaryPoint>)
(<boundaryPoint> X-12.293 Y32.693 Z0.46 </boundaryPoint>)
(<boundaryPoint> X-32.693 Y32.693 Z0.46 </boundaryPoint>)
(<boundaryPoint> X-32.693 Y-32.693 Z0.46 </boundaryPoint>)
(<boundaryPoint> X32.693 Y-32.693 Z0.46 </boundaryPoint>)
(<loop> inner )
M108 R2.141
G1 X34.5 Y-34.5 Z0.46 F1080.0
M101
G1 X-34.5 Y-34.5 Z0.46 F1080.0
G1 X-34.5 Y34.5 Z0.46 F1080.0
G1 X34.5 Y34.5 Z0.46 F1080.0
G1 X34.5 Y-34.23 Z0.46 F1080.0
M108 R30.0
M102
G1 X34.5 Y-34.5 Z0.46 F1080.0
M108 R2.141
M103
G1 X15.77 Y-18.72 Z0.46 F3000.0
M108 R30.0
M101
G1 X15.16 Y-18.21 Z0.46 F3000.0
M108 R2.141
G1 X16.05 Y-17.56 Z0.46 F1080.0
G1 X17.14 Y-17.08 Z0.46 F1080.0
G1 X18.3 Y-16.83 Z0.46 F1080.0
G1 X19.49 Y-16.83 Z0.46 F1080.0
G1 X20.66 Y-17.08 Z0.46 F1080.0
G1 X21.74 Y-17.56 Z0.46 F1080.0
G1 X22.71 Y-18.26 Z0.46 F1080.0
G1 X23.5 Y-19.15 Z0.46 F1080.0
G1 X24.1 Y-20.18 Z0.46 F1080.0
G1 X24.47 Y-21.31 Z0.46 F1080.0
G1 X24.59 Y-22.49 Z0.46 F1080.0
G1 X24.47 Y-23.68 Z0.46 F1080.0
G1 X24.1 Y-24.81 Z0.46 F1080.0
G1 X23.5 Y-25.84 Z0.46 F1080.0
G1 X22.71 Y-26.72 Z0.46 F1080.0
G1 X21.74 Y-27.42 Z0.46 F1080.0
G1 X20.66 Y-27.91 Z0.46 F1080.0
G1 X19.49 Y-28.15 Z0.46 F1080.0
G1 X18.3 Y-28.15 Z0.46 F1080.0
G1 X17.14 Y-27.91 Z0.46 F1080.0
G1 X16.05 Y-27.42 Z0.46 F1080.0
G1 X15.09 Y-26.72 Z0.46 F1080.0
G1 X14.29 Y-25.84 Z0.46 F1080.0
G1 X13.7 Y-24.81 Z0.46 F1080.0
G1 X13.33 Y-23.68 Z0.46 F1080.0
G1 X13.2 Y-22.49 Z0.46 F1080.0
G1 X13.33 Y-21.31 Z0.46 F1080.0
G1 X13.7 Y-20.18 Z0.46 F1080.0
G1 X14.29 Y-19.15 Z0.46 F1080.0
G1 X14.97 Y-18.4 Z0.46 F1080.0
M108 R30.0
M102
G1 X15.09 Y-18.26 Z0.46 F1080.0
G1 X15.16 Y-18.21 Z0.46 F1080.0
M108 R2.141
M103
(</loop>)
(<loop> inner )
G1 X-16.1 Y-21.53 Z0.46 F3000.0
M108 R30.0
M101
G1 X-16.89 Y-21.61 Z0.46 F3000.0
M108 R2.141
G1 X-16.8 Y-22.49 Z0.46 F1080.0
G1 X-16.92 Y-23.68 Z0.46 F1080.0
G1 X-17.29 Y-24.81 Z0.46 F1080.0
G1 X-17.89 Y-25.84 Z0.46 F1080.0
G1 X-18.68 Y-26.72 Z0.46 F1080.0
G1 X-19.65 Y-27.42 Z0.46 F1080.0
G1 X-20.73 Y-27.91 Z0.46 F1080.0
G1 X-21.9 Y-28.15 Z0.46 F1080.0
G1 X-23.09 Y-28.15 Z0.46 F1080.0
G1 X-24.25 Y-27.91 Z0.46 F1080.0
G1 X-25.34 Y-27.42 Z0.46 F1080.0
G1 X-26.3 Y-26.72 Z0.46 F1080.0
G1 X-27.1 Y-25.84 Z0.46 F1080.0
G1 X-27.69 Y-24.81 Z0.46 F1080.0
G1 X-28.06 Y-23.68 Z0.46 F1080.0
G1 X-28.19 Y-22.49 Z0.46 F1080.0
G1 X-28.06 Y-21.31 Z0.46 F1080.0
G1 X-27.69 Y-20.18 Z0.46 F1080.0
G1 X-27.1 Y-19.15 Z0.46 F1080.0
G1 X-26.3 Y-18.26 Z0.46 F1080.0
G1 X-25.34 Y-17.56 Z0.46 F1080.0
G1 X-24.25 Y-17.08 Z0.46 F1080.0
G1 X-23.09 Y-16.83 Z0.46 F1080.0
G1 X-21.9 Y-16.83 Z0.46 F1080.0
G1 X-20.73 Y-17.08 Z0.46 F1080.0
G1 X-19.65 Y-17.56 Z0.46 F1080.0
G1 X-18.68 Y-18.26 Z0.46 F1080.0
G1 X-17.89 Y-19.15 Z0.46 F1080.0
G1 X-17.29 Y-20.18 Z0.46 F1080.0
G1 X-16.92 Y-21.31 Z0.46 F1080.0
G1 X-16.92 Y-21.34 Z0.46 F1080.0
M108 R30.0
M102
G1 X-16.89 Y-21.61 Z0.46 F1080.0
M108 R2.141
M103
(</loop>)
(<loop> inner )
G1 X-21.78 Y12.44 Z0.46 F3000.0
M108 R30.0
M101
G1 X-21.9 Y13.24 Z0.46 F3000.0
M108 R2.141
G1 X-23.09 Y13.24 Z0.46 F1080.0
G1 X-24.25 Y13.48 Z0.46 F1080.0
G1 X-25.34 Y13.97 Z0.46 F1080.0
G1 X-26.3 Y14.67 Z0.46 F1080.0
G1 X-27.1 Y15.55 Z0.46 F1080.0
G1 X-27.69 Y16.58 Z0.46 F1080.0
G1 X-28.06 Y17.71 Z0.46 F1080.0
G1 X-28.19 Y18.9 Z0.46 F1080.0
G1 X-28.06 Y20.08 Z0.46 F1080.0
G1 X-27.69 Y21.21 Z0.46 F1080.0
G1 X-27.1 Y22.24 Z0.46 F1080.0
G1 X-26.3 Y23.13 Z0.46 F1080.0
G1 X-25.34 Y23.83 Z0.46 F1080.0
G1 X-24.25 Y24.31 Z0.46 F1080.0
G1 X-23.09 Y24.56 Z0.46 F1080.0
G1 X-21.9 Y24.56 Z0.46 F1080.0
G1 X-20.73 Y24.31 Z0.46 F1080.0
G1 X-19.65 Y23.83 Z0.46 F1080.0
G1 X-18.68 Y23.13 Z0.46 F1080.0
G1 X-17.89 Y22.24 Z0.46 F1080.0
G1 X-17.29 Y21.21 Z0.46 F1080.0
G1 X-16.93 Y20.08 Z0.46 F1080.0
G1 X-16.8 Y18.9 Z0.46 F1080.0
G1 X-16.93 Y17.71 Z0.46 F1080.0
G1 X-17.29 Y16.58 Z0.46 F1080.0
G1 X-17.89 Y15.55 Z0.46 F1080.0
G1 X-18.68 Y14.67 Z0.46 F1080.0
G1 X-19.65 Y13.97 Z0.46 F1080.0
G1 X-20.73 Y13.48 Z0.46 F1080.0
G1 X-21.63 Y13.29 Z0.46 F1080.0
M108 R30.0
M102
G1 X-21.9 Y13.24 Z0.46 F1080.0
M108 R2.141
M103
(</loop>)
(<loop> outer )
G1 X-13.68 Y13.24 Z0.46 F3000.0
M108 R30.0
M101
G1 X-12.88 Y13.24 Z0.46 F3000.0
M108 R2.141
G1 X-12.88 Y32.1 Z0.46 F1080.0
G1 X-32.1 Y32.1 Z0.46 F1080.0
G1 X-32.1 Y-32.1 Z0.46 F1080.0
G1 X32.1 Y-32.1 Z0.46 F1080.0
G1 X32.1 Y-12.88 Z0.46 F1080.0
G1 X-12.88 Y-12.88 Z0.46 F1080.0
G1 X-12.88 Y13.24 Z0.46 F1080.0
M103
(</loop>)
(<perimeter> outer )
G1 X-12.49 Y13.24 Z0.46 F3000.0
M101
G1 X-12.49 Y32.5 Z0.46 F1080.0
G1 X-32.5 Y32.5 Z0.46 F1080.0
G1 X-32.5 Y-32.5 Z0.46 F1080.0
G1 X32.5 Y-32.5 Z0.46 F1080.0
G1 X32.5 Y-12.49 Z0.46 F1080.0
G1 X-12.49 Y-12.49 Z0.46 F1080.0
G1 X-12.49 Y12.97 Z0.46 F1080.0
M108 R30.0
M102
G1 X-12.49 Y13.24 Z0.46 F1080.0
M108 R2.141
M103
(</perimeter>)
(</boundaryPerimeter>)
(<surroundingLoop>)
(<boundaryPerimeter>)
(<boundaryPoint> X-17.835 Y16.823 Z0.46 </boundaryPoint>)
(<boundaryPoint> X-18.368 Y15.899 Z0.46 </boundaryPoint>)
(<boundaryPoint> X-19.081 Y15.107 Z0.46 </boundaryPoint>)
(<boundaryPoint> X-19.943 Y14.481 Z0.46 </boundaryPoint>)
(<boundaryPoint> X-20.917 Y14.047 Z0.46 </boundaryPoint>)
(<boundaryPoint> X-21.96 Y13.825 Z0.46 </boundaryPoint>)
(<boundaryPoint> X-23.026 Y13.825 Z0.46 </boundaryPoint>)
(<boundaryPoint> X-24.069 Y14.047 Z0.46 </boundaryPoint>)
(<boundaryPoint> X-25.042 Y14.481 Z0.46 </boundaryPoint>)
(<boundaryPoint> X-25.905 Y15.107 Z0.46 </boundaryPoint>)
(<boundaryPoint> X-26.618 Y15.899 Z0.46 </boundaryPoint>)
(<boundaryPoint> X-27.151 Y16.823 Z0.46 </boundaryPoint>)
(<boundaryPoint> X-27.481 Y17.836 Z0.46 </boundaryPoint>)
(<boundaryPoint> X-27.592 Y18.897 Z0.46 </boundaryPoint>)
(<boundaryPoint> X-27.481 Y19.957 Z0.46 </boundaryPoint>)
(<boundaryPoint> X-27.151 Y20.97 Z0.46 </boundaryPoint>)
(<boundaryPoint> X-26.618 Y21.894 Z0.46 </boundaryPoint>)
(<boundaryPoint> X-25.905 Y22.686 Z0.46 </boundaryPoint>)
(<boundaryPoint> X-25.042 Y23.312 Z0.46 </boundaryPoint>)
(<boundaryPoint> X-24.069 Y23.746 Z0.46 </boundaryPoint>)
(<boundaryPoint> X-23.026 Y23.968 Z0.46 </boundaryPoint>)
(<boundaryPoint> X-21.96 Y23.968 Z0.46 </boundaryPoint>)
(<boundaryPoint> X-20.917 Y23.746 Z0.46 </boundaryPoint>)
(<boundaryPoint> X-19.943 Y23.312 Z0.46 </boundaryPoint>)
(<boundaryPoint> X-19.081 Y22.686 Z0.46 </boundaryPoint>)
(<boundaryPoint> X-18.368 Y21.894 Z0.46 </boundaryPoint>)
(<boundaryPoint> X-17.835 Y20.97 Z0.46 </boundaryPoint>)
(<boundaryPoint> X-17.505 Y19.957 Z0.46 </boundaryPoint>)
(<boundaryPoint> X-17.394 Y18.897 Z0.46 </boundaryPoint>)
(<boundaryPoint> X-17.505 Y17.836 Z0.46 </boundaryPoint>)
(<perimeter> inner )
G1 X-17.19 Y15.94 Z0.46 F3000.0
M108 R30.0
M101
G1 X-17.89 Y16.34 Z0.46 F3000.0
M108 R2.141
G1 X-18.21 Y15.78 Z0.46 F1080.0
G1 X-18.95 Y14.96 Z0.46 F1080.0
G1 X-19.84 Y14.31 Z0.46 F1080.0
G1 X-20.86 Y13.86 Z0.46 F1080.0
G1 X-21.94 Y13.63 Z0.46 F1080.0
G1 X-23.05 Y13.63 Z0.46 F1080.0
G1 X-24.13 Y13.86 Z0.46 F1080.0
G1 X-25.14 Y14.31 Z0.46 F1080.0
G1 X-26.04 Y14.96 Z0.46 F1080.0
G1 X-26.78 Y15.78 Z0.46 F1080.0
G1 X-27.33 Y16.74 Z0.46 F1080.0
G1 X-27.67 Y17.8 Z0.46 F1080.0
G1 X-27.79 Y18.9 Z0.46 F1080.0
G1 X-27.67 Y20.0 Z0.46 F1080.0
G1 X-27.33 Y21.05 Z0.46 F1080.0
G1 X-26.78 Y22.01 Z0.46 F1080.0
G1 X-26.04 Y22.83 Z0.46 F1080.0
G1 X-25.14 Y23.48 Z0.46 F1080.0
G1 X-24.13 Y23.93 Z0.46 F1080.0
G1 X-23.05 Y24.17 Z0.46 F1080.0
G1 X-21.94 Y24.17 Z0.46 F1080.0
G1 X-20.86 Y23.93 Z0.46 F1080.0
G1 X-19.84 Y23.48 Z0.46 F1080.0
G1 X-18.95 Y22.83 Z0.46 F1080.0
G1 X-18.21 Y22.01 Z0.46 F1080.0
G1 X-17.66 Y21.05 Z0.46 F1080.0
G1 X-17.31 Y20.0 Z0.46 F1080.0
G1 X-17.2 Y18.9 Z0.46 F1080.0
G1 X-17.31 Y17.8 Z0.46 F1080.0
G1 X-17.66 Y16.74 Z0.46 F1080.0
G1 X-17.75 Y16.58 Z0.46 F1080.0
M108 R30.0
M102
G1 X-17.89 Y16.34 Z0.46 F1080.0
M108 R2.141
M103
(</perimeter>)
(</boundaryPerimeter>)
(</surroundingLoop>)
(<surroundingLoop>)
(<boundaryPerimeter>)
(<boundaryPoint> X-26.619 Y-19.495 Z0.46 </boundaryPoint>)
(<boundaryPoint> X-25.905 Y-18.703 Z0.46 </boundaryPoint>)
(<boundaryPoint> X-25.043 Y-18.076 Z0.46 </boundaryPoint>)
(<boundaryPoint> X-24.069 Y-17.643 Z0.46 </boundaryPoint>)
(<boundaryPoint> X-23.026 Y-17.421 Z0.46 </boundaryPoint>)
(<boundaryPoint> X-21.96 Y-17.421 Z0.46 </boundaryPoint>)
(<boundaryPoint> X-20.917 Y-17.643 Z0.46 </boundaryPoint>)
(<boundaryPoint> X-19.943 Y-18.076 Z0.46 </boundaryPoint>)
(<boundaryPoint> X-19.08 Y-18.703 Z0.46 </boundaryPoint>)
(<boundaryPoint> X-18.367 Y-19.495 Z0.46 </boundaryPoint>)
(<boundaryPoint> X-17.834 Y-20.419 Z0.46 </boundaryPoint>)
(<boundaryPoint> X-17.504 Y-21.433 Z0.46 </boundaryPoint>)
(<boundaryPoint> X-17.393 Y-22.493 Z0.46 </boundaryPoint>)
(<boundaryPoint> X-17.504 Y-23.553 Z0.46 </boundaryPoint>)
(<boundaryPoint> X-17.834 Y-24.567 Z0.46 </boundaryPoint>)
(<boundaryPoint> X-18.367 Y-25.491 Z0.46 </boundaryPoint>)
(<boundaryPoint> X-19.08 Y-26.283 Z0.46 </boundaryPoint>)
(<boundaryPoint> X-19.943 Y-26.91 Z0.46 </boundaryPoint>)
(<boundaryPoint> X-20.917 Y-27.343 Z0.46 </boundaryPoint>)
(<boundaryPoint> X-21.96 Y-27.565 Z0.46 </boundaryPoint>)
(<boundaryPoint> X-23.026 Y-27.565 Z0.46 </boundaryPoint>)
(<boundaryPoint> X-24.069 Y-27.343 Z0.46 </boundaryPoint>)
(<boundaryPoint> X-25.043 Y-26.91 Z0.46 </boundaryPoint>)
(<boundaryPoint> X-25.905 Y-26.283 Z0.46 </boundaryPoint>)
(<boundaryPoint> X-26.619 Y-25.491 Z0.46 </boundaryPoint>)
(<boundaryPoint> X-27.152 Y-24.567 Z0.46 </boundaryPoint>)
(<boundaryPoint> X-27.481 Y-23.553 Z0.46 </boundaryPoint>)
(<boundaryPoint> X-27.593 Y-22.493 Z0.46 </boundaryPoint>)
(<boundaryPoint> X-27.481 Y-21.433 Z0.46 </boundaryPoint>)
(<boundaryPoint> X-27.152 Y-20.419 Z0.46 </boundaryPoint>)
(<perimeter> inner )
G1 X-21.84 Y-16.43 Z0.46 F3000.0
M108 R30.0
M101
G1 X-21.94 Y-17.23 Z0.46 F3000.0
M108 R2.141
G1 X-20.86 Y-17.45 Z0.46 F1080.0
G1 X-19.84 Y-17.91 Z0.46 F1080.0
G1 X-18.95 Y-18.56 Z0.46 F1080.0
G1 X-18.21 Y-19.38 Z0.46 F1080.0
G1 X-17.65 Y-20.34 Z0.46 F1080.0
G1 X-17.31 Y-21.39 Z0.46 F1080.0
G1 X-17.2 Y-22.49 Z0.46 F1080.0
G1 X-17.31 Y-23.59 Z0.46 F1080.0
G1 X-17.65 Y-24.65 Z0.46 F1080.0
G1 X-18.21 Y-25.61 Z0.46 F1080.0
G1 X-18.95 Y-26.43 Z0.46 F1080.0
G1 X-19.84 Y-27.08 Z0.46 F1080.0
G1 X-20.86 Y-27.53 Z0.46 F1080.0
G1 X-21.94 Y-27.76 Z0.46 F1080.0
G1 X-23.05 Y-27.76 Z0.46 F1080.0
G1 X-24.13 Y-27.53 Z0.46 F1080.0
G1 X-25.14 Y-27.08 Z0.46 F1080.0
G1 X-26.04 Y-26.43 Z0.46 F1080.0
G1 X-26.78 Y-25.61 Z0.46 F1080.0
G1 X-27.33 Y-24.65 Z0.46 F1080.0
G1 X-27.67 Y-23.59 Z0.46 F1080.0
G1 X-27.79 Y-22.49 Z0.46 F1080.0
G1 X-27.67 Y-21.39 Z0.46 F1080.0
G1 X-27.33 Y-20.34 Z0.46 F1080.0
G1 X-26.78 Y-19.38 Z0.46 F1080.0
G1 X-26.04 Y-18.56 Z0.46 F1080.0
G1 X-25.14 Y-17.91 Z0.46 F1080.0
G1 X-24.13 Y-17.45 Z0.46 F1080.0
G1 X-23.05 Y-17.23 Z0.46 F1080.0
G1 X-22.21 Y-17.23 Z0.46 F1080.0
M108 R30.0
M102
G1 X-21.94 Y-17.23 Z0.46 F1080.0
M108 R2.141
M103
(</perimeter>)
(</boundaryPerimeter>)
(</surroundingLoop>)
(<surroundingLoop>)
(<boundaryPerimeter>)
(<boundaryPoint> X14.771 Y-19.495 Z0.46 </boundaryPoint>)
(<boundaryPoint> X15.484 Y-18.703 Z0.46 </boundaryPoint>)
(<boundaryPoint> X16.346 Y-18.076 Z0.46 </boundaryPoint>)
(<boundaryPoint> X17.321 Y-17.643 Z0.46 </boundaryPoint>)
(<boundaryPoint> X18.363 Y-17.421 Z0.46 </boundaryPoint>)
(<boundaryPoint> X19.43 Y-17.421 Z0.46 </boundaryPoint>)
(<boundaryPoint> X20.473 Y-17.643 Z0.46 </boundaryPoint>)
(<boundaryPoint> X21.447 Y-18.076 Z0.46 </boundaryPoint>)
(<boundaryPoint> X22.309 Y-18.703 Z0.46 </boundaryPoint>)
(<boundaryPoint> X23.023 Y-19.495 Z0.46 </boundaryPoint>)
(<boundaryPoint> X23.556 Y-20.419 Z0.46 </boundaryPoint>)
(<boundaryPoint> X23.885 Y-21.433 Z0.46 </boundaryPoint>)
(<boundaryPoint> X23.997 Y-22.493 Z0.46 </boundaryPoint>)
(<boundaryPoint> X23.885 Y-23.553 Z0.46 </boundaryPoint>)
(<boundaryPoint> X23.556 Y-24.567 Z0.46 </boundaryPoint>)
(<boundaryPoint> X23.023 Y-25.491 Z0.46 </boundaryPoint>)
(<boundaryPoint> X22.309 Y-26.283 Z0.46 </boundaryPoint>)
(<boundaryPoint> X21.447 Y-26.91 Z0.46 </boundaryPoint>)
(<boundaryPoint> X20.473 Y-27.343 Z0.46 </boundaryPoint>)
(<boundaryPoint> X19.43 Y-27.565 Z0.46 </boundaryPoint>)
(<boundaryPoint> X18.363 Y-27.565 Z0.46 </boundaryPoint>)
(<boundaryPoint> X17.321 Y-27.343 Z0.46 </boundaryPoint>)
(<boundaryPoint> X16.346 Y-26.91 Z0.46 </boundaryPoint>)
(<boundaryPoint> X15.484 Y-26.283 Z0.46 </boundaryPoint>)
(<boundaryPoint> X14.771 Y-25.491 Z0.46 </boundaryPoint>)
(<boundaryPoint> X14.237 Y-24.567 Z0.46 </boundaryPoint>)
(<boundaryPoint> X13.908 Y-23.553 Z0.46 </boundaryPoint>)
(<boundaryPoint> X13.797 Y-22.493 Z0.46 </boundaryPoint>)
(<boundaryPoint> X13.908 Y-21.433 Z0.46 </boundaryPoint>)
(<boundaryPoint> X14.237 Y-20.419 Z0.46 </boundaryPoint>)
(<perimeter> inner )
G1 X12.92 Y-21.3 Z0.46 F3000.0
M108 R30.0
M101
G1 X13.72 Y-21.39 Z0.46 F3000.0
M108 R2.141
G1 X14.06 Y-20.34 Z0.46 F1080.0
G1 X14.61 Y-19.38 Z0.46 F1080.0
G1 X15.35 Y-18.56 Z0.46 F1080.0
G1 X16.25 Y-17.91 Z0.46 F1080.0
G1 X17.26 Y-17.45 Z0.46 F1080.0
G1 X18.34 Y-17.23 Z0.46 F1080.0
G1 X19.45 Y-17.23 Z0.46 F1080.0
G1 X20.53 Y-17.45 Z0.46 F1080.0
G1 X21.55 Y-17.91 Z0.46 F1080.0
G1 X22.44 Y-18.56 Z0.46 F1080.0
G1 X23.18 Y-19.38 Z0.46 F1080.0
G1 X23.74 Y-20.34 Z0.46 F1080.0
G1 X24.08 Y-21.39 Z0.46 F1080.0
G1 X24.2 Y-22.49 Z0.46 F1080.0
G1 X24.08 Y-23.59 Z0.46 F1080.0
G1 X23.74 Y-24.65 Z0.46 F1080.0
G1 X23.18 Y-25.61 Z0.46 F1080.0
G1 X22.44 Y-26.43 Z0.46 F1080.0
G1 X21.55 Y-27.08 Z0.46 F1080.0
G1 X20.53 Y-27.53 Z0.46 F1080.0
G1 X19.45 Y-27.76 Z0.46 F1080.0
G1 X18.34 Y-27.76 Z0.46 F1080.0
G1 X17.26 Y-27.53 Z0.46 F1080.0
G1 X16.25 Y-27.08 Z0.46 F1080.0
G1 X15.35 Y-26.43 Z0.46 F1080.0
G1 X14.61 Y-25.61 Z0.46 F1080.0
G1 X14.06 Y-24.65 Z0.46 F1080.0
G1 X13.72 Y-23.59 Z0.46 F1080.0
G1 X13.6 Y-22.49 Z0.46 F1080.0
G1 X13.69 Y-21.66 Z0.46 F1080.0
M108 R30.0
M102
G1 X13.72 Y-21.39 Z0.46 F1080.0
M108 R2.141
M103
(</perimeter>)
(</boundaryPerimeter>)
(</surroundingLoop>)
G1 X13.52 Y-20.86 Z0.46 F1800.0
M108 R30.0
M101
G1 X13.35 Y-20.41 Z0.46 F1800.0
M108 R2.141
G1 X13.35 Y-13.41 Z0.46 F1080.0
M108 R30.0
M102
G1 X13.35 Y-13.14 Z0.46 F1080.0
M108 R2.141
M103
G1 X13.35 Y-24.1 Z0.46 F1800.0
M108 R30.0
M101
G1 X13.35 Y-24.58 Z0.46 F1800.0
M108 R2.141
G1 X13.35 Y-31.85 Z0.46 F1080.0
G1 X12.96 Y-31.85 Z0.46 F1080.0
G1 X12.96 Y-13.14 Z0.46 F1080.0
M103
G1 X12.57 Y-13.14 Z0.46 F1800.0
M101
G1 X12.57 Y-31.85 Z0.46 F1080.0
G1 X12.17 Y-31.85 Z0.46 F1080.0
G1 X12.17 Y-13.14 Z0.46 F1080.0
M103
G1 X11.78 Y-13.14 Z0.46 F1800.0
M101
G1 X11.78 Y-31.85 Z0.46 F1080.0
G1 X11.39 Y-31.85 Z0.46 F1080.0
G1 X11.39 Y-13.14 Z0.46 F1080.0
M103
G1 X11.0 Y-13.14 Z0.46 F1800.0
M101
G1 X11.0 Y-31.85 Z0.46 F1080.0
G1 X10.6 Y-31.85 Z0.46 F1080.0
G1 X10.6 Y-13.14 Z0.46 F1080.0
M103
G1 X10.21 Y-13.14 Z0.46 F1800.0
M101
G1 X10.21 Y-31.85 Z0.46 F1080.0
G1 X9.82 Y-31.85 Z0.46 F1080.0
G1 X9.82 Y-13.14 Z0.46 F1080.0
M103
G1 X9.43 Y-13.14 Z0.46 F1800.0
M101
G1 X9.43 Y-31.85 Z0.46 F1080.0
G1 X9.03 Y-31.85 Z0.46 F1080.0
G1 X9.03 Y-13.14 Z0.46 F1080.0
M103
G1 X8.64 Y-13.14 Z0.46 F1800.0
M101
G1 X8.64 Y-31.85 Z0.46 F1080.0
G1 X8.25 Y-31.85 Z0.46 F1080.0
G1 X8.25 Y-13.14 Z0.46 F1080.0
M103
G1 X7.85 Y-13.14 Z0.46 F1800.0
M101
G1 X7.85 Y-31.85 Z0.46 F1080.0
G1 X7.46 Y-31.85 Z0.46 F1080.0
G1 X7.46 Y-13.14 Z0.46 F1080.0
M103
G1 X7.07 Y-13.14 Z0.46 F1800.0
M101
G1 X7.07 Y-31.85 Z0.46 F1080.0
G1 X6.68 Y-31.85 Z0.46 F1080.0
G1 X6.68 Y-13.14 Z0.46 F1080.0
M103
G1 X6.28 Y-13.14 Z0.46 F1800.0
M101
G1 X6.28 Y-31.85 Z0.46 F1080.0
G1 X5.89 Y-31.85 Z0.46 F1080.0
G1 X5.89 Y-13.14 Z0.46 F1080.0
M103
G1 X5.5 Y-13.14 Z0.46 F1800.0
M101
G1 X5.5 Y-31.85 Z0.46 F1080.0
G1 X5.11 Y-31.85 Z0.46 F1080.0
G1 X5.11 Y-13.14 Z0.46 F1080.0
M103
G1 X4.71 Y-13.14 Z0.46 F1800.0
M101
G1 X4.71 Y-31.85 Z0.46 F1080.0
G1 X4.32 Y-31.85 Z0.46 F1080.0
G1 X4.32 Y-13.14 Z0.46 F1080.0
M103
G1 X3.93 Y-13.14 Z0.46 F1800.0
M101
G1 X3.93 Y-31.85 Z0.46 F1080.0
G1 X3.53 Y-31.85 Z0.46 F1080.0
G1 X3.53 Y-13.14 Z0.46 F1080.0
M103
G1 X3.14 Y-13.14 Z0.46 F1800.0
M101
G1 X3.14 Y-31.85 Z0.46 F1080.0
G1 X2.75 Y-31.85 Z0.46 F1080.0
G1 X2.75 Y-13.14 Z0.46 F1080.0
M103
G1 X2.36 Y-13.14 Z0.46 F1800.0
M101
G1 X2.36 Y-31.85 Z0.46 F1080.0
G1 X1.96 Y-31.85 Z0.46 F1080.0
G1 X1.96 Y-13.14 Z0.46 F1080.0
M103
G1 X1.57 Y-13.14 Z0.46 F1800.0
M101
G1 X1.57 Y-31.85 Z0.46 F1080.0
G1 X1.18 Y-31.85 Z0.46 F1080.0
G1 X1.18 Y-13.14 Z0.46 F1080.0
M103
G1 X0.79 Y-13.14 Z0.46 F1800.0
M101
G1 X0.79 Y-31.85 Z0.46 F1080.0
G1 X0.39 Y-31.85 Z0.46 F1080.0
G1 X0.39 Y-13.14 Z0.46 F1080.0
M103
G1 X-0.0 Y-13.14 Z0.46 F1800.0
M101
G1 X-0.0 Y-31.85 Z0.46 F1080.0
G1 X-0.39 Y-31.85 Z0.46 F1080.0
G1 X-0.39 Y-13.14 Z0.46 F1080.0
M103
G1 X-0.79 Y-13.14 Z0.46 F1800.0
M101
G1 X-0.79 Y-31.85 Z0.46 F1080.0
G1 X-1.18 Y-31.85 Z0.46 F1080.0
G1 X-1.18 Y-13.14 Z0.46 F1080.0
M103
G1 X-1.57 Y-13.14 Z0.46 F1800.0
M101
G1 X-1.57 Y-31.85 Z0.46 F1080.0
G1 X-1.96 Y-31.85 Z0.46 F1080.0
G1 X-1.96 Y-13.14 Z0.46 F1080.0
M103
G1 X-2.36 Y-13.14 Z0.46 F1800.0
M101
G1 X-2.36 Y-31.85 Z0.46 F1080.0
G1 X-2.75 Y-31.85 Z0.46 F1080.0
G1 X-2.75 Y-13.14 Z0.46 F1080.0
M103
G1 X-3.14 Y-13.14 Z0.46 F1800.0
M101
G1 X-3.14 Y-31.85 Z0.46 F1080.0
G1 X-3.53 Y-31.85 Z0.46 F1080.0
G1 X-3.53 Y-13.14 Z0.46 F1080.0
M103
G1 X-3.93 Y-13.14 Z0.46 F1800.0
M101
G1 X-3.93 Y-31.85 Z0.46 F1080.0
G1 X-4.32 Y-31.85 Z0.46 F1080.0
G1 X-4.32 Y-13.14 Z0.46 F1080.0
M103
G1 X-4.71 Y-13.14 Z0.46 F1800.0
M101
G1 X-4.71 Y-31.85 Z0.46 F1080.0
G1 X-5.11 Y-31.85 Z0.46 F1080.0
G1 X-5.11 Y-13.14 Z0.46 F1080.0
M103
G1 X-5.5 Y-13.14 Z0.46 F1800.0
M101
G1 X-5.5 Y-31.85 Z0.46 F1080.0
G1 X-5.89 Y-31.85 Z0.46 F1080.0
G1 X-5.89 Y-13.14 Z0.46 F1080.0
M103
G1 X-6.28 Y-13.14 Z0.46 F1800.0
M101
G1 X-6.28 Y-31.85 Z0.46 F1080.0
G1 X-6.68 Y-31.85 Z0.46 F1080.0
G1 X-6.68 Y-13.14 Z0.46 F1080.0
M103
G1 X-7.07 Y-13.14 Z0.46 F1800.0
M101
G1 X-7.07 Y-31.85 Z0.46 F1080.0
G1 X-7.46 Y-31.85 Z0.46 F1080.0
G1 X-7.46 Y-13.14 Z0.46 F1080.0
M103
G1 X-7.85 Y-13.14 Z0.46 F1800.0
M101
G1 X-7.85 Y-31.85 Z0.46 F1080.0
G1 X-8.25 Y-31.85 Z0.46 F1080.0
G1 X-8.25 Y-13.14 Z0.46 F1080.0
M103
G1 X-8.64 Y-13.14 Z0.46 F1800.0
M101
G1 X-8.64 Y-31.85 Z0.46 F1080.0
G1 X-9.03 Y-31.85 Z0.46 F1080.0
G1 X-9.03 Y-13.14 Z0.46 F1080.0
M103
G1 X-9.43 Y-13.14 Z0.46 F1800.0
M101
G1 X-9.43 Y-31.85 Z0.46 F1080.0
G1 X-9.82 Y-31.85 Z0.46 F1080.0
G1 X-9.82 Y-13.14 Z0.46 F1080.0
M103
G1 X-10.21 Y-13.14 Z0.46 F1800.0
M101
G1 X-10.21 Y-31.85 Z0.46 F1080.0
G1 X-10.6 Y-31.85 Z0.46 F1080.0
G1 X-10.6 Y-13.14 Z0.46 F1080.0
M103
G1 X-11.0 Y-13.14 Z0.46 F1800.0
M101
G1 X-11.0 Y-31.85 Z0.46 F1080.0
G1 X-11.39 Y-31.85 Z0.46 F1080.0
G1 X-11.39 Y-13.14 Z0.46 F1080.0
M103
G1 X-11.78 Y-13.14 Z0.46 F1800.0
M101
G1 X-11.78 Y-31.85 Z0.46 F1080.0
G1 X-12.17 Y-31.85 Z0.46 F1080.0
G1 X-12.17 Y-13.14 Z0.46 F1080.0
M103
G1 X-12.57 Y-13.14 Z0.46 F1800.0
M101
G1 X-12.57 Y-31.85 Z0.46 F1080.0
G1 X-12.96 Y-31.85 Z0.46 F1080.0
G1 X-12.96 Y-13.41 Z0.46 F1080.0
M108 R30.0
M102
G1 X-12.96 Y-13.14 Z0.46 F1080.0
M108 R2.141
M103
G1 X-19.13 Y13.48 Z0.46 F1800.0
M108 R30.0
M101
G1 X-19.24 Y13.95 Z0.46 F1800.0
M108 R2.141
G1 X-19.24 Y-17.54 Z0.46 F1080.0
G1 X-18.85 Y-17.83 Z0.46 F1080.0
G1 X-18.85 Y14.23 Z0.46 F1080.0
G1 X-18.46 Y14.54 Z0.46 F1080.0
G1 X-18.46 Y-18.13 Z0.46 F1080.0
G1 X-18.06 Y-18.57 Z0.46 F1080.0
G1 X-18.06 Y14.97 Z0.46 F1080.0
G1 X-17.67 Y15.42 Z0.46 F1080.0
G1 X-17.67 Y-18.74 Z0.46 F1080.0
M108 R30.0
M102
G1 X-17.67 Y-19.01 Z0.46 F1080.0
M108 R2.141
M103
G1 X-17.28 Y15.62 Z0.46 F1800.0
M108 R30.0
M101
G1 X-17.28 Y16.1 Z0.46 F1800.0
M108 R2.141
G1 X-17.28 Y-19.69 Z0.46 F1080.0
M103
G1 X-16.89 Y-20.6 Z0.46 F1800.0
M101
G1 X-16.89 Y16.74 Z0.46 F1080.0
M108 R30.0
M102
G1 X-16.89 Y17.01 Z0.46 F1080.0
M108 R2.141
M103
G1 X-16.89 Y20.3 Z0.46 F1800.0
M108 R30.0
M101
G1 X-16.89 Y20.78 Z0.46 F1800.0
M108 R2.141
G1 X-16.89 Y31.85 Z0.46 F1080.0
G1 X-16.49 Y31.85 Z0.46 F1080.0
G1 X-16.49 Y-31.85 Z0.46 F1080.0
G1 X-16.1 Y-31.85 Z0.46 F1080.0
G1 X-16.1 Y31.85 Z0.46 F1080.0
G1 X-15.71 Y31.85 Z0.46 F1080.0
G1 X-15.71 Y-31.85 Z0.46 F1080.0
G1 X-15.32 Y-31.85 Z0.46 F1080.0
G1 X-15.32 Y31.85 Z0.46 F1080.0
G1 X-14.92 Y31.85 Z0.46 F1080.0
G1 X-14.92 Y-31.85 Z0.46 F1080.0
G1 X-14.53 Y-31.85 Z0.46 F1080.0
G1 X-14.53 Y31.85 Z0.46 F1080.0
G1 X-14.14 Y31.85 Z0.46 F1080.0
G1 X-14.14 Y-31.85 Z0.46 F1080.0
G1 X-13.74 Y-31.85 Z0.46 F1080.0
G1 X-13.74 Y31.85 Z0.46 F1080.0
G1 X-13.35 Y31.85 Z0.46 F1080.0
G1 X-13.35 Y-31.58 Z0.46 F1080.0
M108 R30.0
M102
G1 X-13.35 Y-31.85 Z0.46 F1080.0
M108 R2.141
M103
G1 X-16.41 Y-31.85 Z0.46 F1800.0
M108 R30.0
M101
G1 X-16.89 Y-31.85 Z0.46 F1800.0
M108 R2.141
G1 X-16.89 Y-24.38 Z0.46 F1080.0
M103
G1 X-17.28 Y-25.3 Z0.46 F1800.0
M101
G1 X-17.28 Y-31.85 Z0.46 F1080.0
G1 X-17.67 Y-31.85 Z0.46 F1080.0
G1 X-17.67 Y-25.98 Z0.46 F1080.0
G1 X-18.06 Y-26.42 Z0.46 F1080.0
G1 X-18.06 Y-31.85 Z0.46 F1080.0
G1 X-18.46 Y-31.85 Z0.46 F1080.0
G1 X-18.46 Y-26.85 Z0.46 F1080.0
G1 X-18.85 Y-27.16 Z0.46 F1080.0
G1 X-18.85 Y-31.85 Z0.46 F1080.0
G1 X-19.24 Y-31.85 Z0.46 F1080.0
G1 X-19.24 Y-27.45 Z0.46 F1080.0
M103
G1 X-19.64 Y-27.7 Z0.46 F1800.0
M101
G1 X-19.64 Y-31.85 Z0.46 F1080.0
G1 X-20.03 Y-31.85 Z0.46 F1080.0
G1 X-20.03 Y-27.87 Z0.46 F1080.0
M103
G1 X-20.42 Y-28.05 Z0.46 F1800.0
M101
G1 X-20.42 Y-31.85 Z0.46 F1080.0
G1 X-20.81 Y-31.85 Z0.46 F1080.0
G1 X-20.81 Y-28.18 Z0.46 F1080.0
M103
G1 X-21.21 Y-28.27 Z0.46 F1800.0
M101
G1 X-21.21 Y-31.85 Z0.46 F1080.0
G1 X-21.6 Y-31.85 Z0.46 F1080.0
G1 X-21.6 Y-28.35 Z0.46 F1080.0
M103
G1 X-21.99 Y-28.41 Z0.46 F1800.0
M101
G1 X-21.99 Y-31.85 Z0.46 F1080.0
G1 X-22.38 Y-31.85 Z0.46 F1080.0
G1 X-22.38 Y-28.41 Z0.46 F1080.0
G1 X-22.78 Y-28.41 Z0.46 F1080.0
G1 X-22.78 Y-31.85 Z0.46 F1080.0
G1 X-23.17 Y-31.85 Z0.46 F1080.0
G1 X-23.17 Y-28.4 Z0.46 F1080.0
M103
G1 X-23.56 Y-28.31 Z0.46 F1800.0
M101
G1 X-23.56 Y-31.85 Z0.46 F1080.0
G1 X-23.96 Y-31.85 Z0.46 F1080.0
G1 X-23.96 Y-28.23 Z0.46 F1080.0
G1 X-24.35 Y-28.14 Z0.46 F1080.0
G1 X-24.35 Y-31.85 Z0.46 F1080.0
G1 X-24.74 Y-31.85 Z0.46 F1080.0
G1 X-24.74 Y-27.97 Z0.46 F1080.0
G1 X-25.13 Y-27.79 Z0.46 F1080.0
G1 X-25.13 Y-31.85 Z0.46 F1080.0
G1 X-25.53 Y-31.85 Z0.46 F1080.0
G1 X-25.53 Y-27.6 Z0.46 F1080.0
M103
G1 X-25.92 Y-27.32 Z0.46 F1800.0
M101
G1 X-25.92 Y-31.85 Z0.46 F1080.0
G1 X-26.31 Y-31.85 Z0.46 F1080.0
G1 X-26.31 Y-27.03 Z0.46 F1080.0
G1 X-26.7 Y-26.66 Z0.46 F1080.0
G1 X-26.7 Y-31.85 Z0.46 F1080.0
G1 X-27.1 Y-31.85 Z0.46 F1080.0
G1 X-27.1 Y-26.22 Z0.46 F1080.0
M103
G1 X-27.49 Y-25.67 Z0.46 F1800.0
M101
G1 X-27.49 Y-31.85 Z0.46 F1080.0
G1 X-27.88 Y-31.85 Z0.46 F1080.0
G1 X-27.88 Y-25.26 Z0.46 F1080.0
M108 R30.0
M102
G1 X-27.88 Y-24.99 Z0.46 F1080.0
M108 R2.141
M103
G1 X-28.12 Y-24.3 Z0.46 F1800.0
M108 R30.0
M101
G1 X-28.27 Y-23.85 Z0.46 F1800.0
M108 R2.141
G1 X-28.27 Y-31.85 Z0.46 F1080.0
G1 X-28.67 Y-31.85 Z0.46 F1080.0
G1 X-28.67 Y31.85 Z0.46 F1080.0
G1 X-28.27 Y31.85 Z0.46 F1080.0
G1 X-28.27 Y20.52 Z0.46 F1080.0
M108 R30.0
M102
G1 X-28.27 Y20.25 Z0.46 F1080.0
M108 R2.141
M103
G1 X-28.04 Y20.94 Z0.46 F1800.0
M108 R30.0
M101
G1 X-27.88 Y21.39 Z0.46 F1800.0
M108 R2.141
G1 X-27.88 Y31.85 Z0.46 F1080.0
G1 X-27.49 Y31.85 Z0.46 F1080.0
G1 X-27.49 Y22.07 Z0.46 F1080.0
M103
G1 X-27.1 Y22.63 Z0.46 F1800.0
M101
G1 X-27.1 Y31.85 Z0.46 F1080.0
G1 X-26.7 Y31.85 Z0.46 F1080.0
G1 X-26.7 Y23.06 Z0.46 F1080.0
G1 X-26.31 Y23.44 Z0.46 F1080.0
G1 X-26.31 Y31.85 Z0.46 F1080.0
G1 X-25.92 Y31.85 Z0.46 F1080.0
G1 X-25.92 Y23.72 Z0.46 F1080.0
G1 X-25.53 Y24.01 Z0.46 F1080.0
G1 X-25.53 Y31.85 Z0.46 F1080.0
G1 X-25.13 Y31.85 Z0.46 F1080.0
G1 X-25.13 Y24.2 Z0.46 F1080.0
M103
G1 X-24.74 Y24.37 Z0.46 F1800.0
M101
G1 X-24.74 Y31.85 Z0.46 F1080.0
G1 X-24.35 Y31.85 Z0.46 F1080.0
G1 X-24.35 Y24.55 Z0.46 F1080.0
M103
G1 X-23.96 Y24.63 Z0.46 F1800.0
M101
G1 X-23.96 Y31.85 Z0.46 F1080.0
G1 X-23.56 Y31.85 Z0.46 F1080.0
G1 X-23.56 Y24.72 Z0.46 F1080.0
M103
G1 X-23.17 Y24.8 Z0.46 F1800.0
M101
G1 X-23.17 Y31.85 Z0.46 F1080.0
G1 X-22.78 Y31.85 Z0.46 F1080.0
G1 X-22.78 Y24.81 Z0.46 F1080.0
M103
G1 X-22.38 Y24.81 Z0.46 F1800.0
M101
G1 X-22.38 Y31.85 Z0.46 F1080.0
G1 X-21.99 Y31.85 Z0.46 F1080.0
G1 X-21.99 Y24.81 Z0.46 F1080.0
G1 X-21.6 Y24.76 Z0.46 F1080.0
G1 X-21.6 Y31.85 Z0.46 F1080.0
G1 X-21.21 Y31.85 Z0.46 F1080.0
G1 X-21.21 Y24.67 Z0.46 F1080.0
M103
G1 X-20.81 Y24.59 Z0.46 F1800.0
M101
G1 X-20.81 Y31.85 Z0.46 F1080.0
G1 X-20.42 Y31.85 Z0.46 F1080.0
G1 X-20.42 Y24.45 Z0.46 F1080.0
G1 X-20.03 Y24.27 Z0.46 F1080.0
G1 X-20.03 Y31.85 Z0.46 F1080.0
G1 X-19.64 Y31.85 Z0.46 F1080.0
G1 X-19.64 Y24.1 Z0.46 F1080.0
M103
G1 X-19.24 Y23.85 Z0.46 F1800.0
M101
G1 X-19.24 Y31.85 Z0.46 F1080.0
G1 X-18.85 Y31.85 Z0.46 F1080.0
G1 X-18.85 Y23.56 Z0.46 F1080.0
G1 X-18.46 Y23.26 Z0.46 F1080.0
G1 X-18.46 Y31.85 Z0.46 F1080.0
G1 X-18.06 Y31.85 Z0.46 F1080.0
G1 X-18.06 Y22.82 Z0.46 F1080.0
G1 X-17.67 Y22.38 Z0.46 F1080.0
G1 X-17.67 Y31.85 Z0.46 F1080.0
G1 X-17.28 Y31.85 Z0.46 F1080.0
G1 X-17.28 Y21.97 Z0.46 F1080.0
M108 R30.0
M102
G1 X-17.28 Y21.7 Z0.46 F1080.0
M108 R2.141
M103
G1 X-17.12 Y18.9 Z0.46 F3000.0
G1 X-17.24 Y17.78 Z0.46 F3000.0
G1 X-17.59 Y16.71 Z0.46 F3000.0
G1 X-19.36 Y14.09 Z0.46 F1800.0
M108 R30.0
M101
G1 X-19.64 Y13.69 Z0.46 F1800.0
M108 R2.141
G1 X-19.64 Y-17.29 Z0.46 F1080.0
M103
G1 X-20.03 Y-17.11 Z0.46 F1800.0
M101
G1 X-20.03 Y13.52 Z0.46 F1080.0
G1 X-20.42 Y13.34 Z0.46 F1080.0
G1 X-20.42 Y-16.67 Z0.46 F1080.0
M108 R30.0
M102
G1 X-20.42 Y-16.94 Z0.46 F1080.0
M108 R2.141
M103
G1 X-21.13 Y-16.75 Z0.46 F1800.0
M108 R30.0
M101
G1 X-21.6 Y-16.63 Z0.46 F1800.0
M108 R2.141
G1 X-21.6 Y13.04 Z0.46 F1080.0
G1 X-21.99 Y12.98 Z0.46 F1080.0
G1 X-21.99 Y-16.58 Z0.46 F1080.0
G1 X-22.38 Y-16.58 Z0.46 F1080.0
G1 X-22.38 Y12.98 Z0.46 F1080.0
M103
G1 X-22.78 Y12.98 Z0.46 F1800.0
M101
G1 X-22.78 Y-16.58 Z0.46 F1080.0
G1 X-23.17 Y-16.59 Z0.46 F1080.0
G1 X-23.17 Y12.99 Z0.46 F1080.0
G1 X-23.56 Y13.08 Z0.46 F1080.0
G1 X-23.56 Y-16.67 Z0.46 F1080.0
M103
G1 X-23.96 Y-16.76 Z0.46 F1800.0
M101
G1 X-23.96 Y12.89 Z0.46 F1080.0
M108 R30.0
M102
G1 X-23.96 Y13.16 Z0.46 F1080.0
M108 R2.141
M103
G1 X-24.68 Y13.43 Z0.46 F1800.0
M108 R30.0
M101
G1 X-25.13 Y13.6 Z0.46 F1800.0
M108 R2.141
G1 X-25.13 Y-17.19 Z0.46 F1080.0
M103
G1 X-24.35 Y-16.84 Z0.46 F1800.0
M101
G1 X-24.35 Y13.25 Z0.46 F1080.0
G1 X-24.74 Y13.42 Z0.46 F1080.0
G1 X-24.74 Y-17.02 Z0.46 F1080.0
M103
G1 X-25.53 Y-17.38 Z0.46 F1800.0
M101
G1 X-25.53 Y13.79 Z0.46 F1080.0
G1 X-25.92 Y14.07 Z0.46 F1080.0
G1 X-25.92 Y-17.67 Z0.46 F1080.0
G1 X-26.31 Y-17.95 Z0.46 F1080.0
G1 X-26.31 Y14.36 Z0.46 F1080.0
G1 X-26.7 Y14.73 Z0.46 F1080.0
G1 X-26.7 Y-18.33 Z0.46 F1080.0
G1 X-27.1 Y-18.76 Z0.46 F1080.0
G1 X-27.1 Y14.9 Z0.46 F1080.0
M108 R30.0
M102
G1 X-27.1 Y15.17 Z0.46 F1080.0
M108 R2.141
M103
G1 X-28.06 Y17.11 Z0.46 F1800.0
M108 R30.0
M101
G1 X-28.27 Y17.55 Z0.46 F1800.0
M108 R2.141
G1 X-28.27 Y-20.87 Z0.46 F1080.0
M108 R30.0
M102
G1 X-28.27 Y-21.14 Z0.46 F1080.0
M108 R2.141
M103
G1 X-27.68 Y-19.75 Z0.46 F1800.0
M108 R30.0
M101
G1 X-27.49 Y-19.31 Z0.46 F1800.0
M108 R2.141
G1 X-27.49 Y15.72 Z0.46 F1080.0
G1 X-27.88 Y16.4 Z0.46 F1080.0
G1 X-27.88 Y-19.72 Z0.46 F1080.0
M108 R30.0
M102
G1 X-27.88 Y-19.99 Z0.46 F1080.0
M108 R2.141
M103
G1 X-29.01 Y-31.37 Z0.46 F1800.0
M108 R30.0
M101
G1 X-29.06 Y-31.85 Z0.46 F1800.0
M108 R2.141
G1 X-29.06 Y31.85 Z0.46 F1080.0
G1 X-29.45 Y31.85 Z0.46 F1080.0
G1 X-29.45 Y-31.85 Z0.46 F1080.0
G1 X-29.85 Y-31.85 Z0.46 F1080.0
G1 X-29.85 Y31.85 Z0.46 F1080.0
G1 X-30.24 Y31.85 Z0.46 F1080.0
G1 X-30.24 Y-31.85 Z0.46 F1080.0
G1 X-30.63 Y-31.85 Z0.46 F1080.0
G1 X-30.63 Y31.85 Z0.46 F1080.0
G1 X-31.02 Y31.85 Z0.46 F1080.0
G1 X-31.02 Y-31.85 Z0.46 F1080.0
G1 X-31.42 Y-31.85 Z0.46 F1080.0
G1 X-31.42 Y31.85 Z0.46 F1080.0
G1 X-31.81 Y31.85 Z0.46 F1080.0
G1 X-31.81 Y-31.58 Z0.46 F1080.0
M108 R30.0
M102
G1 X-31.81 Y-31.85 Z0.46 F1080.0
M108 R2.141
M103
G1 X16.8 Y-28.23 Z0.46 F1800.0
M108 R30.0
M101
G1 X17.28 Y-28.2 Z0.46 F1800.0
M108 R2.141
G1 X17.28 Y-31.85 Z0.46 F1080.0
G1 X16.89 Y-31.85 Z0.46 F1080.0
G1 X16.89 Y-28.07 Z0.46 F1080.0
G1 X16.49 Y-27.9 Z0.46 F1080.0
G1 X16.49 Y-31.85 Z0.46 F1080.0
G1 X16.1 Y-31.85 Z0.46 F1080.0
G1 X16.1 Y-27.73 Z0.46 F1080.0
G1 X15.71 Y-27.49 Z0.46 F1080.0
G1 X15.71 Y-31.85 Z0.46 F1080.0
G1 X15.32 Y-31.85 Z0.46 F1080.0
G1 X15.32 Y-27.21 Z0.46 F1080.0
G1 X14.92 Y-26.92 Z0.46 F1080.0
G1 X14.92 Y-31.85 Z0.46 F1080.0
G1 X14.53 Y-31.85 Z0.46 F1080.0
G1 X14.53 Y-26.49 Z0.46 F1080.0
G1 X14.14 Y-26.05 Z0.46 F1080.0
G1 X14.14 Y-31.85 Z0.46 F1080.0
G1 X13.74 Y-31.85 Z0.46 F1080.0
G1 X13.74 Y-25.67 Z0.46 F1080.0
M108 R30.0
M102
G1 X13.74 Y-25.4 Z0.46 F1080.0
M108 R2.141
M103
G1 X16.21 Y-27.15 Z0.46 F3000.0
G1 X19.18 Y-28.22 Z0.46 F1800.0
M108 R30.0
M101
G1 X19.64 Y-28.39 Z0.46 F1800.0
M108 R2.141
G1 X19.64 Y-31.85 Z0.46 F1080.0
G1 X19.24 Y-31.85 Z0.46 F1080.0
G1 X19.24 Y-28.41 Z0.46 F1080.0
G1 X18.85 Y-28.41 Z0.46 F1080.0
G1 X18.85 Y-31.85 Z0.46 F1080.0
G1 X18.46 Y-31.85 Z0.46 F1080.0
G1 X18.46 Y-28.41 Z0.46 F1080.0
G1 X18.06 Y-28.37 Z0.46 F1080.0
G1 X18.06 Y-31.85 Z0.46 F1080.0
G1 X17.67 Y-31.85 Z0.46 F1080.0
G1 X17.67 Y-28.55 Z0.46 F1080.0
M108 R30.0
M102
G1 X17.67 Y-28.28 Z0.46 F1080.0
M108 R2.141
M103
G1 X19.94 Y-28.23 Z0.46 F1800.0
M108 R30.0
M101
G1 X20.42 Y-28.22 Z0.46 F1800.0
M108 R2.141
G1 X20.42 Y-31.85 Z0.46 F1080.0
G1 X20.03 Y-31.85 Z0.46 F1080.0
G1 X20.03 Y-28.57 Z0.46 F1080.0
M108 R30.0
M102
G1 X20.03 Y-28.3 Z0.46 F1080.0
M108 R2.141
M103
G1 X21.54 Y-27.73 Z0.46 F1800.0
M108 R30.0
M101
G1 X21.99 Y-27.56 Z0.46 F1800.0
M108 R2.141
G1 X21.99 Y-31.85 Z0.46 F1080.0
G1 X21.6 Y-31.85 Z0.46 F1080.0
G1 X21.6 Y-27.77 Z0.46 F1080.0
G1 X21.21 Y-27.94 Z0.46 F1080.0
G1 X21.21 Y-31.85 Z0.46 F1080.0
G1 X20.81 Y-31.85 Z0.46 F1080.0
G1 X20.81 Y-28.39 Z0.46 F1080.0
M108 R30.0
M102
G1 X20.81 Y-28.12 Z0.46 F1080.0
M108 R2.141
M103
G1 X23.17 Y-26.43 Z0.46 F1800.0
M108 R30.0
M101
G1 X23.56 Y-26.16 Z0.46 F1800.0
M108 R2.141
G1 X23.56 Y-31.85 Z0.46 F1080.0
G1 X23.17 Y-31.85 Z0.46 F1080.0
G1 X23.17 Y-26.59 Z0.46 F1080.0
G1 X22.78 Y-26.99 Z0.46 F1080.0
G1 X22.78 Y-31.85 Z0.46 F1080.0
G1 X22.38 Y-31.85 Z0.46 F1080.0
G1 X22.38 Y-27.54 Z0.46 F1080.0
M108 R30.0
M102
G1 X22.38 Y-27.27 Z0.46 F1080.0
M108 R2.141
M103
G1 X24.04 Y-25.24 Z0.46 F1800.0
M108 R30.0
M101
G1 X24.35 Y-24.87 Z0.46 F1800.0
M108 R2.141
G1 X24.35 Y-31.85 Z0.46 F1080.0
G1 X23.96 Y-31.85 Z0.46 F1080.0
G1 X23.96 Y-25.84 Z0.46 F1080.0
M108 R30.0
M102
G1 X23.96 Y-25.57 Z0.46 F1080.0
M108 R2.141
M103
G1 X25.09 Y-13.62 Z0.46 F1800.0
M108 R30.0
M101
G1 X25.13 Y-13.14 Z0.46 F1800.0
M108 R2.141
G1 X25.13 Y-31.85 Z0.46 F1080.0
G1 X24.74 Y-31.85 Z0.46 F1080.0
G1 X24.74 Y-23.77 Z0.46 F1080.0
M108 R30.0
M102
G1 X24.74 Y-23.5 Z0.46 F1080.0
M108 R2.141
M103
G1 X24.74 Y-13.62 Z0.46 F1800.0
M108 R30.0
M101
G1 X24.74 Y-13.14 Z0.46 F1800.0
M108 R2.141
G1 X24.74 Y-21.22 Z0.46 F1080.0
M108 R30.0
M102
G1 X24.74 Y-21.49 Z0.46 F1080.0
M108 R2.141
M103
G1 X24.48 Y-20.58 Z0.46 F1800.0
M108 R30.0
M101
G1 X24.35 Y-20.12 Z0.46 F1800.0
M108 R2.141
G1 X24.35 Y-13.14 Z0.46 F1080.0
M103
G1 X23.96 Y-13.14 Z0.46 F1800.0
M101
G1 X23.96 Y-19.15 Z0.46 F1080.0
M108 R30.0
M102
G1 X23.96 Y-19.42 Z0.46 F1080.0
M108 R2.141
M103
G1 X21.57 Y-17.36 Z0.46 F1800.0
M108 R30.0
M101
G1 X21.21 Y-17.04 Z0.46 F1800.0
M108 R2.141
G1 X21.21 Y-13.14 Z0.46 F1080.0
M103
G1 X21.6 Y-13.14 Z0.46 F1800.0
M101
G1 X21.6 Y-17.22 Z0.46 F1080.0
G1 X21.99 Y-17.43 Z0.46 F1080.0
G1 X21.99 Y-13.14 Z0.46 F1080.0
M103
G1 X22.38 Y-13.14 Z0.46 F1800.0
M101
G1 X22.38 Y-17.71 Z0.46 F1080.0
G1 X22.78 Y-18.0 Z0.46 F1080.0
G1 X22.78 Y-13.14 Z0.46 F1080.0
M103
G1 X23.17 Y-13.14 Z0.46 F1800.0
M101
G1 X23.17 Y-18.4 Z0.46 F1080.0
G1 X23.56 Y-18.83 Z0.46 F1080.0
G1 X23.56 Y-13.41 Z0.46 F1080.0
M108 R30.0
M102
G1 X23.56 Y-13.14 Z0.46 F1080.0
M108 R2.141
M103
G1 X25.44 Y-13.14 Z0.46 F1800.0
M108 R30.0
M101
G1 X25.92 Y-13.14 Z0.46 F1800.0
M108 R2.141
G1 X25.92 Y-31.85 Z0.46 F1080.0
G1 X25.53 Y-31.85 Z0.46 F1080.0
G1 X25.53 Y-13.41 Z0.46 F1080.0
M108 R30.0
M102
G1 X25.53 Y-13.14 Z0.46 F1080.0
M108 R2.141
M103
G1 X26.22 Y-13.14 Z0.46 F1800.0
M108 R30.0
M101
G1 X26.7 Y-13.14 Z0.46 F1800.0
M108 R2.141
G1 X26.7 Y-31.85 Z0.46 F1080.0
G1 X26.31 Y-31.85 Z0.46 F1080.0
G1 X26.31 Y-13.41 Z0.46 F1080.0
M108 R30.0
M102
G1 X26.31 Y-13.14 Z0.46 F1080.0
M108 R2.141
M103
G1 X27.01 Y-13.14 Z0.46 F1800.0
M108 R30.0
M101
G1 X27.49 Y-13.14 Z0.46 F1800.0
M108 R2.141
G1 X27.49 Y-31.85 Z0.46 F1080.0
G1 X27.1 Y-31.85 Z0.46 F1080.0
G1 X27.1 Y-13.41 Z0.46 F1080.0
M108 R30.0
M102
G1 X27.1 Y-13.14 Z0.46 F1080.0
M108 R2.141
M103
G1 X27.79 Y-13.14 Z0.46 F1800.0
M108 R30.0
M101
G1 X28.27 Y-13.14 Z0.46 F1800.0
M108 R2.141
G1 X28.27 Y-31.85 Z0.46 F1080.0
G1 X27.88 Y-31.85 Z0.46 F1080.0
G1 X27.88 Y-13.41 Z0.46 F1080.0
M108 R30.0
M102
G1 X27.88 Y-13.14 Z0.46 F1080.0
M108 R2.141
M103
G1 X28.58 Y-13.14 Z0.46 F1800.0
M108 R30.0
M101
G1 X29.06 Y-13.14 Z0.46 F1800.0
M108 R2.141
G1 X29.06 Y-31.85 Z0.46 F1080.0
G1 X28.67 Y-31.85 Z0.46 F1080.0
G1 X28.67 Y-13.41 Z0.46 F1080.0
M108 R30.0
M102
G1 X28.67 Y-13.14 Z0.46 F1080.0
M108 R2.141
M103
G1 X29.37 Y-13.14 Z0.46 F1800.0
M108 R30.0
M101
G1 X29.85 Y-13.14 Z0.46 F1800.0
M108 R2.141
G1 X29.85 Y-31.85 Z0.46 F1080.0
G1 X29.45 Y-31.85 Z0.46 F1080.0
G1 X29.45 Y-13.41 Z0.46 F1080.0
M108 R30.0
M102
G1 X29.45 Y-13.14 Z0.46 F1080.0
M108 R2.141
M103
G1 X30.15 Y-13.14 Z0.46 F1800.0
M108 R30.0
M101
G1 X30.63 Y-13.14 Z0.46 F1800.0
M108 R2.141
G1 X30.63 Y-31.85 Z0.46 F1080.0
G1 X30.24 Y-31.85 Z0.46 F1080.0
G1 X30.24 Y-13.41 Z0.46 F1080.0
M108 R30.0
M102
G1 X30.24 Y-13.14 Z0.46 F1080.0
M108 R2.141
M103
G1 X30.94 Y-13.14 Z0.46 F1800.0
M108 R30.0
M101
G1 X31.42 Y-13.14 Z0.46 F1800.0
M108 R2.141
G1 X31.42 Y-31.85 Z0.46 F1080.0
G1 X31.02 Y-31.85 Z0.46 F1080.0
G1 X31.02 Y-13.41 Z0.46 F1080.0
M108 R30.0
M102
G1 X31.02 Y-13.14 Z0.46 F1080.0
M108 R2.141
M103
G1 X31.79 Y-31.37 Z0.46 F1800.0
M108 R30.0
M101
G1 X31.81 Y-31.85 Z0.46 F1800.0
M108 R2.141
G1 X31.81 Y-13.41 Z0.46 F1080.0
M108 R30.0
M102
G1 X31.81 Y-13.14 Z0.46 F1080.0
M108 R2.141
M103
G1 X21.29 Y-13.14 Z0.46 F1800.0
M108 R30.0
M101
G1 X20.81 Y-13.14 Z0.46 F1800.0
M108 R2.141
G1 X20.81 Y-16.87 Z0.46 F1080.0
M103
G1 X20.42 Y-16.77 Z0.46 F1800.0
M101
G1 X20.42 Y-13.14 Z0.46 F1080.0
M103
G1 X20.03 Y-13.14 Z0.46 F1800.0
M101
G1 X20.03 Y-16.68 Z0.46 F1080.0
M103
G1 X19.64 Y-16.6 Z0.46 F1800.0
M101
G1 X19.64 Y-13.14 Z0.46 F1080.0
M103
G1 X19.24 Y-13.14 Z0.46 F1800.0
M101
G1 X19.24 Y-16.31 Z0.46 F1080.0
M108 R30.0
M102
G1 X19.24 Y-16.58 Z0.46 F1080.0
M108 R2.141
M103
G1 X17.76 Y-16.74 Z0.46 F1800.0
M108 R30.0
M101
G1 X17.28 Y-16.79 Z0.46 F1800.0
M108 R2.141
G1 X17.28 Y-13.14 Z0.46 F1080.0
M103
G1 X17.67 Y-13.14 Z0.46 F1800.0
M101
G1 X17.67 Y-16.7 Z0.46 F1080.0
G1 X18.06 Y-16.62 Z0.46 F1080.0
G1 X18.06 Y-13.14 Z0.46 F1080.0
M103
G1 X18.46 Y-13.14 Z0.46 F1800.0
M101
G1 X18.46 Y-16.58 Z0.46 F1080.0
G1 X18.85 Y-16.58 Z0.46 F1080.0
G1 X18.85 Y-13.41 Z0.46 F1080.0
M108 R30.0
M102
G1 X18.85 Y-13.14 Z0.46 F1080.0
M108 R2.141
M103
G1 X17.37 Y-13.14 Z0.46 F1800.0
M108 R30.0
M101
G1 X16.89 Y-13.14 Z0.46 F1800.0
M108 R2.141
G1 X16.89 Y-16.64 Z0.46 F1080.0
M108 R30.0
M102
G1 X16.89 Y-16.91 Z0.46 F1080.0
M108 R2.141
M103
G1 X14.52 Y-18.65 Z0.46 F1800.0
M108 R30.0
M101
G1 X14.14 Y-18.94 Z0.46 F1800.0
M108 R2.141
G1 X14.14 Y-13.14 Z0.46 F1080.0
M103
G1 X13.74 Y-13.14 Z0.46 F1800.0
M101
G1 X13.74 Y-19.31 Z0.46 F1080.0
M108 R30.0
M102
G1 X13.74 Y-19.58 Z0.46 F1080.0
M108 R2.141
M103
G1 X14.47 Y-13.61 Z0.46 F1800.0
M108 R30.0
M101
G1 X14.53 Y-13.14 Z0.46 F1800.0
M108 R2.141
G1 X14.53 Y-18.5 Z0.46 F1080.0
G1 X14.92 Y-18.07 Z0.46 F1080.0
G1 X14.92 Y-13.14 Z0.46 F1080.0
M103
G1 X15.32 Y-13.14 Z0.46 F1800.0
M101
G1 X15.32 Y-17.78 Z0.46 F1080.0
G1 X15.71 Y-17.5 Z0.46 F1080.0
G1 X15.71 Y-13.14 Z0.46 F1080.0
M103
G1 X16.1 Y-13.14 Z0.46 F1800.0
M101
G1 X16.1 Y-17.26 Z0.46 F1080.0
G1 X16.49 Y-17.09 Z0.46 F1080.0
G1 X16.49 Y-13.41 Z0.46 F1080.0
M108 R30.0
M102
G1 X16.49 Y-13.14 Z0.46 F1080.0
M108 R2.141
M103
G1 X15.3 Y-12.57 Z0.46 F3000.0
G1 X-12.43 Y-12.43 Z0.46 F3000.0
G1 X-12.57 Y7.19 Z0.46 F3000.0
G1 X-20.43 Y12.92 Z0.46 F1800.0
M108 R30.0
M101
G1 X-20.81 Y13.21 Z0.46 F1800.0
M108 R2.141
G1 X-20.81 Y-16.8 Z0.46 F1080.0
G1 X-21.21 Y-16.72 Z0.46 F1080.0
G1 X-21.21 Y13.12 Z0.46 F1080.0
M103
(</surroundingLoop>)
(</layer>)
(<layer> 0.78 )
(<surroundingLoop>)
(<boundaryPerimeter>)
(<boundaryPoint> X32.693 Y-12.293 Z0.78 </boundaryPoint>)
(<boundaryPoint> X-12.293 Y-12.293 Z0.78 </boundaryPoint>)
(<boundaryPoint> X-12.293 Y32.693 Z0.78 </boundaryPoint>)
(<boundaryPoint> X-32.693 Y32.693 Z0.78 </boundaryPoint>)
(<boundaryPoint> X-32.693 Y-32.693 Z0.78 </boundaryPoint>)
(<boundaryPoint> X32.693 Y-32.693 Z0.78 </boundaryPoint>)
(<loop> inner )
M108 R3.569
G1 X-21.07 Y13.47 Z0.78 F3000.0
M101
G1 X-21.27 Y13.42 Z0.78 F1800.0
G1 X-21.9 Y13.29 Z0.78 F1800.0
G1 X-23.08 Y13.29 Z0.78 F1800.0
G1 X-24.24 Y13.53 Z0.78 F1800.0
G1 X-25.31 Y14.01 Z0.78 F1800.0
G1 X-26.27 Y14.71 Z0.78 F1800.0
G1 X-27.06 Y15.58 Z0.78 F1800.0
G1 X-27.65 Y16.6 Z0.78 F1800.0
G1 X-28.01 Y17.72 Z0.78 F1800.0
G1 X-28.13 Y18.9 Z0.78 F1800.0
G1 X-28.01 Y20.07 Z0.78 F1800.0
G1 X-27.65 Y21.19 Z0.78 F1800.0
G1 X-27.06 Y22.21 Z0.78 F1800.0
G1 X-26.27 Y23.09 Z0.78 F1800.0
G1 X-25.31 Y23.78 Z0.78 F1800.0
G1 X-24.24 Y24.26 Z0.78 F1800.0
G1 X-23.08 Y24.51 Z0.78 F1800.0
G1 X-21.9 Y24.51 Z0.78 F1800.0
G1 X-20.75 Y24.26 Z0.78 F1800.0
G1 X-19.67 Y23.78 Z0.78 F1800.0
G1 X-18.72 Y23.09 Z0.78 F1800.0
G1 X-17.93 Y22.21 Z0.78 F1800.0
G1 X-17.34 Y21.19 Z0.78 F1800.0
G1 X-16.98 Y20.07 Z0.78 F1800.0
G1 X-16.85 Y18.9 Z0.78 F1800.0
G1 X-16.98 Y17.72 Z0.78 F1800.0
G1 X-17.34 Y16.6 Z0.78 F1800.0
G1 X-17.93 Y15.58 Z0.78 F1800.0
G1 X-18.72 Y14.71 Z0.78 F1800.0
G1 X-19.67 Y14.01 Z0.78 F1800.0
G1 X-20.63 Y13.58 Z0.78 F1800.0
M108 R30.0
M102
G1 X-20.75 Y13.53 Z0.78 F1800.0
G1 X-21.07 Y13.47 Z0.78 F1800.0
M108 R3.569
M103
(</loop>)
(<loop> inner )
G1 X-12.57 Y5.51 Z0.78 F3000.0
G1 X-12.43 Y-12.43 Z0.78 F3000.0
G1 X7.35 Y-12.57 Z0.78 F3000.0
G1 X13.96 Y-18.32 Z0.78 F3000.0
M108 R30.0
M101
G1 X14.57 Y-18.84 Z0.78 F3000.0
M108 R3.569
G1 X15.09 Y-18.26 Z0.78 F1800.0
G1 X16.05 Y-17.56 Z0.78 F1800.0
G1 X17.14 Y-17.08 Z0.78 F1800.0
G1 X18.3 Y-16.83 Z0.78 F1800.0
G1 X19.49 Y-16.83 Z0.78 F1800.0
G1 X20.66 Y-17.08 Z0.78 F1800.0
G1 X21.74 Y-17.56 Z0.78 F1800.0
G1 X22.71 Y-18.26 Z0.78 F1800.0
G1 X23.5 Y-19.15 Z0.78 F1800.0
G1 X24.1 Y-20.18 Z0.78 F1800.0
G1 X24.47 Y-21.31 Z0.78 F1800.0
G1 X24.59 Y-22.49 Z0.78 F1800.0
G1 X24.47 Y-23.68 Z0.78 F1800.0
G1 X24.1 Y-24.81 Z0.78 F1800.0
G1 X23.5 Y-25.84 Z0.78 F1800.0
G1 X22.71 Y-26.72 Z0.78 F1800.0
G1 X21.74 Y-27.42 Z0.78 F1800.0
G1 X20.66 Y-27.91 Z0.78 F1800.0
G1 X19.49 Y-28.15 Z0.78 F1800.0
G1 X18.3 Y-28.15 Z0.78 F1800.0
G1 X17.14 Y-27.91 Z0.78 F1800.0
G1 X16.05 Y-27.42 Z0.78 F1800.0
G1 X15.09 Y-26.72 Z0.78 F1800.0
G1 X14.29 Y-25.84 Z0.78 F1800.0
G1 X13.7 Y-24.81 Z0.78 F1800.0
G1 X13.33 Y-23.68 Z0.78 F1800.0
G1 X13.2 Y-22.49 Z0.78 F1800.0
G1 X13.33 Y-21.31 Z0.78 F1800.0
G1 X13.7 Y-20.18 Z0.78 F1800.0
G1 X14.27 Y-19.18 Z0.78 F1800.0
M108 R30.0
M102
G1 X14.29 Y-19.15 Z0.78 F1800.0
G1 X14.57 Y-18.84 Z0.78 F1800.0
M108 R3.569
M103
(</loop>)
(<loop> inner )
G1 X-16.04 Y-22.05 Z0.78 F3000.0
M108 R30.0
M101
G1 X-16.84 Y-22.13 Z0.78 F3000.0
M108 R3.569
G1 X-16.8 Y-22.49 Z0.78 F1800.0
G1 X-16.92 Y-23.68 Z0.78 F1800.0
G1 X-17.29 Y-24.81 Z0.78 F1800.0
G1 X-17.89 Y-25.84 Z0.78 F1800.0
G1 X-18.68 Y-26.72 Z0.78 F1800.0
G1 X-19.65 Y-27.42 Z0.78 F1800.0
G1 X-20.73 Y-27.91 Z0.78 F1800.0
G1 X-21.9 Y-28.15 Z0.78 F1800.0
G1 X-23.09 Y-28.15 Z0.78 F1800.0
G1 X-24.25 Y-27.91 Z0.78 F1800.0
G1 X-25.34 Y-27.42 Z0.78 F1800.0
G1 X-26.3 Y-26.72 Z0.78 F1800.0
G1 X-27.1 Y-25.84 Z0.78 F1800.0
G1 X-27.69 Y-24.81 Z0.78 F1800.0
G1 X-28.06 Y-23.68 Z0.78 F1800.0
G1 X-28.19 Y-22.49 Z0.78 F1800.0
G1 X-28.06 Y-21.31 Z0.78 F1800.0
G1 X-27.69 Y-20.18 Z0.78 F1800.0
G1 X-27.1 Y-19.15 Z0.78 F1800.0
G1 X-26.3 Y-18.26 Z0.78 F1800.0
G1 X-25.34 Y-17.56 Z0.78 F1800.0
G1 X-24.25 Y-17.08 Z0.78 F1800.0
G1 X-23.09 Y-16.83 Z0.78 F1800.0
G1 X-21.9 Y-16.83 Z0.78 F1800.0
G1 X-20.73 Y-17.08 Z0.78 F1800.0
G1 X-19.65 Y-17.56 Z0.78 F1800.0
G1 X-18.68 Y-18.26 Z0.78 F1800.0
G1 X-17.89 Y-19.15 Z0.78 F1800.0
G1 X-17.29 Y-20.18 Z0.78 F1800.0
G1 X-16.92 Y-21.31 Z0.78 F1800.0
G1 X-16.89 Y-21.68 Z0.78 F1800.0
M108 R30.0
M102
G1 X-16.84 Y-22.13 Z0.78 F1800.0
M108 R3.569
M103
(</loop>)
(<loop> outer )
G1 X-16.84 Y-31.3 Z0.78 F3000.0
M108 R30.0
M101
G1 X-16.84 Y-32.1 Z0.78 F3000.0
M108 R3.569
G1 X32.1 Y-32.1 Z0.78 F1800.0
G1 X32.1 Y-12.88 Z0.78 F1800.0
G1 X-12.88 Y-12.88 Z0.78 F1800.0
G1 X-12.88 Y32.1 Z0.78 F1800.0
G1 X-32.1 Y32.1 Z0.78 F1800.0
G1 X-32.1 Y-32.1 Z0.78 F1800.0
G1 X-16.84 Y-32.1 Z0.78 F1800.0
M103
(</loop>)
(<perimeter> outer )
G1 X-16.84 Y-32.5 Z0.78 F3000.0
M101
G1 X32.5 Y-32.5 Z0.78 F1800.0
G1 X32.5 Y-12.49 Z0.78 F1800.0
G1 X-12.49 Y-12.49 Z0.78 F1800.0
G1 X-12.49 Y32.5 Z0.78 F1800.0
G1 X-32.5 Y32.5 Z0.78 F1800.0
G1 X-32.5 Y-32.5 Z0.78 F1800.0
G1 X-17.29 Y-32.5 Z0.78 F1800.0
M108 R30.0
M102
G1 X-16.84 Y-32.5 Z0.78 F1800.0
M108 R3.569
M103
(</perimeter>)
(</boundaryPerimeter>)
(<surroundingLoop>)
(<boundaryPerimeter>)
(<boundaryPoint> X-26.619 Y-19.495 Z0.78 </boundaryPoint>)
(<boundaryPoint> X-25.905 Y-18.703 Z0.78 </boundaryPoint>)
(<boundaryPoint> X-25.043 Y-18.076 Z0.78 </boundaryPoint>)
(<boundaryPoint> X-24.069 Y-17.643 Z0.78 </boundaryPoint>)
(<boundaryPoint> X-23.026 Y-17.421 Z0.78 </boundaryPoint>)
(<boundaryPoint> X-21.96 Y-17.421 Z0.78 </boundaryPoint>)
(<boundaryPoint> X-20.917 Y-17.643 Z0.78 </boundaryPoint>)
(<boundaryPoint> X-19.943 Y-18.076 Z0.78 </boundaryPoint>)
(<boundaryPoint> X-19.08 Y-18.703 Z0.78 </boundaryPoint>)
(<boundaryPoint> X-18.367 Y-19.495 Z0.78 </boundaryPoint>)
(<boundaryPoint> X-17.834 Y-20.419 Z0.78 </boundaryPoint>)
(<boundaryPoint> X-17.504 Y-21.433 Z0.78 </boundaryPoint>)
(<boundaryPoint> X-17.393 Y-22.493 Z0.78 </boundaryPoint>)
(<boundaryPoint> X-17.504 Y-23.553 Z0.78 </boundaryPoint>)
(<boundaryPoint> X-17.834 Y-24.567 Z0.78 </boundaryPoint>)
(<boundaryPoint> X-18.367 Y-25.491 Z0.78 </boundaryPoint>)
(<boundaryPoint> X-19.08 Y-26.283 Z0.78 </boundaryPoint>)
(<boundaryPoint> X-19.943 Y-26.91 Z0.78 </boundaryPoint>)
(<boundaryPoint> X-20.917 Y-27.343 Z0.78 </boundaryPoint>)
(<boundaryPoint> X-21.96 Y-27.565 Z0.78 </boundaryPoint>)
(<boundaryPoint> X-23.026 Y-27.565 Z0.78 </boundaryPoint>)
(<boundaryPoint> X-24.069 Y-27.343 Z0.78 </boundaryPoint>)
(<boundaryPoint> X-25.043 Y-26.91 Z0.78 </boundaryPoint>)
(<boundaryPoint> X-25.905 Y-26.283 Z0.78 </boundaryPoint>)
(<boundaryPoint> X-26.619 Y-25.491 Z0.78 </boundaryPoint>)
(<boundaryPoint> X-27.152 Y-24.567 Z0.78 </boundaryPoint>)
(<boundaryPoint> X-27.481 Y-23.553 Z0.78 </boundaryPoint>)
(<boundaryPoint> X-27.593 Y-22.493 Z0.78 </boundaryPoint>)
(<boundaryPoint> X-27.481 Y-21.433 Z0.78 </boundaryPoint>)
(<boundaryPoint> X-27.152 Y-20.419 Z0.78 </boundaryPoint>)
(<perimeter> inner )
G1 X-19.46 Y-27.78 Z0.78 F3000.0
M108 R30.0
M101
G1 X-19.84 Y-27.08 Z0.78 F3000.0
M108 R3.569
G1 X-20.86 Y-27.53 Z0.78 F1800.0
G1 X-21.94 Y-27.76 Z0.78 F1800.0
G1 X-23.05 Y-27.76 Z0.78 F1800.0
G1 X-24.13 Y-27.53 Z0.78 F1800.0
G1 X-25.14 Y-27.08 Z0.78 F1800.0
G1 X-26.04 Y-26.43 Z0.78 F1800.0
G1 X-26.78 Y-25.61 Z0.78 F1800.0
G1 X-27.33 Y-24.65 Z0.78 F1800.0
G1 X-27.67 Y-23.59 Z0.78 F1800.0
G1 X-27.79 Y-22.49 Z0.78 F1800.0
G1 X-27.67 Y-21.39 Z0.78 F1800.0
G1 X-27.33 Y-20.34 Z0.78 F1800.0
G1 X-26.78 Y-19.38 Z0.78 F1800.0
G1 X-26.04 Y-18.56 Z0.78 F1800.0
G1 X-25.14 Y-17.91 Z0.78 F1800.0
G1 X-24.13 Y-17.45 Z0.78 F1800.0
G1 X-23.05 Y-17.23 Z0.78 F1800.0
G1 X-21.94 Y-17.23 Z0.78 F1800.0
G1 X-20.86 Y-17.45 Z0.78 F1800.0
G1 X-19.84 Y-17.91 Z0.78 F1800.0
G1 X-18.95 Y-18.56 Z0.78 F1800.0
G1 X-18.21 Y-19.38 Z0.78 F1800.0
G1 X-17.65 Y-20.34 Z0.78 F1800.0
G1 X-17.31 Y-21.39 Z0.78 F1800.0
G1 X-17.2 Y-22.49 Z0.78 F1800.0
G1 X-17.31 Y-23.59 Z0.78 F1800.0
G1 X-17.65 Y-24.65 Z0.78 F1800.0
G1 X-18.21 Y-25.61 Z0.78 F1800.0
G1 X-18.95 Y-26.43 Z0.78 F1800.0
G1 X-19.48 Y-26.82 Z0.78 F1800.0
M108 R30.0
M102
G1 X-19.84 Y-27.08 Z0.78 F1800.0
M108 R3.569
M103
(</perimeter>)
(</boundaryPerimeter>)
(</surroundingLoop>)
(<surroundingLoop>)
(<boundaryPerimeter>)
(<boundaryPoint> X14.771 Y-19.495 Z0.78 </boundaryPoint>)
(<boundaryPoint> X15.484 Y-18.703 Z0.78 </boundaryPoint>)
(<boundaryPoint> X16.346 Y-18.076 Z0.78 </boundaryPoint>)
(<boundaryPoint> X17.321 Y-17.643 Z0.78 </boundaryPoint>)
(<boundaryPoint> X18.363 Y-17.421 Z0.78 </boundaryPoint>)
(<boundaryPoint> X19.43 Y-17.421 Z0.78 </boundaryPoint>)
(<boundaryPoint> X20.473 Y-17.643 Z0.78 </boundaryPoint>)
(<boundaryPoint> X21.447 Y-18.076 Z0.78 </boundaryPoint>)
(<boundaryPoint> X22.309 Y-18.703 Z0.78 </boundaryPoint>)
(<boundaryPoint> X23.023 Y-19.495 Z0.78 </boundaryPoint>)
(<boundaryPoint> X23.556 Y-20.419 Z0.78 </boundaryPoint>)
(<boundaryPoint> X23.885 Y-21.433 Z0.78 </boundaryPoint>)
(<boundaryPoint> X23.997 Y-22.493 Z0.78 </boundaryPoint>)
(<boundaryPoint> X23.885 Y-23.553 Z0.78 </boundaryPoint>)
(<boundaryPoint> X23.556 Y-24.567 Z0.78 </boundaryPoint>)
(<boundaryPoint> X23.023 Y-25.491 Z0.78 </boundaryPoint>)
(<boundaryPoint> X22.309 Y-26.283 Z0.78 </boundaryPoint>)
(<boundaryPoint> X21.447 Y-26.91 Z0.78 </boundaryPoint>)
(<boundaryPoint> X20.473 Y-27.343 Z0.78 </boundaryPoint>)
(<boundaryPoint> X19.43 Y-27.565 Z0.78 </boundaryPoint>)
(<boundaryPoint> X18.363 Y-27.565 Z0.78 </boundaryPoint>)
(<boundaryPoint> X17.321 Y-27.343 Z0.78 </boundaryPoint>)
(<boundaryPoint> X16.346 Y-26.91 Z0.78 </boundaryPoint>)
(<boundaryPoint> X15.484 Y-26.283 Z0.78 </boundaryPoint>)
(<boundaryPoint> X14.771 Y-25.491 Z0.78 </boundaryPoint>)
(<boundaryPoint> X14.237 Y-24.567 Z0.78 </boundaryPoint>)
(<boundaryPoint> X13.908 Y-23.553 Z0.78 </boundaryPoint>)
(<boundaryPoint> X13.797 Y-22.493 Z0.78 </boundaryPoint>)
(<boundaryPoint> X13.908 Y-21.433 Z0.78 </boundaryPoint>)
(<boundaryPoint> X14.237 Y-20.419 Z0.78 </boundaryPoint>)
(<perimeter> inner )
G1 X12.92 Y-23.68 Z0.78 F3000.0
M108 R30.0
M101
G1 X13.72 Y-23.59 Z0.78 F3000.0
M108 R3.569
G1 X13.6 Y-22.49 Z0.78 F1800.0
G1 X13.72 Y-21.39 Z0.78 F1800.0
G1 X14.06 Y-20.34 Z0.78 F1800.0
G1 X14.61 Y-19.38 Z0.78 F1800.0
G1 X15.35 Y-18.56 Z0.78 F1800.0
G1 X16.25 Y-17.91 Z0.78 F1800.0
G1 X17.26 Y-17.45 Z0.78 F1800.0
G1 X18.34 Y-17.23 Z0.78 F1800.0
G1 X19.45 Y-17.23 Z0.78 F1800.0
G1 X20.53 Y-17.45 Z0.78 F1800.0
G1 X21.55 Y-17.91 Z0.78 F1800.0
G1 X22.44 Y-18.56 Z0.78 F1800.0
G1 X23.18 Y-19.38 Z0.78 F1800.0
G1 X23.74 Y-20.34 Z0.78 F1800.0
G1 X24.08 Y-21.39 Z0.78 F1800.0
G1 X24.2 Y-22.49 Z0.78 F1800.0
G1 X24.08 Y-23.59 Z0.78 F1800.0
G1 X23.74 Y-24.65 Z0.78 F1800.0
G1 X23.18 Y-25.61 Z0.78 F1800.0
G1 X22.44 Y-26.43 Z0.78 F1800.0
G1 X21.55 Y-27.08 Z0.78 F1800.0
G1 X20.53 Y-27.53 Z0.78 F1800.0
G1 X19.45 Y-27.76 Z0.78 F1800.0
G1 X18.34 Y-27.76 Z0.78 F1800.0
G1 X17.26 Y-27.53 Z0.78 F1800.0
G1 X16.25 Y-27.08 Z0.78 F1800.0
G1 X15.35 Y-26.43 Z0.78 F1800.0
G1 X14.61 Y-25.61 Z0.78 F1800.0
G1 X14.06 Y-24.65 Z0.78 F1800.0
G1 X13.85 Y-24.02 Z0.78 F1800.0
M108 R30.0
M102
G1 X13.72 Y-23.59 Z0.78 F1800.0
M108 R3.569
M103
(</perimeter>)
(</boundaryPerimeter>)
(</surroundingLoop>)
(<surroundingLoop>)
(<boundaryPerimeter>)
(<boundaryPoint> X-17.882 Y16.844 Z0.78 </boundaryPoint>)
(<boundaryPoint> X-18.41 Y15.93 Z0.78 </boundaryPoint>)
(<boundaryPoint> X-19.116 Y15.146 Z0.78 </boundaryPoint>)
(<boundaryPoint> X-19.969 Y14.525 Z0.78 </boundaryPoint>)
(<boundaryPoint> X-20.933 Y14.096 Z0.78 </boundaryPoint>)
(<boundaryPoint> X-21.965 Y13.877 Z0.78 </boundaryPoint>)
(<boundaryPoint> X-23.02 Y13.877 Z0.78 </boundaryPoint>)
(<boundaryPoint> X-24.053 Y14.096 Z0.78 </boundaryPoint>)
(<boundaryPoint> X-25.017 Y14.525 Z0.78 </boundaryPoint>)
(<boundaryPoint> X-25.87 Y15.146 Z0.78 </boundaryPoint>)
(<boundaryPoint> X-26.576 Y15.93 Z0.78 </boundaryPoint>)
(<boundaryPoint> X-27.104 Y16.844 Z0.78 </boundaryPoint>)
(<boundaryPoint> X-27.43 Y17.847 Z0.78 </boundaryPoint>)
(<boundaryPoint> X-27.54 Y18.897 Z0.78 </boundaryPoint>)
(<boundaryPoint> X-27.43 Y19.946 Z0.78 </boundaryPoint>)
(<boundaryPoint> X-27.104 Y20.949 Z0.78 </boundaryPoint>)
(<boundaryPoint> X-26.576 Y21.863 Z0.78 </boundaryPoint>)
(<boundaryPoint> X-25.87 Y22.647 Z0.78 </boundaryPoint>)
(<boundaryPoint> X-25.017 Y23.268 Z0.78 </boundaryPoint>)
(<boundaryPoint> X-24.053 Y23.697 Z0.78 </boundaryPoint>)
(<boundaryPoint> X-23.02 Y23.916 Z0.78 </boundaryPoint>)
(<boundaryPoint> X-21.965 Y23.916 Z0.78 </boundaryPoint>)
(<boundaryPoint> X-20.933 Y23.697 Z0.78 </boundaryPoint>)
(<boundaryPoint> X-19.969 Y23.268 Z0.78 </boundaryPoint>)
(<boundaryPoint> X-19.116 Y22.647 Z0.78 </boundaryPoint>)
(<boundaryPoint> X-18.41 Y21.863 Z0.78 </boundaryPoint>)
(<boundaryPoint> X-17.882 Y20.949 Z0.78 </boundaryPoint>)
(<boundaryPoint> X-17.556 Y19.946 Z0.78 </boundaryPoint>)
(<boundaryPoint> X-17.446 Y18.897 Z0.78 </boundaryPoint>)
(<boundaryPoint> X-17.556 Y17.847 Z0.78 </boundaryPoint>)
(<perimeter> inner )
G1 X4.14 Y-12.57 Z0.78 F3000.0
G1 X-12.43 Y-12.43 Z0.78 F3000.0
G1 X-12.57 Y7.1 Z0.78 F3000.0
G1 X-18.48 Y14.38 Z0.78 F3000.0
M108 R30.0
M101
G1 X-18.98 Y15.0 Z0.78 F3000.0
M108 R3.569
G1 X-19.87 Y14.35 Z0.78 F1800.0
G1 X-20.87 Y13.91 Z0.78 F1800.0
G1 X-21.94 Y13.68 Z0.78 F1800.0
G1 X-23.04 Y13.68 Z0.78 F1800.0
G1 X-24.11 Y13.91 Z0.78 F1800.0
G1 X-25.12 Y14.35 Z0.78 F1800.0
G1 X-26.0 Y15.0 Z0.78 F1800.0
G1 X-26.74 Y15.81 Z0.78 F1800.0
G1 X-27.28 Y16.76 Z0.78 F1800.0
G1 X-27.62 Y17.81 Z0.78 F1800.0
G1 X-27.74 Y18.9 Z0.78 F1800.0
G1 X-27.62 Y19.99 Z0.78 F1800.0
G1 X-27.28 Y21.03 Z0.78 F1800.0
G1 X-26.74 Y21.98 Z0.78 F1800.0
G1 X-26.0 Y22.79 Z0.78 F1800.0
G1 X-25.12 Y23.44 Z0.78 F1800.0
G1 X-24.11 Y23.89 Z0.78 F1800.0
G1 X-23.04 Y24.11 Z0.78 F1800.0
G1 X-21.94 Y24.11 Z0.78 F1800.0
G1 X-20.87 Y23.89 Z0.78 F1800.0
G1 X-19.87 Y23.44 Z0.78 F1800.0
G1 X-18.98 Y22.79 Z0.78 F1800.0
G1 X-18.25 Y21.98 Z0.78 F1800.0
G1 X-17.7 Y21.03 Z0.78 F1800.0
G1 X-17.36 Y19.99 Z0.78 F1800.0
G1 X-17.25 Y18.9 Z0.78 F1800.0
G1 X-17.36 Y17.81 Z0.78 F1800.0
G1 X-17.7 Y16.76 Z0.78 F1800.0
G1 X-18.25 Y15.81 Z0.78 F1800.0
G1 X-18.68 Y15.33 Z0.78 F1800.0
M108 R30.0
M102
G1 X-18.98 Y15.0 Z0.78 F1800.0
M108 R3.569
M103
(</perimeter>)
(</boundaryPerimeter>)
(</surroundingLoop>)
G1 X-19.27 Y14.45 Z0.78 F3000.0
M108 R30.0
M101
G1 X-19.65 Y13.74 Z0.78 F3000.0
M108 R3.569
G1 X-13.14 Y13.74 Z0.78 F1800.0
M103
G1 X-13.14 Y14.14 Z0.78 F3000.0
M101
G1 X-19.07 Y14.14 Z0.78 F1800.0
G1 X-18.53 Y14.53 Z0.78 F1800.0
G1 X-13.14 Y14.53 Z0.78 F1800.0
M103
G1 X-13.14 Y14.92 Z0.78 F3000.0
M101
G1 X-18.18 Y14.92 Z0.78 F1800.0
G1 X-17.83 Y15.32 Z0.78 F1800.0
G1 X-13.14 Y15.32 Z0.78 F1800.0
M103
G1 X-13.14 Y15.71 Z0.78 F3000.0
M101
G1 X-17.56 Y15.71 Z0.78 F1800.0
G1 X-17.34 Y16.1 Z0.78 F1800.0
G1 X-13.14 Y16.1 Z0.78 F1800.0
M103
G1 X-13.14 Y16.49 Z0.78 F3000.0
M101
G1 X-17.11 Y16.49 Z0.78 F1800.0
M103
G1 X-16.98 Y16.89 Z0.78 F3000.0
M101
G1 X-13.14 Y16.89 Z0.78 F1800.0
M103
G1 X-13.14 Y17.28 Z0.78 F3000.0
M101
G1 X-16.85 Y17.28 Z0.78 F1800.0
M103
G1 X-16.73 Y17.67 Z0.78 F3000.0
M101
G1 X-13.14 Y17.67 Z0.78 F1800.0
M103
G1 X-13.14 Y18.06 Z0.78 F3000.0
M101
G1 X-16.68 Y18.06 Z0.78 F1800.0
G1 X-16.64 Y18.46 Z0.78 F1800.0
G1 X-13.14 Y18.46 Z0.78 F1800.0
M103
G1 X-13.14 Y18.85 Z0.78 F3000.0
M101
G1 X-16.15 Y18.85 Z0.78 F1800.0
M108 R30.0
M102
G1 X-16.6 Y18.85 Z0.78 F1800.0
M108 R3.569
M103
G1 X-16.64 Y19.23 Z0.78 F3000.0
M108 R30.0
M101
G1 X-16.72 Y20.03 Z0.78 F3000.0
M108 R3.569
G1 X-13.14 Y20.03 Z0.78 F1800.0
M103
G1 X-13.14 Y20.42 Z0.78 F3000.0
M101
G1 X-16.82 Y20.42 Z0.78 F1800.0
G1 X-16.95 Y20.81 Z0.78 F1800.0
G1 X-13.14 Y20.81 Z0.78 F1800.0
M103
G1 X-13.14 Y21.21 Z0.78 F3000.0
M101
G1 X-17.08 Y21.21 Z0.78 F1800.0
G1 X-17.28 Y21.6 Z0.78 F1800.0
G1 X-13.14 Y21.6 Z0.78 F1800.0
M103
G1 X-13.14 Y21.99 Z0.78 F3000.0
M101
G1 X-17.51 Y21.99 Z0.78 F1800.0
G1 X-17.74 Y22.38 Z0.78 F1800.0
G1 X-13.14 Y22.38 Z0.78 F1800.0
M103
G1 X-13.14 Y22.78 Z0.78 F3000.0
M101
G1 X-18.1 Y22.78 Z0.78 F1800.0
G1 X-18.45 Y23.17 Z0.78 F1800.0
G1 X-13.14 Y23.17 Z0.78 F1800.0
M103
G1 X-13.14 Y23.56 Z0.78 F3000.0
M101
G1 X-18.94 Y23.56 Z0.78 F1800.0
M103
G1 X-19.48 Y23.96 Z0.78 F3000.0
M101
G1 X-13.14 Y23.96 Z0.78 F1800.0
M103
G1 X-13.14 Y24.35 Z0.78 F3000.0
M101
G1 X-19.87 Y24.35 Z0.78 F1800.0
M108 R30.0
M102
G1 X-20.32 Y24.35 Z0.78 F1800.0
M108 R3.569
M103
G1 X-13.94 Y24.7 Z0.78 F3000.0
M108 R30.0
M101
G1 X-13.14 Y24.74 Z0.78 F3000.0
M108 R3.569
G1 X-21.33 Y24.74 Z0.78 F1800.0
M108 R30.0
M102
G1 X-21.78 Y24.74 Z0.78 F1800.0
M108 R3.569
M103
G1 X-22.41 Y24.74 Z0.78 F3000.0
M108 R30.0
M101
G1 X-23.21 Y24.74 Z0.78 F3000.0
M108 R3.569
G1 X-31.85 Y24.74 Z0.78 F1800.0
G1 X-31.85 Y24.35 Z0.78 F1800.0
G1 X-24.67 Y24.35 Z0.78 F1800.0
M103
G1 X-25.51 Y23.96 Z0.78 F3000.0
M101
G1 X-31.85 Y23.96 Z0.78 F1800.0
G1 X-31.85 Y23.56 Z0.78 F1800.0
G1 X-26.05 Y23.56 Z0.78 F1800.0
G1 X-26.54 Y23.17 Z0.78 F1800.0
G1 X-31.85 Y23.17 Z0.78 F1800.0
G1 X-31.85 Y22.78 Z0.78 F1800.0
G1 X-26.89 Y22.78 Z0.78 F1800.0
G1 X-27.24 Y22.38 Z0.78 F1800.0
G1 X-31.85 Y22.38 Z0.78 F1800.0
G1 X-31.85 Y21.99 Z0.78 F1800.0
G1 X-27.48 Y21.99 Z0.78 F1800.0
G1 X-27.7 Y21.6 Z0.78 F1800.0
G1 X-31.85 Y21.6 Z0.78 F1800.0
G1 X-31.85 Y21.21 Z0.78 F1800.0
G1 X-27.91 Y21.21 Z0.78 F1800.0
M103
G1 X-28.04 Y20.81 Z0.78 F3000.0
M101
G1 X-31.85 Y20.81 Z0.78 F1800.0
G1 X-31.85 Y20.42 Z0.78 F1800.0
G1 X-28.16 Y20.42 Z0.78 F1800.0
G1 X-28.27 Y20.03 Z0.78 F1800.0
G1 X-31.85 Y20.03 Z0.78 F1800.0
G1 X-31.85 Y19.64 Z0.78 F1800.0
G1 X-28.31 Y19.64 Z0.78 F1800.0
M103
G1 X-28.35 Y19.24 Z0.78 F3000.0
M101
G1 X-31.85 Y19.24 Z0.78 F1800.0
G1 X-31.85 Y18.85 Z0.78 F1800.0
G1 X-28.38 Y18.85 Z0.78 F1800.0
M103
G1 X-28.34 Y18.46 Z0.78 F3000.0
M101
G1 X-31.85 Y18.46 Z0.78 F1800.0
G1 X-31.85 Y18.06 Z0.78 F1800.0
G1 X-28.3 Y18.06 Z0.78 F1800.0
M103
G1 X-28.26 Y17.67 Z0.78 F3000.0
M101
G1 X-31.85 Y17.67 Z0.78 F1800.0
G1 X-31.85 Y17.28 Z0.78 F1800.0
G1 X-28.13 Y17.28 Z0.78 F1800.0
M103
G1 X-28.01 Y16.89 Z0.78 F3000.0
M101
G1 X-31.85 Y16.89 Z0.78 F1800.0
G1 X-31.85 Y16.49 Z0.78 F1800.0
G1 X-27.88 Y16.49 Z0.78 F1800.0
G1 X-27.65 Y16.1 Z0.78 F1800.0
G1 X-31.85 Y16.1 Z0.78 F1800.0
G1 X-31.85 Y15.71 Z0.78 F1800.0
G1 X-27.42 Y15.71 Z0.78 F1800.0
G1 X-27.16 Y15.32 Z0.78 F1800.0
G1 X-31.85 Y15.32 Z0.78 F1800.0
G1 X-31.85 Y14.92 Z0.78 F1800.0
G1 X-26.81 Y14.92 Z0.78 F1800.0
G1 X-26.45 Y14.53 Z0.78 F1800.0
G1 X-31.85 Y14.53 Z0.78 F1800.0
G1 X-31.85 Y14.14 Z0.78 F1800.0
G1 X-25.92 Y14.14 Z0.78 F1800.0
G1 X-25.34 Y13.74 Z0.78 F1800.0
G1 X-31.85 Y13.74 Z0.78 F1800.0
G1 X-31.85 Y13.35 Z0.78 F1800.0
G1 X-24.91 Y13.35 Z0.78 F1800.0
M108 R30.0
M102
G1 X-24.46 Y13.35 Z0.78 F1800.0
M108 R3.569
M103
G1 X-21.33 Y13.35 Z0.78 F3000.0
M108 R30.0
M101
G1 X-20.53 Y13.35 Z0.78 F3000.0
M108 R3.569
G1 X-13.14 Y13.35 Z0.78 F1800.0
M103
G1 X-13.14 Y12.96 Z0.78 F3000.0
M101
G1 X-31.85 Y12.96 Z0.78 F1800.0
G1 X-31.85 Y12.57 Z0.78 F1800.0
G1 X-13.14 Y12.57 Z0.78 F1800.0
M103
G1 X-13.14 Y12.17 Z0.78 F3000.0
M101
G1 X-31.85 Y12.17 Z0.78 F1800.0
G1 X-31.85 Y11.78 Z0.78 F1800.0
G1 X-13.14 Y11.78 Z0.78 F1800.0
M103
G1 X-13.14 Y11.39 Z0.78 F3000.0
M101
G1 X-31.85 Y11.39 Z0.78 F1800.0
G1 X-31.85 Y11.0 Z0.78 F1800.0
G1 X-13.14 Y11.0 Z0.78 F1800.0
M103
G1 X-13.14 Y10.6 Z0.78 F3000.0
M101
G1 X-31.85 Y10.6 Z0.78 F1800.0
G1 X-31.85 Y10.21 Z0.78 F1800.0
G1 X-13.14 Y10.21 Z0.78 F1800.0
M103
G1 X-13.14 Y9.82 Z0.78 F3000.0
M101
G1 X-31.85 Y9.82 Z0.78 F1800.0
G1 X-31.85 Y9.43 Z0.78 F1800.0
G1 X-13.14 Y9.43 Z0.78 F1800.0
M103
G1 X-13.14 Y9.03 Z0.78 F3000.0
M101
G1 X-31.85 Y9.03 Z0.78 F1800.0
G1 X-31.85 Y8.64 Z0.78 F1800.0
G1 X-13.14 Y8.64 Z0.78 F1800.0
M103
G1 X-13.14 Y8.25 Z0.78 F3000.0
M101
G1 X-31.85 Y8.25 Z0.78 F1800.0
G1 X-31.85 Y7.85 Z0.78 F1800.0
G1 X-13.14 Y7.85 Z0.78 F1800.0
M103
G1 X-13.14 Y7.46 Z0.78 F3000.0
M101
G1 X-31.85 Y7.46 Z0.78 F1800.0
G1 X-31.85 Y7.07 Z0.78 F1800.0
G1 X-13.14 Y7.07 Z0.78 F1800.0
M103
G1 X-13.14 Y6.68 Z0.78 F3000.0
M101
G1 X-31.85 Y6.68 Z0.78 F1800.0
G1 X-31.85 Y6.28 Z0.78 F1800.0
G1 X-13.14 Y6.28 Z0.78 F1800.0
M103
G1 X-13.14 Y5.89 Z0.78 F3000.0
M101
G1 X-31.85 Y5.89 Z0.78 F1800.0
G1 X-31.85 Y5.5 Z0.78 F1800.0
G1 X-13.14 Y5.5 Z0.78 F1800.0
M103
G1 X-13.14 Y5.11 Z0.78 F3000.0
M101
G1 X-31.85 Y5.11 Z0.78 F1800.0
G1 X-31.85 Y4.71 Z0.78 F1800.0
G1 X-13.14 Y4.71 Z0.78 F1800.0
M103
G1 X-13.14 Y4.32 Z0.78 F3000.0
M101
G1 X-31.85 Y4.32 Z0.78 F1800.0
G1 X-31.85 Y3.93 Z0.78 F1800.0
G1 X-13.14 Y3.93 Z0.78 F1800.0
M103
G1 X-13.14 Y3.53 Z0.78 F3000.0
M101
G1 X-31.85 Y3.53 Z0.78 F1800.0
G1 X-31.85 Y3.14 Z0.78 F1800.0
G1 X-13.14 Y3.14 Z0.78 F1800.0
M103
G1 X-13.14 Y2.75 Z0.78 F3000.0
M101
G1 X-31.85 Y2.75 Z0.78 F1800.0
G1 X-31.85 Y2.36 Z0.78 F1800.0
G1 X-13.14 Y2.36 Z0.78 F1800.0
M103
G1 X-13.14 Y1.96 Z0.78 F3000.0
M101
G1 X-31.85 Y1.96 Z0.78 F1800.0
G1 X-31.85 Y1.57 Z0.78 F1800.0
G1 X-13.14 Y1.57 Z0.78 F1800.0
M103
G1 X-13.14 Y1.18 Z0.78 F3000.0
M101
G1 X-31.85 Y1.18 Z0.78 F1800.0
G1 X-31.85 Y0.79 Z0.78 F1800.0
G1 X-13.14 Y0.79 Z0.78 F1800.0
M103
G1 X-13.14 Y0.39 Z0.78 F3000.0
M101
G1 X-31.85 Y0.39 Z0.78 F1800.0
G1 X-31.85 Y0.0 Z0.78 F1800.0
G1 X-13.14 Y0.0 Z0.78 F1800.0
M103
G1 X-13.14 Y-0.39 Z0.78 F3000.0
M101
G1 X-31.85 Y-0.39 Z0.78 F1800.0
G1 X-31.85 Y-0.79 Z0.78 F1800.0
G1 X-13.14 Y-0.79 Z0.78 F1800.0
M103
G1 X-13.14 Y-1.18 Z0.78 F3000.0
M101
G1 X-31.85 Y-1.18 Z0.78 F1800.0
G1 X-31.85 Y-1.57 Z0.78 F1800.0
G1 X-13.14 Y-1.57 Z0.78 F1800.0
M103
G1 X-13.14 Y-1.96 Z0.78 F3000.0
M101
G1 X-31.85 Y-1.96 Z0.78 F1800.0
G1 X-31.85 Y-2.36 Z0.78 F1800.0
G1 X-13.14 Y-2.36 Z0.78 F1800.0
M103
G1 X-13.14 Y-2.75 Z0.78 F3000.0
M101
G1 X-31.85 Y-2.75 Z0.78 F1800.0
G1 X-31.85 Y-3.14 Z0.78 F1800.0
G1 X-13.14 Y-3.14 Z0.78 F1800.0
M103
G1 X-13.14 Y-3.53 Z0.78 F3000.0
M101
G1 X-31.85 Y-3.53 Z0.78 F1800.0
G1 X-31.85 Y-3.93 Z0.78 F1800.0
G1 X-13.14 Y-3.93 Z0.78 F1800.0
M103
G1 X-13.14 Y-4.32 Z0.78 F3000.0
M101
G1 X-31.85 Y-4.32 Z0.78 F1800.0
G1 X-31.85 Y-4.71 Z0.78 F1800.0
G1 X-13.14 Y-4.71 Z0.78 F1800.0
M103
G1 X-13.14 Y-5.11 Z0.78 F3000.0
M101
G1 X-31.85 Y-5.11 Z0.78 F1800.0
G1 X-31.85 Y-5.5 Z0.78 F1800.0
G1 X-13.14 Y-5.5 Z0.78 F1800.0
M103
G1 X-13.14 Y-5.89 Z0.78 F3000.0
M101
G1 X-31.85 Y-5.89 Z0.78 F1800.0
G1 X-31.85 Y-6.28 Z0.78 F1800.0
G1 X-13.14 Y-6.28 Z0.78 F1800.0
M103
G1 X-13.14 Y-6.68 Z0.78 F3000.0
M101
G1 X-31.85 Y-6.68 Z0.78 F1800.0
G1 X-31.85 Y-7.07 Z0.78 F1800.0
G1 X-13.14 Y-7.07 Z0.78 F1800.0
M103
G1 X-13.14 Y-7.46 Z0.78 F3000.0
M101
G1 X-31.85 Y-7.46 Z0.78 F1800.0
G1 X-31.85 Y-7.85 Z0.78 F1800.0
G1 X-13.14 Y-7.85 Z0.78 F1800.0
M103
G1 X-13.14 Y-8.25 Z0.78 F3000.0
M101
G1 X-31.85 Y-8.25 Z0.78 F1800.0
G1 X-31.85 Y-8.64 Z0.78 F1800.0
G1 X-13.14 Y-8.64 Z0.78 F1800.0
M103
G1 X-13.14 Y-9.03 Z0.78 F3000.0
M101
G1 X-31.85 Y-9.03 Z0.78 F1800.0
G1 X-31.85 Y-9.43 Z0.78 F1800.0
G1 X-13.14 Y-9.43 Z0.78 F1800.0
M103
G1 X-13.14 Y-9.82 Z0.78 F3000.0
M101
G1 X-31.85 Y-9.82 Z0.78 F1800.0
G1 X-31.85 Y-10.21 Z0.78 F1800.0
G1 X-13.14 Y-10.21 Z0.78 F1800.0
M103
G1 X-13.14 Y-10.6 Z0.78 F3000.0
M101
G1 X-31.85 Y-10.6 Z0.78 F1800.0
G1 X-31.85 Y-11.0 Z0.78 F1800.0
G1 X-13.14 Y-11.0 Z0.78 F1800.0
M103
G1 X-13.14 Y-11.39 Z0.78 F3000.0
M101
G1 X-31.85 Y-11.39 Z0.78 F1800.0
G1 X-31.85 Y-11.78 Z0.78 F1800.0
G1 X-13.14 Y-11.78 Z0.78 F1800.0
M103
G1 X-13.14 Y-12.17 Z0.78 F3000.0
M101
G1 X-31.85 Y-12.17 Z0.78 F1800.0
G1 X-31.85 Y-12.57 Z0.78 F1800.0
G1 X-13.14 Y-12.57 Z0.78 F1800.0
M103
G1 X-13.14 Y-12.96 Z0.78 F3000.0
M101
G1 X-31.85 Y-12.96 Z0.78 F1800.0
G1 X-31.85 Y-13.35 Z0.78 F1800.0
G1 X31.85 Y-13.35 Z0.78 F1800.0
G1 X31.85 Y-13.74 Z0.78 F1800.0
G1 X-31.85 Y-13.74 Z0.78 F1800.0
G1 X-31.85 Y-14.14 Z0.78 F1800.0
G1 X31.85 Y-14.14 Z0.78 F1800.0
G1 X31.85 Y-14.53 Z0.78 F1800.0
G1 X-31.85 Y-14.53 Z0.78 F1800.0
G1 X-31.85 Y-14.92 Z0.78 F1800.0
G1 X31.85 Y-14.92 Z0.78 F1800.0
G1 X31.85 Y-15.32 Z0.78 F1800.0
G1 X-31.85 Y-15.32 Z0.78 F1800.0
G1 X-31.85 Y-15.71 Z0.78 F1800.0
G1 X31.85 Y-15.71 Z0.78 F1800.0
G1 X31.85 Y-16.1 Z0.78 F1800.0
G1 X-31.85 Y-16.1 Z0.78 F1800.0
G1 X-31.85 Y-16.49 Z0.78 F1800.0
G1 X31.85 Y-16.49 Z0.78 F1800.0
G1 X31.85 Y-16.89 Z0.78 F1800.0
G1 X20.85 Y-16.89 Z0.78 F1800.0
M103
G1 X21.73 Y-17.28 Z0.78 F3000.0
M101
G1 X31.85 Y-17.28 Z0.78 F1800.0
G1 X31.85 Y-17.67 Z0.78 F1800.0
G1 X22.33 Y-17.67 Z0.78 F1800.0
G1 X22.87 Y-18.06 Z0.78 F1800.0
G1 X31.85 Y-18.06 Z0.78 F1800.0
G1 X31.85 Y-18.46 Z0.78 F1800.0
G1 X23.22 Y-18.46 Z0.78 F1800.0
G1 X23.58 Y-18.85 Z0.78 F1800.0
G1 X31.85 Y-18.85 Z0.78 F1800.0
G1 X31.85 Y-19.24 Z0.78 F1800.0
G1 X23.85 Y-19.24 Z0.78 F1800.0
G1 X24.08 Y-19.64 Z0.78 F1800.0
G1 X31.85 Y-19.64 Z0.78 F1800.0
G1 X31.85 Y-20.03 Z0.78 F1800.0
G1 X24.31 Y-20.03 Z0.78 F1800.0
G1 X24.44 Y-20.42 Z0.78 F1800.0
G1 X31.85 Y-20.42 Z0.78 F1800.0
G1 X31.85 Y-20.81 Z0.78 F1800.0
G1 X24.57 Y-20.81 Z0.78 F1800.0
M103
G1 X24.7 Y-21.21 Z0.78 F3000.0
M101
G1 X31.85 Y-21.21 Z0.78 F1800.0
G1 X31.85 Y-21.6 Z0.78 F1800.0
G1 X24.75 Y-21.6 Z0.78 F1800.0
G1 X24.79 Y-21.99 Z0.78 F1800.0
G1 X31.85 Y-21.99 Z0.78 F1800.0
G1 X31.85 Y-22.38 Z0.78 F1800.0
G1 X24.84 Y-22.38 Z0.78 F1800.0
M103
G1 X24.82 Y-22.78 Z0.78 F3000.0
M101
G1 X31.85 Y-22.78 Z0.78 F1800.0
G1 X31.85 Y-23.17 Z0.78 F1800.0
G1 X24.78 Y-23.17 Z0.78 F1800.0
G1 X24.73 Y-23.56 Z0.78 F1800.0
G1 X31.85 Y-23.56 Z0.78 F1800.0
G1 X31.85 Y-23.96 Z0.78 F1800.0
G1 X24.64 Y-23.96 Z0.78 F1800.0
M103
G1 X24.52 Y-24.35 Z0.78 F3000.0
M101
G1 X31.85 Y-24.35 Z0.78 F1800.0
G1 X31.85 Y-24.74 Z0.78 F1800.0
G1 X24.39 Y-24.74 Z0.78 F1800.0
G1 X24.21 Y-25.13 Z0.78 F1800.0
G1 X31.85 Y-25.13 Z0.78 F1800.0
G1 X31.85 Y-25.53 Z0.78 F1800.0
G1 X23.98 Y-25.53 Z0.78 F1800.0
G1 X23.75 Y-25.92 Z0.78 F1800.0
G1 X31.85 Y-25.92 Z0.78 F1800.0
G1 X31.85 Y-26.31 Z0.78 F1800.0
G1 X23.42 Y-26.31 Z0.78 F1800.0
G1 X23.07 Y-26.7 Z0.78 F1800.0
G1 X31.85 Y-26.7 Z0.78 F1800.0
G1 X31.85 Y-27.1 Z0.78 F1800.0
G1 X22.63 Y-27.1 Z0.78 F1800.0
G1 X22.09 Y-27.49 Z0.78 F1800.0
G1 X31.85 Y-27.49 Z0.78 F1800.0
G1 X31.85 Y-27.88 Z0.78 F1800.0
G1 X21.79 Y-27.88 Z0.78 F1800.0
M108 R30.0
M102
G1 X21.34 Y-27.88 Z0.78 F1800.0
M108 R3.569
M103
G1 X20.91 Y-28.02 Z0.78 F3000.0
M108 R30.0
M101
G1 X20.15 Y-28.27 Z0.78 F3000.0
M108 R3.569
G1 X31.85 Y-28.27 Z0.78 F1800.0
G1 X31.85 Y-28.67 Z0.78 F1800.0
G1 X-31.85 Y-28.67 Z0.78 F1800.0
G1 X-31.85 Y-28.27 Z0.78 F1800.0
G1 X-24.2 Y-28.27 Z0.78 F1800.0
M108 R30.0
M102
G1 X-23.75 Y-28.27 Z0.78 F1800.0
M108 R3.569
M103
G1 X-24.18 Y-28.13 Z0.78 F3000.0
M108 R30.0
M101
G1 X-24.94 Y-27.88 Z0.78 F3000.0
M108 R3.569
G1 X-31.85 Y-27.88 Z0.78 F1800.0
G1 X-31.85 Y-27.49 Z0.78 F1800.0
G1 X-25.68 Y-27.49 Z0.78 F1800.0
M103
G1 X-26.22 Y-27.1 Z0.78 F3000.0
M101
G1 X-31.85 Y-27.1 Z0.78 F1800.0
G1 X-31.85 Y-26.7 Z0.78 F1800.0
G1 X-26.66 Y-26.7 Z0.78 F1800.0
G1 X-27.02 Y-26.31 Z0.78 F1800.0
G1 X-31.85 Y-26.31 Z0.78 F1800.0
G1 X-31.85 Y-25.92 Z0.78 F1800.0
G1 X-27.35 Y-25.92 Z0.78 F1800.0
G1 X-27.57 Y-25.53 Z0.78 F1800.0
G1 X-31.85 Y-25.53 Z0.78 F1800.0
G1 X-31.85 Y-25.13 Z0.78 F1800.0
G1 X-27.8 Y-25.13 Z0.78 F1800.0
G1 X-27.98 Y-24.74 Z0.78 F1800.0
G1 X-31.85 Y-24.74 Z0.78 F1800.0
G1 X-31.85 Y-24.35 Z0.78 F1800.0
G1 X-28.11 Y-24.35 Z0.78 F1800.0
M103
G1 X-28.24 Y-23.96 Z0.78 F3000.0
M101
G1 X-31.85 Y-23.96 Z0.78 F1800.0
G1 X-31.85 Y-23.56 Z0.78 F1800.0
G1 X-28.33 Y-23.56 Z0.78 F1800.0
M103
G1 X-28.37 Y-23.17 Z0.78 F3000.0
M101
G1 X-31.85 Y-23.17 Z0.78 F1800.0
G1 X-31.85 Y-22.78 Z0.78 F1800.0
G1 X-28.41 Y-22.78 Z0.78 F1800.0
M103
G1 X-28.43 Y-22.38 Z0.78 F3000.0
M101
G1 X-31.85 Y-22.38 Z0.78 F1800.0
G1 X-31.85 Y-21.99 Z0.78 F1800.0
G1 X-28.39 Y-21.99 Z0.78 F1800.0
M103
G1 X-28.35 Y-21.6 Z0.78 F3000.0
M101
G1 X-31.85 Y-21.6 Z0.78 F1800.0
G1 X-31.85 Y-21.21 Z0.78 F1800.0
G1 X-28.3 Y-21.21 Z0.78 F1800.0
M103
G1 X-28.17 Y-20.81 Z0.78 F3000.0
M101
G1 X-31.85 Y-20.81 Z0.78 F1800.0
G1 X-31.85 Y-20.42 Z0.78 F1800.0
G1 X-28.04 Y-20.42 Z0.78 F1800.0
M103
G1 X-27.9 Y-20.03 Z0.78 F3000.0
M101
G1 X-31.85 Y-20.03 Z0.78 F1800.0
G1 X-31.85 Y-19.64 Z0.78 F1800.0
G1 X-27.68 Y-19.64 Z0.78 F1800.0
G1 X-27.45 Y-19.24 Z0.78 F1800.0
G1 X-31.85 Y-19.24 Z0.78 F1800.0
G1 X-31.85 Y-18.85 Z0.78 F1800.0
G1 X-27.17 Y-18.85 Z0.78 F1800.0
G1 X-26.82 Y-18.46 Z0.78 F1800.0
G1 X-31.85 Y-18.46 Z0.78 F1800.0
G1 X-31.85 Y-18.06 Z0.78 F1800.0
G1 X-26.46 Y-18.06 Z0.78 F1800.0
G1 X-25.92 Y-17.67 Z0.78 F1800.0
G1 X-31.85 Y-17.67 Z0.78 F1800.0
G1 X-31.85 Y-17.28 Z0.78 F1800.0
G1 X-25.33 Y-17.28 Z0.78 F1800.0
M103
G1 X-24.45 Y-16.89 Z0.78 F3000.0
M101
G1 X-31.4 Y-16.89 Z0.78 F1800.0
M108 R30.0
M102
G1 X-31.85 Y-16.89 Z0.78 F1800.0
M108 R3.569
M103
G1 X-21.34 Y-16.89 Z0.78 F3000.0
M108 R30.0
M101
G1 X-20.54 Y-16.89 Z0.78 F3000.0
M108 R3.569
G1 X16.94 Y-16.89 Z0.78 F1800.0
M103
G1 X16.06 Y-17.28 Z0.78 F3000.0
M101
G1 X-19.66 Y-17.28 Z0.78 F1800.0
M103
G1 X-19.06 Y-17.67 Z0.78 F3000.0
M101
G1 X15.47 Y-17.67 Z0.78 F1800.0
G1 X14.93 Y-18.06 Z0.78 F1800.0
G1 X-18.52 Y-18.06 Z0.78 F1800.0
G1 X-18.17 Y-18.46 Z0.78 F1800.0
G1 X14.57 Y-18.46 Z0.78 F1800.0
G1 X14.22 Y-18.85 Z0.78 F1800.0
G1 X-17.81 Y-18.85 Z0.78 F1800.0
M103
G1 X-17.54 Y-19.24 Z0.78 F3000.0
M101
G1 X13.94 Y-19.24 Z0.78 F1800.0
G1 X13.72 Y-19.64 Z0.78 F1800.0
G1 X-17.31 Y-19.64 Z0.78 F1800.0
G1 X-17.09 Y-20.03 Z0.78 F1800.0
G1 X13.04 Y-20.03 Z0.78 F1800.0
M108 R30.0
M102
G1 X13.49 Y-20.03 Z0.78 F1800.0
M108 R3.569
M103
G1 X13.35 Y-20.45 Z0.78 F3000.0
M108 R30.0
M101
G1 X13.09 Y-21.21 Z0.78 F3000.0
M108 R3.569
G1 X-16.69 Y-21.21 Z0.78 F1800.0
G1 X-16.64 Y-21.6 Z0.78 F1800.0
G1 X13.04 Y-21.6 Z0.78 F1800.0
G1 X13.0 Y-21.99 Z0.78 F1800.0
G1 X-16.6 Y-21.99 Z0.78 F1800.0
G1 X-16.56 Y-22.38 Z0.78 F1800.0
G1 X12.96 Y-22.38 Z0.78 F1800.0
M103
G1 X12.98 Y-22.78 Z0.78 F3000.0
M101
G1 X-16.57 Y-22.78 Z0.78 F1800.0
M103
G1 X-16.61 Y-23.17 Z0.78 F3000.0
M101
G1 X13.02 Y-23.17 Z0.78 F1800.0
G1 X13.06 Y-23.56 Z0.78 F1800.0
G1 X-16.66 Y-23.56 Z0.78 F1800.0
M103
G1 X-16.75 Y-23.96 Z0.78 F3000.0
M101
G1 X13.15 Y-23.96 Z0.78 F1800.0
M103
G1 X13.28 Y-24.35 Z0.78 F3000.0
M101
G1 X-16.87 Y-24.35 Z0.78 F1800.0
M103
G1 X-17.0 Y-24.74 Z0.78 F3000.0
M101
G1 X13.41 Y-24.74 Z0.78 F1800.0
G1 X13.59 Y-25.13 Z0.78 F1800.0
G1 X-17.18 Y-25.13 Z0.78 F1800.0
G1 X-17.41 Y-25.53 Z0.78 F1800.0
G1 X13.82 Y-25.53 Z0.78 F1800.0
G1 X14.04 Y-25.92 Z0.78 F1800.0
G1 X-17.64 Y-25.92 Z0.78 F1800.0
G1 X-17.97 Y-26.31 Z0.78 F1800.0
G1 X14.37 Y-26.31 Z0.78 F1800.0
G1 X14.73 Y-26.7 Z0.78 F1800.0
G1 X-18.32 Y-26.7 Z0.78 F1800.0
G1 X-18.76 Y-27.1 Z0.78 F1800.0
G1 X15.17 Y-27.1 Z0.78 F1800.0
G1 X15.71 Y-27.49 Z0.78 F1800.0
G1 X-19.3 Y-27.49 Z0.78 F1800.0
M103
G1 X-20.05 Y-27.88 Z0.78 F3000.0
M101
G1 X16.0 Y-27.88 Z0.78 F1800.0
M108 R30.0
M102
G1 X16.45 Y-27.88 Z0.78 F1800.0
M108 R3.569
M103
G1 X16.88 Y-28.02 Z0.78 F3000.0
M108 R30.0
M101
G1 X17.64 Y-28.27 Z0.78 F3000.0
M108 R3.569
G1 X-20.79 Y-28.27 Z0.78 F1800.0
M108 R30.0
M102
G1 X-21.24 Y-28.27 Z0.78 F1800.0
M108 R3.569
M103
G1 X-18.9 Y-26.49 Z0.78 F3000.0
G1 X-18.15 Y-25.65 Z0.78 F3000.0
G1 X-17.58 Y-24.68 Z0.78 F3000.0
G1 X-17.24 Y-23.61 Z0.78 F3000.0
G1 X-17.02 Y-21.22 Z0.78 F3000.0
M108 R30.0
M101
G1 X-16.95 Y-20.42 Z0.78 F3000.0
M108 R3.569
G1 X13.35 Y-20.42 Z0.78 F1800.0
G1 X13.22 Y-20.81 Z0.78 F1800.0
G1 X-16.37 Y-20.81 Z0.78 F1800.0
M108 R30.0
M102
G1 X-16.82 Y-20.81 Z0.78 F1800.0
M108 R3.569
M103
G1 X-17.24 Y-23.61 Z0.78 F3000.0
G1 X-17.58 Y-24.68 Z0.78 F3000.0
G1 X-18.15 Y-25.65 Z0.78 F3000.0
G1 X-18.9 Y-26.49 Z0.78 F3000.0
G1 X-19.81 Y-27.15 Z0.78 F3000.0
G1 X-20.83 Y-27.6 Z0.78 F3000.0
G1 X-31.06 Y-28.96 Z0.78 F3000.0
M108 R30.0
M101
G1 X-31.85 Y-29.06 Z0.78 F3000.0
M108 R3.569
G1 X31.85 Y-29.06 Z0.78 F1800.0
G1 X31.85 Y-29.45 Z0.78 F1800.0
G1 X-31.85 Y-29.45 Z0.78 F1800.0
G1 X-31.85 Y-29.85 Z0.78 F1800.0
G1 X31.85 Y-29.85 Z0.78 F1800.0
G1 X31.85 Y-30.24 Z0.78 F1800.0
G1 X-31.85 Y-30.24 Z0.78 F1800.0
G1 X-31.85 Y-30.63 Z0.78 F1800.0
G1 X31.85 Y-30.63 Z0.78 F1800.0
G1 X31.85 Y-31.02 Z0.78 F1800.0
G1 X-31.85 Y-31.02 Z0.78 F1800.0
G1 X-31.85 Y-31.42 Z0.78 F1800.0
G1 X31.85 Y-31.42 Z0.78 F1800.0
G1 X31.85 Y-31.81 Z0.78 F1800.0
G1 X-31.4 Y-31.81 Z0.78 F1800.0
M108 R30.0
M102
G1 X-31.85 Y-31.81 Z0.78 F1800.0
M108 R3.569
M103
G1 X-13.41 Y18.49 Z0.78 F3000.0
M108 R30.0
M101
G1 X-13.14 Y19.24 Z0.78 F3000.0
M108 R3.569
G1 X-16.63 Y19.24 Z0.78 F1800.0
G1 X-16.67 Y19.64 Z0.78 F1800.0
G1 X-13.59 Y19.64 Z0.78 F1800.0
M108 R30.0
M102
G1 X-13.14 Y19.64 Z0.78 F1800.0
M108 R3.569
M103
G1 X-13.14 Y24.73 Z0.78 F3000.0
M108 R30.0
M101
G1 X-13.14 Y25.53 Z0.78 F3000.0
M108 R3.569
G1 X-31.85 Y25.53 Z0.78 F1800.0
G1 X-31.85 Y25.13 Z0.78 F1800.0
G1 X-13.59 Y25.13 Z0.78 F1800.0
M108 R30.0
M102
G1 X-13.14 Y25.13 Z0.78 F1800.0
M108 R3.569
M103
G1 X-13.14 Y25.51 Z0.78 F3000.0
M108 R30.0
M101
G1 X-13.14 Y26.31 Z0.78 F3000.0
M108 R3.569
G1 X-31.85 Y26.31 Z0.78 F1800.0
G1 X-31.85 Y25.92 Z0.78 F1800.0
G1 X-13.59 Y25.92 Z0.78 F1800.0
M108 R30.0
M102
G1 X-13.14 Y25.92 Z0.78 F1800.0
M108 R3.569
M103
G1 X-13.14 Y26.3 Z0.78 F3000.0
M108 R30.0
M101
G1 X-13.14 Y27.1 Z0.78 F3000.0
M108 R3.569
G1 X-31.85 Y27.1 Z0.78 F1800.0
G1 X-31.85 Y26.7 Z0.78 F1800.0
G1 X-13.59 Y26.7 Z0.78 F1800.0
M108 R30.0
M102
G1 X-13.14 Y26.7 Z0.78 F1800.0
M108 R3.569
M103
G1 X-13.14 Y27.08 Z0.78 F3000.0
M108 R30.0
M101
G1 X-13.14 Y27.88 Z0.78 F3000.0
M108 R3.569
G1 X-31.85 Y27.88 Z0.78 F1800.0
G1 X-31.85 Y27.49 Z0.78 F1800.0
G1 X-13.59 Y27.49 Z0.78 F1800.0
M108 R30.0
M102
G1 X-13.14 Y27.49 Z0.78 F1800.0
M108 R3.569
M103
G1 X-13.14 Y27.87 Z0.78 F3000.0
M108 R30.0
M101
G1 X-13.14 Y28.67 Z0.78 F3000.0
M108 R3.569
G1 X-31.85 Y28.67 Z0.78 F1800.0
G1 X-31.85 Y28.27 Z0.78 F1800.0
G1 X-13.59 Y28.27 Z0.78 F1800.0
M108 R30.0
M102
G1 X-13.14 Y28.27 Z0.78 F1800.0
M108 R3.569
M103
G1 X-13.14 Y28.65 Z0.78 F3000.0
M108 R30.0
M101
G1 X-13.14 Y29.45 Z0.78 F3000.0
M108 R3.569
G1 X-31.85 Y29.45 Z0.78 F1800.0
G1 X-31.85 Y29.06 Z0.78 F1800.0
G1 X-13.59 Y29.06 Z0.78 F1800.0
M108 R30.0
M102
G1 X-13.14 Y29.06 Z0.78 F1800.0
M108 R3.569
M103
G1 X-13.14 Y29.44 Z0.78 F3000.0
M108 R30.0
M101
G1 X-13.14 Y30.24 Z0.78 F3000.0
M108 R3.569
G1 X-31.85 Y30.24 Z0.78 F1800.0
G1 X-31.85 Y29.85 Z0.78 F1800.0
G1 X-13.59 Y29.85 Z0.78 F1800.0
M108 R30.0
M102
G1 X-13.14 Y29.85 Z0.78 F1800.0
M108 R3.569
M103
G1 X-13.14 Y30.22 Z0.78 F3000.0
M108 R30.0
M101
G1 X-13.14 Y31.02 Z0.78 F3000.0
M108 R3.569
G1 X-31.85 Y31.02 Z0.78 F1800.0
G1 X-31.85 Y30.63 Z0.78 F1800.0
G1 X-13.59 Y30.63 Z0.78 F1800.0
M108 R30.0
M102
G1 X-13.14 Y30.63 Z0.78 F1800.0
M108 R3.569
M103
G1 X-13.14 Y31.01 Z0.78 F3000.0
M108 R30.0
M101
G1 X-13.14 Y31.81 Z0.78 F3000.0
M108 R3.569
G1 X-31.85 Y31.81 Z0.78 F1800.0
G1 X-31.85 Y31.42 Z0.78 F1800.0
G1 X-13.59 Y31.42 Z0.78 F1800.0
M108 R30.0
M102
G1 X-13.14 Y31.42 Z0.78 F1800.0
M108 R3.569
M103
(</surroundingLoop>)
(</layer>)
(<operatingLayerEnd> </operatingLayerEnd>)
(<layer> 1.1 )
(<surroundingLoop>)
(<boundaryPerimeter>)
(<boundaryPoint> X32.693 Y-12.293 Z1.1 </boundaryPoint>)
(<boundaryPoint> X-12.293 Y-12.293 Z1.1 </boundaryPoint>)
(<boundaryPoint> X-12.293 Y32.693 Z1.1 </boundaryPoint>)
(<boundaryPoint> X-32.693 Y32.693 Z1.1 </boundaryPoint>)
(<boundaryPoint> X-32.693 Y-32.693 Z1.1 </boundaryPoint>)
(<boundaryPoint> X32.693 Y-32.693 Z1.1 </boundaryPoint>)
(<loop> inner )
G1 X-12.57 Y30.01 Z1.1 F3000.0
G1 X-12.43 Y-12.43 Z1.1 F3000.0
G1 X13.2 Y-12.57 Z1.1 F3000.0
G1 X15.87 Y-16.77 Z1.1 F3000.0
M108 R30.0
M101
G1 X16.3 Y-17.45 Z1.1 F3000.0
M108 R3.569
G1 X17.14 Y-17.08 Z1.1 F1800.0
G1 X18.3 Y-16.83 Z1.1 F1800.0
G1 X19.49 Y-16.83 Z1.1 F1800.0
G1 X20.66 Y-17.08 Z1.1 F1800.0
G1 X21.74 Y-17.56 Z1.1 F1800.0
G1 X22.71 Y-18.26 Z1.1 F1800.0
G1 X23.5 Y-19.15 Z1.1 F1800.0
G1 X24.1 Y-20.18 Z1.1 F1800.0
G1 X24.47 Y-21.31 Z1.1 F1800.0
G1 X24.59 Y-22.49 Z1.1 F1800.0
G1 X24.47 Y-23.68 Z1.1 F1800.0
G1 X24.1 Y-24.81 Z1.1 F1800.0
G1 X23.5 Y-25.84 Z1.1 F1800.0
G1 X22.71 Y-26.72 Z1.1 F1800.0
G1 X21.74 Y-27.42 Z1.1 F1800.0
G1 X20.66 Y-27.91 Z1.1 F1800.0
G1 X19.49 Y-28.15 Z1.1 F1800.0
G1 X18.3 Y-28.15 Z1.1 F1800.0
G1 X17.14 Y-27.91 Z1.1 F1800.0
G1 X16.05 Y-27.42 Z1.1 F1800.0
G1 X15.09 Y-26.72 Z1.1 F1800.0
G1 X14.29 Y-25.84 Z1.1 F1800.0
G1 X13.7 Y-24.81 Z1.1 F1800.0
G1 X13.33 Y-23.68 Z1.1 F1800.0
G1 X13.2 Y-22.49 Z1.1 F1800.0
G1 X13.33 Y-21.31 Z1.1 F1800.0
G1 X13.7 Y-20.18 Z1.1 F1800.0
G1 X14.29 Y-19.15 Z1.1 F1800.0
G1 X15.09 Y-18.26 Z1.1 F1800.0
G1 X15.91 Y-17.66 Z1.1 F1800.0
M108 R30.0
M102
G1 X16.05 Y-17.56 Z1.1 F1800.0
G1 X16.3 Y-17.45 Z1.1 F1800.0
M108 R3.569
M103
(</loop>)
(<loop> inner )
G1 X-16.13 Y-21.22 Z1.1 F3000.0
M108 R30.0
M101
G1 X-16.92 Y-21.31 Z1.1 F3000.0
M108 R3.569
G1 X-16.8 Y-22.49 Z1.1 F1800.0
G1 X-16.92 Y-23.68 Z1.1 F1800.0
G1 X-17.29 Y-24.81 Z1.1 F1800.0
G1 X-17.89 Y-25.84 Z1.1 F1800.0
G1 X-18.68 Y-26.72 Z1.1 F1800.0
G1 X-19.65 Y-27.42 Z1.1 F1800.0
G1 X-20.73 Y-27.91 Z1.1 F1800.0
G1 X-21.9 Y-28.15 Z1.1 F1800.0
G1 X-23.09 Y-28.15 Z1.1 F1800.0
G1 X-24.25 Y-27.91 Z1.1 F1800.0
G1 X-25.34 Y-27.42 Z1.1 F1800.0
G1 X-26.3 Y-26.72 Z1.1 F1800.0
G1 X-27.1 Y-25.84 Z1.1 F1800.0
G1 X-27.69 Y-24.81 Z1.1 F1800.0
G1 X-28.06 Y-23.68 Z1.1 F1800.0
G1 X-28.19 Y-22.49 Z1.1 F1800.0
G1 X-28.06 Y-21.31 Z1.1 F1800.0
G1 X-27.69 Y-20.18 Z1.1 F1800.0
G1 X-27.1 Y-19.15 Z1.1 F1800.0
G1 X-26.3 Y-18.26 Z1.1 F1800.0
G1 X-25.34 Y-17.56 Z1.1 F1800.0
G1 X-24.25 Y-17.08 Z1.1 F1800.0
G1 X-23.09 Y-16.83 Z1.1 F1800.0
G1 X-21.9 Y-16.83 Z1.1 F1800.0
G1 X-20.73 Y-17.08 Z1.1 F1800.0
G1 X-19.65 Y-17.56 Z1.1 F1800.0
G1 X-18.68 Y-18.26 Z1.1 F1800.0
G1 X-17.89 Y-19.15 Z1.1 F1800.0
G1 X-17.29 Y-20.18 Z1.1 F1800.0
G1 X-17.06 Y-20.88 Z1.1 F1800.0
M108 R30.0
M102
G1 X-16.92 Y-21.31 Z1.1 F1800.0
M108 R3.569
M103
(</loop>)
(<loop> inner )
G1 X-21.8 Y12.55 Z1.1 F3000.0
M108 R30.0
M101
G1 X-21.91 Y13.34 Z1.1 F3000.0
M108 R3.569
G1 X-23.08 Y13.34 Z1.1 F1800.0
G1 X-24.22 Y13.58 Z1.1 F1800.0
G1 X-25.29 Y14.06 Z1.1 F1800.0
G1 X-26.23 Y14.74 Z1.1 F1800.0
G1 X-27.01 Y15.61 Z1.1 F1800.0
G1 X-27.6 Y16.62 Z1.1 F1800.0
G1 X-27.96 Y17.74 Z1.1 F1800.0
G1 X-28.08 Y18.9 Z1.1 F1800.0
G1 X-27.96 Y20.06 Z1.1 F1800.0
G1 X-27.6 Y21.17 Z1.1 F1800.0
G1 X-27.01 Y22.18 Z1.1 F1800.0
G1 X-26.23 Y23.05 Z1.1 F1800.0
G1 X-25.29 Y23.74 Z1.1 F1800.0
G1 X-24.22 Y24.21 Z1.1 F1800.0
G1 X-23.08 Y24.45 Z1.1 F1800.0
G1 X-21.91 Y24.45 Z1.1 F1800.0
G1 X-20.77 Y24.21 Z1.1 F1800.0
G1 X-19.7 Y23.74 Z1.1 F1800.0
G1 X-18.75 Y23.05 Z1.1 F1800.0
G1 X-17.97 Y22.18 Z1.1 F1800.0
G1 X-17.39 Y21.17 Z1.1 F1800.0
G1 X-17.03 Y20.06 Z1.1 F1800.0
G1 X-16.91 Y18.9 Z1.1 F1800.0
G1 X-17.03 Y17.74 Z1.1 F1800.0
G1 X-17.39 Y16.62 Z1.1 F1800.0
G1 X-17.97 Y15.61 Z1.1 F1800.0
G1 X-18.75 Y14.74 Z1.1 F1800.0
G1 X-19.7 Y14.06 Z1.1 F1800.0
G1 X-20.77 Y13.58 Z1.1 F1800.0
G1 X-21.47 Y13.43 Z1.1 F1800.0
M108 R30.0
M102
G1 X-21.91 Y13.34 Z1.1 F1800.0
M108 R3.569
M103
(</loop>)
(<loop> outer )
G1 X-13.68 Y13.34 Z1.1 F3000.0
M108 R30.0
M101
G1 X-12.88 Y13.34 Z1.1 F3000.0
M108 R3.569
G1 X-12.88 Y32.1 Z1.1 F1800.0
G1 X-32.1 Y32.1 Z1.1 F1800.0
G1 X-32.1 Y-32.1 Z1.1 F1800.0
G1 X32.1 Y-32.1 Z1.1 F1800.0
G1 X32.1 Y-12.88 Z1.1 F1800.0
G1 X-12.88 Y-12.88 Z1.1 F1800.0
G1 X-12.88 Y13.34 Z1.1 F1800.0
M103
(</loop>)
(<perimeter> outer )
G1 X-12.49 Y13.34 Z1.1 F3000.0
M101
G1 X-12.49 Y32.5 Z1.1 F1800.0
G1 X-32.5 Y32.5 Z1.1 F1800.0
G1 X-32.5 Y-32.5 Z1.1 F1800.0
G1 X32.5 Y-32.5 Z1.1 F1800.0
G1 X32.5 Y-12.49 Z1.1 F1800.0
G1 X-12.49 Y-12.49 Z1.1 F1800.0
G1 X-12.49 Y12.89 Z1.1 F1800.0
M108 R30.0
M102
G1 X-12.49 Y13.34 Z1.1 F1800.0
M108 R3.569
M103
(</perimeter>)
(</boundaryPerimeter>)
(<surroundingLoop>)
(<boundaryPerimeter>)
(<boundaryPoint> X-17.929 Y16.865 Z1.1 </boundaryPoint>)
(<boundaryPoint> X-18.452 Y15.96 Z1.1 </boundaryPoint>)
(<boundaryPoint> X-19.15 Y15.184 Z1.1 </boundaryPoint>)
(<boundaryPoint> X-19.995 Y14.57 Z1.1 </boundaryPoint>)
(<boundaryPoint> X-20.949 Y14.146 Z1.1 </boundaryPoint>)
(<boundaryPoint> X-21.971 Y13.929 Z1.1 </boundaryPoint>)
(<boundaryPoint> X-23.015 Y13.929 Z1.1 </boundaryPoint>)
(<boundaryPoint> X-24.037 Y14.146 Z1.1 </boundaryPoint>)
(<boundaryPoint> X-24.991 Y14.57 Z1.1 </boundaryPoint>)
(<boundaryPoint> X-25.835 Y15.184 Z1.1 </boundaryPoint>)
(<boundaryPoint> X-26.534 Y15.96 Z1.1 </boundaryPoint>)
(<boundaryPoint> X-27.056 Y16.865 Z1.1 </boundaryPoint>)
(<boundaryPoint> X-27.379 Y17.858 Z1.1 </boundaryPoint>)
(<boundaryPoint> X-27.488 Y18.897 Z1.1 </boundaryPoint>)
(<boundaryPoint> X-27.379 Y19.935 Z1.1 </boundaryPoint>)
(<boundaryPoint> X-27.056 Y20.928 Z1.1 </boundaryPoint>)
(<boundaryPoint> X-26.534 Y21.833 Z1.1 </boundaryPoint>)
(<boundaryPoint> X-25.835 Y22.609 Z1.1 </boundaryPoint>)
(<boundaryPoint> X-24.991 Y23.223 Z1.1 </boundaryPoint>)
(<boundaryPoint> X-24.037 Y23.647 Z1.1 </boundaryPoint>)
(<boundaryPoint> X-23.015 Y23.864 Z1.1 </boundaryPoint>)
(<boundaryPoint> X-21.971 Y23.864 Z1.1 </boundaryPoint>)
(<boundaryPoint> X-20.949 Y23.647 Z1.1 </boundaryPoint>)
(<boundaryPoint> X-19.995 Y23.223 Z1.1 </boundaryPoint>)
(<boundaryPoint> X-19.15 Y22.609 Z1.1 </boundaryPoint>)
(<boundaryPoint> X-18.452 Y21.833 Z1.1 </boundaryPoint>)
(<boundaryPoint> X-17.929 Y20.928 Z1.1 </boundaryPoint>)
(<boundaryPoint> X-17.607 Y19.935 Z1.1 </boundaryPoint>)
(<boundaryPoint> X-17.498 Y18.897 Z1.1 </boundaryPoint>)
(<boundaryPoint> X-17.607 Y17.858 Z1.1 </boundaryPoint>)
(<perimeter> inner )
G1 X-17.23 Y16.08 Z1.1 F3000.0
M108 R30.0
M101
G1 X-17.92 Y16.48 Z1.1 F3000.0
M108 R3.569
G1 X-18.29 Y15.84 Z1.1 F1800.0
G1 X-19.02 Y15.04 Z1.1 F1800.0
G1 X-19.9 Y14.4 Z1.1 F1800.0
G1 X-20.89 Y13.96 Z1.1 F1800.0
G1 X-21.95 Y13.73 Z1.1 F1800.0
G1 X-23.04 Y13.73 Z1.1 F1800.0
G1 X-24.1 Y13.96 Z1.1 F1800.0
G1 X-25.09 Y14.4 Z1.1 F1800.0
G1 X-25.97 Y15.04 Z1.1 F1800.0
G1 X-26.69 Y15.84 Z1.1 F1800.0
G1 X-27.24 Y16.79 Z1.1 F1800.0
G1 X-27.57 Y17.82 Z1.1 F1800.0
G1 X-27.69 Y18.9 Z1.1 F1800.0
G1 X-27.57 Y19.98 Z1.1 F1800.0
G1 X-27.24 Y21.01 Z1.1 F1800.0
G1 X-26.69 Y21.95 Z1.1 F1800.0
G1 X-25.97 Y22.76 Z1.1 F1800.0
G1 X-25.09 Y23.39 Z1.1 F1800.0
G1 X-24.1 Y23.84 Z1.1 F1800.0
G1 X-23.04 Y24.06 Z1.1 F1800.0
G1 X-21.95 Y24.06 Z1.1 F1800.0
G1 X-20.89 Y23.84 Z1.1 F1800.0
G1 X-19.9 Y23.39 Z1.1 F1800.0
G1 X-19.02 Y22.76 Z1.1 F1800.0
G1 X-18.29 Y21.95 Z1.1 F1800.0
G1 X-17.75 Y21.01 Z1.1 F1800.0
G1 X-17.41 Y19.98 Z1.1 F1800.0
G1 X-17.3 Y18.9 Z1.1 F1800.0
G1 X-17.41 Y17.82 Z1.1 F1800.0
G1 X-17.72 Y16.88 Z1.1 F1800.0
M108 R30.0
M102
G1 X-17.75 Y16.79 Z1.1 F1800.0
G1 X-17.92 Y16.48 Z1.1 F1800.0
M108 R3.569
M103
(</perimeter>)
(</boundaryPerimeter>)
(</surroundingLoop>)
(<surroundingLoop>)
(<boundaryPerimeter>)
(<boundaryPoint> X-26.619 Y-19.495 Z1.1 </boundaryPoint>)
(<boundaryPoint> X-25.905 Y-18.703 Z1.1 </boundaryPoint>)
(<boundaryPoint> X-25.043 Y-18.076 Z1.1 </boundaryPoint>)
(<boundaryPoint> X-24.069 Y-17.643 Z1.1 </boundaryPoint>)
(<boundaryPoint> X-23.026 Y-17.421 Z1.1 </boundaryPoint>)
(<boundaryPoint> X-21.96 Y-17.421 Z1.1 </boundaryPoint>)
(<boundaryPoint> X-20.917 Y-17.643 Z1.1 </boundaryPoint>)
(<boundaryPoint> X-19.943 Y-18.076 Z1.1 </boundaryPoint>)
(<boundaryPoint> X-19.08 Y-18.703 Z1.1 </boundaryPoint>)
(<boundaryPoint> X-18.367 Y-19.495 Z1.1 </boundaryPoint>)
(<boundaryPoint> X-17.834 Y-20.419 Z1.1 </boundaryPoint>)
(<boundaryPoint> X-17.504 Y-21.433 Z1.1 </boundaryPoint>)
(<boundaryPoint> X-17.393 Y-22.493 Z1.1 </boundaryPoint>)
(<boundaryPoint> X-17.504 Y-23.553 Z1.1 </boundaryPoint>)
(<boundaryPoint> X-17.834 Y-24.567 Z1.1 </boundaryPoint>)
(<boundaryPoint> X-18.367 Y-25.491 Z1.1 </boundaryPoint>)
(<boundaryPoint> X-19.08 Y-26.283 Z1.1 </boundaryPoint>)
(<boundaryPoint> X-19.943 Y-26.91 Z1.1 </boundaryPoint>)
(<boundaryPoint> X-20.917 Y-27.343 Z1.1 </boundaryPoint>)
(<boundaryPoint> X-21.96 Y-27.565 Z1.1 </boundaryPoint>)
(<boundaryPoint> X-23.026 Y-27.565 Z1.1 </boundaryPoint>)
(<boundaryPoint> X-24.069 Y-27.343 Z1.1 </boundaryPoint>)
(<boundaryPoint> X-25.043 Y-26.91 Z1.1 </boundaryPoint>)
(<boundaryPoint> X-25.905 Y-26.283 Z1.1 </boundaryPoint>)
(<boundaryPoint> X-26.619 Y-25.491 Z1.1 </boundaryPoint>)
(<boundaryPoint> X-27.152 Y-24.567 Z1.1 </boundaryPoint>)
(<boundaryPoint> X-27.481 Y-23.553 Z1.1 </boundaryPoint>)
(<boundaryPoint> X-27.593 Y-22.493 Z1.1 </boundaryPoint>)
(<boundaryPoint> X-27.481 Y-21.433 Z1.1 </boundaryPoint>)
(<boundaryPoint> X-27.152 Y-20.419 Z1.1 </boundaryPoint>)
(<perimeter> inner )
G1 X-21.84 Y-16.43 Z1.1 F3000.0
M108 R30.0
M101
G1 X-21.94 Y-17.23 Z1.1 F3000.0
M108 R3.569
G1 X-20.86 Y-17.45 Z1.1 F1800.0
G1 X-19.84 Y-17.91 Z1.1 F1800.0
G1 X-18.95 Y-18.56 Z1.1 F1800.0
G1 X-18.21 Y-19.38 Z1.1 F1800.0
G1 X-17.65 Y-20.34 Z1.1 F1800.0
G1 X-17.31 Y-21.39 Z1.1 F1800.0
G1 X-17.2 Y-22.49 Z1.1 F1800.0
G1 X-17.31 Y-23.59 Z1.1 F1800.0
G1 X-17.65 Y-24.65 Z1.1 F1800.0
G1 X-18.21 Y-25.61 Z1.1 F1800.0
G1 X-18.95 Y-26.43 Z1.1 F1800.0
G1 X-19.84 Y-27.08 Z1.1 F1800.0
G1 X-20.86 Y-27.53 Z1.1 F1800.0
G1 X-21.94 Y-27.76 Z1.1 F1800.0
G1 X-23.05 Y-27.76 Z1.1 F1800.0
G1 X-24.13 Y-27.53 Z1.1 F1800.0
G1 X-25.14 Y-27.08 Z1.1 F1800.0
G1 X-26.04 Y-26.43 Z1.1 F1800.0
G1 X-26.78 Y-25.61 Z1.1 F1800.0
G1 X-27.33 Y-24.65 Z1.1 F1800.0
G1 X-27.67 Y-23.59 Z1.1 F1800.0
G1 X-27.79 Y-22.49 Z1.1 F1800.0
G1 X-27.67 Y-21.39 Z1.1 F1800.0
G1 X-27.33 Y-20.34 Z1.1 F1800.0
G1 X-26.78 Y-19.38 Z1.1 F1800.0
G1 X-26.04 Y-18.56 Z1.1 F1800.0
G1 X-25.14 Y-17.91 Z1.1 F1800.0
G1 X-24.13 Y-17.45 Z1.1 F1800.0
G1 X-23.05 Y-17.23 Z1.1 F1800.0
G1 X-22.39 Y-17.23 Z1.1 F1800.0
M108 R30.0
M102
G1 X-21.94 Y-17.23 Z1.1 F1800.0
M108 R3.569
M103
(</perimeter>)
(</boundaryPerimeter>)
(</surroundingLoop>)
(<surroundingLoop>)
(<boundaryPerimeter>)
(<boundaryPoint> X14.771 Y-19.495 Z1.1 </boundaryPoint>)
(<boundaryPoint> X15.484 Y-18.703 Z1.1 </boundaryPoint>)
(<boundaryPoint> X16.346 Y-18.076 Z1.1 </boundaryPoint>)
(<boundaryPoint> X17.321 Y-17.643 Z1.1 </boundaryPoint>)
(<boundaryPoint> X18.363 Y-17.421 Z1.1 </boundaryPoint>)
(<boundaryPoint> X19.43 Y-17.421 Z1.1 </boundaryPoint>)
(<boundaryPoint> X20.473 Y-17.643 Z1.1 </boundaryPoint>)
(<boundaryPoint> X21.447 Y-18.076 Z1.1 </boundaryPoint>)
(<boundaryPoint> X22.309 Y-18.703 Z1.1 </boundaryPoint>)
(<boundaryPoint> X23.023 Y-19.495 Z1.1 </boundaryPoint>)
(<boundaryPoint> X23.556 Y-20.419 Z1.1 </boundaryPoint>)
(<boundaryPoint> X23.885 Y-21.433 Z1.1 </boundaryPoint>)
(<boundaryPoint> X23.997 Y-22.493 Z1.1 </boundaryPoint>)
(<boundaryPoint> X23.885 Y-23.553 Z1.1 </boundaryPoint>)
(<boundaryPoint> X23.556 Y-24.567 Z1.1 </boundaryPoint>)
(<boundaryPoint> X23.023 Y-25.491 Z1.1 </boundaryPoint>)
(<boundaryPoint> X22.309 Y-26.283 Z1.1 </boundaryPoint>)
(<boundaryPoint> X21.447 Y-26.91 Z1.1 </boundaryPoint>)
(<boundaryPoint> X20.473 Y-27.343 Z1.1 </boundaryPoint>)
(<boundaryPoint> X19.43 Y-27.565 Z1.1 </boundaryPoint>)
(<boundaryPoint> X18.363 Y-27.565 Z1.1 </boundaryPoint>)
(<boundaryPoint> X17.321 Y-27.343 Z1.1 </boundaryPoint>)
(<boundaryPoint> X16.346 Y-26.91 Z1.1 </boundaryPoint>)
(<boundaryPoint> X15.484 Y-26.283 Z1.1 </boundaryPoint>)
(<boundaryPoint> X14.771 Y-25.491 Z1.1 </boundaryPoint>)
(<boundaryPoint> X14.237 Y-24.567 Z1.1 </boundaryPoint>)
(<boundaryPoint> X13.908 Y-23.553 Z1.1 </boundaryPoint>)
(<boundaryPoint> X13.797 Y-22.493 Z1.1 </boundaryPoint>)
(<boundaryPoint> X13.908 Y-21.433 Z1.1 </boundaryPoint>)
(<boundaryPoint> X14.237 Y-20.419 Z1.1 </boundaryPoint>)
(<perimeter> inner )
G1 X12.92 Y-21.3 Z1.1 F3000.0
M108 R30.0
M101
G1 X13.72 Y-21.39 Z1.1 F3000.0
M108 R3.569
G1 X14.06 Y-20.34 Z1.1 F1800.0
G1 X14.61 Y-19.38 Z1.1 F1800.0
G1 X15.35 Y-18.56 Z1.1 F1800.0
G1 X16.25 Y-17.91 Z1.1 F1800.0
G1 X17.26 Y-17.45 Z1.1 F1800.0
G1 X18.34 Y-17.23 Z1.1 F1800.0
G1 X19.45 Y-17.23 Z1.1 F1800.0
G1 X20.53 Y-17.45 Z1.1 F1800.0
G1 X21.55 Y-17.91 Z1.1 F1800.0
G1 X22.44 Y-18.56 Z1.1 F1800.0
G1 X23.18 Y-19.38 Z1.1 F1800.0
G1 X23.74 Y-20.34 Z1.1 F1800.0
G1 X24.08 Y-21.39 Z1.1 F1800.0
G1 X24.2 Y-22.49 Z1.1 F1800.0
G1 X24.08 Y-23.59 Z1.1 F1800.0
G1 X23.74 Y-24.65 Z1.1 F1800.0
G1 X23.18 Y-25.61 Z1.1 F1800.0
G1 X22.44 Y-26.43 Z1.1 F1800.0
G1 X21.55 Y-27.08 Z1.1 F1800.0
G1 X20.53 Y-27.53 Z1.1 F1800.0
G1 X19.45 Y-27.76 Z1.1 F1800.0
G1 X18.34 Y-27.76 Z1.1 F1800.0
G1 X17.26 Y-27.53 Z1.1 F1800.0
G1 X16.25 Y-27.08 Z1.1 F1800.0
G1 X15.35 Y-26.43 Z1.1 F1800.0
G1 X14.61 Y-25.61 Z1.1 F1800.0
G1 X14.06 Y-24.65 Z1.1 F1800.0
G1 X13.72 Y-23.59 Z1.1 F1800.0
G1 X13.6 Y-22.49 Z1.1 F1800.0
G1 X13.67 Y-21.84 Z1.1 F1800.0
M108 R30.0
M102
G1 X13.72 Y-21.39 Z1.1 F1800.0
M108 R3.569
M103
(</perimeter>)
(</boundaryPerimeter>)
(</surroundingLoop>)
G1 X14.33 Y-13.94 Z1.1 F3000.0
M108 R30.0
M101
G1 X14.4 Y-13.14 Z1.1 F3000.0
M108 R3.569
G1 X14.3 Y-14.31 Z1.1 F1800.0
G1 X16.25 Y-16.24 Z1.1 F1800.0
G1 X16.25 Y-16.49 Z1.1 F1800.0
G1 X15.71 Y-17.5 Z1.1 F1800.0
G1 X14.84 Y-18.16 Z1.1 F1800.0
G1 X14.25 Y-18.86 Z1.1 F1800.0
M108 R30.0
M102
G1 X13.96 Y-19.21 Z1.1 F1800.0
M108 R3.569
M103
G1 X15.55 Y-17.78 Z1.1 F3000.0
M108 R30.0
M101
G1 X16.14 Y-17.24 Z1.1 F3000.0
M108 R3.569
G1 X17.02 Y-16.85 Z1.1 F1800.0
G1 X17.35 Y-16.33 Z1.1 F1800.0
G1 X16.48 Y-16.49 Z1.1 F1800.0
G1 X16.48 Y-16.24 Z1.1 F1800.0
G1 X18.43 Y-14.31 Z1.1 F1800.0
G1 X18.43 Y-14.05 Z1.1 F1800.0
G1 X17.45 Y-13.14 Z1.1 F1800.0
G1 X17.02 Y-13.57 Z1.1 F1800.0
G1 X16.9 Y-13.46 Z1.1 F1800.0
M108 R30.0
M102
G1 X16.58 Y-13.14 Z1.1 F1800.0
M108 R3.569
M103
G1 X17.96 Y-13.14 Z1.1 F3000.0
M108 R30.0
M101
G1 X18.76 Y-13.14 Z1.1 F3000.0
M108 R3.569
G1 X18.66 Y-14.31 Z1.1 F1800.0
G1 X20.61 Y-16.24 Z1.1 F1800.0
G1 X20.61 Y-16.49 Z1.1 F1800.0
G1 X20.51 Y-16.79 Z1.1 F1800.0
G1 X20.07 Y-16.69 Z1.1 F1800.0
G1 X19.92 Y-16.29 Z1.1 F1800.0
G1 X19.2 Y-16.58 Z1.1 F1800.0
G1 X18.78 Y-16.58 Z1.1 F1800.0
M108 R30.0
M102
G1 X18.33 Y-16.58 Z1.1 F1800.0
M108 R3.569
M103
G1 X20.15 Y-16.82 Z1.1 F3000.0
M108 R30.0
M101
G1 X20.94 Y-16.93 Z1.1 F3000.0
M108 R3.569
G1 X20.84 Y-16.49 Z1.1 F1800.0
G1 X20.84 Y-16.24 Z1.1 F1800.0
G1 X22.79 Y-14.31 Z1.1 F1800.0
G1 X22.79 Y-14.05 Z1.1 F1800.0
G1 X21.82 Y-13.14 Z1.1 F1800.0
G1 X21.38 Y-13.57 Z1.1 F1800.0
G1 X21.26 Y-13.46 Z1.1 F1800.0
M108 R30.0
M102
G1 X20.94 Y-13.14 Z1.1 F1800.0
M108 R3.569
M103
G1 X22.33 Y-13.14 Z1.1 F3000.0
M108 R30.0
M101
G1 X23.13 Y-13.14 Z1.1 F3000.0
M108 R3.569
G1 X23.02 Y-14.31 Z1.1 F1800.0
G1 X24.97 Y-16.24 Z1.1 F1800.0
G1 X24.97 Y-16.49 Z1.1 F1800.0
G1 X24.36 Y-19.26 Z1.1 F1800.0
G1 X23.56 Y-18.83 Z1.1 F1800.0
G1 X22.69 Y-17.93 Z1.1 F1800.0
G1 X21.82 Y-17.32 Z1.1 F1800.0
G1 X21.79 Y-17.31 Z1.1 F1800.0
M108 R30.0
M102
G1 X21.38 Y-17.12 Z1.1 F1800.0
M108 R3.569
M103
G1 X24.75 Y-13.71 Z1.1 F3000.0
M108 R30.0
M101
G1 X25.31 Y-13.14 Z1.1 F3000.0
M108 R3.569
G1 X25.74 Y-13.57 Z1.1 F1800.0
G1 X26.18 Y-13.14 Z1.1 F1800.0
G1 X27.16 Y-14.05 Z1.1 F1800.0
G1 X27.16 Y-14.31 Z1.1 F1800.0
G1 X25.2 Y-16.24 Z1.1 F1800.0
G1 X25.2 Y-16.49 Z1.1 F1800.0
G1 X27.16 Y-18.42 Z1.1 F1800.0
G1 X27.16 Y-18.67 Z1.1 F1800.0
G1 X24.44 Y-20.39 Z1.1 F1800.0
G1 X25.09 Y-20.6 Z1.1 F1800.0
G1 X25.09 Y-20.85 Z1.1 F1800.0
G1 X27.16 Y-22.78 Z1.1 F1800.0
G1 X27.16 Y-23.04 Z1.1 F1800.0
G1 X24.44 Y-24.6 Z1.1 F1800.0
G1 X25.09 Y-24.96 Z1.1 F1800.0
G1 X25.09 Y-25.22 Z1.1 F1800.0
G1 X27.16 Y-27.14 Z1.1 F1800.0
G1 X27.16 Y-27.4 Z1.1 F1800.0
G1 X25.09 Y-29.33 Z1.1 F1800.0
G1 X25.09 Y-29.58 Z1.1 F1800.0
G1 X26.62 Y-31.85 Z1.1 F1800.0
G1 X22.69 Y-31.85 Z1.1 F1800.0
G1 X22.91 Y-27.14 Z1.1 F1800.0
G1 X22.69 Y-27.05 Z1.1 F1800.0
G1 X23.25 Y-26.48 Z1.1 F1800.0
M108 R30.0
M102
G1 X23.56 Y-26.16 Z1.1 F1800.0
M108 R3.569
M103
G1 X22.42 Y-27.15 Z1.1 F3000.0
M108 R30.0
M101
G1 X21.82 Y-27.67 Z1.1 F3000.0
M108 R3.569
G1 X20.94 Y-28.06 Z1.1 F1800.0
G1 X20.64 Y-28.61 Z1.1 F1800.0
G1 X20.84 Y-29.33 Z1.1 F1800.0
G1 X20.84 Y-29.58 Z1.1 F1800.0
G1 X22.25 Y-31.85 Z1.1 F1800.0
G1 X18.33 Y-31.85 Z1.1 F1800.0
G1 X20.61 Y-29.58 Z1.1 F1800.0
G1 X20.61 Y-29.33 Z1.1 F1800.0
G1 X20.07 Y-28.29 Z1.1 F1800.0
G1 X19.64 Y-28.39 Z1.1 F1800.0
G1 X18.78 Y-28.4 Z1.1 F1800.0
M108 R30.0
M102
G1 X18.33 Y-28.41 Z1.1 F1800.0
M108 R3.569
M103
G1 X17.35 Y-28.15 Z1.1 F3000.0
M108 R30.0
M101
G1 X16.58 Y-27.94 Z1.1 F3000.0
M108 R3.569
G1 X16.84 Y-28.53 Z1.1 F1800.0
G1 X16.48 Y-29.33 Z1.1 F1800.0
G1 X16.48 Y-29.58 Z1.1 F1800.0
G1 X17.89 Y-31.85 Z1.1 F1800.0
G1 X13.96 Y-31.85 Z1.1 F1800.0
G1 X16.25 Y-29.58 Z1.1 F1800.0
G1 X16.14 Y-27.75 Z1.1 F1800.0
G1 X14.84 Y-26.83 Z1.1 F1800.0
G1 X14.7 Y-26.68 Z1.1 F1800.0
M108 R30.0
M102
G1 X14.4 Y-26.34 Z1.1 F1800.0
M108 R3.569
M103
G1 X12.12 Y-31.13 Z1.1 F3000.0
M108 R30.0
M101
G1 X11.78 Y-31.85 Z1.1 F3000.0
M108 R3.569
G1 X13.53 Y-31.85 Z1.1 F1800.0
G1 X12.11 Y-29.58 Z1.1 F1800.0
G1 X12.11 Y-24.96 Z1.1 F1800.0
G1 X13.09 Y-23.77 Z1.1 F1800.0
G1 X12.75 Y-23.49 Z1.1 F1800.0
G1 X12.11 Y-16.24 Z1.1 F1800.0
G1 X14.07 Y-14.31 Z1.1 F1800.0
G1 X14.07 Y-14.05 Z1.1 F1800.0
G1 X13.09 Y-13.14 Z1.1 F1800.0
G1 X12.65 Y-13.57 Z1.1 F1800.0
G1 X12.54 Y-13.46 Z1.1 F1800.0
M108 R30.0
M102
G1 X12.22 Y-13.14 Z1.1 F1800.0
M108 R3.569
M103
G1 X10.84 Y-13.14 Z1.1 F3000.0
M108 R30.0
M101
G1 X10.04 Y-13.14 Z1.1 F3000.0
M108 R3.569
G1 X9.93 Y-14.31 Z1.1 F1800.0
G1 X11.88 Y-16.24 Z1.1 F1800.0
G1 X11.88 Y-16.49 Z1.1 F1800.0
G1 X9.93 Y-18.42 Z1.1 F1800.0
G1 X9.93 Y-23.04 Z1.1 F1800.0
G1 X11.88 Y-24.96 Z1.1 F1800.0
G1 X11.88 Y-25.22 Z1.1 F1800.0
G1 X9.93 Y-27.14 Z1.1 F1800.0
G1 X9.93 Y-27.4 Z1.1 F1800.0
G1 X11.88 Y-29.33 Z1.1 F1800.0
G1 X11.88 Y-29.58 Z1.1 F1800.0
G1 X11.35 Y-31.85 Z1.1 F1800.0
G1 X7.42 Y-31.85 Z1.1 F1800.0
G1 X7.75 Y-29.33 Z1.1 F1800.0
G1 X9.7 Y-27.4 Z1.1 F1800.0
G1 X9.7 Y-27.14 Z1.1 F1800.0
G1 X7.75 Y-25.22 Z1.1 F1800.0
G1 X7.75 Y-24.96 Z1.1 F1800.0
G1 X9.7 Y-23.04 Z1.1 F1800.0
G1 X9.7 Y-22.78 Z1.1 F1800.0
G1 X7.75 Y-20.85 Z1.1 F1800.0
G1 X7.75 Y-20.6 Z1.1 F1800.0
G1 X9.7 Y-18.67 Z1.1 F1800.0
G1 X9.7 Y-18.42 Z1.1 F1800.0
G1 X7.75 Y-16.49 Z1.1 F1800.0
G1 X7.75 Y-16.24 Z1.1 F1800.0
G1 X9.7 Y-14.31 Z1.1 F1800.0
G1 X9.7 Y-14.05 Z1.1 F1800.0
G1 X8.73 Y-13.14 Z1.1 F1800.0
G1 X8.29 Y-13.57 Z1.1 F1800.0
G1 X8.17 Y-13.46 Z1.1 F1800.0
M108 R30.0
M102
G1 X7.85 Y-13.14 Z1.1 F1800.0
M108 R3.569
M103
G1 X6.47 Y-13.14 Z1.1 F3000.0
M108 R30.0
M101
G1 X5.67 Y-13.14 Z1.1 F3000.0
M108 R3.569
G1 X5.57 Y-14.31 Z1.1 F1800.0
G1 X7.52 Y-16.24 Z1.1 F1800.0
G1 X7.52 Y-16.49 Z1.1 F1800.0
G1 X5.45 Y-18.42 Z1.1 F1800.0
G1 X5.45 Y-18.67 Z1.1 F1800.0
G1 X7.52 Y-20.6 Z1.1 F1800.0
G1 X7.52 Y-20.85 Z1.1 F1800.0
G1 X5.45 Y-22.78 Z1.1 F1800.0
G1 X5.45 Y-23.04 Z1.1 F1800.0
G1 X7.52 Y-24.96 Z1.1 F1800.0
G1 X7.52 Y-25.22 Z1.1 F1800.0
G1 X5.45 Y-27.14 Z1.1 F1800.0
G1 X5.45 Y-27.4 Z1.1 F1800.0
G1 X7.52 Y-29.33 Z1.1 F1800.0
G1 X7.52 Y-29.58 Z1.1 F1800.0
G1 X6.98 Y-31.85 Z1.1 F1800.0
G1 X3.05 Y-31.85 Z1.1 F1800.0
G1 X3.39 Y-29.58 Z1.1 F1800.0
G1 X3.39 Y-16.24 Z1.1 F1800.0
G1 X5.34 Y-14.31 Z1.1 F1800.0
G1 X5.34 Y-14.05 Z1.1 F1800.0
G1 X4.36 Y-13.14 Z1.1 F1800.0
G1 X3.93 Y-13.57 Z1.1 F1800.0
G1 X3.81 Y-13.46 Z1.1 F1800.0
M108 R30.0
M102
G1 X3.49 Y-13.14 Z1.1 F1800.0
M108 R3.569
M103
G1 X2.11 Y-13.14 Z1.1 F3000.0
M108 R30.0
M101
G1 X1.31 Y-13.14 Z1.1 F3000.0
M108 R3.569
G1 X1.21 Y-14.31 Z1.1 F1800.0
G1 X3.16 Y-16.24 Z1.1 F1800.0
G1 X3.16 Y-16.49 Z1.1 F1800.0
G1 X1.21 Y-18.42 Z1.1 F1800.0
G1 X1.21 Y-18.67 Z1.1 F1800.0
G1 X3.16 Y-20.6 Z1.1 F1800.0
G1 X3.16 Y-20.85 Z1.1 F1800.0
G1 X1.21 Y-22.78 Z1.1 F1800.0
G1 X1.21 Y-23.04 Z1.1 F1800.0
G1 X3.16 Y-24.96 Z1.1 F1800.0
G1 X3.16 Y-25.22 Z1.1 F1800.0
G1 X1.21 Y-27.14 Z1.1 F1800.0
G1 X1.21 Y-27.4 Z1.1 F1800.0
G1 X3.16 Y-29.33 Z1.1 F1800.0
G1 X3.16 Y-29.58 Z1.1 F1800.0
G1 X2.62 Y-31.85 Z1.1 F1800.0
G1 X-1.31 Y-31.85 Z1.1 F1800.0
G1 X-0.98 Y-29.33 Z1.1 F1800.0
G1 X0.98 Y-27.4 Z1.1 F1800.0
G1 X0.98 Y-27.14 Z1.1 F1800.0
G1 X-0.98 Y-25.22 Z1.1 F1800.0
G1 X-0.98 Y-24.96 Z1.1 F1800.0
G1 X0.98 Y-23.04 Z1.1 F1800.0
G1 X0.98 Y-22.78 Z1.1 F1800.0
G1 X-0.98 Y-20.85 Z1.1 F1800.0
G1 X-0.98 Y-20.6 Z1.1 F1800.0
G1 X0.98 Y-18.67 Z1.1 F1800.0
G1 X0.98 Y-18.42 Z1.1 F1800.0
G1 X-0.98 Y-16.49 Z1.1 F1800.0
G1 X-0.98 Y-16.24 Z1.1 F1800.0
G1 X0.98 Y-14.31 Z1.1 F1800.0
G1 X0.98 Y-14.05 Z1.1 F1800.0
G1 X-0.0 Y-13.14 Z1.1 F1800.0
G1 X-0.44 Y-13.57 Z1.1 F1800.0
G1 X-0.55 Y-13.46 Z1.1 F1800.0
M108 R30.0
M102
G1 X-0.87 Y-13.14 Z1.1 F1800.0
M108 R3.569
M103
G1 X-2.25 Y-13.14 Z1.1 F3000.0
M108 R30.0
M101
G1 X-3.05 Y-13.14 Z1.1 F3000.0
M108 R3.569
G1 X-3.16 Y-14.31 Z1.1 F1800.0
G1 X-1.21 Y-16.24 Z1.1 F1800.0
G1 X-1.21 Y-16.49 Z1.1 F1800.0
G1 X-3.16 Y-18.42 Z1.1 F1800.0
G1 X-3.16 Y-18.67 Z1.1 F1800.0
G1 X-1.21 Y-20.6 Z1.1 F1800.0
G1 X-1.21 Y-20.85 Z1.1 F1800.0
G1 X-3.16 Y-22.78 Z1.1 F1800.0
G1 X-3.16 Y-23.04 Z1.1 F1800.0
G1 X-1.21 Y-24.96 Z1.1 F1800.0
G1 X-1.21 Y-25.22 Z1.1 F1800.0
G1 X-3.16 Y-27.14 Z1.1 F1800.0
G1 X-3.16 Y-27.4 Z1.1 F1800.0
G1 X-1.21 Y-29.33 Z1.1 F1800.0
G1 X-1.21 Y-29.58 Z1.1 F1800.0
G1 X-1.75 Y-31.85 Z1.1 F1800.0
G1 X-5.24 Y-31.85 Z1.1 F1800.0
G1 X-5.34 Y-29.33 Z1.1 F1800.0
G1 X-3.39 Y-27.4 Z1.1 F1800.0
G1 X-3.39 Y-27.14 Z1.1 F1800.0
G1 X-5.34 Y-25.22 Z1.1 F1800.0
G1 X-5.34 Y-24.96 Z1.1 F1800.0
G1 X-3.39 Y-23.04 Z1.1 F1800.0
G1 X-3.39 Y-22.78 Z1.1 F1800.0
G1 X-5.34 Y-20.85 Z1.1 F1800.0
G1 X-5.34 Y-20.6 Z1.1 F1800.0
G1 X-3.39 Y-18.67 Z1.1 F1800.0
G1 X-3.39 Y-18.42 Z1.1 F1800.0
G1 X-5.34 Y-16.49 Z1.1 F1800.0
G1 X-5.34 Y-16.24 Z1.1 F1800.0
G1 X-3.39 Y-14.31 Z1.1 F1800.0
G1 X-3.39 Y-14.05 Z1.1 F1800.0
G1 X-4.36 Y-13.14 Z1.1 F1800.0
G1 X-4.8 Y-13.57 Z1.1 F1800.0
G1 X-4.92 Y-13.46 Z1.1 F1800.0
M108 R30.0
M102
G1 X-5.24 Y-13.14 Z1.1 F1800.0
M108 R3.569
M103
G1 X-6.62 Y-13.14 Z1.1 F3000.0
M108 R30.0
M101
G1 X-7.42 Y-13.14 Z1.1 F3000.0
M108 R3.569
G1 X-7.52 Y-14.31 Z1.1 F1800.0
G1 X-5.57 Y-16.24 Z1.1 F1800.0
G1 X-5.57 Y-16.49 Z1.1 F1800.0
G1 X-7.52 Y-18.42 Z1.1 F1800.0
G1 X-7.52 Y-18.67 Z1.1 F1800.0
G1 X-5.57 Y-20.6 Z1.1 F1800.0
G1 X-5.57 Y-20.85 Z1.1 F1800.0
G1 X-7.52 Y-22.78 Z1.1 F1800.0
G1 X-7.52 Y-23.04 Z1.1 F1800.0
G1 X-5.57 Y-24.96 Z1.1 F1800.0
G1 X-5.57 Y-25.22 Z1.1 F1800.0
G1 X-7.52 Y-27.14 Z1.1 F1800.0
G1 X-7.52 Y-27.4 Z1.1 F1800.0
G1 X-5.57 Y-29.33 Z1.1 F1800.0
G1 X-5.67 Y-31.85 Z1.1 F1800.0
G1 X-9.6 Y-31.85 Z1.1 F1800.0
G1 X-9.7 Y-29.33 Z1.1 F1800.0
G1 X-7.75 Y-27.4 Z1.1 F1800.0
G1 X-7.75 Y-27.14 Z1.1 F1800.0
G1 X-9.7 Y-25.22 Z1.1 F1800.0
G1 X-9.7 Y-24.96 Z1.1 F1800.0
G1 X-7.75 Y-23.04 Z1.1 F1800.0
G1 X-7.75 Y-22.78 Z1.1 F1800.0
G1 X-9.7 Y-20.85 Z1.1 F1800.0
G1 X-9.7 Y-20.6 Z1.1 F1800.0
G1 X-7.75 Y-18.67 Z1.1 F1800.0
G1 X-7.75 Y-18.42 Z1.1 F1800.0
G1 X-9.7 Y-16.49 Z1.1 F1800.0
G1 X-9.7 Y-16.24 Z1.1 F1800.0
G1 X-7.75 Y-14.31 Z1.1 F1800.0
G1 X-7.75 Y-14.05 Z1.1 F1800.0
G1 X-8.73 Y-13.14 Z1.1 F1800.0
G1 X-9.16 Y-13.57 Z1.1 F1800.0
G1 X-9.28 Y-13.46 Z1.1 F1800.0
M108 R30.0
M102
G1 X-9.6 Y-13.14 Z1.1 F1800.0
M108 R3.569
M103
G1 X-10.98 Y-13.14 Z1.1 F3000.0
M108 R30.0
M101
G1 X-11.78 Y-13.14 Z1.1 F3000.0
M108 R3.569
G1 X-12.22 Y-13.57 Z1.1 F1800.0
G1 X-12.0 Y-14.05 Z1.1 F1800.0
G1 X-12.0 Y-14.31 Z1.1 F1800.0
G1 X-9.93 Y-16.24 Z1.1 F1800.0
G1 X-9.93 Y-16.49 Z1.1 F1800.0
G1 X-11.88 Y-18.42 Z1.1 F1800.0
G1 X-11.88 Y-18.67 Z1.1 F1800.0
G1 X-9.93 Y-20.6 Z1.1 F1800.0
G1 X-9.93 Y-20.85 Z1.1 F1800.0
G1 X-11.88 Y-22.78 Z1.1 F1800.0
G1 X-11.88 Y-23.04 Z1.1 F1800.0
G1 X-9.93 Y-24.96 Z1.1 F1800.0
G1 X-9.93 Y-25.22 Z1.1 F1800.0
G1 X-11.88 Y-27.14 Z1.1 F1800.0
G1 X-11.88 Y-27.4 Z1.1 F1800.0
G1 X-9.93 Y-29.33 Z1.1 F1800.0
G1 X-10.04 Y-31.85 Z1.1 F1800.0
G1 X-13.96 Y-31.85 Z1.1 F1800.0
G1 X-14.07 Y-29.33 Z1.1 F1800.0
G1 X-12.11 Y-27.4 Z1.1 F1800.0
G1 X-12.11 Y-27.14 Z1.1 F1800.0
G1 X-14.07 Y-25.22 Z1.1 F1800.0
G1 X-14.07 Y-24.96 Z1.1 F1800.0
G1 X-12.11 Y-23.04 Z1.1 F1800.0
G1 X-12.11 Y-22.78 Z1.1 F1800.0
G1 X-14.07 Y-20.85 Z1.1 F1800.0
G1 X-14.07 Y-20.6 Z1.1 F1800.0
G1 X-12.11 Y-18.67 Z1.1 F1800.0
G1 X-12.11 Y-18.42 Z1.1 F1800.0
G1 X-14.07 Y-16.49 Z1.1 F1800.0
G1 X-14.07 Y-16.24 Z1.1 F1800.0
G1 X-12.65 Y-13.57 Z1.1 F1800.0
G1 X-13.09 Y-13.14 Z1.1 F1800.0
G1 X-13.51 Y-13.01 Z1.1 F1800.0
G1 X-13.53 Y31.85 Z1.1 F1800.0
G1 X-16.14 Y31.85 Z1.1 F1800.0
G1 X-16.36 Y20.6 Z1.1 F1800.0
G1 X-16.77 Y17.3 Z1.1 F1800.0
G1 X-16.36 Y16.49 Z1.1 F1800.0
G1 X-16.36 Y-14.31 Z1.1 F1800.0
G1 X-14.3 Y-16.24 Z1.1 F1800.0
G1 X-14.3 Y-16.49 Z1.1 F1800.0
G1 X-16.36 Y-18.42 Z1.1 F1800.0
G1 X-16.36 Y-18.67 Z1.1 F1800.0
G1 X-17.02 Y-20.2 Z1.1 F1800.0
G1 X-14.3 Y-20.6 Z1.1 F1800.0
G1 X-14.3 Y-20.85 Z1.1 F1800.0
G1 X-16.58 Y-22.14 Z1.1 F1800.0
G1 X-16.58 Y-22.85 Z1.1 F1800.0
G1 X-16.36 Y-22.78 Z1.1 F1800.0
G1 X-16.61 Y-24.94 Z1.1 F1800.0
G1 X-14.3 Y-24.96 Z1.1 F1800.0
G1 X-14.3 Y-25.22 Z1.1 F1800.0
G1 X-16.25 Y-27.14 Z1.1 F1800.0
G1 X-16.25 Y-27.4 Z1.1 F1800.0
G1 X-14.3 Y-29.33 Z1.1 F1800.0
G1 X-14.4 Y-31.85 Z1.1 F1800.0
G1 X-18.76 Y-31.85 Z1.1 F1800.0
G1 X-18.43 Y-29.33 Z1.1 F1800.0
G1 X-16.48 Y-27.4 Z1.1 F1800.0
G1 X-16.48 Y-27.14 Z1.1 F1800.0
G1 X-17.1 Y-25.85 Z1.1 F1800.0
G1 X-17.89 Y-26.22 Z1.1 F1800.0
G1 X-18.02 Y-26.37 Z1.1 F1800.0
M108 R30.0
M102
G1 X-18.33 Y-26.71 Z1.1 F1800.0
M108 R3.569
M103
G1 X-19.83 Y-27.66 Z1.1 F3000.0
M108 R30.0
M101
G1 X-20.51 Y-28.09 Z1.1 F3000.0
M108 R3.569
G1 X-19.89 Y-28.29 Z1.1 F1800.0
G1 X-19.64 Y-27.7 Z1.1 F1800.0
G1 X-18.76 Y-27.1 Z1.1 F1800.0
G1 X-18.66 Y-29.58 Z1.1 F1800.0
G1 X-19.2 Y-31.85 Z1.1 F1800.0
G1 X-23.13 Y-31.85 Z1.1 F1800.0
G1 X-22.79 Y-29.33 Z1.1 F1800.0
G1 X-21.29 Y-28.73 Z1.1 F1800.0
G1 X-21.82 Y-28.4 Z1.1 F1800.0
G1 X-22.68 Y-28.4 Z1.1 F1800.0
M108 R30.0
M102
G1 X-23.13 Y-28.41 Z1.1 F1800.0
M108 R3.569
M103
G1 X-24.54 Y-27.96 Z1.1 F3000.0
M108 R30.0
M101
G1 X-25.31 Y-27.72 Z1.1 F3000.0
M108 R3.569
G1 X-24.87 Y-27.91 Z1.1 F1800.0
G1 X-24.61 Y-28.5 Z1.1 F1800.0
G1 X-24.0 Y-28.22 Z1.1 F1800.0
G1 X-23.56 Y-28.31 Z1.1 F1800.0
G1 X-23.02 Y-29.33 Z1.1 F1800.0
G1 X-23.02 Y-29.58 Z1.1 F1800.0
G1 X-23.56 Y-31.85 Z1.1 F1800.0
G1 X-27.05 Y-31.85 Z1.1 F1800.0
G1 X-27.16 Y-29.33 Z1.1 F1800.0
G1 X-26.0 Y-27.8 Z1.1 F1800.0
G1 X-26.18 Y-27.13 Z1.1 F1800.0
G1 X-26.62 Y-26.76 Z1.1 F1800.0
G1 X-26.75 Y-26.61 Z1.1 F1800.0
M108 R30.0
M102
G1 X-27.05 Y-26.27 Z1.1 F1800.0
M108 R3.569
M103
G1 X-28.94 Y-31.1 Z1.1 F3000.0
M108 R30.0
M101
G1 X-29.23 Y-31.85 Z1.1 F3000.0
M108 R3.569
G1 X-27.49 Y-31.85 Z1.1 F1800.0
G1 X-27.39 Y-29.33 Z1.1 F1800.0
G1 X-29.34 Y-27.4 Z1.1 F1800.0
G1 X-28.8 Y-23.26 Z1.1 F1800.0
G1 X-28.36 Y-21.73 Z1.1 F1800.0
G1 X-29.34 Y-18.67 Z1.1 F1800.0
G1 X-29.34 Y-18.42 Z1.1 F1800.0
G1 X-27.39 Y-16.49 Z1.1 F1800.0
G1 X-27.39 Y-16.24 Z1.1 F1800.0
G1 X-29.34 Y-14.31 Z1.1 F1800.0
G1 X-29.34 Y-14.05 Z1.1 F1800.0
G1 X-27.39 Y-12.13 Z1.1 F1800.0
G1 X-27.39 Y-11.87 Z1.1 F1800.0
G1 X-29.34 Y-9.95 Z1.1 F1800.0
G1 X-29.34 Y-9.69 Z1.1 F1800.0
G1 X-27.39 Y-7.76 Z1.1 F1800.0
G1 X-27.39 Y-7.51 Z1.1 F1800.0
G1 X-29.34 Y-5.58 Z1.1 F1800.0
G1 X-29.34 Y-5.33 Z1.1 F1800.0
G1 X-27.39 Y-3.4 Z1.1 F1800.0
