(** This GCode was generated by ReplicatorG 0034 **)
(*  using Skeinforge (35)  *)
(*  for a Single headed Thing-O-Matic  *)
(*  on 2012/04/21 13:10:56 (-0400) *)
(<alteration>)
(**** beginning of start.gcode ****)
(This file is for a MakerBot Thing-O-Matic)
(**** begin initialization commands ****)
G21 (set units to mm)
G90 (set positioning to absolute)
M108 R5.0 (set extruder speed)
M103 (Make sure extruder is off)
M104 S225 T0 (set extruder temperature)
M109 S120 T0 (set heated-build-platform temperature)
(**** end initialization commands ****)
(**** begin homing ****)
G162 Z F1000 (home Z axis maximum)
G92 Z10 (set Z to 0)
G1 Z0.0 (move z down 10)
G162 Z F150 (home Z axis maximum)
G161 X Y F2500 (home XY axes minimum)
M132 X Y Z A B (Recall stored home offsets for XYZAB axis)
(**** end homing ****)
(**** begin pre-wipe commands ****)
( Some people have had problems with the nozzle hitting )
( bolts or wipers during this pre-extrusion warmup.     )
( If this happens to you, you can change the values for )
( the X and Y positions in the following code.          )
( The goal is to have the toolhead wipe its initial     )
( extrusion near the edge of the platform, [anchor it]  )
( so as not to have it interfere with the print.        )
( This file can be found in:                            )
( replicatorg/skein_engines/skeinforge-##/skeinforge_application/ )
( prefs/<profile name [e.g. Thingomatic-ABP-Mk7]>/alterations )
G1 X25.0 Y-60.0 Z10.0 F3300.0 (move to waiting position)
M6 T0 (wait for toolhead parts, nozzle, HBP, etc., to reach temperature)
G0 X25 Y-57 (Position Nozzle)
G0 Z0.6     (Position Height)
M108 R4.0   (Set Extruder Speed)
M101        (Start Extruder)
G4 P1500    (Create Anchor)
(**** end pre-wipe commands ****)
(**** end of start.gcode ****)
(</alteration>)
(<creation> skeinforge </creation>)
(<version> 10.11.05 </version>)
(<extruderInitialization>)
(<craftTypeName> extrusion </craftTypeName>)
M105
(<bridgeWidthMultiplier> 1.0 </bridgeWidthMultiplier>)
(<decimalPlacesCarried> 3 </decimalPlacesCarried>)
(<layerThickness> 0.32 </layerThickness>)
(<threadSequenceString> loops perimeter infill </threadSequenceString>)
(<operatingFeedRatePerSecond> 30.0 </operatingFeedRatePerSecond>)
(<operatingFlowRate> 3.56914845556 </operatingFlowRate>)
(<orbitalFeedRatePerSecond> 15.0 </orbitalFeedRatePerSecond>)
(<travelFeedRatePerSecond> 50.0 </travelFeedRatePerSecond>)
(<perimeterWidth> 0.393 </perimeterWidth>)
(<profileName> ABS </profileName>)
(<procedureDone> carve,bottom </procedureDone>)
(<procedureDone> preface </procedureDone>)
(<procedureDone> inset </procedureDone>)
(<procedureDone> fill </procedureDone>)
(<procedureDone> speed </procedureDone>)
(<procedureDone> raft </procedureDone>)
(<procedureDone> jitter </procedureDone>)
(<procedureDone> comb </procedureDone>)
(<procedureDone> cool </procedureDone>)
(<procedureDone> outline </procedureDone>)
(<procedureDone> reversal </procedureDone>)
(<procedureDone> export </procedureDone>)
(</extruderInitialization>)
(<extrusion>)
;M113 S1.0
M108 R3.569
(<layer> 0.46 )
(<surroundingLoop>)
(<boundaryPerimeter>)
(<boundaryPoint> X27.593 Y-10.2 Z0.46 </boundaryPoint>)
(<boundaryPoint> X27.593 Y10.2 Z0.46 </boundaryPoint>)
(<boundaryPoint> X-27.593 Y10.2 Z0.46 </boundaryPoint>)
(<boundaryPoint> X-27.593 Y-10.2 Z0.46 </boundaryPoint>)
(<loop> inner )
M108 R2.141
G1 X29.4 Y-12.0 Z0.46 F1080.0
M101
G1 X-29.4 Y-12.0 Z0.46 F1080.0
G1 X-29.4 Y12.0 Z0.46 F1080.0
G1 X29.4 Y12.0 Z0.46 F1080.0
G1 X29.4 Y-11.73 Z0.46 F1080.0
M108 R30.0
M102
G1 X29.4 Y-12.0 Z0.46 F1080.0
M108 R2.141
M103
G1 X8.81 Y-0.3 Z0.46 F3000.0
M108 R30.0
M101
G1 X8.11 Y0.09 Z0.46 F3000.0
M108 R2.141
G1 X8.23 Y1.18 Z0.46 F1080.0
G1 X8.6 Y2.32 Z0.46 F1080.0
G1 X9.19 Y3.35 Z0.46 F1080.0
G1 X9.99 Y4.23 Z0.46 F1080.0
G1 X10.95 Y4.93 Z0.46 F1080.0
G1 X12.04 Y5.41 Z0.46 F1080.0
G1 X13.2 Y5.66 Z0.46 F1080.0
G1 X14.39 Y5.66 Z0.46 F1080.0
G1 X15.56 Y5.41 Z0.46 F1080.0
G1 X16.64 Y4.93 Z0.46 F1080.0
G1 X17.61 Y4.23 Z0.46 F1080.0
G1 X18.4 Y3.35 Z0.46 F1080.0
G1 X19.0 Y2.32 Z0.46 F1080.0
G1 X19.36 Y1.18 Z0.46 F1080.0
G1 X19.49 Y0.0 Z0.46 F1080.0
G1 X19.36 Y-1.18 Z0.46 F1080.0
G1 X19.0 Y-2.32 Z0.46 F1080.0
G1 X18.4 Y-3.35 Z0.46 F1080.0
G1 X17.61 Y-4.23 Z0.46 F1080.0
G1 X16.64 Y-4.93 Z0.46 F1080.0
G1 X15.56 Y-5.41 Z0.46 F1080.0
G1 X14.39 Y-5.66 Z0.46 F1080.0
G1 X13.2 Y-5.66 Z0.46 F1080.0
G1 X12.04 Y-5.41 Z0.46 F1080.0
G1 X10.95 Y-4.93 Z0.46 F1080.0
G1 X9.99 Y-4.23 Z0.46 F1080.0
G1 X9.19 Y-3.35 Z0.46 F1080.0
G1 X8.6 Y-2.32 Z0.46 F1080.0
G1 X8.23 Y-1.18 Z0.46 F1080.0
G1 X8.12 Y-0.18 Z0.46 F1080.0
M108 R30.0
M102
G1 X8.1 Y-0.0 Z0.46 F1080.0
G1 X8.11 Y0.09 Z0.46 F1080.0
M108 R2.141
M103
(</loop>)
(<loop> inner )
G1 X-7.3 Y0.01 Z0.46 F3000.0
M108 R30.0
M101
G1 X-8.1 Y0.0 Z0.46 F3000.0
M108 R2.141
G1 X-8.23 Y-1.18 Z0.46 F1080.0
G1 X-8.6 Y-2.32 Z0.46 F1080.0
G1 X-9.19 Y-3.35 Z0.46 F1080.0
G1 X-9.99 Y-4.23 Z0.46 F1080.0
G1 X-10.95 Y-4.93 Z0.46 F1080.0
G1 X-12.04 Y-5.41 Z0.46 F1080.0
G1 X-13.2 Y-5.66 Z0.46 F1080.0
G1 X-14.39 Y-5.66 Z0.46 F1080.0
G1 X-15.56 Y-5.41 Z0.46 F1080.0
G1 X-16.64 Y-4.93 Z0.46 F1080.0
G1 X-17.61 Y-4.23 Z0.46 F1080.0
G1 X-18.4 Y-3.35 Z0.46 F1080.0
G1 X-19.0 Y-2.32 Z0.46 F1080.0
G1 X-19.36 Y-1.18 Z0.46 F1080.0
G1 X-19.49 Y-0.0 Z0.46 F1080.0
G1 X-19.36 Y1.18 Z0.46 F1080.0
G1 X-19.0 Y2.32 Z0.46 F1080.0
G1 X-18.4 Y3.35 Z0.46 F1080.0
G1 X-17.61 Y4.23 Z0.46 F1080.0
G1 X-16.64 Y4.93 Z0.46 F1080.0
G1 X-15.56 Y5.41 Z0.46 F1080.0
G1 X-14.39 Y5.66 Z0.46 F1080.0
G1 X-13.2 Y5.66 Z0.46 F1080.0
G1 X-12.04 Y5.41 Z0.46 F1080.0
G1 X-10.95 Y4.93 Z0.46 F1080.0
G1 X-9.99 Y4.23 Z0.46 F1080.0
G1 X-9.19 Y3.35 Z0.46 F1080.0
G1 X-8.6 Y2.32 Z0.46 F1080.0
G1 X-8.23 Y1.18 Z0.46 F1080.0
G1 X-8.13 Y0.27 Z0.46 F1080.0
M108 R30.0
M102
G1 X-8.1 Y0.0 Z0.46 F1080.0
M108 R2.141
M103
(</loop>)
(<loop> outer )
G1 X-8.1 Y8.81 Z0.46 F3000.0
M108 R30.0
M101
G1 X-8.1 Y9.61 Z0.46 F3000.0
M108 R2.141
G1 X-27.0 Y9.61 Z0.46 F1080.0
G1 X-27.0 Y-9.61 Z0.46 F1080.0
G1 X27.0 Y-9.61 Z0.46 F1080.0
G1 X27.0 Y9.61 Z0.46 F1080.0
G1 X-8.1 Y9.61 Z0.46 F1080.0
M103
(</loop>)
(<perimeter> outer )
G1 X-8.1 Y10.0 Z0.46 F3000.0
M101
G1 X-27.4 Y10.0 Z0.46 F1080.0
G1 X-27.4 Y-10.0 Z0.46 F1080.0
G1 X27.4 Y-10.0 Z0.46 F1080.0
G1 X27.4 Y10.0 Z0.46 F1080.0
G1 X-7.83 Y10.0 Z0.46 F1080.0
M108 R30.0
M102
G1 X-8.1 Y10.0 Z0.46 F1080.0
M108 R2.141
M103
(</perimeter>)
(</boundaryPerimeter>)
(<surroundingLoop>)
(<boundaryPerimeter>)
(<boundaryPoint> X-17.922 Y2.998 Z0.46 </boundaryPoint>)
(<boundaryPoint> X-17.209 Y3.79 Z0.46 </boundaryPoint>)
(<boundaryPoint> X-16.346 Y4.417 Z0.46 </boundaryPoint>)
(<boundaryPoint> X-15.372 Y4.85 Z0.46 </boundaryPoint>)
(<boundaryPoint> X-14.33 Y5.072 Z0.46 </boundaryPoint>)
(<boundaryPoint> X-13.263 Y5.072 Z0.46 </boundaryPoint>)
(<boundaryPoint> X-12.221 Y4.85 Z0.46 </boundaryPoint>)
(<boundaryPoint> X-11.246 Y4.417 Z0.46 </boundaryPoint>)
(<boundaryPoint> X-10.384 Y3.79 Z0.46 </boundaryPoint>)
(<boundaryPoint> X-9.671 Y2.998 Z0.46 </boundaryPoint>)
(<boundaryPoint> X-9.137 Y2.074 Z0.46 </boundaryPoint>)
(<boundaryPoint> X-8.808 Y1.06 Z0.46 </boundaryPoint>)
(<boundaryPoint> X-8.696 Y-0.0 Z0.46 </boundaryPoint>)
(<boundaryPoint> X-8.808 Y-1.06 Z0.46 </boundaryPoint>)
(<boundaryPoint> X-9.137 Y-2.074 Z0.46 </boundaryPoint>)
(<boundaryPoint> X-9.671 Y-2.998 Z0.46 </boundaryPoint>)
(<boundaryPoint> X-10.384 Y-3.79 Z0.46 </boundaryPoint>)
(<boundaryPoint> X-11.246 Y-4.417 Z0.46 </boundaryPoint>)
(<boundaryPoint> X-12.221 Y-4.85 Z0.46 </boundaryPoint>)
(<boundaryPoint> X-13.263 Y-5.072 Z0.46 </boundaryPoint>)
(<boundaryPoint> X-14.33 Y-5.072 Z0.46 </boundaryPoint>)
(<boundaryPoint> X-15.372 Y-4.85 Z0.46 </boundaryPoint>)
(<boundaryPoint> X-16.346 Y-4.417 Z0.46 </boundaryPoint>)
(<boundaryPoint> X-17.209 Y-3.79 Z0.46 </boundaryPoint>)
(<boundaryPoint> X-17.922 Y-2.998 Z0.46 </boundaryPoint>)
(<boundaryPoint> X-18.456 Y-2.074 Z0.46 </boundaryPoint>)
(<boundaryPoint> X-18.785 Y-1.06 Z0.46 </boundaryPoint>)
(<boundaryPoint> X-18.896 Y0.0 Z0.46 </boundaryPoint>)
(<boundaryPoint> X-18.785 Y1.06 Z0.46 </boundaryPoint>)
(<boundaryPoint> X-18.456 Y2.074 Z0.46 </boundaryPoint>)
(<perimeter> inner )
G1 X-10.76 Y5.29 Z0.46 F3000.0
M108 R30.0
M101
G1 X-11.15 Y4.59 Z0.46 F3000.0
M108 R2.141
G1 X-10.25 Y3.94 Z0.46 F1080.0
G1 X-9.51 Y3.11 Z0.46 F1080.0
G1 X-8.96 Y2.15 Z0.46 F1080.0
G1 X-8.62 Y1.1 Z0.46 F1080.0
G1 X-8.5 Y-0.0 Z0.46 F1080.0
G1 X-8.62 Y-1.1 Z0.46 F1080.0
G1 X-8.96 Y-2.15 Z0.46 F1080.0
G1 X-9.51 Y-3.11 Z0.46 F1080.0
G1 X-10.25 Y-3.94 Z0.46 F1080.0
G1 X-11.15 Y-4.59 Z0.46 F1080.0
G1 X-12.16 Y-5.04 Z0.46 F1080.0
G1 X-13.24 Y-5.27 Z0.46 F1080.0
G1 X-14.35 Y-5.27 Z0.46 F1080.0
G1 X-15.43 Y-5.04 Z0.46 F1080.0
G1 X-16.45 Y-4.59 Z0.46 F1080.0
G1 X-17.34 Y-3.94 Z0.46 F1080.0
G1 X-18.08 Y-3.11 Z0.46 F1080.0
G1 X-18.64 Y-2.15 Z0.46 F1080.0
G1 X-18.98 Y-1.1 Z0.46 F1080.0
G1 X-19.09 Y0.0 Z0.46 F1080.0
G1 X-18.98 Y1.1 Z0.46 F1080.0
G1 X-18.64 Y2.15 Z0.46 F1080.0
G1 X-18.08 Y3.11 Z0.46 F1080.0
G1 X-17.34 Y3.94 Z0.46 F1080.0
G1 X-16.45 Y4.59 Z0.46 F1080.0
G1 X-15.43 Y5.04 Z0.46 F1080.0
G1 X-14.35 Y5.27 Z0.46 F1080.0
G1 X-13.24 Y5.27 Z0.46 F1080.0
G1 X-12.16 Y5.04 Z0.46 F1080.0
G1 X-11.39 Y4.7 Z0.46 F1080.0
M108 R30.0
M102
G1 X-11.15 Y4.59 Z0.46 F1080.0
M108 R2.141
M103
(</perimeter>)
(</boundaryPerimeter>)
(</surroundingLoop>)
(<surroundingLoop>)
(<boundaryPerimeter>)
(<boundaryPoint> X9.671 Y2.998 Z0.46 </boundaryPoint>)
(<boundaryPoint> X10.384 Y3.79 Z0.46 </boundaryPoint>)
(<boundaryPoint> X11.247 Y4.417 Z0.46 </boundaryPoint>)
(<boundaryPoint> X12.221 Y4.85 Z0.46 </boundaryPoint>)
(<boundaryPoint> X13.263 Y5.072 Z0.46 </boundaryPoint>)
(<boundaryPoint> X14.33 Y5.072 Z0.46 </boundaryPoint>)
(<boundaryPoint> X15.373 Y4.85 Z0.46 </boundaryPoint>)
(<boundaryPoint> X16.346 Y4.417 Z0.46 </boundaryPoint>)
(<boundaryPoint> X17.209 Y3.79 Z0.46 </boundaryPoint>)
(<boundaryPoint> X17.923 Y2.998 Z0.46 </boundaryPoint>)
(<boundaryPoint> X18.456 Y2.074 Z0.46 </boundaryPoint>)
(<boundaryPoint> X18.785 Y1.06 Z0.46 </boundaryPoint>)
(<boundaryPoint> X18.897 Y-0.0 Z0.46 </boundaryPoint>)
(<boundaryPoint> X18.785 Y-1.06 Z0.46 </boundaryPoint>)
(<boundaryPoint> X18.456 Y-2.074 Z0.46 </boundaryPoint>)
(<boundaryPoint> X17.923 Y-2.998 Z0.46 </boundaryPoint>)
(<boundaryPoint> X17.209 Y-3.79 Z0.46 </boundaryPoint>)
(<boundaryPoint> X16.346 Y-4.417 Z0.46 </boundaryPoint>)
(<boundaryPoint> X15.373 Y-4.85 Z0.46 </boundaryPoint>)
(<boundaryPoint> X14.33 Y-5.072 Z0.46 </boundaryPoint>)
(<boundaryPoint> X13.263 Y-5.072 Z0.46 </boundaryPoint>)
(<boundaryPoint> X12.221 Y-4.85 Z0.46 </boundaryPoint>)
(<boundaryPoint> X11.247 Y-4.417 Z0.46 </boundaryPoint>)
(<boundaryPoint> X10.384 Y-3.79 Z0.46 </boundaryPoint>)
(<boundaryPoint> X9.671 Y-2.998 Z0.46 </boundaryPoint>)
(<boundaryPoint> X9.137 Y-2.074 Z0.46 </boundaryPoint>)
(<boundaryPoint> X8.808 Y-1.06 Z0.46 </boundaryPoint>)
(<boundaryPoint> X8.696 Y0.0 Z0.46 </boundaryPoint>)
(<boundaryPoint> X8.808 Y1.06 Z0.46 </boundaryPoint>)
(<boundaryPoint> X9.137 Y2.074 Z0.46 </boundaryPoint>)
(<perimeter> inner )
G1 X7.83 Y1.24 Z0.46 F3000.0
M108 R30.0
M101
G1 X8.62 Y1.1 Z0.46 F3000.0
M108 R2.141
G1 X8.96 Y2.15 Z0.46 F1080.0
G1 X9.51 Y3.11 Z0.46 F1080.0
G1 X10.25 Y3.94 Z0.46 F1080.0
G1 X11.15 Y4.59 Z0.46 F1080.0
G1 X12.16 Y5.04 Z0.46 F1080.0
G1 X13.24 Y5.27 Z0.46 F1080.0
G1 X14.35 Y5.27 Z0.46 F1080.0
G1 X15.43 Y5.04 Z0.46 F1080.0
G1 X16.45 Y4.59 Z0.46 F1080.0
G1 X17.34 Y3.94 Z0.46 F1080.0
G1 X18.08 Y3.11 Z0.46 F1080.0
G1 X18.64 Y2.15 Z0.46 F1080.0
G1 X18.98 Y1.1 Z0.46 F1080.0
G1 X19.1 Y-0.0 Z0.46 F1080.0
G1 X18.98 Y-1.1 Z0.46 F1080.0
G1 X18.64 Y-2.15 Z0.46 F1080.0
G1 X18.08 Y-3.11 Z0.46 F1080.0
G1 X17.34 Y-3.94 Z0.46 F1080.0
G1 X16.45 Y-4.59 Z0.46 F1080.0
G1 X15.43 Y-5.04 Z0.46 F1080.0
G1 X14.35 Y-5.27 Z0.46 F1080.0
G1 X13.24 Y-5.27 Z0.46 F1080.0
G1 X12.16 Y-5.04 Z0.46 F1080.0
G1 X11.15 Y-4.59 Z0.46 F1080.0
G1 X10.25 Y-3.94 Z0.46 F1080.0
G1 X9.51 Y-3.11 Z0.46 F1080.0
G1 X8.96 Y-2.15 Z0.46 F1080.0
G1 X8.62 Y-1.1 Z0.46 F1080.0
G1 X8.5 Y0.0 Z0.46 F1080.0
G1 X8.59 Y0.83 Z0.46 F1080.0
M108 R30.0
M102
G1 X8.62 Y1.1 Z0.46 F1080.0
M108 R2.141
M103
(</perimeter>)
(</boundaryPerimeter>)
(</surroundingLoop>)
G1 X8.27 Y8.88 Z0.46 F1800.0
M108 R30.0
M101
G1 X8.25 Y9.36 Z0.46 F1800.0
M108 R2.141
G1 X8.25 Y2.07 Z0.46 F1080.0
M103
G1 X8.64 Y2.9 Z0.46 F1800.0
M101
G1 X8.64 Y9.36 Z0.46 F1080.0
M103
G1 X9.03 Y9.36 Z0.46 F1800.0
M101
G1 X9.03 Y3.55 Z0.46 F1080.0
G1 X9.43 Y3.99 Z0.46 F1080.0
G1 X9.43 Y9.36 Z0.46 F1080.0
M103
G1 X9.82 Y9.36 Z0.46 F1800.0
M101
G1 X9.82 Y4.42 Z0.46 F1080.0
G1 X10.21 Y4.71 Z0.46 F1080.0
G1 X10.21 Y9.36 Z0.46 F1080.0
M103
G1 X10.6 Y9.36 Z0.46 F1800.0
M101
G1 X10.6 Y4.99 Z0.46 F1080.0
G1 X11.0 Y5.23 Z0.46 F1080.0
G1 X11.0 Y9.36 Z0.46 F1080.0
M103
G1 X11.39 Y9.36 Z0.46 F1800.0
M101
G1 X11.39 Y5.4 Z0.46 F1080.0
M103
G1 X11.78 Y5.58 Z0.46 F1800.0
M101
G1 X11.78 Y9.36 Z0.46 F1080.0
M103
G1 X12.17 Y9.36 Z0.46 F1800.0
M101
G1 X12.17 Y5.97 Z0.46 F1080.0
M108 R30.0
M102
G1 X12.17 Y5.7 Z0.46 F1080.0
M108 R2.141
M103
G1 X12.88 Y5.83 Z0.46 F1800.0
M108 R30.0
M101
G1 X13.35 Y5.92 Z0.46 F1800.0
M108 R2.141
G1 X13.35 Y9.36 Z0.46 F1080.0
M103
G1 X12.57 Y9.36 Z0.46 F1800.0
M101
G1 X12.57 Y5.79 Z0.46 F1080.0
G1 X12.96 Y5.87 Z0.46 F1080.0
G1 X12.96 Y9.36 Z0.46 F1080.0
M103
G1 X13.74 Y9.36 Z0.46 F1800.0
M101
G1 X13.74 Y5.92 Z0.46 F1080.0
G1 X14.14 Y5.92 Z0.46 F1080.0
G1 X14.14 Y9.36 Z0.46 F1080.0
M103
G1 X14.53 Y9.36 Z0.46 F1800.0
M101
G1 X14.53 Y5.89 Z0.46 F1080.0
M103
G1 X14.92 Y5.81 Z0.46 F1800.0
M101
G1 X14.92 Y9.36 Z0.46 F1080.0
M103
G1 X15.32 Y9.36 Z0.46 F1800.0
M101
G1 X15.32 Y5.73 Z0.46 F1080.0
M103
G1 X15.71 Y5.63 Z0.46 F1800.0
M101
G1 X15.71 Y9.36 Z0.46 F1080.0
M103
G1 X16.1 Y9.36 Z0.46 F1800.0
M101
G1 X16.1 Y5.45 Z0.46 F1080.0
G1 X16.49 Y5.28 Z0.46 F1080.0
G1 X16.49 Y9.36 Z0.46 F1080.0
M103
G1 X16.89 Y9.36 Z0.46 F1800.0
M101
G1 X16.89 Y5.07 Z0.46 F1080.0
G1 X17.28 Y4.78 Z0.46 F1080.0
G1 X17.28 Y9.36 Z0.46 F1080.0
M103
G1 X17.67 Y9.36 Z0.46 F1800.0
M101
G1 X17.67 Y4.5 Z0.46 F1080.0
G1 X18.06 Y4.1 Z0.46 F1080.0
G1 X18.06 Y9.36 Z0.46 F1080.0
M103
G1 X18.46 Y9.36 Z0.46 F1800.0
M101
G1 X18.46 Y3.67 Z0.46 F1080.0
M103
G1 X18.85 Y3.08 Z0.46 F1800.0
M101
G1 X18.85 Y9.36 Z0.46 F1080.0
M103
G1 X19.24 Y9.36 Z0.46 F1800.0
M101
G1 X19.24 Y2.66 Z0.46 F1080.0
M108 R30.0
M102
G1 X19.24 Y2.39 Z0.46 F1080.0
M108 R2.141
M103
G1 X19.5 Y1.51 Z0.46 F1800.0
M108 R30.0
M101
G1 X19.64 Y1.05 Z0.46 F1800.0
M108 R2.141
G1 X19.64 Y9.36 Z0.46 F1080.0
M103
G1 X20.03 Y9.36 Z0.46 F1800.0
M101
G1 X20.03 Y-9.36 Z0.46 F1080.0
M103
G1 X20.42 Y-9.36 Z0.46 F1800.0
M101
G1 X20.42 Y9.36 Z0.46 F1080.0
M103
G1 X20.81 Y9.36 Z0.46 F1800.0
M101
G1 X20.81 Y-9.36 Z0.46 F1080.0
M103
G1 X21.21 Y-9.36 Z0.46 F1800.0
M101
G1 X21.21 Y9.36 Z0.46 F1080.0
M103
G1 X21.6 Y9.36 Z0.46 F1800.0
M101
G1 X21.6 Y-9.36 Z0.46 F1080.0
M103
G1 X21.99 Y-9.36 Z0.46 F1800.0
M101
G1 X21.99 Y9.36 Z0.46 F1080.0
M103
G1 X22.38 Y9.36 Z0.46 F1800.0
M101
G1 X22.38 Y-9.36 Z0.46 F1080.0
M103
G1 X22.78 Y-9.36 Z0.46 F1800.0
M101
G1 X22.78 Y9.36 Z0.46 F1080.0
M103
G1 X23.17 Y9.36 Z0.46 F1800.0
M101
G1 X23.17 Y-9.36 Z0.46 F1080.0
M103
G1 X23.56 Y-9.36 Z0.46 F1800.0
M101
G1 X23.56 Y9.36 Z0.46 F1080.0
M103
G1 X23.96 Y9.36 Z0.46 F1800.0
M101
G1 X23.96 Y-9.36 Z0.46 F1080.0
M103
G1 X24.35 Y-9.36 Z0.46 F1800.0
M101
G1 X24.35 Y9.36 Z0.46 F1080.0
M103
G1 X24.74 Y9.36 Z0.46 F1800.0
M101
G1 X24.74 Y-9.36 Z0.46 F1080.0
M103
G1 X25.13 Y-9.36 Z0.46 F1800.0
M101
G1 X25.13 Y9.36 Z0.46 F1080.0
M103
G1 X25.53 Y9.36 Z0.46 F1800.0
M101
G1 X25.53 Y-9.36 Z0.46 F1080.0
M103
G1 X25.92 Y-9.36 Z0.46 F1800.0
M101
G1 X25.92 Y9.36 Z0.46 F1080.0
M103
G1 X26.31 Y9.36 Z0.46 F1800.0
M101
G1 X26.31 Y-9.36 Z0.46 F1080.0
M103
G1 X26.7 Y-9.36 Z0.46 F1800.0
M101
G1 X26.7 Y9.09 Z0.46 F1080.0
M108 R30.0
M102
G1 X26.7 Y9.36 Z0.46 F1080.0
M108 R2.141
M103
G1 X19.81 Y-8.91 Z0.46 F1800.0
M108 R30.0
M101
G1 X19.64 Y-9.36 Z0.46 F1800.0
M108 R2.141
G1 X19.64 Y-1.32 Z0.46 F1080.0
M108 R30.0
M102
G1 X19.64 Y-1.05 Z0.46 F1080.0
M108 R2.141
M103
G1 X19.38 Y-1.93 Z0.46 F1800.0
M108 R30.0
M101
G1 X19.24 Y-2.39 Z0.46 F1800.0
M108 R2.141
G1 X19.24 Y-9.36 Z0.46 F1080.0
M103
G1 X18.85 Y-9.36 Z0.46 F1800.0
M101
G1 X18.85 Y-3.08 Z0.46 F1080.0
M103
G1 X18.46 Y-3.67 Z0.46 F1800.0
M101
G1 X18.46 Y-9.36 Z0.46 F1080.0
M103
G1 X18.06 Y-9.36 Z0.46 F1800.0
M101
G1 X18.06 Y-4.1 Z0.46 F1080.0
G1 X17.67 Y-4.5 Z0.46 F1080.0
G1 X17.67 Y-9.36 Z0.46 F1080.0
M103
G1 X17.28 Y-9.36 Z0.46 F1800.0
M101
G1 X17.28 Y-4.78 Z0.46 F1080.0
G1 X16.89 Y-5.07 Z0.46 F1080.0
G1 X16.89 Y-9.36 Z0.46 F1080.0
M103
G1 X16.49 Y-9.36 Z0.46 F1800.0
M101
G1 X16.49 Y-5.28 Z0.46 F1080.0
G1 X16.1 Y-5.45 Z0.46 F1080.0
G1 X16.1 Y-9.36 Z0.46 F1080.0
M103
G1 X15.71 Y-9.36 Z0.46 F1800.0
M101
G1 X15.71 Y-5.63 Z0.46 F1080.0
M103
G1 X15.32 Y-5.73 Z0.46 F1800.0
M101
G1 X15.32 Y-9.36 Z0.46 F1080.0
M103
G1 X14.92 Y-9.36 Z0.46 F1800.0
M101
G1 X14.92 Y-5.81 Z0.46 F1080.0
M103
G1 X14.53 Y-5.89 Z0.46 F1800.0
M101
G1 X14.53 Y-9.36 Z0.46 F1080.0
M103
G1 X14.14 Y-9.36 Z0.46 F1800.0
M101
G1 X14.14 Y-5.92 Z0.46 F1080.0
G1 X13.74 Y-5.92 Z0.46 F1080.0
G1 X13.74 Y-9.36 Z0.46 F1080.0
M103
G1 X13.35 Y-9.36 Z0.46 F1800.0
M101
G1 X13.35 Y-6.19 Z0.46 F1080.0
M108 R30.0
M102
G1 X13.35 Y-5.92 Z0.46 F1080.0
M108 R2.141
M103
G1 X12.65 Y-5.79 Z0.46 F1800.0
M108 R30.0
M101
G1 X12.17 Y-5.7 Z0.46 F1800.0
M108 R2.141
G1 X12.17 Y-9.36 Z0.46 F1080.0
M103
G1 X11.78 Y-9.36 Z0.46 F1800.0
M101
G1 X11.78 Y-5.58 Z0.46 F1080.0
M103
G1 X11.39 Y-5.4 Z0.46 F1800.0
M101
G1 X11.39 Y-9.36 Z0.46 F1080.0
M103
G1 X11.0 Y-9.36 Z0.46 F1800.0
M101
G1 X11.0 Y-5.23 Z0.46 F1080.0
G1 X10.6 Y-4.99 Z0.46 F1080.0
G1 X10.6 Y-9.36 Z0.46 F1080.0
M103
G1 X10.21 Y-9.36 Z0.46 F1800.0
M101
G1 X10.21 Y-4.71 Z0.46 F1080.0
G1 X9.82 Y-4.42 Z0.46 F1080.0
G1 X9.82 Y-9.36 Z0.46 F1080.0
M103
G1 X9.43 Y-9.36 Z0.46 F1800.0
M101
G1 X9.43 Y-3.99 Z0.46 F1080.0
G1 X9.03 Y-3.55 Z0.46 F1080.0
G1 X9.03 Y-9.36 Z0.46 F1080.0
M103
G1 X8.64 Y-9.36 Z0.46 F1800.0
M101
G1 X8.64 Y-2.9 Z0.46 F1080.0
M103
G1 X8.25 Y-2.07 Z0.46 F1800.0
M101
G1 X8.25 Y-9.36 Z0.46 F1080.0
M103
G1 X7.85 Y-9.36 Z0.46 F1800.0
M101
G1 X7.85 Y9.36 Z0.46 F1080.0
M103
G1 X7.46 Y9.36 Z0.46 F1800.0
M101
G1 X7.46 Y-9.36 Z0.46 F1080.0
M103
G1 X7.07 Y-9.36 Z0.46 F1800.0
M101
G1 X7.07 Y9.36 Z0.46 F1080.0
M103
G1 X6.68 Y9.36 Z0.46 F1800.0
M101
G1 X6.68 Y-9.36 Z0.46 F1080.0
M103
G1 X6.28 Y-9.36 Z0.46 F1800.0
M101
G1 X6.28 Y9.36 Z0.46 F1080.0
M103
G1 X5.89 Y9.36 Z0.46 F1800.0
M101
G1 X5.89 Y-9.36 Z0.46 F1080.0
M103
G1 X5.5 Y-9.36 Z0.46 F1800.0
M101
G1 X5.5 Y9.36 Z0.46 F1080.0
M103
G1 X5.11 Y9.36 Z0.46 F1800.0
M101
G1 X5.11 Y-9.36 Z0.46 F1080.0
M103
G1 X4.71 Y-9.36 Z0.46 F1800.0
M101
G1 X4.71 Y9.36 Z0.46 F1080.0
M103
G1 X4.32 Y9.36 Z0.46 F1800.0
M101
G1 X4.32 Y-9.36 Z0.46 F1080.0
M103
G1 X3.93 Y-9.36 Z0.46 F1800.0
M101
G1 X3.93 Y9.36 Z0.46 F1080.0
M103
G1 X3.53 Y9.36 Z0.46 F1800.0
M101
G1 X3.53 Y-9.36 Z0.46 F1080.0
M103
G1 X3.14 Y-9.36 Z0.46 F1800.0
M101
G1 X3.14 Y9.36 Z0.46 F1080.0
M103
G1 X2.75 Y9.36 Z0.46 F1800.0
M101
G1 X2.75 Y-9.36 Z0.46 F1080.0
M103
G1 X2.36 Y-9.36 Z0.46 F1800.0
M101
G1 X2.36 Y9.36 Z0.46 F1080.0
M103
G1 X1.96 Y9.36 Z0.46 F1800.0
M101
G1 X1.96 Y-9.36 Z0.46 F1080.0
M103
G1 X1.57 Y-9.36 Z0.46 F1800.0
M101
G1 X1.57 Y9.36 Z0.46 F1080.0
M103
G1 X1.18 Y9.36 Z0.46 F1800.0
M101
G1 X1.18 Y-9.36 Z0.46 F1080.0
M103
G1 X0.79 Y-9.36 Z0.46 F1800.0
M101
G1 X0.79 Y9.36 Z0.46 F1080.0
M103
G1 X0.39 Y9.36 Z0.46 F1800.0
M101
G1 X0.39 Y-9.36 Z0.46 F1080.0
M103
G1 X-0.0 Y-9.36 Z0.46 F1800.0
M101
G1 X0.0 Y9.36 Z0.46 F1080.0
M103
G1 X-0.39 Y9.36 Z0.46 F1800.0
M101
G1 X-0.39 Y-9.36 Z0.46 F1080.0
M103
G1 X-0.79 Y-9.36 Z0.46 F1800.0
M101
G1 X-0.79 Y9.36 Z0.46 F1080.0
M103
G1 X-1.18 Y9.36 Z0.46 F1800.0
M101
G1 X-1.18 Y-9.36 Z0.46 F1080.0
M103
G1 X-1.57 Y-9.36 Z0.46 F1800.0
M101
G1 X-1.57 Y9.36 Z0.46 F1080.0
M103
G1 X-1.96 Y9.36 Z0.46 F1800.0
M101
G1 X-1.96 Y-9.36 Z0.46 F1080.0
M103
G1 X-2.36 Y-9.36 Z0.46 F1800.0
M101
G1 X-2.36 Y9.36 Z0.46 F1080.0
M103
G1 X-2.75 Y9.36 Z0.46 F1800.0
M101
G1 X-2.75 Y-9.36 Z0.46 F1080.0
M103
G1 X-3.14 Y-9.36 Z0.46 F1800.0
M101
G1 X-3.14 Y9.36 Z0.46 F1080.0
M103
G1 X-3.53 Y9.36 Z0.46 F1800.0
M101
G1 X-3.53 Y-9.36 Z0.46 F1080.0
M103
G1 X-3.93 Y-9.36 Z0.46 F1800.0
M101
G1 X-3.93 Y9.36 Z0.46 F1080.0
M103
G1 X-4.32 Y9.36 Z0.46 F1800.0
M101
G1 X-4.32 Y-9.36 Z0.46 F1080.0
M103
G1 X-4.71 Y-9.36 Z0.46 F1800.0
M101
G1 X-4.71 Y9.36 Z0.46 F1080.0
M103
G1 X-5.11 Y9.36 Z0.46 F1800.0
M101
G1 X-5.11 Y-9.36 Z0.46 F1080.0
M103
G1 X-5.5 Y-9.36 Z0.46 F1800.0
M101
G1 X-5.5 Y9.36 Z0.46 F1080.0
M103
G1 X-5.89 Y9.36 Z0.46 F1800.0
M101
G1 X-5.89 Y-9.36 Z0.46 F1080.0
M103
G1 X-6.28 Y-9.36 Z0.46 F1800.0
M101
G1 X-6.28 Y9.36 Z0.46 F1080.0
M103
G1 X-6.68 Y9.36 Z0.46 F1800.0
M101
G1 X-6.68 Y-9.36 Z0.46 F1080.0
M103
G1 X-7.07 Y-9.36 Z0.46 F1800.0
M101
G1 X-7.07 Y9.36 Z0.46 F1080.0
M103
G1 X-7.46 Y9.36 Z0.46 F1800.0
M101
G1 X-7.46 Y-9.36 Z0.46 F1080.0
M103
G1 X-7.85 Y-9.36 Z0.46 F1800.0
M101
G1 X-7.85 Y9.36 Z0.46 F1080.0
M103
G1 X-8.25 Y9.36 Z0.46 F1800.0
M101
G1 X-8.25 Y2.07 Z0.46 F1080.0
M103
G1 X-8.64 Y2.9 Z0.46 F1800.0
M101
G1 X-8.64 Y9.36 Z0.46 F1080.0
M103
G1 X-9.03 Y9.36 Z0.46 F1800.0
M101
G1 X-9.03 Y3.55 Z0.46 F1080.0
G1 X-9.43 Y3.99 Z0.46 F1080.0
G1 X-9.43 Y9.36 Z0.46 F1080.0
M103
G1 X-9.82 Y9.36 Z0.46 F1800.0
M101
G1 X-9.82 Y4.42 Z0.46 F1080.0
G1 X-10.21 Y4.71 Z0.46 F1080.0
G1 X-10.21 Y9.36 Z0.46 F1080.0
M103
G1 X-10.6 Y9.36 Z0.46 F1800.0
M101
G1 X-10.6 Y4.99 Z0.46 F1080.0
G1 X-11.0 Y5.23 Z0.46 F1080.0
G1 X-11.0 Y9.36 Z0.46 F1080.0
M103
G1 X-11.39 Y9.36 Z0.46 F1800.0
M101
G1 X-11.39 Y5.4 Z0.46 F1080.0
M103
G1 X-11.78 Y5.58 Z0.46 F1800.0
M101
G1 X-11.78 Y9.36 Z0.46 F1080.0
M103
G1 X-12.17 Y9.36 Z0.46 F1800.0
M101
G1 X-12.17 Y5.97 Z0.46 F1080.0
M108 R30.0
M102
G1 X-12.17 Y5.7 Z0.46 F1080.0
M108 R2.141
M103
G1 X-12.88 Y5.83 Z0.46 F1800.0
M108 R30.0
M101
G1 X-13.35 Y5.92 Z0.46 F1800.0
M108 R2.141
G1 X-13.35 Y9.36 Z0.46 F1080.0
M103
G1 X-13.74 Y9.36 Z0.46 F1800.0
M101
G1 X-13.74 Y5.92 Z0.46 F1080.0
G1 X-14.14 Y5.92 Z0.46 F1080.0
G1 X-14.14 Y9.36 Z0.46 F1080.0
M103
G1 X-14.53 Y9.36 Z0.46 F1800.0
M101
G1 X-14.53 Y5.89 Z0.46 F1080.0
M103
G1 X-14.92 Y5.81 Z0.46 F1800.0
M101
G1 X-14.92 Y9.36 Z0.46 F1080.0
M103
G1 X-15.32 Y9.36 Z0.46 F1800.0
M101
G1 X-15.32 Y5.73 Z0.46 F1080.0
M103
G1 X-15.71 Y5.63 Z0.46 F1800.0
M101
G1 X-15.71 Y9.36 Z0.46 F1080.0
M103
G1 X-16.1 Y9.36 Z0.46 F1800.0
M101
G1 X-16.1 Y5.45 Z0.46 F1080.0
G1 X-16.49 Y5.28 Z0.46 F1080.0
G1 X-16.49 Y9.36 Z0.46 F1080.0
M103
G1 X-16.89 Y9.36 Z0.46 F1800.0
M101
G1 X-16.89 Y5.07 Z0.46 F1080.0
G1 X-17.28 Y4.78 Z0.46 F1080.0
G1 X-17.28 Y9.36 Z0.46 F1080.0
M103
G1 X-17.67 Y9.36 Z0.46 F1800.0
M101
G1 X-17.67 Y4.5 Z0.46 F1080.0
G1 X-18.06 Y4.1 Z0.46 F1080.0
G1 X-18.06 Y9.36 Z0.46 F1080.0
M103
G1 X-18.46 Y9.36 Z0.46 F1800.0
M101
G1 X-18.46 Y3.67 Z0.46 F1080.0
M103
G1 X-18.85 Y3.08 Z0.46 F1800.0
M101
G1 X-18.85 Y9.36 Z0.46 F1080.0
M103
G1 X-19.24 Y9.36 Z0.46 F1800.0
M101
G1 X-19.24 Y2.66 Z0.46 F1080.0
M108 R30.0
M102
G1 X-19.24 Y2.39 Z0.46 F1080.0
M108 R2.141
M103
G1 X-19.5 Y1.51 Z0.46 F1800.0
M108 R30.0
M101
G1 X-19.64 Y1.05 Z0.46 F1800.0
M108 R2.141
G1 X-19.64 Y9.36 Z0.46 F1080.0
M103
G1 X-20.03 Y9.36 Z0.46 F1800.0
M101
G1 X-20.03 Y-9.36 Z0.46 F1080.0
M103
G1 X-20.42 Y-9.36 Z0.46 F1800.0
M101
G1 X-20.42 Y9.36 Z0.46 F1080.0
M103
G1 X-20.81 Y9.36 Z0.46 F1800.0
M101
G1 X-20.81 Y-9.36 Z0.46 F1080.0
M103
G1 X-21.21 Y-9.36 Z0.46 F1800.0
M101
G1 X-21.21 Y9.36 Z0.46 F1080.0
M103
G1 X-21.6 Y9.36 Z0.46 F1800.0
M101
G1 X-21.6 Y-9.36 Z0.46 F1080.0
M103
G1 X-21.99 Y-9.36 Z0.46 F1800.0
M101
G1 X-21.99 Y9.36 Z0.46 F1080.0
M103
G1 X-22.38 Y9.36 Z0.46 F1800.0
M101
G1 X-22.38 Y-9.36 Z0.46 F1080.0
M103
G1 X-22.78 Y-9.36 Z0.46 F1800.0
M101
G1 X-22.78 Y9.36 Z0.46 F1080.0
M103
G1 X-23.17 Y9.36 Z0.46 F1800.0
M101
G1 X-23.17 Y-9.36 Z0.46 F1080.0
M103
G1 X-23.56 Y-9.36 Z0.46 F1800.0
M101
G1 X-23.56 Y9.36 Z0.46 F1080.0
M103
G1 X-23.96 Y9.36 Z0.46 F1800.0
M101
G1 X-23.96 Y-9.36 Z0.46 F1080.0
M103
G1 X-24.35 Y-9.36 Z0.46 F1800.0
M101
G1 X-24.35 Y9.36 Z0.46 F1080.0
M103
G1 X-24.74 Y9.36 Z0.46 F1800.0
M101
G1 X-24.74 Y-9.36 Z0.46 F1080.0
M103
G1 X-25.13 Y-9.36 Z0.46 F1800.0
M101
G1 X-25.13 Y9.36 Z0.46 F1080.0
M103
G1 X-25.53 Y9.36 Z0.46 F1800.0
M101
G1 X-25.53 Y-9.36 Z0.46 F1080.0
M103
G1 X-25.92 Y-9.36 Z0.46 F1800.0
M101
G1 X-25.92 Y9.36 Z0.46 F1080.0
M103
G1 X-26.31 Y9.36 Z0.46 F1800.0
M101
G1 X-26.31 Y-9.36 Z0.46 F1080.0
M103
G1 X-26.7 Y-9.36 Z0.46 F1800.0
M101
G1 X-26.7 Y9.09 Z0.46 F1080.0
M108 R30.0
M102
G1 X-26.7 Y9.36 Z0.46 F1080.0
M108 R2.141
M103
G1 X-19.81 Y-8.91 Z0.46 F1800.0
M108 R30.0
M101
G1 X-19.64 Y-9.36 Z0.46 F1800.0
M108 R2.141
G1 X-19.64 Y-1.32 Z0.46 F1080.0
M108 R30.0
M102
G1 X-19.64 Y-1.05 Z0.46 F1080.0
M108 R2.141
M103
G1 X-19.38 Y-1.93 Z0.46 F1800.0
M108 R30.0
M101
G1 X-19.24 Y-2.39 Z0.46 F1800.0
M108 R2.141
G1 X-19.24 Y-9.36 Z0.46 F1080.0
M103
G1 X-18.85 Y-9.36 Z0.46 F1800.0
M101
G1 X-18.85 Y-3.08 Z0.46 F1080.0
M103
G1 X-18.46 Y-3.67 Z0.46 F1800.0
M101
G1 X-18.46 Y-9.36 Z0.46 F1080.0
M103
G1 X-18.06 Y-9.36 Z0.46 F1800.0
M101
G1 X-18.06 Y-4.1 Z0.46 F1080.0
G1 X-17.67 Y-4.5 Z0.46 F1080.0
G1 X-17.67 Y-9.36 Z0.46 F1080.0
M103
G1 X-17.28 Y-9.36 Z0.46 F1800.0
M101
G1 X-17.28 Y-4.78 Z0.46 F1080.0
G1 X-16.89 Y-5.07 Z0.46 F1080.0
G1 X-16.89 Y-9.36 Z0.46 F1080.0
M103
G1 X-16.49 Y-9.36 Z0.46 F1800.0
M101
G1 X-16.49 Y-5.28 Z0.46 F1080.0
G1 X-16.1 Y-5.45 Z0.46 F1080.0
G1 X-16.1 Y-9.36 Z0.46 F1080.0
M103
G1 X-15.71 Y-9.36 Z0.46 F1800.0
M101
G1 X-15.71 Y-5.63 Z0.46 F1080.0
M103
G1 X-15.32 Y-5.73 Z0.46 F1800.0
M101
G1 X-15.32 Y-9.36 Z0.46 F1080.0
M103
G1 X-14.92 Y-9.36 Z0.46 F1800.0
M101
G1 X-14.92 Y-5.81 Z0.46 F1080.0
M103
G1 X-14.53 Y-5.89 Z0.46 F1800.0
M101
G1 X-14.53 Y-9.36 Z0.46 F1080.0
M103
G1 X-14.14 Y-9.36 Z0.46 F1800.0
M101
G1 X-14.14 Y-5.92 Z0.46 F1080.0
G1 X-13.74 Y-5.92 Z0.46 F1080.0
G1 X-13.74 Y-9.36 Z0.46 F1080.0
M103
G1 X-13.35 Y-9.36 Z0.46 F1800.0
M101
G1 X-13.35 Y-6.19 Z0.46 F1080.0
M108 R30.0
M102
G1 X-13.35 Y-5.92 Z0.46 F1080.0
M108 R2.141
M103
G1 X-12.65 Y-5.79 Z0.46 F1800.0
M108 R30.0
M101
G1 X-12.17 Y-5.7 Z0.46 F1800.0
M108 R2.141
G1 X-12.17 Y-9.36 Z0.46 F1080.0
M103
G1 X-12.96 Y-9.36 Z0.46 F1800.0
M101
G1 X-12.96 Y-5.87 Z0.46 F1080.0
G1 X-12.57 Y-5.79 Z0.46 F1080.0
G1 X-12.57 Y-9.36 Z0.46 F1080.0
M103
G1 X-11.78 Y-9.36 Z0.46 F1800.0
M101
G1 X-11.78 Y-5.58 Z0.46 F1080.0
M103
G1 X-11.39 Y-5.4 Z0.46 F1800.0
M101
G1 X-11.39 Y-9.36 Z0.46 F1080.0
M103
G1 X-11.0 Y-9.36 Z0.46 F1800.0
M101
G1 X-11.0 Y-5.23 Z0.46 F1080.0
G1 X-10.6 Y-4.99 Z0.46 F1080.0
G1 X-10.6 Y-9.36 Z0.46 F1080.0
M103
G1 X-10.21 Y-9.36 Z0.46 F1800.0
M101
G1 X-10.21 Y-4.71 Z0.46 F1080.0
G1 X-9.82 Y-4.42 Z0.46 F1080.0
G1 X-9.82 Y-9.36 Z0.46 F1080.0
M103
G1 X-9.43 Y-9.36 Z0.46 F1800.0
M101
G1 X-9.43 Y-3.99 Z0.46 F1080.0
G1 X-9.03 Y-3.55 Z0.46 F1080.0
G1 X-9.03 Y-9.36 Z0.46 F1080.0
M103
G1 X-8.64 Y-9.36 Z0.46 F1800.0
M101
G1 X-8.64 Y-2.9 Z0.46 F1080.0
M103
G1 X-8.25 Y-2.07 Z0.46 F1800.0
M101
G1 X-8.25 Y-9.09 Z0.46 F1080.0
M108 R30.0
M102
G1 X-8.25 Y-9.36 Z0.46 F1080.0
M108 R2.141
M103
G1 X-8.54 Y1.12 Z0.46 F3000.0
G1 X-8.89 Y2.19 Z0.46 F3000.0
G1 X-12.35 Y8.93 Z0.46 F1800.0
M108 R30.0
M101
G1 X-12.57 Y9.36 Z0.46 F1800.0
M108 R2.141
G1 X-12.57 Y5.79 Z0.46 F1080.0
G1 X-12.96 Y5.87 Z0.46 F1080.0
G1 X-12.96 Y9.09 Z0.46 F1080.0
M108 R30.0
M102
G1 X-12.96 Y9.36 Z0.46 F1080.0
M108 R2.141
M103
G1 X12.57 Y-9.07 Z0.46 F1800.0
M108 R30.0
M101
G1 X12.96 Y-9.36 Z0.46 F1800.0
M108 R2.141
G1 X12.96 Y-5.87 Z0.46 F1080.0
G1 X12.57 Y-5.79 Z0.46 F1080.0
G1 X12.57 Y-9.09 Z0.46 F1080.0
M108 R30.0
M102
G1 X12.57 Y-9.36 Z0.46 F1080.0
M108 R2.141
M103
(</surroundingLoop>)
(</layer>)
(<layer> 0.78 )
(<surroundingLoop>)
(<boundaryPerimeter>)
(<boundaryPoint> X27.593 Y-10.2 Z0.78 </boundaryPoint>)
(<boundaryPoint> X27.593 Y10.2 Z0.78 </boundaryPoint>)
(<boundaryPoint> X-27.593 Y10.2 Z0.78 </boundaryPoint>)
(<boundaryPoint> X-27.593 Y-10.2 Z0.78 </boundaryPoint>)
(<loop> inner )
M108 R3.569
G1 X13.23 Y-6.44 Z0.71 F3000.0
M108 R30.0
M101
G1 X13.41 Y-5.66 Z0.78 F3000.0
M108 R3.569
G1 X13.2 Y-5.66 Z0.78 F1800.0
G1 X12.04 Y-5.41 Z0.78 F1800.0
G1 X10.95 Y-4.93 Z0.78 F1800.0
G1 X9.99 Y-4.23 Z0.78 F1800.0
G1 X9.19 Y-3.35 Z0.78 F1800.0
G1 X8.6 Y-2.32 Z0.78 F1800.0
G1 X8.23 Y-1.18 Z0.78 F1800.0
G1 X8.1 Y-0.0 Z0.78 F1800.0
G1 X8.23 Y1.18 Z0.78 F1800.0
G1 X8.6 Y2.32 Z0.78 F1800.0
G1 X9.19 Y3.35 Z0.78 F1800.0
G1 X9.99 Y4.23 Z0.78 F1800.0
G1 X10.95 Y4.93 Z0.78 F1800.0
G1 X12.04 Y5.41 Z0.78 F1800.0
G1 X13.2 Y5.66 Z0.78 F1800.0
G1 X14.39 Y5.66 Z0.78 F1800.0
G1 X15.56 Y5.41 Z0.78 F1800.0
G1 X16.64 Y4.93 Z0.78 F1800.0
G1 X17.61 Y4.23 Z0.78 F1800.0
G1 X18.4 Y3.35 Z0.78 F1800.0
G1 X19.0 Y2.32 Z0.78 F1800.0
G1 X19.36 Y1.18 Z0.78 F1800.0
G1 X19.49 Y0.0 Z0.78 F1800.0
G1 X19.36 Y-1.18 Z0.78 F1800.0
G1 X19.0 Y-2.32 Z0.78 F1800.0
G1 X18.4 Y-3.35 Z0.78 F1800.0
G1 X17.61 Y-4.23 Z0.78 F1800.0
G1 X16.64 Y-4.93 Z0.78 F1800.0
G1 X15.56 Y-5.41 Z0.78 F1800.0
G1 X14.39 Y-5.66 Z0.78 F1800.0
G1 X13.86 Y-5.66 Z0.78 F1800.0
M108 R30.0
M102
G1 X13.41 Y-5.66 Z0.78 F1800.0
M108 R3.569
M103
(</loop>)
(<loop> inner )
G1 X-7.45 Y-1.35 Z0.78 F3000.0
M108 R30.0
M101
G1 X-8.23 Y-1.18 Z0.78 F3000.0
M108 R3.569
G1 X-8.6 Y-2.32 Z0.78 F1800.0
G1 X-9.19 Y-3.35 Z0.78 F1800.0
G1 X-9.99 Y-4.23 Z0.78 F1800.0
G1 X-10.95 Y-4.93 Z0.78 F1800.0
G1 X-12.04 Y-5.41 Z0.78 F1800.0
G1 X-13.2 Y-5.66 Z0.78 F1800.0
G1 X-14.39 Y-5.66 Z0.78 F1800.0
G1 X-15.56 Y-5.41 Z0.78 F1800.0
G1 X-16.64 Y-4.93 Z0.78 F1800.0
G1 X-17.61 Y-4.23 Z0.78 F1800.0
G1 X-18.4 Y-3.35 Z0.78 F1800.0
G1 X-19.0 Y-2.32 Z0.78 F1800.0
G1 X-19.36 Y-1.18 Z0.78 F1800.0
G1 X-19.49 Y-0.0 Z0.78 F1800.0
G1 X-19.36 Y1.18 Z0.78 F1800.0
G1 X-19.0 Y2.32 Z0.78 F1800.0
G1 X-18.4 Y3.35 Z0.78 F1800.0
G1 X-17.61 Y4.23 Z0.78 F1800.0
G1 X-16.64 Y4.93 Z0.78 F1800.0
G1 X-15.56 Y5.41 Z0.78 F1800.0
G1 X-14.39 Y5.66 Z0.78 F1800.0
G1 X-13.2 Y5.66 Z0.78 F1800.0
G1 X-12.04 Y5.41 Z0.78 F1800.0
G1 X-10.95 Y4.93 Z0.78 F1800.0
G1 X-9.99 Y4.23 Z0.78 F1800.0
G1 X-9.19 Y3.35 Z0.78 F1800.0
G1 X-8.6 Y2.32 Z0.78 F1800.0
G1 X-8.23 Y1.18 Z0.78 F1800.0
G1 X-8.1 Y0.0 Z0.78 F1800.0
G1 X-8.18 Y-0.74 Z0.78 F1800.0
M108 R30.0
M102
G1 X-8.23 Y-1.18 Z0.78 F1800.0
M108 R3.569
M103
(</loop>)
(<loop> outer )
G1 X-8.23 Y-8.81 Z0.78 F3000.0
M108 R30.0
M101
G1 X-8.23 Y-9.61 Z0.78 F3000.0
M108 R3.569
G1 X27.0 Y-9.61 Z0.78 F1800.0
G1 X27.0 Y9.61 Z0.78 F1800.0
G1 X-27.0 Y9.61 Z0.78 F1800.0
G1 X-27.0 Y-9.61 Z0.78 F1800.0
G1 X-8.23 Y-9.61 Z0.78 F1800.0
M103
(</loop>)
(<perimeter> outer )
G1 X-8.23 Y-10.0 Z0.78 F3000.0
M101
G1 X27.4 Y-10.0 Z0.78 F1800.0
G1 X27.4 Y10.0 Z0.78 F1800.0
G1 X-27.4 Y10.0 Z0.78 F1800.0
G1 X-27.4 Y-10.0 Z0.78 F1800.0
G1 X-8.68 Y-10.0 Z0.78 F1800.0
M108 R30.0
M102
G1 X-8.23 Y-10.0 Z0.78 F1800.0
M108 R3.569
M103
(</perimeter>)
(</boundaryPerimeter>)
(<surroundingLoop>)
(<boundaryPerimeter>)
(<boundaryPoint> X-17.922 Y2.998 Z0.78 </boundaryPoint>)
(<boundaryPoint> X-17.209 Y3.79 Z0.78 </boundaryPoint>)
(<boundaryPoint> X-16.346 Y4.417 Z0.78 </boundaryPoint>)
(<boundaryPoint> X-15.372 Y4.85 Z0.78 </boundaryPoint>)
(<boundaryPoint> X-14.33 Y5.072 Z0.78 </boundaryPoint>)
(<boundaryPoint> X-13.263 Y5.072 Z0.78 </boundaryPoint>)
(<boundaryPoint> X-12.221 Y4.85 Z0.78 </boundaryPoint>)
(<boundaryPoint> X-11.246 Y4.417 Z0.78 </boundaryPoint>)
(<boundaryPoint> X-10.384 Y3.79 Z0.78 </boundaryPoint>)
(<boundaryPoint> X-9.671 Y2.998 Z0.78 </boundaryPoint>)
(<boundaryPoint> X-9.137 Y2.074 Z0.78 </boundaryPoint>)
(<boundaryPoint> X-8.808 Y1.06 Z0.78 </boundaryPoint>)
(<boundaryPoint> X-8.696 Y-0.0 Z0.78 </boundaryPoint>)
(<boundaryPoint> X-8.808 Y-1.06 Z0.78 </boundaryPoint>)
(<boundaryPoint> X-9.137 Y-2.074 Z0.78 </boundaryPoint>)
(<boundaryPoint> X-9.671 Y-2.998 Z0.78 </boundaryPoint>)
(<boundaryPoint> X-10.384 Y-3.79 Z0.78 </boundaryPoint>)
(<boundaryPoint> X-11.246 Y-4.417 Z0.78 </boundaryPoint>)
(<boundaryPoint> X-12.221 Y-4.85 Z0.78 </boundaryPoint>)
(<boundaryPoint> X-13.263 Y-5.072 Z0.78 </boundaryPoint>)
(<boundaryPoint> X-14.33 Y-5.072 Z0.78 </boundaryPoint>)
(<boundaryPoint> X-15.372 Y-4.85 Z0.78 </boundaryPoint>)
(<boundaryPoint> X-16.346 Y-4.417 Z0.78 </boundaryPoint>)
(<boundaryPoint> X-17.209 Y-3.79 Z0.78 </boundaryPoint>)
(<boundaryPoint> X-17.922 Y-2.998 Z0.78 </boundaryPoint>)
(<boundaryPoint> X-18.456 Y-2.074 Z0.78 </boundaryPoint>)
(<boundaryPoint> X-18.785 Y-1.06 Z0.78 </boundaryPoint>)
(<boundaryPoint> X-18.896 Y0.0 Z0.78 </boundaryPoint>)
(<boundaryPoint> X-18.785 Y1.06 Z0.78 </boundaryPoint>)
(<boundaryPoint> X-18.456 Y2.074 Z0.78 </boundaryPoint>)
(<perimeter> inner )
G1 X-10.77 Y-5.29 Z0.78 F3000.0
M108 R30.0
M101
G1 X-11.15 Y-4.59 Z0.78 F3000.0
M108 R3.569
G1 X-12.16 Y-5.04 Z0.78 F1800.0
G1 X-13.24 Y-5.27 Z0.78 F1800.0
G1 X-14.35 Y-5.27 Z0.78 F1800.0
G1 X-15.43 Y-5.04 Z0.78 F1800.0
G1 X-16.45 Y-4.59 Z0.78 F1800.0
G1 X-17.34 Y-3.94 Z0.78 F1800.0
G1 X-18.08 Y-3.11 Z0.78 F1800.0
G1 X-18.64 Y-2.15 Z0.78 F1800.0
G1 X-18.98 Y-1.1 Z0.78 F1800.0
G1 X-19.09 Y0.0 Z0.78 F1800.0
G1 X-18.98 Y1.1 Z0.78 F1800.0
G1 X-18.64 Y2.15 Z0.78 F1800.0
G1 X-18.08 Y3.11 Z0.78 F1800.0
G1 X-17.34 Y3.94 Z0.78 F1800.0
G1 X-16.45 Y4.59 Z0.78 F1800.0
G1 X-15.43 Y5.04 Z0.78 F1800.0
G1 X-14.35 Y5.27 Z0.78 F1800.0
G1 X-13.24 Y5.27 Z0.78 F1800.0
G1 X-12.16 Y5.04 Z0.78 F1800.0
G1 X-11.15 Y4.59 Z0.78 F1800.0
G1 X-10.25 Y3.94 Z0.78 F1800.0
G1 X-9.51 Y3.11 Z0.78 F1800.0
G1 X-8.96 Y2.15 Z0.78 F1800.0
G1 X-8.62 Y1.1 Z0.78 F1800.0
G1 X-8.5 Y-0.0 Z0.78 F1800.0
G1 X-8.62 Y-1.1 Z0.78 F1800.0
G1 X-8.96 Y-2.15 Z0.78 F1800.0
G1 X-9.51 Y-3.11 Z0.78 F1800.0
G1 X-10.25 Y-3.94 Z0.78 F1800.0
G1 X-10.78 Y-4.32 Z0.78 F1800.0
M108 R30.0
M102
G1 X-11.15 Y-4.59 Z0.78 F1800.0
M108 R3.569
M103
(</perimeter>)
(</boundaryPerimeter>)
(</surroundingLoop>)
(<surroundingLoop>)
(<boundaryPerimeter>)
(<boundaryPoint> X9.671 Y2.998 Z0.78 </boundaryPoint>)
(<boundaryPoint> X10.384 Y3.79 Z0.78 </boundaryPoint>)
(<boundaryPoint> X11.247 Y4.417 Z0.78 </boundaryPoint>)
(<boundaryPoint> X12.221 Y4.85 Z0.78 </boundaryPoint>)
(<boundaryPoint> X13.263 Y5.072 Z0.78 </boundaryPoint>)
(<boundaryPoint> X14.33 Y5.072 Z0.78 </boundaryPoint>)
(<boundaryPoint> X15.373 Y4.85 Z0.78 </boundaryPoint>)
(<boundaryPoint> X16.346 Y4.417 Z0.78 </boundaryPoint>)
(<boundaryPoint> X17.209 Y3.79 Z0.78 </boundaryPoint>)
(<boundaryPoint> X17.923 Y2.998 Z0.78 </boundaryPoint>)
(<boundaryPoint> X18.456 Y2.074 Z0.78 </boundaryPoint>)
(<boundaryPoint> X18.785 Y1.06 Z0.78 </boundaryPoint>)
(<boundaryPoint> X18.897 Y-0.0 Z0.78 </boundaryPoint>)
(<boundaryPoint> X18.785 Y-1.06 Z0.78 </boundaryPoint>)
(<boundaryPoint> X18.456 Y-2.074 Z0.78 </boundaryPoint>)
(<boundaryPoint> X17.923 Y-2.998 Z0.78 </boundaryPoint>)
(<boundaryPoint> X17.209 Y-3.79 Z0.78 </boundaryPoint>)
(<boundaryPoint> X16.346 Y-4.417 Z0.78 </boundaryPoint>)
(<boundaryPoint> X15.373 Y-4.85 Z0.78 </boundaryPoint>)
(<boundaryPoint> X14.33 Y-5.072 Z0.78 </boundaryPoint>)
(<boundaryPoint> X13.263 Y-5.072 Z0.78 </boundaryPoint>)
(<boundaryPoint> X12.221 Y-4.85 Z0.78 </boundaryPoint>)
(<boundaryPoint> X11.247 Y-4.417 Z0.78 </boundaryPoint>)
(<boundaryPoint> X10.384 Y-3.79 Z0.78 </boundaryPoint>)
(<boundaryPoint> X9.671 Y-2.998 Z0.78 </boundaryPoint>)
(<boundaryPoint> X9.137 Y-2.074 Z0.78 </boundaryPoint>)
(<boundaryPoint> X8.808 Y-1.06 Z0.78 </boundaryPoint>)
(<boundaryPoint> X8.696 Y0.0 Z0.78 </boundaryPoint>)
(<boundaryPoint> X8.808 Y1.06 Z0.78 </boundaryPoint>)
(<boundaryPoint> X9.137 Y2.074 Z0.78 </boundaryPoint>)
(<perimeter> inner )
G1 X7.83 Y-1.24 Z0.78 F3000.0
M108 R30.0
M101
G1 X8.62 Y-1.1 Z0.78 F3000.0
M108 R3.569
G1 X8.5 Y0.0 Z0.78 F1800.0
G1 X8.62 Y1.1 Z0.78 F1800.0
G1 X8.96 Y2.15 Z0.78 F1800.0
G1 X9.51 Y3.11 Z0.78 F1800.0
G1 X10.25 Y3.94 Z0.78 F1800.0
G1 X11.15 Y4.59 Z0.78 F1800.0
G1 X12.16 Y5.04 Z0.78 F1800.0
G1 X13.24 Y5.27 Z0.78 F1800.0
G1 X14.35 Y5.27 Z0.78 F1800.0
G1 X15.43 Y5.04 Z0.78 F1800.0
G1 X16.45 Y4.59 Z0.78 F1800.0
G1 X17.34 Y3.94 Z0.78 F1800.0
G1 X18.08 Y3.11 Z0.78 F1800.0
G1 X18.64 Y2.15 Z0.78 F1800.0
G1 X18.98 Y1.1 Z0.78 F1800.0
G1 X19.1 Y-0.0 Z0.78 F1800.0
G1 X18.98 Y-1.1 Z0.78 F1800.0
G1 X18.64 Y-2.15 Z0.78 F1800.0
G1 X18.08 Y-3.11 Z0.78 F1800.0
G1 X17.34 Y-3.94 Z0.78 F1800.0
G1 X16.45 Y-4.59 Z0.78 F1800.0
G1 X15.43 Y-5.04 Z0.78 F1800.0
G1 X14.35 Y-5.27 Z0.78 F1800.0
G1 X13.24 Y-5.27 Z0.78 F1800.0
G1 X12.16 Y-5.04 Z0.78 F1800.0
G1 X11.15 Y-4.59 Z0.78 F1800.0
G1 X10.25 Y-3.94 Z0.78 F1800.0
G1 X9.51 Y-3.11 Z0.78 F1800.0
G1 X8.96 Y-2.15 Z0.78 F1800.0
G1 X8.75 Y-1.53 Z0.78 F1800.0
M108 R30.0
M102
G1 X8.62 Y-1.1 Z0.78 F1800.0
M108 R3.569
M103
(</perimeter>)
(</boundaryPerimeter>)
(</surroundingLoop>)
G1 X-7.17 Y-1.17 Z0.78 F3000.0
M108 R30.0
M101
G1 X-7.97 Y-1.18 Z0.78 F3000.0
M108 R3.569
G1 X7.97 Y-1.18 Z0.78 F1800.0
M103
G1 X8.09 Y-1.57 Z0.78 F3000.0
M101
G1 X-8.09 Y-1.57 Z0.78 F1800.0
M103
G1 X-8.21 Y-1.96 Z0.78 F3000.0
M101
G1 X8.21 Y-1.96 Z0.78 F1800.0
M103
G1 X8.34 Y-2.36 Z0.78 F3000.0
M101
G1 X-8.34 Y-2.36 Z0.78 F1800.0
M103
G1 X-8.55 Y-2.75 Z0.78 F3000.0
M101
G1 X8.55 Y-2.75 Z0.78 F1800.0
G1 X8.78 Y-3.14 Z0.78 F1800.0
G1 X-8.78 Y-3.14 Z0.78 F1800.0
M103
G1 X-9.02 Y-3.53 Z0.78 F3000.0
M101
G1 X9.02 Y-3.53 Z0.78 F1800.0
G1 X9.37 Y-3.93 Z0.78 F1800.0
G1 X-9.37 Y-3.93 Z0.78 F1800.0
G1 X-9.72 Y-4.32 Z0.78 F1800.0
G1 X9.72 Y-4.32 Z0.78 F1800.0
G1 X10.22 Y-4.71 Z0.78 F1800.0
G1 X-10.22 Y-4.71 Z0.78 F1800.0
G1 X-10.76 Y-5.11 Z0.78 F1800.0
G1 X10.76 Y-5.11 Z0.78 F1800.0
M103
G1 X11.6 Y-5.5 Z0.78 F3000.0
M101
G1 X-11.15 Y-5.5 Z0.78 F1800.0
M108 R30.0
M102
G1 X-11.6 Y-5.5 Z0.78 F1800.0
M108 R3.569
M103
G1 X-12.28 Y-5.68 Z0.78 F3000.0
M108 R30.0
M101
G1 X-13.05 Y-5.89 Z0.78 F3000.0
M108 R3.569
G1 X12.6 Y-5.89 Z0.78 F1800.0
M108 R30.0
M102
G1 X13.05 Y-5.89 Z0.78 F1800.0
M108 R3.569
M103
G1 X13.74 Y-5.89 Z0.78 F3000.0
M108 R30.0
M101
G1 X14.54 Y-5.89 Z0.78 F3000.0
M108 R3.569
G1 X26.75 Y-5.89 Z0.78 F1800.0
G1 X26.75 Y-5.5 Z0.78 F1800.0
G1 X16.0 Y-5.5 Z0.78 F1800.0
M103
G1 X16.84 Y-5.11 Z0.78 F3000.0
M101
G1 X26.75 Y-5.11 Z0.78 F1800.0
G1 X26.75 Y-4.71 Z0.78 F1800.0
G1 X17.38 Y-4.71 Z0.78 F1800.0
G1 X17.87 Y-4.32 Z0.78 F1800.0
G1 X26.75 Y-4.32 Z0.78 F1800.0
G1 X26.75 Y-3.93 Z0.78 F1800.0
G1 X18.22 Y-3.93 Z0.78 F1800.0
G1 X18.58 Y-3.53 Z0.78 F1800.0
G1 X26.75 Y-3.53 Z0.78 F1800.0
G1 X26.75 Y-3.14 Z0.78 F1800.0
G1 X18.82 Y-3.14 Z0.78 F1800.0
G1 X19.04 Y-2.75 Z0.78 F1800.0
G1 X26.75 Y-2.75 Z0.78 F1800.0
G1 X26.75 Y-2.36 Z0.78 F1800.0
G1 X19.25 Y-2.36 Z0.78 F1800.0
M103
G1 X19.38 Y-1.96 Z0.78 F3000.0
M101
G1 X26.75 Y-1.96 Z0.78 F1800.0
G1 X26.75 Y-1.57 Z0.78 F1800.0
G1 X19.51 Y-1.57 Z0.78 F1800.0
M103
G1 X19.62 Y-1.18 Z0.78 F3000.0
M101
G1 X26.75 Y-1.18 Z0.78 F1800.0
G1 X26.75 Y-0.79 Z0.78 F1800.0
G1 X19.66 Y-0.79 Z0.78 F1800.0
G1 X19.7 Y-0.39 Z0.78 F1800.0
G1 X26.75 Y-0.39 Z0.78 F1800.0
G1 X26.75 Y-0.0 Z0.78 F1800.0
G1 X19.75 Y-0.0 Z0.78 F1800.0
M103
G1 X19.7 Y0.39 Z0.78 F3000.0
M101
G1 X26.75 Y0.39 Z0.78 F1800.0
G1 X26.75 Y0.79 Z0.78 F1800.0
G1 X19.66 Y0.79 Z0.78 F1800.0
M103
G1 X19.62 Y1.18 Z0.78 F3000.0
M101
G1 X26.75 Y1.18 Z0.78 F1800.0
G1 X26.75 Y1.57 Z0.78 F1800.0
G1 X19.51 Y1.57 Z0.78 F1800.0
M103
G1 X19.38 Y1.96 Z0.78 F3000.0
M101
G1 X26.75 Y1.96 Z0.78 F1800.0
G1 X26.75 Y2.36 Z0.78 F1800.0
G1 X19.25 Y2.36 Z0.78 F1800.0
G1 X19.04 Y2.75 Z0.78 F1800.0
G1 X26.75 Y2.75 Z0.78 F1800.0
G1 X26.75 Y3.14 Z0.78 F1800.0
G1 X18.82 Y3.14 Z0.78 F1800.0
G1 X18.58 Y3.53 Z0.78 F1800.0
G1 X26.75 Y3.53 Z0.78 F1800.0
G1 X26.75 Y3.93 Z0.78 F1800.0
G1 X18.22 Y3.93 Z0.78 F1800.0
G1 X17.87 Y4.32 Z0.78 F1800.0
G1 X26.75 Y4.32 Z0.78 F1800.0
G1 X26.75 Y4.71 Z0.78 F1800.0
G1 X17.38 Y4.71 Z0.78 F1800.0
G1 X16.84 Y5.11 Z0.78 F1800.0
G1 X26.75 Y5.11 Z0.78 F1800.0
G1 X26.75 Y5.5 Z0.78 F1800.0
G1 X16.45 Y5.5 Z0.78 F1800.0
M108 R30.0
M102
G1 X16.0 Y5.5 Z0.78 F1800.0
M108 R3.569
M103
G1 X25.99 Y8.78 Z0.78 F3000.0
M108 R30.0
M101
G1 X26.75 Y9.03 Z0.78 F3000.0
M108 R3.569
G1 X-26.75 Y9.03 Z0.78 F1800.0
G1 X-26.75 Y8.64 Z0.78 F1800.0
G1 X26.75 Y8.64 Z0.78 F1800.0
G1 X26.75 Y8.25 Z0.78 F1800.0
G1 X-26.75 Y8.25 Z0.78 F1800.0
G1 X-26.75 Y7.85 Z0.78 F1800.0
G1 X26.75 Y7.85 Z0.78 F1800.0
G1 X26.75 Y7.46 Z0.78 F1800.0
G1 X-26.75 Y7.46 Z0.78 F1800.0
G1 X-26.75 Y7.07 Z0.78 F1800.0
G1 X26.75 Y7.07 Z0.78 F1800.0
G1 X26.75 Y6.68 Z0.78 F1800.0
G1 X-26.75 Y6.68 Z0.78 F1800.0
G1 X-26.75 Y6.28 Z0.78 F1800.0
G1 X26.75 Y6.28 Z0.78 F1800.0
G1 X26.75 Y5.89 Z0.78 F1800.0
G1 X14.99 Y5.89 Z0.78 F1800.0
M108 R30.0
M102
G1 X14.54 Y5.89 Z0.78 F1800.0
M108 R3.569
M103
G1 X13.85 Y5.89 Z0.78 F3000.0
M108 R30.0
M101
G1 X13.05 Y5.89 Z0.78 F3000.0
M108 R3.569
G1 X-12.6 Y5.89 Z0.78 F1800.0
M108 R30.0
M102
G1 X-13.05 Y5.89 Z0.78 F1800.0
M108 R3.569
M103
G1 X-13.74 Y5.89 Z0.78 F3000.0
M108 R30.0
M101
G1 X-14.54 Y5.89 Z0.78 F3000.0
M108 R3.569
G1 X-26.75 Y5.89 Z0.78 F1800.0
G1 X-26.75 Y5.5 Z0.78 F1800.0
G1 X-15.99 Y5.5 Z0.78 F1800.0
M103
G1 X-16.84 Y5.11 Z0.78 F3000.0
M101
G1 X-26.75 Y5.11 Z0.78 F1800.0
G1 X-26.75 Y4.71 Z0.78 F1800.0
G1 X-17.38 Y4.71 Z0.78 F1800.0
G1 X-17.87 Y4.32 Z0.78 F1800.0
G1 X-26.75 Y4.32 Z0.78 F1800.0
G1 X-26.75 Y3.93 Z0.78 F1800.0
G1 X-18.22 Y3.93 Z0.78 F1800.0
G1 X-18.58 Y3.53 Z0.78 F1800.0
G1 X-26.75 Y3.53 Z0.78 F1800.0
G1 X-26.75 Y3.14 Z0.78 F1800.0
G1 X-18.82 Y3.14 Z0.78 F1800.0
G1 X-19.04 Y2.75 Z0.78 F1800.0
G1 X-26.75 Y2.75 Z0.78 F1800.0
G1 X-26.75 Y2.36 Z0.78 F1800.0
G1 X-19.25 Y2.36 Z0.78 F1800.0
M103
G1 X-19.38 Y1.96 Z0.78 F3000.0
M101
G1 X-26.75 Y1.96 Z0.78 F1800.0
G1 X-26.75 Y1.57 Z0.78 F1800.0
G1 X-19.51 Y1.57 Z0.78 F1800.0
M103
G1 X-19.62 Y1.18 Z0.78 F3000.0
M101
G1 X-26.75 Y1.18 Z0.78 F1800.0
G1 X-26.75 Y0.79 Z0.78 F1800.0
G1 X-19.66 Y0.79 Z0.78 F1800.0
G1 X-19.7 Y0.39 Z0.78 F1800.0
G1 X-26.75 Y0.39 Z0.78 F1800.0
G1 X-26.75 Y0.0 Z0.78 F1800.0
G1 X-19.75 Y0.0 Z0.78 F1800.0
M103
G1 X-19.7 Y-0.39 Z0.78 F3000.0
M101
G1 X-26.75 Y-0.39 Z0.78 F1800.0
G1 X-26.75 Y-0.79 Z0.78 F1800.0
G1 X-19.66 Y-0.79 Z0.78 F1800.0
M103
G1 X-19.62 Y-1.18 Z0.78 F3000.0
M101
G1 X-26.75 Y-1.18 Z0.78 F1800.0
G1 X-26.75 Y-1.57 Z0.78 F1800.0
G1 X-19.51 Y-1.57 Z0.78 F1800.0
M103
G1 X-19.38 Y-1.96 Z0.78 F3000.0
M101
G1 X-26.75 Y-1.96 Z0.78 F1800.0
G1 X-26.75 Y-2.36 Z0.78 F1800.0
G1 X-19.25 Y-2.36 Z0.78 F1800.0
G1 X-19.04 Y-2.75 Z0.78 F1800.0
G1 X-26.75 Y-2.75 Z0.78 F1800.0
G1 X-26.75 Y-3.14 Z0.78 F1800.0
G1 X-18.82 Y-3.14 Z0.78 F1800.0
G1 X-18.58 Y-3.53 Z0.78 F1800.0
G1 X-26.75 Y-3.53 Z0.78 F1800.0
G1 X-26.75 Y-3.93 Z0.78 F1800.0
G1 X-18.22 Y-3.93 Z0.78 F1800.0
G1 X-17.87 Y-4.32 Z0.78 F1800.0
G1 X-26.75 Y-4.32 Z0.78 F1800.0
G1 X-26.75 Y-4.71 Z0.78 F1800.0
G1 X-17.38 Y-4.71 Z0.78 F1800.0
G1 X-16.84 Y-5.11 Z0.78 F1800.0
G1 X-26.75 Y-5.11 Z0.78 F1800.0
G1 X-26.75 Y-5.5 Z0.78 F1800.0
G1 X-16.44 Y-5.5 Z0.78 F1800.0
M108 R30.0
M102
G1 X-15.99 Y-5.5 Z0.78 F1800.0
M108 R3.569
M103
G1 X-15.31 Y-5.68 Z0.78 F3000.0
M108 R30.0
M101
G1 X-14.54 Y-5.89 Z0.78 F3000.0
M108 R3.569
G1 X-26.75 Y-5.89 Z0.78 F1800.0
G1 X-26.75 Y-6.28 Z0.78 F1800.0
G1 X26.75 Y-6.28 Z0.78 F1800.0
G1 X26.75 Y-6.68 Z0.78 F1800.0
G1 X-26.75 Y-6.68 Z0.78 F1800.0
G1 X-26.75 Y-7.07 Z0.78 F1800.0
G1 X26.75 Y-7.07 Z0.78 F1800.0
G1 X26.75 Y-7.46 Z0.78 F1800.0
G1 X-26.75 Y-7.46 Z0.78 F1800.0
G1 X-26.75 Y-7.85 Z0.78 F1800.0
G1 X26.75 Y-7.85 Z0.78 F1800.0
G1 X26.75 Y-8.25 Z0.78 F1800.0
G1 X-26.75 Y-8.25 Z0.78 F1800.0
G1 X-26.75 Y-8.64 Z0.78 F1800.0
G1 X26.75 Y-8.64 Z0.78 F1800.0
G1 X26.75 Y-9.03 Z0.78 F1800.0
G1 X-26.3 Y-9.03 Z0.78 F1800.0
M108 R30.0
M102
G1 X-26.75 Y-9.03 Z0.78 F1800.0
M108 R3.569
M103
G1 X-12.14 Y-5.11 Z0.78 F3000.0
G1 X-11.11 Y-4.65 Z0.78 F3000.0
G1 X-10.2 Y-3.99 Z0.78 F3000.0
G1 X-9.45 Y-3.16 Z0.78 F3000.0
G1 X-8.28 Y-1.09 Z0.78 F3000.0
M108 R30.0
M101
G1 X-7.89 Y-0.39 Z0.78 F3000.0
M108 R3.569
G1 X7.89 Y-0.39 Z0.78 F1800.0
G1 X7.93 Y-0.79 Z0.78 F1800.0
G1 X-7.48 Y-0.79 Z0.78 F1800.0
M108 R30.0
M102
G1 X-7.93 Y-0.79 Z0.78 F1800.0
M108 R3.569
M103
G1 X7.05 Y-0.04 Z0.78 F3000.0
M108 R30.0
M101
G1 X7.85 Y-0.0 Z0.78 F3000.0
M108 R3.569
G1 X-7.4 Y0.0 Z0.78 F1800.0
M108 R30.0
M102
G1 X-7.85 Y0.0 Z0.78 F1800.0
M108 R3.569
M103
G1 X-7.89 Y0.38 Z0.78 F3000.0
M108 R30.0
M101
G1 X-7.97 Y1.18 Z0.78 F3000.0
M108 R3.569
G1 X7.97 Y1.18 Z0.78 F1800.0
M103
G1 X7.93 Y0.79 Z0.78 F3000.0
M101
G1 X-7.93 Y0.79 Z0.78 F1800.0
G1 X-7.89 Y0.39 Z0.78 F1800.0
G1 X7.44 Y0.39 Z0.78 F1800.0
M108 R30.0
M102
G1 X7.89 Y0.39 Z0.78 F1800.0
M108 R3.569
M103
G1 X7.95 Y0.78 Z0.78 F3000.0
M108 R30.0
M101
G1 X8.09 Y1.57 Z0.78 F3000.0
M108 R3.569
G1 X-8.09 Y1.57 Z0.78 F1800.0
M103
G1 X-8.21 Y1.96 Z0.78 F3000.0
M101
G1 X8.21 Y1.96 Z0.78 F1800.0
M103
G1 X8.34 Y2.36 Z0.78 F3000.0
M101
G1 X-7.89 Y2.36 Z0.78 F1800.0
M108 R30.0
M102
G1 X-8.34 Y2.36 Z0.78 F1800.0
M108 R3.569
M103
G1 X-10.23 Y4.5 Z0.78 F3000.0
M108 R30.0
M101
G1 X-10.76 Y5.11 Z0.78 F3000.0
M108 R3.569
G1 X10.76 Y5.11 Z0.78 F1800.0
G1 X10.22 Y4.71 Z0.78 F1800.0
G1 X-10.22 Y4.71 Z0.78 F1800.0
G1 X-9.72 Y4.32 Z0.78 F1800.0
G1 X9.72 Y4.32 Z0.78 F1800.0
G1 X9.37 Y3.93 Z0.78 F1800.0
G1 X-9.37 Y3.93 Z0.78 F1800.0
G1 X-9.02 Y3.53 Z0.78 F1800.0
G1 X9.02 Y3.53 Z0.78 F1800.0
M103
G1 X8.78 Y3.14 Z0.78 F3000.0
M101
G1 X-8.78 Y3.14 Z0.78 F1800.0
G1 X-8.55 Y2.75 Z0.78 F1800.0
G1 X8.1 Y2.75 Z0.78 F1800.0
M108 R30.0
M102
G1 X8.55 Y2.75 Z0.78 F1800.0
M108 R3.569
M103
G1 X11.01 Y4.96 Z0.78 F3000.0
M108 R30.0
M101
G1 X11.6 Y5.5 Z0.78 F3000.0
M108 R3.569
G1 X-11.6 Y5.5 Z0.78 F1800.0
M103
(</surroundingLoop>)
(</layer>)
(<operatingLayerEnd> </operatingLayerEnd>)
(<layer> 1.1 )
(<surroundingLoop>)
(<boundaryPerimeter>)
(<boundaryPoint> X27.593 Y-10.2 Z1.1 </boundaryPoint>)
(<boundaryPoint> X27.593 Y10.2 Z1.1 </boundaryPoint>)
(<boundaryPoint> X-27.593 Y10.2 Z1.1 </boundaryPoint>)
(<boundaryPoint> X-27.593 Y-10.2 Z1.1 </boundaryPoint>)
(<loop> inner )
G1 X-11.45 Y5.15 Z1.1 F3000.0
M101
G1 X-10.95 Y4.93 Z1.1 F1800.0
G1 X-9.99 Y4.23 Z1.1 F1800.0
G1 X-9.19 Y3.35 Z1.1 F1800.0
G1 X-8.6 Y2.32 Z1.1 F1800.0
G1 X-8.23 Y1.18 Z1.1 F1800.0
G1 X-8.1 Y0.0 Z1.1 F1800.0
G1 X-8.23 Y-1.18 Z1.1 F1800.0
G1 X-8.6 Y-2.32 Z1.1 F1800.0
G1 X-9.19 Y-3.35 Z1.1 F1800.0
G1 X-9.99 Y-4.23 Z1.1 F1800.0
G1 X-10.95 Y-4.93 Z1.1 F1800.0
G1 X-12.04 Y-5.41 Z1.1 F1800.0
G1 X-13.2 Y-5.66 Z1.1 F1800.0
G1 X-14.39 Y-5.66 Z1.1 F1800.0
G1 X-15.56 Y-5.41 Z1.1 F1800.0
G1 X-16.64 Y-4.93 Z1.1 F1800.0
G1 X-17.61 Y-4.23 Z1.1 F1800.0
G1 X-18.4 Y-3.35 Z1.1 F1800.0
G1 X-19.0 Y-2.32 Z1.1 F1800.0
G1 X-19.36 Y-1.18 Z1.1 F1800.0
G1 X-19.49 Y-0.0 Z1.1 F1800.0
G1 X-19.36 Y1.18 Z1.1 F1800.0
G1 X-19.0 Y2.32 Z1.1 F1800.0
G1 X-18.4 Y3.35 Z1.1 F1800.0
G1 X-17.61 Y4.23 Z1.1 F1800.0
G1 X-16.64 Y4.93 Z1.1 F1800.0
G1 X-15.56 Y5.41 Z1.1 F1800.0
G1 X-14.39 Y5.66 Z1.1 F1800.0
G1 X-13.2 Y5.66 Z1.1 F1800.0
G1 X-12.04 Y5.41 Z1.1 F1800.0
G1 X-11.86 Y5.34 Z1.1 F1800.0
M108 R30.0
M102
G1 X-11.7 Y5.27 Z1.1 F1800.0
G1 X-11.45 Y5.15 Z1.1 F1800.0
M108 R3.569
M103
(</loop>)
(<loop> inner )
G1 X7.44 Y1.34 Z1.1 F3000.0
M108 R30.0
M101
G1 X8.23 Y1.18 Z1.1 F3000.0
M108 R3.569
G1 X8.6 Y2.32 Z1.1 F1800.0
G1 X9.19 Y3.35 Z1.1 F1800.0
G1 X9.99 Y4.23 Z1.1 F1800.0
G1 X10.95 Y4.93 Z1.1 F1800.0
G1 X12.04 Y5.41 Z1.1 F1800.0
G1 X13.2 Y5.66 Z1.1 F1800.0
G1 X14.39 Y5.66 Z1.1 F1800.0
G1 X15.56 Y5.41 Z1.1 F1800.0
G1 X16.64 Y4.93 Z1.1 F1800.0
G1 X17.61 Y4.23 Z1.1 F1800.0
G1 X18.4 Y3.35 Z1.1 F1800.0
G1 X19.0 Y2.32 Z1.1 F1800.0
G1 X19.36 Y1.18 Z1.1 F1800.0
G1 X19.49 Y0.0 Z1.1 F1800.0
G1 X19.36 Y-1.18 Z1.1 F1800.0
G1 X19.0 Y-2.32 Z1.1 F1800.0
G1 X18.4 Y-3.35 Z1.1 F1800.0
G1 X17.61 Y-4.23 Z1.1 F1800.0
G1 X16.64 Y-4.93 Z1.1 F1800.0
G1 X15.56 Y-5.41 Z1.1 F1800.0
G1 X14.39 Y-5.66 Z1.1 F1800.0
G1 X13.2 Y-5.66 Z1.1 F1800.0
G1 X12.04 Y-5.41 Z1.1 F1800.0
G1 X10.95 Y-4.93 Z1.1 F1800.0
G1 X9.99 Y-4.23 Z1.1 F1800.0
G1 X9.19 Y-3.35 Z1.1 F1800.0
G1 X8.6 Y-2.32 Z1.1 F1800.0
G1 X8.23 Y-1.18 Z1.1 F1800.0
G1 X8.1 Y-0.0 Z1.1 F1800.0
G1 X8.18 Y0.74 Z1.1 F1800.0
M108 R30.0
M102
G1 X8.23 Y1.18 Z1.1 F1800.0
M108 R3.569
M103
(</loop>)
(<loop> outer )
G1 X8.23 Y8.81 Z1.1 F3000.0
M108 R30.0
M101
G1 X8.23 Y9.61 Z1.1 F3000.0
M108 R3.569
G1 X-27.0 Y9.61 Z1.1 F1800.0
G1 X-27.0 Y-9.61 Z1.1 F1800.0
G1 X27.0 Y-9.61 Z1.1 F1800.0
G1 X27.0 Y9.61 Z1.1 F1800.0
G1 X8.23 Y9.61 Z1.1 F1800.0
M103
(</loop>)
(<perimeter> outer )
G1 X8.23 Y10.0 Z1.1 F3000.0
M101
G1 X-27.4 Y10.0 Z1.1 F1800.0
G1 X-27.4 Y-10.0 Z1.1 F1800.0
G1 X27.4 Y-10.0 Z1.1 F1800.0
G1 X27.4 Y10.0 Z1.1 F1800.0
G1 X8.68 Y10.0 Z1.1 F1800.0
M108 R30.0
M102
G1 X8.23 Y10.0 Z1.1 F1800.0
M108 R3.569
M103
(</perimeter>)
(</boundaryPerimeter>)
(<surroundingLoop>)
(<boundaryPerimeter>)
(<boundaryPoint> X9.671 Y2.998 Z1.1 </boundaryPoint>)
(<boundaryPoint> X10.384 Y3.79 Z1.1 </boundaryPoint>)
(<boundaryPoint> X11.247 Y4.417 Z1.1 </boundaryPoint>)
(<boundaryPoint> X12.221 Y4.85 Z1.1 </boundaryPoint>)
(<boundaryPoint> X13.263 Y5.072 Z1.1 </boundaryPoint>)
(<boundaryPoint> X14.33 Y5.072 Z1.1 </boundaryPoint>)
(<boundaryPoint> X15.373 Y4.85 Z1.1 </boundaryPoint>)
(<boundaryPoint> X16.346 Y4.417 Z1.1 </boundaryPoint>)
(<boundaryPoint> X17.209 Y3.79 Z1.1 </boundaryPoint>)
(<boundaryPoint> X17.923 Y2.998 Z1.1 </boundaryPoint>)
(<boundaryPoint> X18.456 Y2.074 Z1.1 </boundaryPoint>)
(<boundaryPoint> X18.785 Y1.06 Z1.1 </boundaryPoint>)
(<boundaryPoint> X18.897 Y-0.0 Z1.1 </boundaryPoint>)
(<boundaryPoint> X18.785 Y-1.06 Z1.1 </boundaryPoint>)
(<boundaryPoint> X18.456 Y-2.074 Z1.1 </boundaryPoint>)
(<boundaryPoint> X17.923 Y-2.998 Z1.1 </boundaryPoint>)
(<boundaryPoint> X17.209 Y-3.79 Z1.1 </boundaryPoint>)
(<boundaryPoint> X16.346 Y-4.417 Z1.1 </boundaryPoint>)
(<boundaryPoint> X15.373 Y-4.85 Z1.1 </boundaryPoint>)
(<boundaryPoint> X14.33 Y-5.072 Z1.1 </boundaryPoint>)
(<boundaryPoint> X13.263 Y-5.072 Z1.1 </boundaryPoint>)
(<boundaryPoint> X12.221 Y-4.85 Z1.1 </boundaryPoint>)
(<boundaryPoint> X11.247 Y-4.417 Z1.1 </boundaryPoint>)
(<boundaryPoint> X10.384 Y-3.79 Z1.1 </boundaryPoint>)
(<boundaryPoint> X9.671 Y-2.998 Z1.1 </boundaryPoint>)
(<boundaryPoint> X9.137 Y-2.074 Z1.1 </boundaryPoint>)
(<boundaryPoint> X8.808 Y-1.06 Z1.1 </boundaryPoint>)
(<boundaryPoint> X8.696 Y0.0 Z1.1 </boundaryPoint>)
(<boundaryPoint> X8.808 Y1.06 Z1.1 </boundaryPoint>)
(<boundaryPoint> X9.137 Y2.074 Z1.1 </boundaryPoint>)
(<perimeter> inner )
G1 X10.77 Y5.29 Z1.1 F3000.0
M108 R30.0
M101
G1 X11.15 Y4.59 Z1.1 F3000.0
M108 R3.569
G1 X12.16 Y5.04 Z1.1 F1800.0
G1 X13.24 Y5.27 Z1.1 F1800.0
G1 X14.35 Y5.27 Z1.1 F1800.0
G1 X15.43 Y5.04 Z1.1 F1800.0
G1 X16.45 Y4.59 Z1.1 F1800.0
G1 X17.34 Y3.94 Z1.1 F1800.0
G1 X18.08 Y3.11 Z1.1 F1800.0
G1 X18.64 Y2.15 Z1.1 F1800.0
G1 X18.98 Y1.1 Z1.1 F1800.0
G1 X19.1 Y-0.0 Z1.1 F1800.0
G1 X18.98 Y-1.1 Z1.1 F1800.0
G1 X18.64 Y-2.15 Z1.1 F1800.0
G1 X18.08 Y-3.11 Z1.1 F1800.0
G1 X17.34 Y-3.94 Z1.1 F1800.0
G1 X16.45 Y-4.59 Z1.1 F1800.0
G1 X15.43 Y-5.04 Z1.1 F1800.0
G1 X14.35 Y-5.27 Z1.1 F1800.0
G1 X13.24 Y-5.27 Z1.1 F1800.0
G1 X12.16 Y-5.04 Z1.1 F1800.0
G1 X11.15 Y-4.59 Z1.1 F1800.0
G1 X10.25 Y-3.94 Z1.1 F1800.0
G1 X9.51 Y-3.11 Z1.1 F1800.0
G1 X8.96 Y-2.15 Z1.1 F1800.0
G1 X8.62 Y-1.1 Z1.1 F1800.0
G1 X8.5 Y0.0 Z1.1 F1800.0
G1 X8.62 Y1.1 Z1.1 F1800.0
G1 X8.96 Y2.15 Z1.1 F1800.0
G1 X9.51 Y3.11 Z1.1 F1800.0
G1 X10.25 Y3.94 Z1.1 F1800.0
G1 X10.78 Y4.32 Z1.1 F1800.0
M108 R30.0
M102
G1 X11.15 Y4.59 Z1.1 F1800.0
M108 R3.569
M103
(</perimeter>)
(</boundaryPerimeter>)
(</surroundingLoop>)
(<surroundingLoop>)
(<boundaryPerimeter>)
(<boundaryPoint> X-17.922 Y2.998 Z1.1 </boundaryPoint>)
(<boundaryPoint> X-17.209 Y3.79 Z1.1 </boundaryPoint>)
(<boundaryPoint> X-16.346 Y4.417 Z1.1 </boundaryPoint>)
(<boundaryPoint> X-15.372 Y4.85 Z1.1 </boundaryPoint>)
(<boundaryPoint> X-14.33 Y5.072 Z1.1 </boundaryPoint>)
(<boundaryPoint> X-13.263 Y5.072 Z1.1 </boundaryPoint>)
(<boundaryPoint> X-12.221 Y4.85 Z1.1 </boundaryPoint>)
(<boundaryPoint> X-11.246 Y4.417 Z1.1 </boundaryPoint>)
(<boundaryPoint> X-10.384 Y3.79 Z1.1 </boundaryPoint>)
(<boundaryPoint> X-9.671 Y2.998 Z1.1 </boundaryPoint>)
(<boundaryPoint> X-9.137 Y2.074 Z1.1 </boundaryPoint>)
(<boundaryPoint> X-8.808 Y1.06 Z1.1 </boundaryPoint>)
(<boundaryPoint> X-8.696 Y-0.0 Z1.1 </boundaryPoint>)
(<boundaryPoint> X-8.808 Y-1.06 Z1.1 </boundaryPoint>)
(<boundaryPoint> X-9.137 Y-2.074 Z1.1 </boundaryPoint>)
(<boundaryPoint> X-9.671 Y-2.998 Z1.1 </boundaryPoint>)
(<boundaryPoint> X-10.384 Y-3.79 Z1.1 </boundaryPoint>)
(<boundaryPoint> X-11.246 Y-4.417 Z1.1 </boundaryPoint>)
(<boundaryPoint> X-12.221 Y-4.85 Z1.1 </boundaryPoint>)
(<boundaryPoint> X-13.263 Y-5.072 Z1.1 </boundaryPoint>)
(<boundaryPoint> X-14.33 Y-5.072 Z1.1 </boundaryPoint>)
(<boundaryPoint> X-15.372 Y-4.85 Z1.1 </boundaryPoint>)
(<boundaryPoint> X-16.346 Y-4.417 Z1.1 </boundaryPoint>)
(<boundaryPoint> X-17.209 Y-3.79 Z1.1 </boundaryPoint>)
(<boundaryPoint> X-17.922 Y-2.998 Z1.1 </boundaryPoint>)
(<boundaryPoint> X-18.456 Y-2.074 Z1.1 </boundaryPoint>)
(<boundaryPoint> X-18.785 Y-1.06 Z1.1 </boundaryPoint>)
(<boundaryPoint> X-18.896 Y0.0 Z1.1 </boundaryPoint>)
(<boundaryPoint> X-18.785 Y1.06 Z1.1 </boundaryPoint>)
(<boundaryPoint> X-18.456 Y2.074 Z1.1 </boundaryPoint>)
(<perimeter> inner )
G1 X-7.83 Y1.24 Z1.1 F3000.0
M108 R30.0
M101
G1 X-8.62 Y1.1 Z1.1 F3000.0
M108 R3.569
G1 X-8.5 Y-0.0 Z1.1 F1800.0
G1 X-8.62 Y-1.1 Z1.1 F1800.0
G1 X-8.96 Y-2.15 Z1.1 F1800.0
G1 X-9.51 Y-3.11 Z1.1 F1800.0
G1 X-10.25 Y-3.94 Z1.1 F1800.0
G1 X-11.15 Y-4.59 Z1.1 F1800.0
G1 X-12.16 Y-5.04 Z1.1 F1800.0
G1 X-13.24 Y-5.27 Z1.1 F1800.0
G1 X-14.35 Y-5.27 Z1.1 F1800.0
G1 X-15.43 Y-5.04 Z1.1 F1800.0
G1 X-16.45 Y-4.59 Z1.1 F1800.0
G1 X-17.34 Y-3.94 Z1.1 F1800.0
G1 X-18.08 Y-3.11 Z1.1 F1800.0
G1 X-18.64 Y-2.15 Z1.1 F1800.0
G1 X-18.98 Y-1.1 Z1.1 F1800.0
G1 X-19.09 Y0.0 Z1.1 F1800.0
G1 X-18.98 Y1.1 Z1.1 F1800.0
G1 X-18.64 Y2.15 Z1.1 F1800.0
G1 X-18.08 Y3.11 Z1.1 F1800.0
G1 X-17.34 Y3.94 Z1.1 F1800.0
G1 X-16.45 Y4.59 Z1.1 F1800.0
G1 X-15.43 Y5.04 Z1.1 F1800.0
G1 X-14.35 Y5.27 Z1.1 F1800.0
G1 X-13.24 Y5.27 Z1.1 F1800.0
G1 X-12.16 Y5.04 Z1.1 F1800.0
G1 X-11.15 Y4.59 Z1.1 F1800.0
G1 X-10.25 Y3.94 Z1.1 F1800.0
G1 X-9.51 Y3.11 Z1.1 F1800.0
G1 X-8.96 Y2.15 Z1.1 F1800.0
G1 X-8.75 Y1.53 Z1.1 F1800.0
M108 R30.0
M102
G1 X-8.62 Y1.1 Z1.1 F1800.0
M108 R3.569
M103
(</perimeter>)
(</boundaryPerimeter>)
(</surroundingLoop>)
G1 X-8.32 Y8.56 Z1.1 F3000.0
M108 R30.0
M101
G1 X-8.29 Y9.36 Z1.1 F3000.0
M108 R3.569
G1 X-7.85 Y8.92 Z1.1 F1800.0
G1 X-7.75 Y7.51 Z1.1 F1800.0
G1 X-9.7 Y5.45 Z1.1 F1800.0
G1 X-7.75 Y3.4 Z1.1 F1800.0
G1 X-7.75 Y3.15 Z1.1 F1800.0
G1 X-8.07 Y2.59 Z1.1 F1800.0
M108 R30.0
M102
G1 X-8.29 Y2.2 Z1.1 F1800.0
M108 R3.569
M103
G1 X-8.29 Y-1.4 Z1.1 F3000.0
M108 R30.0
M101
G1 X-8.29 Y-2.2 Z1.1 F3000.0
M108 R3.569
G1 X-7.75 Y-5.58 Z1.1 F1800.0
G1 X-9.7 Y-7.51 Z1.1 F1800.0
G1 X-9.7 Y-7.76 Z1.1 F1800.0
G1 X-9.16 Y-8.92 Z1.1 F1800.0
G1 X-8.73 Y-8.92 Z1.1 F1800.0
G1 X-8.61 Y-9.04 Z1.1 F1800.0
M108 R30.0
M102
G1 X-8.29 Y-9.36 Z1.1 F1800.0
M108 R3.569
M103
G1 X-9.67 Y-9.36 Z1.1 F3000.0
M108 R30.0
M101
G1 X-10.47 Y-9.36 Z1.1 F3000.0
M108 R3.569
G1 X-10.04 Y-8.92 Z1.1 F1800.0
G1 X-9.93 Y-7.51 Z1.1 F1800.0
G1 X-10.47 Y-4.9 Z1.1 F1800.0
G1 X-10.04 Y-4.58 Z1.1 F1800.0
G1 X-9.48 Y-4.02 Z1.1 F1800.0
M108 R30.0
M102
G1 X-9.16 Y-3.7 Z1.1 F1800.0
M108 R3.569
M103
G1 X-6.49 Y-8.65 Z1.1 F3000.0
M108 R30.0
M101
G1 X-6.11 Y-9.36 Z1.1 F3000.0
M108 R3.569
G1 X-5.67 Y-8.92 Z1.1 F1800.0
G1 X-5.57 Y-7.51 Z1.1 F1800.0
G1 X-7.52 Y-5.58 Z1.1 F1800.0
G1 X-7.52 Y-5.33 Z1.1 F1800.0
G1 X-5.57 Y-3.4 Z1.1 F1800.0
G1 X-5.57 Y-3.15 Z1.1 F1800.0
G1 X-7.64 Y-1.22 Z1.1 F1800.0
G1 X-7.64 Y-0.96 Z1.1 F1800.0
G1 X-7.85 Y0.07 Z1.1 F1800.0
G1 X-5.57 Y0.96 Z1.1 F1800.0
G1 X-5.57 Y1.22 Z1.1 F1800.0
G1 X-7.52 Y3.15 Z1.1 F1800.0
G1 X-7.52 Y3.4 Z1.1 F1800.0
G1 X-5.57 Y5.33 Z1.1 F1800.0
G1 X-5.57 Y5.58 Z1.1 F1800.0
G1 X-7.52 Y7.51 Z1.1 F1800.0
G1 X-7.42 Y9.36 Z1.1 F1800.0
G1 X-6.98 Y8.92 Z1.1 F1800.0
G1 X-6.55 Y8.92 Z1.1 F1800.0
G1 X-6.43 Y9.04 Z1.1 F1800.0
M108 R30.0
M102
G1 X-6.11 Y9.36 Z1.1 F1800.0
M108 R3.569
M103
G1 X-4.73 Y9.36 Z1.1 F3000.0
M108 R30.0
M101
G1 X-3.93 Y9.36 Z1.1 F3000.0
M108 R3.569
G1 X-3.49 Y8.92 Z1.1 F1800.0
G1 X-3.39 Y7.51 Z1.1 F1800.0
G1 X-5.34 Y5.58 Z1.1 F1800.0
G1 X-5.34 Y5.33 Z1.1 F1800.0
G1 X-3.39 Y3.4 Z1.1 F1800.0
G1 X-3.39 Y3.15 Z1.1 F1800.0
G1 X-5.34 Y1.22 Z1.1 F1800.0
G1 X-5.34 Y0.96 Z1.1 F1800.0
G1 X-3.39 Y-0.96 Z1.1 F1800.0
G1 X-3.39 Y-1.22 Z1.1 F1800.0
G1 X-5.34 Y-3.15 Z1.1 F1800.0
G1 X-5.34 Y-3.4 Z1.1 F1800.0
G1 X-3.39 Y-5.33 Z1.1 F1800.0
G1 X-3.39 Y-5.58 Z1.1 F1800.0
G1 X-5.34 Y-7.51 Z1.1 F1800.0
G1 X-5.24 Y-9.36 Z1.1 F1800.0
G1 X-4.8 Y-8.92 Z1.1 F1800.0
G1 X-4.36 Y-8.92 Z1.1 F1800.0
G1 X-4.25 Y-9.04 Z1.1 F1800.0
M108 R30.0
M102
G1 X-3.93 Y-9.36 Z1.1 F1800.0
M108 R3.569
M103
G1 X-2.55 Y-9.36 Z1.1 F3000.0
M108 R30.0
M101
G1 X-1.75 Y-9.36 Z1.1 F3000.0
M108 R3.569
G1 X-1.31 Y-8.92 Z1.1 F1800.0
G1 X-1.21 Y-7.51 Z1.1 F1800.0
G1 X-3.16 Y-5.58 Z1.1 F1800.0
G1 X-3.16 Y-5.33 Z1.1 F1800.0
G1 X-1.21 Y-3.4 Z1.1 F1800.0
G1 X-1.21 Y-3.15 Z1.1 F1800.0
G1 X-3.16 Y-1.22 Z1.1 F1800.0
G1 X-3.16 Y-0.96 Z1.1 F1800.0
G1 X-1.21 Y0.96 Z1.1 F1800.0
G1 X-1.21 Y1.22 Z1.1 F1800.0
G1 X-3.16 Y3.15 Z1.1 F1800.0
G1 X-3.16 Y3.4 Z1.1 F1800.0
G1 X-1.21 Y5.33 Z1.1 F1800.0
G1 X-1.21 Y5.58 Z1.1 F1800.0
G1 X-3.16 Y7.51 Z1.1 F1800.0
G1 X-3.16 Y7.76 Z1.1 F1800.0
G1 X-2.62 Y8.92 Z1.1 F1800.0
G1 X-2.18 Y8.92 Z1.1 F1800.0
G1 X-2.06 Y9.04 Z1.1 F1800.0
M108 R30.0
M102
G1 X-1.75 Y9.36 Z1.1 F1800.0
M108 R3.569
M103
G1 X-0.36 Y9.36 Z1.1 F3000.0
M108 R30.0
M101
G1 X0.44 Y9.36 Z1.1 F3000.0
M108 R3.569
G1 X0.87 Y8.92 Z1.1 F1800.0
G1 X0.98 Y7.51 Z1.1 F1800.0
G1 X-0.98 Y5.58 Z1.1 F1800.0
G1 X-0.98 Y5.33 Z1.1 F1800.0
G1 X0.98 Y3.4 Z1.1 F1800.0
G1 X0.98 Y3.15 Z1.1 F1800.0
G1 X-0.98 Y1.22 Z1.1 F1800.0
G1 X-0.98 Y0.96 Z1.1 F1800.0
G1 X0.98 Y-0.96 Z1.1 F1800.0
G1 X0.98 Y-1.22 Z1.1 F1800.0
G1 X-0.98 Y-3.15 Z1.1 F1800.0
G1 X-0.98 Y-3.4 Z1.1 F1800.0
G1 X0.98 Y-5.33 Z1.1 F1800.0
G1 X0.98 Y-5.58 Z1.1 F1800.0
G1 X-0.98 Y-7.51 Z1.1 F1800.0
G1 X-0.87 Y-9.36 Z1.1 F1800.0
G1 X-0.44 Y-8.92 Z1.1 F1800.0
G1 X-0.0 Y-8.92 Z1.1 F1800.0
G1 X0.12 Y-9.04 Z1.1 F1800.0
M108 R30.0
M102
G1 X0.44 Y-9.36 Z1.1 F1800.0
M108 R3.569
M103
G1 X1.82 Y-9.36 Z1.1 F3000.0
M108 R30.0
M101
G1 X2.62 Y-9.36 Z1.1 F3000.0
M108 R3.569
G1 X3.05 Y-8.92 Z1.1 F1800.0
G1 X3.16 Y-7.51 Z1.1 F1800.0
G1 X1.21 Y-5.58 Z1.1 F1800.0
G1 X1.21 Y-5.33 Z1.1 F1800.0
G1 X3.16 Y-3.4 Z1.1 F1800.0
G1 X3.16 Y-3.15 Z1.1 F1800.0
G1 X1.21 Y-1.22 Z1.1 F1800.0
G1 X1.21 Y-0.96 Z1.1 F1800.0
G1 X3.16 Y0.96 Z1.1 F1800.0
G1 X3.16 Y1.22 Z1.1 F1800.0
G1 X1.21 Y3.15 Z1.1 F1800.0
G1 X1.21 Y3.4 Z1.1 F1800.0
G1 X3.16 Y5.33 Z1.1 F1800.0
G1 X3.16 Y5.58 Z1.1 F1800.0
G1 X1.21 Y7.51 Z1.1 F1800.0
G1 X1.31 Y9.36 Z1.1 F1800.0
G1 X1.75 Y8.92 Z1.1 F1800.0
G1 X2.18 Y8.92 Z1.1 F1800.0
G1 X2.3 Y9.04 Z1.1 F1800.0
M108 R30.0
M102
G1 X2.62 Y9.36 Z1.1 F1800.0
M108 R3.569
M103
G1 X4.0 Y9.36 Z1.1 F3000.0
M108 R30.0
M101
G1 X4.8 Y9.36 Z1.1 F3000.0
M108 R3.569
G1 X5.24 Y8.92 Z1.1 F1800.0
G1 X5.34 Y7.51 Z1.1 F1800.0
G1 X3.39 Y5.58 Z1.1 F1800.0
G1 X3.39 Y5.33 Z1.1 F1800.0
G1 X5.34 Y3.4 Z1.1 F1800.0
G1 X5.34 Y3.15 Z1.1 F1800.0
G1 X3.39 Y1.22 Z1.1 F1800.0
G1 X3.39 Y0.96 Z1.1 F1800.0
G1 X5.34 Y-0.96 Z1.1 F1800.0
G1 X5.34 Y-1.22 Z1.1 F1800.0
G1 X3.39 Y-3.15 Z1.1 F1800.0
G1 X3.39 Y-3.4 Z1.1 F1800.0
G1 X5.34 Y-5.33 Z1.1 F1800.0
G1 X5.34 Y-5.58 Z1.1 F1800.0
G1 X3.39 Y-7.51 Z1.1 F1800.0
G1 X3.49 Y-9.36 Z1.1 F1800.0
G1 X3.93 Y-8.92 Z1.1 F1800.0
G1 X4.36 Y-8.92 Z1.1 F1800.0
G1 X4.48 Y-9.04 Z1.1 F1800.0
M108 R30.0
M102
G1 X4.8 Y-9.36 Z1.1 F1800.0
M108 R3.569
M103
G1 X6.18 Y-9.36 Z1.1 F3000.0
M108 R30.0
M101
G1 X6.98 Y-9.36 Z1.1 F3000.0
M108 R3.569
G1 X7.42 Y-8.92 Z1.1 F1800.0
G1 X7.52 Y-7.51 Z1.1 F1800.0
G1 X5.57 Y-5.58 Z1.1 F1800.0
G1 X5.57 Y-0.96 Z1.1 F1800.0
G1 X7.85 Y0.07 Z1.1 F1800.0
G1 X5.57 Y3.15 Z1.1 F1800.0
G1 X5.57 Y3.4 Z1.1 F1800.0
G1 X7.52 Y5.33 Z1.1 F1800.0
G1 X7.52 Y5.58 Z1.1 F1800.0
G1 X5.57 Y7.51 Z1.1 F1800.0
G1 X5.57 Y7.76 Z1.1 F1800.0
G1 X6.11 Y8.92 Z1.1 F1800.0
G1 X6.55 Y8.92 Z1.1 F1800.0
G1 X6.66 Y9.04 Z1.1 F1800.0
M108 R30.0
M102
G1 X6.98 Y9.36 Z1.1 F1800.0
M108 R3.569
M103
G1 X8.36 Y9.36 Z1.1 F3000.0
M108 R30.0
M101
G1 X9.16 Y9.36 Z1.1 F3000.0
M108 R3.569
G1 X9.6 Y8.92 Z1.1 F1800.0
G1 X9.7 Y7.51 Z1.1 F1800.0
G1 X7.75 Y5.58 Z1.1 F1800.0
G1 X7.91 Y2.42 Z1.1 F1800.0
G1 X10.04 Y4.58 Z1.1 F1800.0
G1 X10.47 Y4.9 Z1.1 F1800.0
M103
G1 X11.35 Y5.39 Z1.1 F3000.0
M101
G1 X10.91 Y5.19 Z1.1 F1800.0
G1 X9.93 Y7.51 Z1.1 F1800.0
G1 X10.04 Y9.36 Z1.1 F1800.0
G1 X10.47 Y8.92 Z1.1 F1800.0
G1 X10.91 Y8.92 Z1.1 F1800.0
G1 X11.35 Y9.36 Z1.1 F1800.0
G1 X11.78 Y8.92 Z1.1 F1800.0
G1 X12.6 Y6.24 Z1.1 F1800.0
G1 X13.09 Y5.9 Z1.1 F1800.0
G1 X13.96 Y5.92 Z1.1 F1800.0
G1 X13.09 Y8.92 Z1.1 F1800.0
G1 X13.53 Y9.36 Z1.1 F1800.0
G1 X13.96 Y8.92 Z1.1 F1800.0
G1 X14.3 Y7.76 Z1.1 F1800.0
G1 X14.49 Y6.34 Z1.1 F1800.0
G1 X14.84 Y5.83 Z1.1 F1800.0
G1 X15.2 Y6.07 Z1.1 F1800.0
G1 X15.27 Y5.74 Z1.1 F1800.0
G1 X15.71 Y5.63 Z1.1 F1800.0
G1 X16.32 Y5.83 Z1.1 F1800.0
G1 X16.58 Y8.92 Z1.1 F1800.0
G1 X16.11 Y9.15 Z1.1 F1800.0
M108 R30.0
M102
G1 X15.71 Y9.36 Z1.1 F1800.0
M108 R3.569
M103
G1 X17.09 Y9.36 Z1.1 F3000.0
M108 R30.0
M101
G1 X17.89 Y9.36 Z1.1 F3000.0
M108 R3.569
G1 X18.33 Y8.92 Z1.1 F1800.0
G1 X18.43 Y7.51 Z1.1 F1800.0
G1 X16.58 Y5.24 Z1.1 F1800.0
G1 X17.02 Y4.97 Z1.1 F1800.0
G1 X17.89 Y4.3 Z1.1 F1800.0
G1 X18.02 Y4.15 Z1.1 F1800.0
M108 R30.0
M102
G1 X18.33 Y3.81 Z1.1 F1800.0
M108 R3.569
M103
G1 X19.83 Y8.59 Z1.1 F3000.0
M108 R30.0
M101
G1 X20.07 Y9.36 Z1.1 F3000.0
M108 R3.569
G1 X19.64 Y8.92 Z1.1 F1800.0
G1 X19.2 Y8.92 Z1.1 F1800.0
G1 X18.76 Y9.36 Z1.1 F1800.0
G1 X18.66 Y7.51 Z1.1 F1800.0
G1 X20.61 Y5.58 Z1.1 F1800.0
G1 X20.61 Y5.33 Z1.1 F1800.0
G1 X19.2 Y2.48 Z1.1 F1800.0
G1 X20.61 Y1.22 Z1.1 F1800.0
G1 X20.61 Y0.96 Z1.1 F1800.0
G1 X19.64 Y1.05 Z1.1 F1800.0
G1 X20.61 Y-3.15 Z1.1 F1800.0
G1 X20.61 Y-3.4 Z1.1 F1800.0
G1 X18.66 Y-5.33 Z1.1 F1800.0
G1 X18.66 Y-5.58 Z1.1 F1800.0
G1 X20.61 Y-7.51 Z1.1 F1800.0
G1 X20.51 Y-8.92 Z1.1 F1800.0
G1 X20.39 Y-9.04 Z1.1 F1800.0
M108 R30.0
M102
G1 X20.07 Y-9.36 Z1.1 F1800.0
M108 R3.569
M103
G1 X21.45 Y-9.36 Z1.1 F3000.0
M108 R30.0
M101
G1 X22.25 Y-9.36 Z1.1 F3000.0
M108 R3.569
G1 X21.82 Y-8.92 Z1.1 F1800.0
G1 X21.38 Y-8.92 Z1.1 F1800.0
G1 X20.94 Y-9.36 Z1.1 F1800.0
G1 X20.84 Y-7.51 Z1.1 F1800.0
G1 X22.79 Y-5.58 Z1.1 F1800.0
G1 X22.79 Y-5.33 Z1.1 F1800.0
G1 X20.84 Y-3.4 Z1.1 F1800.0
G1 X20.84 Y-3.15 Z1.1 F1800.0
G1 X22.79 Y-1.22 Z1.1 F1800.0
G1 X22.79 Y-0.96 Z1.1 F1800.0
G1 X20.84 Y0.96 Z1.1 F1800.0
G1 X20.84 Y1.22 Z1.1 F1800.0
G1 X22.79 Y3.15 Z1.1 F1800.0
G1 X22.79 Y3.4 Z1.1 F1800.0
G1 X20.84 Y5.33 Z1.1 F1800.0
G1 X20.84 Y5.58 Z1.1 F1800.0
G1 X22.79 Y7.51 Z1.1 F1800.0
G1 X22.69 Y8.92 Z1.1 F1800.0
G1 X22.57 Y9.04 Z1.1 F1800.0
M108 R30.0
M102
G1 X22.25 Y9.36 Z1.1 F1800.0
M108 R3.569
M103
G1 X23.64 Y9.36 Z1.1 F3000.0
M108 R30.0
M101
G1 X24.44 Y9.36 Z1.1 F3000.0
M108 R3.569
G1 X24.0 Y8.92 Z1.1 F1800.0
G1 X23.56 Y8.92 Z1.1 F1800.0
G1 X23.13 Y9.36 Z1.1 F1800.0
G1 X23.02 Y7.51 Z1.1 F1800.0
G1 X24.97 Y5.58 Z1.1 F1800.0
G1 X24.97 Y5.33 Z1.1 F1800.0
G1 X23.02 Y3.4 Z1.1 F1800.0
G1 X23.02 Y3.15 Z1.1 F1800.0
G1 X24.97 Y1.22 Z1.1 F1800.0
G1 X24.97 Y0.96 Z1.1 F1800.0
G1 X23.02 Y-0.96 Z1.1 F1800.0
G1 X23.02 Y-1.22 Z1.1 F1800.0
G1 X24.97 Y-3.15 Z1.1 F1800.0
G1 X24.97 Y-3.4 Z1.1 F1800.0
G1 X23.02 Y-5.33 Z1.1 F1800.0
G1 X23.02 Y-5.58 Z1.1 F1800.0
G1 X24.97 Y-7.51 Z1.1 F1800.0
G1 X24.87 Y-8.92 Z1.1 F1800.0
G1 X24.75 Y-9.04 Z1.1 F1800.0
M108 R30.0
M102
G1 X24.44 Y-9.36 Z1.1 F1800.0
M108 R3.569
M103
G1 X25.82 Y-9.36 Z1.1 F3000.0
M108 R30.0
M101
G1 X26.62 Y-9.36 Z1.1 F3000.0
M108 R3.569
G1 X26.18 Y-8.92 Z1.1 F1800.0
G1 X25.74 Y-8.92 Z1.1 F1800.0
G1 X25.31 Y-9.36 Z1.1 F1800.0
G1 X25.2 Y5.58 Z1.1 F1800.0
G1 X25.74 Y8.92 Z1.1 F1800.0
G1 X26.21 Y9.15 Z1.1 F1800.0
M108 R30.0
M102
G1 X26.62 Y9.36 Z1.1 F1800.0
M108 R3.569
M103
G1 X18.23 Y-8.63 Z1.1 F3000.0
M108 R30.0
M101
G1 X17.89 Y-9.36 Z1.1 F3000.0
M108 R3.569
G1 X17.45 Y-8.92 Z1.1 F1800.0
G1 X17.02 Y-8.92 Z1.1 F1800.0
G1 X16.48 Y-7.76 Z1.1 F1800.0
G1 X16.48 Y-7.51 Z1.1 F1800.0
G1 X18.43 Y-5.58 Z1.1 F1800.0
G1 X18.43 Y-5.33 Z1.1 F1800.0
G1 X19.11 Y-3.5 Z1.1 F1800.0
G1 X18.33 Y-3.81 Z1.1 F1800.0
G1 X17.89 Y-4.3 Z1.1 F1800.0
G1 X17.02 Y-4.97 Z1.1 F1800.0
G1 X16.97 Y-5.01 Z1.1 F1800.0
M108 R30.0
M102
G1 X16.58 Y-5.24 Z1.1 F1800.0
M108 R3.569
M103
G1 X16.02 Y-5.45 Z1.1 F3000.0
M108 R30.0
M101
G1 X15.27 Y-5.74 Z1.1 F3000.0
M108 R3.569
G1 X15.71 Y-5.63 Z1.1 F1800.0
G1 X16.32 Y-5.83 Z1.1 F1800.0
G1 X16.14 Y-8.92 Z1.1 F1800.0
G1 X15.71 Y-9.36 Z1.1 F1800.0
G1 X14.84 Y-8.92 Z1.1 F1800.0
G1 X14.84 Y-5.83 Z1.1 F1800.0
G1 X14.4 Y-5.92 Z1.1 F1800.0
G1 X13.09 Y-5.9 Z1.1 F1800.0
G1 X12.11 Y-7.51 Z1.1 F1800.0
G1 X12.22 Y-9.36 Z1.1 F1800.0
G1 X12.65 Y-8.92 Z1.1 F1800.0
G1 X13.09 Y-8.92 Z1.1 F1800.0
G1 X13.21 Y-9.04 Z1.1 F1800.0
M108 R30.0
M102
G1 X13.53 Y-9.36 Z1.1 F1800.0
M108 R3.569
M103
G1 X12.15 Y-9.36 Z1.1 F3000.0
M108 R30.0
M101
G1 X11.35 Y-9.36 Z1.1 F3000.0
M108 R3.569
G1 X11.78 Y-8.92 Z1.1 F1800.0
G1 X11.88 Y-7.51 Z1.1 F1800.0
G1 X12.56 Y-6.23 Z1.1 F1800.0
G1 X12.22 Y-5.71 Z1.1 F1800.0
G1 X11.6 Y-5.98 Z1.1 F1800.0
G1 X11.35 Y-5.39 Z1.1 F1800.0
G1 X11.32 Y-5.37 Z1.1 F1800.0
M108 R30.0
M102
G1 X10.91 Y-5.19 Z1.1 F1800.0
M108 R3.569
M103
G1 X9.77 Y-4.22 Z1.1 F3000.0
M108 R30.0
M101
G1 X9.16 Y-3.7 Z1.1 F3000.0
M108 R3.569
G1 X10.04 Y-4.58 Z1.1 F1800.0
G1 X10.47 Y-4.9 Z1.1 F1800.0
G1 X7.75 Y-7.51 Z1.1 F1800.0
G1 X7.75 Y-7.76 Z1.1 F1800.0
G1 X8.29 Y-8.92 Z1.1 F1800.0
G1 X8.76 Y-9.15 Z1.1 F1800.0
M108 R30.0
M102
G1 X9.16 Y-9.36 Z1.1 F1800.0
M108 R3.569
M103
G1 X-15.35 Y-5.55 Z1.1 F3000.0
M108 R30.0
M101
G1 X-16.14 Y-5.43 Z1.1 F3000.0
M108 R3.569
G1 X-17.02 Y-4.97 Z1.1 F1800.0
G1 X-17.71 Y-5.01 Z1.1 F1800.0
G1 X-18.43 Y-7.51 Z1.1 F1800.0
G1 X-18.43 Y-7.76 Z1.1 F1800.0
G1 X-17.89 Y-8.92 Z1.1 F1800.0
G1 X-17.45 Y-8.92 Z1.1 F1800.0
G1 X-17.02 Y-9.36 Z1.1 F1800.0
G1 X-16.58 Y-8.92 Z1.1 F1800.0
G1 X-15.36 Y-6.16 Z1.1 F1800.0
G1 X-14.84 Y-5.83 Z1.1 F1800.0
G1 X-14.49 Y-6.34 Z1.1 F1800.0
G1 X-15.27 Y-8.92 Z1.1 F1800.0
G1 X-14.84 Y-9.36 Z1.1 F1800.0
G1 X-14.4 Y-8.92 Z1.1 F1800.0
G1 X-14.18 Y-7.76 Z1.1 F1800.0
G1 X-14.18 Y-7.51 Z1.1 F1800.0
G1 X-13.93 Y-6.35 Z1.1 F1800.0
G1 X-13.53 Y-5.92 Z1.1 F1800.0
G1 X-13.21 Y-6.21 Z1.1 F1800.0
G1 X-13.09 Y-5.9 Z1.1 F1800.0
G1 X-12.68 Y-6.05 Z1.1 F1800.0
G1 X-12.65 Y-5.81 Z1.1 F1800.0
G1 X-11.78 Y-5.58 Z1.1 F1800.0
G1 X-10.91 Y-5.19 Z1.1 F1800.0
G1 X-12.22 Y-8.92 Z1.1 F1800.0
G1 X-12.34 Y-9.04 Z1.1 F1800.0
M108 R30.0
M102
G1 X-12.65 Y-9.36 Z1.1 F1800.0
M108 R3.569
M103
G1 X-18.4 Y-9.36 Z1.1 F3000.0
M108 R30.0
M101
G1 X-19.2 Y-9.36 Z1.1 F3000.0
M108 R3.569
G1 X-18.76 Y-8.92 Z1.1 F1800.0
G1 X-18.66 Y-7.51 Z1.1 F1800.0
G1 X-20.61 Y-5.58 Z1.1 F1800.0
G1 X-20.61 Y-5.33 Z1.1 F1800.0
G1 X-17.89 Y-4.3 Z1.1 F1800.0
G1 X-18.33 Y-3.81 Z1.1 F1800.0
G1 X-19.14 Y-3.45 Z1.1 F1800.0
G1 X-19.17 Y-2.93 Z1.1 F1800.0
M108 R30.0
M102
G1 X-19.2 Y-2.48 Z1.1 F1800.0
M108 R3.569
M103
G1 X-19.2 Y1.68 Z1.1 F3000.0
M108 R30.0
M101
G1 X-19.2 Y2.48 Z1.1 F3000.0
M108 R3.569
G1 X-20.61 Y3.15 Z1.1 F1800.0
G1 X-20.61 Y3.4 Z1.1 F1800.0
G1 X-18.66 Y5.33 Z1.1 F1800.0
G1 X-18.66 Y5.58 Z1.1 F1800.0
G1 X-20.61 Y7.51 Z1.1 F1800.0
G1 X-20.61 Y7.76 Z1.1 F1800.0
G1 X-20.07 Y8.92 Z1.1 F1800.0
G1 X-19.64 Y8.92 Z1.1 F1800.0
G1 X-19.52 Y9.04 Z1.1 F1800.0
M108 R30.0
M102
G1 X-19.2 Y9.36 Z1.1 F1800.0
M108 R3.569
M103
G1 X-20.58 Y9.36 Z1.1 F3000.0
M108 R30.0
M101
G1 X-21.38 Y9.36 Z1.1 F3000.0
M108 R3.569
G1 X-20.94 Y8.92 Z1.1 F1800.0
G1 X-20.84 Y7.51 Z1.1 F1800.0
G1 X-22.79 Y5.58 Z1.1 F1800.0
G1 X-22.79 Y5.33 Z1.1 F1800.0
G1 X-20.84 Y3.4 Z1.1 F1800.0
G1 X-20.84 Y3.15 Z1.1 F1800.0
G1 X-22.79 Y1.22 Z1.1 F1800.0
G1 X-22.79 Y-3.4 Z1.1 F1800.0
G1 X-20.84 Y-5.33 Z1.1 F1800.0
G1 X-20.84 Y-5.58 Z1.1 F1800.0
G1 X-22.79 Y-7.51 Z1.1 F1800.0
G1 X-22.69 Y-9.36 Z1.1 F1800.0
G1 X-22.25 Y-8.92 Z1.1 F1800.0
G1 X-21.82 Y-8.92 Z1.1 F1800.0
G1 X-21.7 Y-9.04 Z1.1 F1800.0
M108 R30.0
M102
G1 X-21.38 Y-9.36 Z1.1 F1800.0
M108 R3.569
M103
G1 X-22.76 Y-9.36 Z1.1 F3000.0
M108 R30.0
M101
G1 X-23.56 Y-9.36 Z1.1 F3000.0
M108 R3.569
G1 X-23.13 Y-8.92 Z1.1 F1800.0
G1 X-23.02 Y-7.51 Z1.1 F1800.0
G1 X-24.97 Y-5.58 Z1.1 F1800.0
G1 X-24.97 Y-5.33 Z1.1 F1800.0
G1 X-23.02 Y-3.4 Z1.1 F1800.0
G1 X-23.02 Y-3.15 Z1.1 F1800.0
G1 X-24.97 Y-1.22 Z1.1 F1800.0
G1 X-24.97 Y-0.96 Z1.1 F1800.0
G1 X-23.02 Y0.96 Z1.1 F1800.0
G1 X-23.02 Y1.22 Z1.1 F1800.0
G1 X-24.97 Y3.15 Z1.1 F1800.0
G1 X-24.97 Y3.4 Z1.1 F1800.0
G1 X-23.02 Y5.33 Z1.1 F1800.0
G1 X-23.02 Y5.58 Z1.1 F1800.0
G1 X-24.97 Y7.51 Z1.1 F1800.0
G1 X-24.97 Y7.76 Z1.1 F1800.0
G1 X-24.44 Y8.92 Z1.1 F1800.0
G1 X-24.0 Y8.92 Z1.1 F1800.0
G1 X-23.88 Y9.04 Z1.1 F1800.0
M108 R30.0
M102
G1 X-23.56 Y9.36 Z1.1 F1800.0
M108 R3.569
M103
G1 X-24.94 Y9.36 Z1.1 F3000.0
M108 R30.0
M101
G1 X-25.74 Y9.36 Z1.1 F3000.0
M108 R3.569
G1 X-25.31 Y8.92 Z1.1 F1800.0
G1 X-25.2 Y7.76 Z1.1 F1800.0
G1 X-25.31 Y-8.92 Z1.1 F1800.0
G1 X-25.74 Y-9.36 Z1.1 F1800.0
M103
G1 X-26.62 Y-9.36 Z1.1 F3000.0
M101
G1 X-26.62 Y8.9 Z1.1 F1800.0
M108 R30.0
M102
G1 X-26.62 Y9.36 Z1.1 F1800.0
M108 R3.569
M103
G1 X-17.82 Y9.36 Z1.1 F3000.0
M108 R30.0
M101
G1 X-17.02 Y9.36 Z1.1 F3000.0
M108 R3.569
G1 X-16.58 Y8.92 Z1.1 F1800.0
G1 X-16.48 Y7.51 Z1.1 F1800.0
G1 X-18.43 Y5.58 Z1.1 F1800.0
G1 X-18.43 Y5.33 Z1.1 F1800.0
G1 X-18.16 Y4.64 Z1.1 F1800.0
G1 X-17.71 Y5.01 Z1.1 F1800.0
G1 X-17.02 Y4.97 Z1.1 F1800.0
G1 X-16.58 Y5.24 Z1.1 F1800.0
G1 X-16.56 Y5.25 Z1.1 F1800.0
M108 R30.0
M102
G1 X-16.14 Y5.43 Z1.1 F1800.0
M108 R3.569
M103
G1 X-12.15 Y5.39 Z1.1 F3000.0
M108 R30.0
M101
G1 X-11.35 Y5.39 Z1.1 F3000.0
M108 R3.569
G1 X-10.91 Y5.19 Z1.1 F1800.0
G1 X-10.04 Y4.58 Z1.1 F1800.0
G1 X-9.16 Y3.7 Z1.1 F1800.0
G1 X-8.37 Y3.3 Z1.1 F1800.0
G1 X-9.93 Y5.33 Z1.1 F1800.0
G1 X-10.04 Y8.92 Z1.1 F1800.0
G1 X-10.47 Y9.36 Z1.1 F1800.0
G1 X-11.35 Y8.92 Z1.1 F1800.0
G1 X-11.78 Y5.58 Z1.1 F1800.0
G1 X-12.65 Y5.81 Z1.1 F1800.0
G1 X-13.0 Y6.33 Z1.1 F1800.0
G1 X-13.47 Y6.35 Z1.1 F1800.0
G1 X-12.22 Y8.92 Z1.1 F1800.0
G1 X-12.65 Y9.36 Z1.1 F1800.0
G1 X-13.22 Y9.05 Z1.1 F1800.0
G1 X-13.96 Y8.92 Z1.1 F1800.0
G1 X-14.49 Y6.34 Z1.1 F1800.0
G1 X-14.84 Y5.83 Z1.1 F1800.0
G1 X-15.36 Y6.16 Z1.1 F1800.0
G1 X-16.25 Y7.51 Z1.1 F1800.0
G1 X-16.14 Y9.36 Z1.1 F1800.0
G1 X-15.71 Y8.92 Z1.1 F1800.0
G1 X-15.27 Y8.92 Z1.1 F1800.0
G1 X-15.15 Y9.04 Z1.1 F1800.0
M108 R30.0
M102
G1 X-14.84 Y9.36 Z1.1 F1800.0
M108 R3.569
M103
(</surroundingLoop>)
(</layer>)
(<layer> 1.42 )
(<surroundingLoop>)
(<boundaryPerimeter>)
(<boundaryPoint> X27.593 Y-10.2 Z1.42 </boundaryPoint>)
(<boundaryPoint> X27.593 Y10.2 Z1.42 </boundaryPoint>)
(<boundaryPoint> X-27.593 Y10.2 Z1.42 </boundaryPoint>)
(<boundaryPoint> X-27.593 Y-10.2 Z1.42 </boundaryPoint>)
(<loop> inner )
G1 X7.66 Y2.03 Z1.41 F3000.0
M108 R30.0
M101
G1 X8.42 Y1.79 Z1.42 F3000.0
M108 R3.569
G1 X8.43 Y1.81 Z1.42 F1800.0
G1 X8.6 Y2.32 Z1.42 F1800.0
G1 X9.19 Y3.35 Z1.42 F1800.0
G1 X9.99 Y4.23 Z1.42 F1800.0
G1 X10.95 Y4.93 Z1.42 F1800.0
G1 X12.04 Y5.41 Z1.42 F1800.0
G1 X13.2 Y5.66 Z1.42 F1800.0
G1 X14.39 Y5.66 Z1.42 F1800.0
G1 X15.56 Y5.41 Z1.42 F1800.0
G1 X16.64 Y4.93 Z1.42 F1800.0
G1 X17.61 Y4.23 Z1.42 F1800.0
G1 X18.4 Y3.35 Z1.42 F1800.0
G1 X19.0 Y2.32 Z1.42 F1800.0
G1 X19.36 Y1.18 Z1.42 F1800.0
G1 X19.49 Y0.0 Z1.42 F1800.0
G1 X19.36 Y-1.18 Z1.42 F1800.0
G1 X19.0 Y-2.32 Z1.42 F1800.0
G1 X18.4 Y-3.35 Z1.42 F1800.0
G1 X17.61 Y-4.23 Z1.42 F1800.0
G1 X16.64 Y-4.93 Z1.42 F1800.0
G1 X15.56 Y-5.41 Z1.42 F1800.0
G1 X14.39 Y-5.66 Z1.42 F1800.0
G1 X13.2 Y-5.66 Z1.42 F1800.0
G1 X12.04 Y-5.41 Z1.42 F1800.0
G1 X10.95 Y-4.93 Z1.42 F1800.0
G1 X9.99 Y-4.23 Z1.42 F1800.0
G1 X9.19 Y-3.35 Z1.42 F1800.0
G1 X8.6 Y-2.32 Z1.42 F1800.0
G1 X8.23 Y-1.18 Z1.42 F1800.0
G1 X8.1 Y-0.0 Z1.42 F1800.0
G1 X8.23 Y1.18 Z1.42 F1800.0
G1 X8.29 Y1.36 Z1.42 F1800.0
M108 R30.0
M102
G1 X8.42 Y1.79 Z1.42 F1800.0
M108 R3.569
M103
(</loop>)
(<loop> inner )
G1 X-7.31 Y0.09 Z1.42 F3000.0
M108 R30.0
M101
G1 X-8.1 Y0.0 Z1.42 F3000.0
M108 R3.569
G1 X-8.23 Y-1.18 Z1.42 F1800.0
G1 X-8.6 Y-2.32 Z1.42 F1800.0
G1 X-9.19 Y-3.35 Z1.42 F1800.0
G1 X-9.99 Y-4.23 Z1.42 F1800.0
G1 X-10.95 Y-4.93 Z1.42 F1800.0
G1 X-12.04 Y-5.41 Z1.42 F1800.0
G1 X-13.2 Y-5.66 Z1.42 F1800.0
G1 X-14.39 Y-5.66 Z1.42 F1800.0
G1 X-15.56 Y-5.41 Z1.42 F1800.0
G1 X-16.64 Y-4.93 Z1.42 F1800.0
G1 X-17.61 Y-4.23 Z1.42 F1800.0
G1 X-18.4 Y-3.35 Z1.42 F1800.0
G1 X-19.0 Y-2.32 Z1.42 F1800.0
G1 X-19.36 Y-1.18 Z1.42 F1800.0
G1 X-19.49 Y-0.0 Z1.42 F1800.0
G1 X-19.36 Y1.18 Z1.42 F1800.0
G1 X-19.0 Y2.32 Z1.42 F1800.0
G1 X-18.4 Y3.35 Z1.42 F1800.0
G1 X-17.61 Y4.23 Z1.42 F1800.0
G1 X-16.64 Y4.93 Z1.42 F1800.0
G1 X-15.56 Y5.41 Z1.42 F1800.0
G1 X-14.39 Y5.66 Z1.42 F1800.0
G1 X-13.2 Y5.66 Z1.42 F1800.0
G1 X-12.04 Y5.41 Z1.42 F1800.0
G1 X-10.95 Y4.93 Z1.42 F1800.0
G1 X-9.99 Y4.23 Z1.42 F1800.0
G1 X-9.19 Y3.35 Z1.42 F1800.0
G1 X-8.6 Y2.32 Z1.42 F1800.0
G1 X-8.23 Y1.18 Z1.42 F1800.0
G1 X-8.15 Y0.45 Z1.42 F1800.0
M108 R30.0
M102
G1 X-8.1 Y0.0 Z1.42 F1800.0
M108 R3.569
M103
(</loop>)
(<loop> outer )
G1 X-8.1 Y8.81 Z1.42 F3000.0
M108 R30.0
M101
G1 X-8.1 Y9.61 Z1.42 F3000.0
M108 R3.569
G1 X-27.0 Y9.61 Z1.42 F1800.0
G1 X-27.0 Y-9.61 Z1.42 F1800.0
G1 X27.0 Y-9.61 Z1.42 F1800.0
G1 X27.0 Y9.61 Z1.42 F1800.0
G1 X-8.1 Y9.61 Z1.42 F1800.0
M103
(</loop>)
(<perimeter> outer )
G1 X-8.1 Y10.0 Z1.42 F3000.0
M101
G1 X-27.4 Y10.0 Z1.42 F1800.0
G1 X-27.4 Y-10.0 Z1.42 F1800.0
G1 X27.4 Y-10.0 Z1.42 F1800.0
G1 X27.4 Y10.0 Z1.42 F1800.0
G1 X-7.65 Y10.0 Z1.42 F1800.0
M108 R30.0
M102
G1 X-8.1 Y10.0 Z1.42 F1800.0
M108 R3.569
M103
(</perimeter>)
(</boundaryPerimeter>)
(<surroundingLoop>)
(<boundaryPerimeter>)
(<boundaryPoint> X-17.922 Y2.998 Z1.42 </boundaryPoint>)
(<boundaryPoint> X-17.209 Y3.79 Z1.42 </boundaryPoint>)
(<boundaryPoint> X-16.346 Y4.417 Z1.42 </boundaryPoint>)
(<boundaryPoint> X-15.372 Y4.85 Z1.42 </boundaryPoint>)
(<boundaryPoint> X-14.33 Y5.072 Z1.42 </boundaryPoint>)
(<boundaryPoint> X-13.263 Y5.072 Z1.42 </boundaryPoint>)
(<boundaryPoint> X-12.221 Y4.85 Z1.42 </boundaryPoint>)
(<boundaryPoint> X-11.246 Y4.417 Z1.42 </boundaryPoint>)
(<boundaryPoint> X-10.384 Y3.79 Z1.42 </boundaryPoint>)
(<boundaryPoint> X-9.671 Y2.998 Z1.42 </boundaryPoint>)
(<boundaryPoint> X-9.137 Y2.074 Z1.42 </boundaryPoint>)
(<boundaryPoint> X-8.808 Y1.06 Z1.42 </boundaryPoint>)
(<boundaryPoint> X-8.696 Y-0.0 Z1.42 </boundaryPoint>)
(<boundaryPoint> X-8.808 Y-1.06 Z1.42 </boundaryPoint>)
(<boundaryPoint> X-9.137 Y-2.074 Z1.42 </boundaryPoint>)
(<boundaryPoint> X-9.671 Y-2.998 Z1.42 </boundaryPoint>)
(<boundaryPoint> X-10.384 Y-3.79 Z1.42 </boundaryPoint>)
(<boundaryPoint> X-11.246 Y-4.417 Z1.42 </boundaryPoint>)
(<boundaryPoint> X-12.221 Y-4.85 Z1.42 </boundaryPoint>)
(<boundaryPoint> X-13.263 Y-5.072 Z1.42 </boundaryPoint>)
(<boundaryPoint> X-14.33 Y-5.072 Z1.42 </boundaryPoint>)
(<boundaryPoint> X-15.372 Y-4.85 Z1.42 </boundaryPoint>)
(<boundaryPoint> X-16.346 Y-4.417 Z1.42 </boundaryPoint>)
(<boundaryPoint> X-17.209 Y-3.79 Z1.42 </boundaryPoint>)
(<boundaryPoint> X-17.922 Y-2.998 Z1.42 </boundaryPoint>)
(<boundaryPoint> X-18.456 Y-2.074 Z1.42 </boundaryPoint>)
(<boundaryPoint> X-18.785 Y-1.06 Z1.42 </boundaryPoint>)
(<boundaryPoint> X-18.896 Y0.0 Z1.42 </boundaryPoint>)
(<boundaryPoint> X-18.785 Y1.06 Z1.42 </boundaryPoint>)
(<boundaryPoint> X-18.456 Y2.074 Z1.42 </boundaryPoint>)
(<perimeter> inner )
G1 X-10.76 Y5.29 Z1.42 F3000.0
M108 R30.0
M101
G1 X-11.15 Y4.59 Z1.42 F3000.0
M108 R3.569
G1 X-10.25 Y3.94 Z1.42 F1800.0
G1 X-9.51 Y3.11 Z1.42 F1800.0
G1 X-8.96 Y2.15 Z1.42 F1800.0
G1 X-8.62 Y1.1 Z1.42 F1800.0
G1 X-8.5 Y-0.0 Z1.42 F1800.0
G1 X-8.62 Y-1.1 Z1.42 F1800.0
G1 X-8.96 Y-2.15 Z1.42 F1800.0
G1 X-9.51 Y-3.11 Z1.42 F1800.0
G1 X-10.25 Y-3.94 Z1.42 F1800.0
G1 X-11.15 Y-4.59 Z1.42 F1800.0
G1 X-12.16 Y-5.04 Z1.42 F1800.0
G1 X-13.24 Y-5.27 Z1.42 F1800.0
G1 X-14.35 Y-5.27 Z1.42 F1800.0
G1 X-15.43 Y-5.04 Z1.42 F1800.0
G1 X-16.45 Y-4.59 Z1.42 F1800.0
G1 X-17.34 Y-3.94 Z1.42 F1800.0
G1 X-18.08 Y-3.11 Z1.42 F1800.0
G1 X-18.64 Y-2.15 Z1.42 F1800.0
G1 X-18.98 Y-1.1 Z1.42 F1800.0
G1 X-19.09 Y0.0 Z1.42 F1800.0
G1 X-18.98 Y1.1 Z1.42 F1800.0
G1 X-18.64 Y2.15 Z1.42 F1800.0
G1 X-18.08 Y3.11 Z1.42 F1800.0
G1 X-17.34 Y3.94 Z1.42 F1800.0
G1 X-16.45 Y4.59 Z1.42 F1800.0
G1 X-15.43 Y5.04 Z1.42 F1800.0
G1 X-14.35 Y5.27 Z1.42 F1800.0
G1 X-13.24 Y5.27 Z1.42 F1800.0
G1 X-12.16 Y5.04 Z1.42 F1800.0
G1 X-11.56 Y4.77 Z1.42 F1800.0
M108 R30.0
M102
G1 X-11.15 Y4.59 Z1.42 F1800.0
M108 R3.569
M103
(</perimeter>)
(</boundaryPerimeter>)
(</surroundingLoop>)
(<surroundingLoop>)
(<boundaryPerimeter>)
(<boundaryPoint> X9.671 Y2.998 Z1.42 </boundaryPoint>)
(<boundaryPoint> X10.384 Y3.79 Z1.42 </boundaryPoint>)
(<boundaryPoint> X11.247 Y4.417 Z1.42 </boundaryPoint>)
(<boundaryPoint> X12.221 Y4.85 Z1.42 </boundaryPoint>)
(<boundaryPoint> X13.263 Y5.072 Z1.42 </boundaryPoint>)
(<boundaryPoint> X14.33 Y5.072 Z1.42 </boundaryPoint>)
(<boundaryPoint> X15.373 Y4.85 Z1.42 </boundaryPoint>)
(<boundaryPoint> X16.346 Y4.417 Z1.42 </boundaryPoint>)
(<boundaryPoint> X17.209 Y3.79 Z1.42 </boundaryPoint>)
(<boundaryPoint> X17.923 Y2.998 Z1.42 </boundaryPoint>)
(<boundaryPoint> X18.456 Y2.074 Z1.42 </boundaryPoint>)
(<boundaryPoint> X18.785 Y1.06 Z1.42 </boundaryPoint>)
(<boundaryPoint> X18.897 Y-0.0 Z1.42 </boundaryPoint>)
(<boundaryPoint> X18.785 Y-1.06 Z1.42 </boundaryPoint>)
(<boundaryPoint> X18.456 Y-2.074 Z1.42 </boundaryPoint>)
(<boundaryPoint> X17.923 Y-2.998 Z1.42 </boundaryPoint>)
(<boundaryPoint> X17.209 Y-3.79 Z1.42 </boundaryPoint>)
(<boundaryPoint> X16.346 Y-4.417 Z1.42 </boundaryPoint>)
(<boundaryPoint> X15.373 Y-4.85 Z1.42 </boundaryPoint>)
(<boundaryPoint> X14.33 Y-5.072 Z1.42 </boundaryPoint>)
(<boundaryPoint> X13.263 Y-5.072 Z1.42 </boundaryPoint>)
(<boundaryPoint> X12.221 Y-4.85 Z1.42 </boundaryPoint>)
(<boundaryPoint> X11.247 Y-4.417 Z1.42 </boundaryPoint>)
(<boundaryPoint> X10.384 Y-3.79 Z1.42 </boundaryPoint>)
(<boundaryPoint> X9.671 Y-2.998 Z1.42 </boundaryPoint>)
(<boundaryPoint> X9.137 Y-2.074 Z1.42 </boundaryPoint>)
(<boundaryPoint> X8.808 Y-1.06 Z1.42 </boundaryPoint>)
(<boundaryPoint> X8.696 Y0.0 Z1.42 </boundaryPoint>)
(<boundaryPoint> X8.808 Y1.06 Z1.42 </boundaryPoint>)
(<boundaryPoint> X9.137 Y2.074 Z1.42 </boundaryPoint>)
(<perimeter> inner )
G1 X7.83 Y1.24 Z1.42 F3000.0
M108 R30.0
M101
G1 X8.62 Y1.1 Z1.42 F3000.0
M108 R3.569
G1 X8.96 Y2.15 Z1.42 F1800.0
G1 X9.51 Y3.11 Z1.42 F1800.0
G1 X10.25 Y3.94 Z1.42 F1800.0
G1 X11.15 Y4.59 Z1.42 F1800.0
G1 X12.16 Y5.04 Z1.42 F1800.0
G1 X13.24 Y5.27 Z1.42 F1800.0
G1 X14.35 Y5.27 Z1.42 F1800.0
G1 X15.43 Y5.04 Z1.42 F1800.0
G1 X16.45 Y4.59 Z1.42 F1800.0
G1 X17.34 Y3.94 Z1.42 F1800.0
G1 X18.08 Y3.11 Z1.42 F1800.0
G1 X18.64 Y2.15 Z1.42 F1800.0
G1 X18.98 Y1.1 Z1.42 F1800.0
G1 X19.1 Y-0.0 Z1.42 F1800.0
G1 X18.98 Y-1.1 Z1.42 F1800.0
G1 X18.64 Y-2.15 Z1.42 F1800.0
G1 X18.08 Y-3.11 Z1.42 F1800.0
G1 X17.34 Y-3.94 Z1.42 F1800.0
G1 X16.45 Y-4.59 Z1.42 F1800.0
G1 X15.43 Y-5.04 Z1.42 F1800.0
G1 X14.35 Y-5.27 Z1.42 F1800.0
G1 X13.24 Y-5.27 Z1.42 F1800.0
G1 X12.16 Y-5.04 Z1.42 F1800.0
G1 X11.15 Y-4.59 Z1.42 F1800.0
G1 X10.25 Y-3.94 Z1.42 F1800.0
G1 X9.51 Y-3.11 Z1.42 F1800.0
G1 X8.96 Y-2.15 Z1.42 F1800.0
G1 X8.62 Y-1.1 Z1.42 F1800.0
G1 X8.5 Y0.0 Z1.42 F1800.0
G1 X8.57 Y0.65 Z1.42 F1800.0
M108 R30.0
M102
G1 X8.62 Y1.1 Z1.42 F1800.0
M108 R3.569
M103
(</perimeter>)
(</boundaryPerimeter>)
(</surroundingLoop>)
G1 X-7.49 Y2.13 Z1.42 F3000.0
M108 R30.0
M101
G1 X-8.28 Y2.18 Z1.42 F3000.0
M108 R3.569
G1 X-8.0 Y1.31 Z1.42 F1800.0
G1 X-7.89 Y0.44 Z1.42 F1800.0
G1 X-7.59 Y0.36 Z1.42 F1800.0
G1 X-7.5 Y-0.25 Z1.42 F1800.0
G1 X-7.94 Y-0.87 Z1.42 F1800.0
G1 X-7.64 Y-0.98 Z1.42 F1800.0
G1 X-7.51 Y-0.98 Z1.42 F1800.0
G1 X-5.58 Y0.98 Z1.42 F1800.0
G1 X-5.33 Y0.98 Z1.42 F1800.0
G1 X-3.4 Y-0.98 Z1.42 F1800.0
G1 X-3.15 Y-0.98 Z1.42 F1800.0
G1 X-1.22 Y0.98 Z1.42 F1800.0
G1 X-0.96 Y0.98 Z1.42 F1800.0
G1 X0.96 Y-0.98 Z1.42 F1800.0
G1 X1.22 Y-0.98 Z1.42 F1800.0
G1 X3.15 Y0.98 Z1.42 F1800.0
G1 X3.4 Y0.98 Z1.42 F1800.0
G1 X5.33 Y-0.98 Z1.42 F1800.0
G1 X7.94 Y-0.87 Z1.42 F1800.0
G1 X7.46 Y-0.44 Z1.42 F1800.0
G1 X7.41 Y0.05 Z1.42 F1800.0
G1 X7.89 Y0.44 Z1.42 F1800.0
G1 X8.0 Y1.31 Z1.42 F1800.0
G1 X8.15 Y1.75 Z1.42 F1800.0
M108 R30.0
M102
G1 X8.28 Y2.18 Z1.42 F1800.0
M108 R3.569
M103
G1 X8.28 Y-1.38 Z1.42 F3000.0
M108 R30.0
M101
G1 X8.28 Y-2.18 Z1.42 F3000.0
M108 R3.569
G1 X8.14 Y-1.75 Z1.42 F1800.0
G1 X7.59 Y-1.44 Z1.42 F1800.0
G1 X5.33 Y-1.21 Z1.42 F1800.0
G1 X3.4 Y-3.16 Z1.42 F1800.0
G1 X3.15 Y-3.16 Z1.42 F1800.0
G1 X1.22 Y-1.21 Z1.42 F1800.0
G1 X0.96 Y-1.21 Z1.42 F1800.0
G1 X-0.96 Y-3.16 Z1.42 F1800.0
G1 X-1.22 Y-3.16 Z1.42 F1800.0
G1 X-3.15 Y-1.21 Z1.42 F1800.0
G1 X-3.4 Y-1.21 Z1.42 F1800.0
G1 X-5.33 Y-3.16 Z1.42 F1800.0
G1 X-5.58 Y-3.16 Z1.42 F1800.0
G1 X-7.51 Y-1.21 Z1.42 F1800.0
G1 X-7.76 Y-1.21 Z1.42 F1800.0
G1 X-8.0 Y-1.31 Z1.42 F1800.0
G1 X-7.83 Y-1.71 Z1.42 F1800.0
G1 X-8.14 Y-1.75 Z1.42 F1800.0
G1 X-8.15 Y-1.75 Z1.42 F1800.0
M108 R30.0
M102
G1 X-8.28 Y-2.18 Z1.42 F1800.0
M108 R3.569
M103
G1 X-9.84 Y-4.17 Z1.42 F3000.0
M108 R30.0
M101
G1 X-10.34 Y-4.8 Z1.42 F3000.0
M108 R3.569
G1 X-9.76 Y-4.36 Z1.42 F1800.0
G1 X-8.98 Y-3.49 Z1.42 F1800.0
G1 X-8.73 Y-3.05 Z1.42 F1800.0
G1 X-8.1 Y-2.84 Z1.42 F1800.0
G1 X-7.76 Y-5.45 Z1.42 F1800.0
G1 X-7.51 Y-5.45 Z1.42 F1800.0
G1 X-5.58 Y-3.39 Z1.42 F1800.0
G1 X-5.33 Y-3.39 Z1.42 F1800.0
G1 X-3.4 Y-5.45 Z1.42 F1800.0
G1 X-3.15 Y-5.45 Z1.42 F1800.0
G1 X-1.22 Y-3.39 Z1.42 F1800.0
G1 X-0.96 Y-3.39 Z1.42 F1800.0
G1 X0.96 Y-5.45 Z1.42 F1800.0
G1 X1.22 Y-5.45 Z1.42 F1800.0
G1 X3.15 Y-3.39 Z1.42 F1800.0
G1 X3.4 Y-3.39 Z1.42 F1800.0
G1 X5.33 Y-5.34 Z1.42 F1800.0
G1 X5.58 Y-5.34 Z1.42 F1800.0
G1 X8.1 Y-2.84 Z1.42 F1800.0
G1 X8.73 Y-3.05 Z1.42 F1800.0
G1 X8.98 Y-3.49 Z1.42 F1800.0
G1 X9.76 Y-4.36 Z1.42 F1800.0
G1 X9.98 Y-4.53 Z1.42 F1800.0
M108 R30.0
M102
G1 X10.34 Y-4.8 Z1.42 F1800.0
M108 R3.569
M103
G1 X13.23 Y-5.34 Z1.42 F3000.0
G1 X14.36 Y-5.34 Z1.42 F3000.0
G1 X15.46 Y-5.11 Z1.42 F3000.0
G1 X16.48 Y-4.65 Z1.42 F3000.0
G1 X17.39 Y-3.99 Z1.42 F3000.0
G1 X18.14 Y-3.16 Z1.42 F3000.0
G1 X19.3 Y-1.13 Z1.42 F3000.0
M108 R30.0
M101
G1 X19.7 Y-0.44 Z1.42 F3000.0
M108 R3.569
G1 X19.59 Y-1.31 Z1.42 F1800.0
G1 X19.12 Y-2.62 Z1.42 F1800.0
G1 X20.6 Y-3.16 Z1.42 F1800.0
G1 X20.85 Y-3.16 Z1.42 F1800.0
G1 X22.78 Y-1.21 Z1.42 F1800.0
G1 X23.04 Y-1.21 Z1.42 F1800.0
G1 X24.96 Y-3.16 Z1.42 F1800.0
G1 X25.22 Y-3.16 Z1.42 F1800.0
G1 X26.75 Y-0.44 Z1.42 F1800.0
G1 X26.75 Y-3.93 Z1.42 F1800.0
G1 X25.22 Y-3.39 Z1.42 F1800.0
G1 X24.96 Y-3.39 Z1.42 F1800.0
G1 X23.04 Y-5.34 Z1.42 F1800.0
G1 X22.78 Y-5.34 Z1.42 F1800.0
G1 X20.85 Y-3.39 Z1.42 F1800.0
G1 X20.6 Y-3.39 Z1.42 F1800.0
G1 X18.67 Y-5.34 Z1.42 F1800.0
G1 X16.83 Y-5.59 Z1.42 F1800.0
G1 X18.61 Y-3.49 Z1.42 F1800.0
G1 X18.64 Y-3.44 Z1.42 F1800.0
M108 R30.0
M102
G1 X18.87 Y-3.05 Z1.42 F1800.0
M108 R3.569
M103
G1 X19.17 Y0.0 Z1.42 F3000.0
G1 X19.05 Y1.12 Z1.42 F3000.0
G1 X18.11 Y3.61 Z1.42 F3000.0
M108 R30.0
M101
G1 X17.83 Y4.36 Z1.42 F3000.0
M108 R3.569
G1 X18.61 Y3.49 Z1.42 F1800.0
G1 X19.12 Y2.62 Z1.42 F1800.0
G1 X19.46 Y2.18 Z1.42 F1800.0
G1 X19.64 Y1.74 Z1.42 F1800.0
G1 X20.6 Y1.21 Z1.42 F1800.0
G1 X20.85 Y1.21 Z1.42 F1800.0
G1 X22.78 Y3.16 Z1.42 F1800.0
G1 X23.04 Y3.16 Z1.42 F1800.0
G1 X24.96 Y1.21 Z1.42 F1800.0
G1 X25.22 Y1.21 Z1.42 F1800.0
G1 X26.75 Y3.93 Z1.42 F1800.0
G1 X26.75 Y-0.0 Z1.42 F1800.0
G1 X25.22 Y0.98 Z1.42 F1800.0
G1 X24.96 Y0.98 Z1.42 F1800.0
G1 X23.04 Y-0.98 Z1.42 F1800.0
G1 X22.78 Y-0.98 Z1.42 F1800.0
G1 X20.85 Y0.98 Z1.42 F1800.0
G1 X19.65 Y0.87 Z1.42 F1800.0
G1 X19.7 Y0.45 Z1.42 F1800.0
M108 R30.0
M102
G1 X19.75 Y-0.0 Z1.42 F1800.0
M108 R3.569
M103
G1 X26.26 Y8.53 Z1.42 F3000.0
M108 R30.0
M101
G1 X26.75 Y9.16 Z1.42 F3000.0
M108 R3.569
G1 X26.75 Y8.29 Z1.42 F1800.0
G1 X23.04 Y7.75 Z1.42 F1800.0
G1 X-25.22 Y7.75 Z1.42 F1800.0
G1 X-26.75 Y9.16 Z1.42 F1800.0
G1 X-26.75 Y6.98 Z1.42 F1800.0
G1 X-25.22 Y7.52 Z1.42 F1800.0
G1 X-24.96 Y7.52 Z1.42 F1800.0
G1 X-23.04 Y5.57 Z1.42 F1800.0
G1 X-18.42 Y5.57 Z1.42 F1800.0
G1 X1.22 Y7.52 Z1.42 F1800.0
G1 X3.15 Y5.57 Z1.42 F1800.0
G1 X3.4 Y5.57 Z1.42 F1800.0
G1 X5.33 Y7.52 Z1.42 F1800.0
G1 X5.58 Y7.52 Z1.42 F1800.0
G1 X7.51 Y5.57 Z1.42 F1800.0
G1 X7.76 Y5.57 Z1.42 F1800.0
G1 X9.69 Y7.52 Z1.42 F1800.0
G1 X14.31 Y7.52 Z1.42 F1800.0
G1 X15.57 Y5.67 Z1.42 F1800.0
G1 X16.76 Y5.64 Z1.42 F1800.0
G1 X18.42 Y7.52 Z1.42 F1800.0
G1 X18.67 Y7.52 Z1.42 F1800.0
G1 X20.6 Y5.57 Z1.42 F1800.0
G1 X20.85 Y5.57 Z1.42 F1800.0
G1 X22.78 Y7.52 Z1.42 F1800.0
G1 X23.04 Y7.52 Z1.42 F1800.0
G1 X24.96 Y5.57 Z1.42 F1800.0
G1 X25.22 Y5.57 Z1.42 F1800.0
G1 X26.75 Y7.85 Z1.42 F1800.0
G1 X26.75 Y4.36 Z1.42 F1800.0
G1 X25.22 Y5.34 Z1.42 F1800.0
G1 X24.96 Y5.34 Z1.42 F1800.0
G1 X23.04 Y3.39 Z1.42 F1800.0
G1 X22.78 Y3.39 Z1.42 F1800.0
G1 X20.85 Y5.34 Z1.42 F1800.0
G1 X17.7 Y4.87 Z1.42 F1800.0
M108 R30.0
M102
G1 X17.26 Y4.8 Z1.42 F1800.0
M108 R3.569
M103
G1 X26.17 Y-3.81 Z1.42 F3000.0
M108 R30.0
M101
G1 X26.75 Y-4.36 Z1.42 F3000.0
M108 R3.569
G1 X26.75 Y-6.55 Z1.42 F1800.0
G1 X25.22 Y-7.52 Z1.42 F1800.0
G1 X24.96 Y-7.52 Z1.42 F1800.0
G1 X23.04 Y-5.57 Z1.42 F1800.0
G1 X22.78 Y-5.57 Z1.42 F1800.0
G1 X20.85 Y-7.52 Z1.42 F1800.0
G1 X20.6 Y-7.52 Z1.42 F1800.0
G1 X18.67 Y-5.57 Z1.42 F1800.0
G1 X18.42 Y-5.57 Z1.42 F1800.0
G1 X16.49 Y-7.52 Z1.42 F1800.0
G1 X16.24 Y-7.52 Z1.42 F1800.0
G1 X12.03 Y-5.67 Z1.42 F1800.0
G1 X10.84 Y-5.64 Z1.42 F1800.0
G1 X12.13 Y-7.52 Z1.42 F1800.0
G1 X7.51 Y-7.52 Z1.42 F1800.0
G1 X5.58 Y-5.57 Z1.42 F1800.0
G1 X5.33 Y-5.57 Z1.42 F1800.0
G1 X3.4 Y-7.52 Z1.42 F1800.0
G1 X-20.85 Y-5.57 Z1.42 F1800.0
G1 X-22.78 Y-7.52 Z1.42 F1800.0
G1 X-23.04 Y-7.52 Z1.42 F1800.0
G1 X-24.96 Y-5.57 Z1.42 F1800.0
G1 X-25.22 Y-5.57 Z1.42 F1800.0
G1 X-26.75 Y-6.55 Z1.42 F1800.0
G1 X-26.75 Y-2.62 Z1.42 F1800.0
G1 X-25.22 Y-5.34 Z1.42 F1800.0
G1 X-24.96 Y-5.34 Z1.42 F1800.0
G1 X-23.04 Y-3.39 Z1.42 F1800.0
G1 X-22.78 Y-3.39 Z1.42 F1800.0
G1 X-20.85 Y-5.34 Z1.42 F1800.0
G1 X-20.6 Y-5.34 Z1.42 F1800.0
G1 X-19.5 Y-2.84 Z1.42 F1800.0
G1 X-18.86 Y-3.05 Z1.42 F1800.0
G1 X-18.61 Y-3.49 Z1.42 F1800.0
G1 X-18.52 Y-3.59 Z1.42 F1800.0
M108 R30.0
M102
G1 X-18.22 Y-3.93 Z1.42 F1800.0
M108 R3.569
M103
G1 X-19.46 Y-0.75 Z1.42 F3000.0
M108 R30.0
M101
G1 X-19.75 Y0.0 Z1.42 F3000.0
M108 R3.569
G1 X-19.59 Y-1.31 Z1.42 F1800.0
G1 X-19.31 Y-2.18 Z1.42 F1800.0
G1 X-22.78 Y-3.16 Z1.42 F1800.0
G1 X-23.04 Y-3.16 Z1.42 F1800.0
G1 X-24.96 Y-1.21 Z1.42 F1800.0
G1 X-25.22 Y-1.21 Z1.42 F1800.0
G1 X-26.75 Y-2.18 Z1.42 F1800.0
G1 X-26.75 Y2.18 Z1.42 F1800.0
G1 X-25.22 Y-0.98 Z1.42 F1800.0
G1 X-24.96 Y-0.98 Z1.42 F1800.0
G1 X-23.04 Y0.98 Z1.42 F1800.0
G1 X-22.78 Y0.98 Z1.42 F1800.0
G1 X-19.7 Y0.44 Z1.42 F1800.0
G1 X-19.59 Y1.31 Z1.42 F1800.0
M103
G1 X-19.31 Y2.18 Z1.42 F3000.0
M101
G1 X-18.61 Y3.49 Z1.42 F1800.0
G1 X-18.22 Y3.93 Z1.42 F1800.0
G1 X-20.6 Y3.16 Z1.42 F1800.0
G1 X-20.85 Y3.16 Z1.42 F1800.0
G1 X-22.78 Y1.21 Z1.42 F1800.0
G1 X-23.04 Y1.21 Z1.42 F1800.0
G1 X-24.96 Y3.16 Z1.42 F1800.0
G1 X-25.22 Y3.16 Z1.42 F1800.0
G1 X-26.75 Y2.62 Z1.42 F1800.0
G1 X-26.75 Y6.55 Z1.42 F1800.0
G1 X-25.22 Y3.39 Z1.42 F1800.0
G1 X-24.96 Y3.39 Z1.42 F1800.0
G1 X-23.04 Y5.34 Z1.42 F1800.0
G1 X-22.78 Y5.34 Z1.42 F1800.0
G1 X-20.85 Y3.39 Z1.42 F1800.0
G1 X-20.6 Y3.39 Z1.42 F1800.0
G1 X-18.67 Y5.34 Z1.42 F1800.0
G1 X-18.42 Y5.34 Z1.42 F1800.0
G1 X-17.83 Y4.36 Z1.42 F1800.0
G1 X-17.61 Y4.53 Z1.42 F1800.0
M108 R30.0
M102
G1 X-17.26 Y4.8 Z1.42 F1800.0
M108 R3.569
M103
G1 X-14.36 Y5.34 Z1.42 F3000.0
G1 X-13.23 Y5.34 Z1.42 F3000.0
G1 X-11.12 Y4.95 Z1.42 F3000.0
M108 R30.0
M101
G1 X-10.34 Y4.8 Z1.42 F3000.0
M108 R3.569
G1 X-9.95 Y5.45 Z1.42 F1800.0
G1 X-9.69 Y5.45 Z1.42 F1800.0
G1 X-7.76 Y3.39 Z1.42 F1800.0
G1 X-7.51 Y3.39 Z1.42 F1800.0
G1 X-5.58 Y5.45 Z1.42 F1800.0
G1 X-5.33 Y5.45 Z1.42 F1800.0
G1 X-3.4 Y3.39 Z1.42 F1800.0
G1 X-3.15 Y3.39 Z1.42 F1800.0
G1 X-1.22 Y5.45 Z1.42 F1800.0
G1 X-0.96 Y5.45 Z1.42 F1800.0
G1 X0.96 Y3.39 Z1.42 F1800.0
G1 X1.22 Y3.39 Z1.42 F1800.0
G1 X3.15 Y5.34 Z1.42 F1800.0
G1 X3.4 Y5.34 Z1.42 F1800.0
G1 X5.33 Y3.39 Z1.42 F1800.0
G1 X5.58 Y3.39 Z1.42 F1800.0
G1 X7.51 Y5.34 Z1.42 F1800.0
G1 X7.76 Y5.34 Z1.42 F1800.0
G1 X10.34 Y4.8 Z1.42 F1800.0
G1 X9.76 Y4.36 Z1.42 F1800.0
G1 X8.98 Y3.49 Z1.42 F1800.0
G1 X8.48 Y2.62 Z1.42 F1800.0
G1 X5.58 Y3.16 Z1.42 F1800.0
G1 X5.33 Y3.16 Z1.42 F1800.0
G1 X3.4 Y1.21 Z1.42 F1800.0
G1 X3.15 Y1.21 Z1.42 F1800.0
G1 X1.22 Y3.16 Z1.42 F1800.0
G1 X0.96 Y3.16 Z1.42 F1800.0
G1 X-0.96 Y1.21 Z1.42 F1800.0
G1 X-1.22 Y1.21 Z1.42 F1800.0
G1 X-3.15 Y3.16 Z1.42 F1800.0
G1 X-3.4 Y3.16 Z1.42 F1800.0
G1 X-5.33 Y1.21 Z1.42 F1800.0
G1 X-5.58 Y1.21 Z1.42 F1800.0
G1 X-7.51 Y3.16 Z1.42 F1800.0
G1 X-7.76 Y3.16 Z1.42 F1800.0
G1 X-8.48 Y2.62 Z1.42 F1800.0
G1 X-8.98 Y3.49 Z1.42 F1800.0
G1 X-9.46 Y4.03 Z1.42 F1800.0
M108 R30.0
M102
G1 X-9.76 Y4.36 Z1.42 F1800.0
M108 R3.569
M103
G1 X12.14 Y-5.11 Z1.42 F3000.0
G1 X25.97 Y-8.54 Z1.42 F3000.0
M108 R30.0
M101
G1 X26.75 Y-8.73 Z1.42 F3000.0
M108 R3.569
G1 X26.75 Y-6.98 Z1.42 F1800.0
G1 X25.22 Y-7.75 Z1.42 F1800.0
G1 X-23.04 Y-7.75 Z1.42 F1800.0
G1 X-26.75 Y-6.98 Z1.42 F1800.0
G1 X-26.75 Y-9.16 Z1.42 F1800.0
G1 X26.3 Y-9.16 Z1.42 F1800.0
M108 R30.0
M102
G1 X26.75 Y-9.16 Z1.42 F1800.0
M108 R3.569
M103
(</surroundingLoop>)
(</layer>)
(<layer> 1.74 )
(<surroundingLoop>)
(<boundaryPerimeter>)
(<boundaryPoint> X27.593 Y-10.2 Z1.74 </boundaryPoint>)
(<boundaryPoint> X27.593 Y10.2 Z1.74 </boundaryPoint>)
(<boundaryPoint> X-27.593 Y10.2 Z1.74 </boundaryPoint>)
(<boundaryPoint> X-27.593 Y-10.2 Z1.74 </boundaryPoint>)
(<loop> inner )
G1 X19.2 Y-3.55 Z1.72 F3000.0
M108 R30.0
M101
G1 X18.56 Y-3.07 Z1.74 F3000.0
M108 R3.569
G1 X18.4 Y-3.35 Z1.74 F1800.0
G1 X17.61 Y-4.23 Z1.74 F1800.0
G1 X16.64 Y-4.93 Z1.74 F1800.0
G1 X15.56 Y-5.41 Z1.74 F1800.0
G1 X14.39 Y-5.66 Z1.74 F1800.0
G1 X13.2 Y-5.66 Z1.74 F1800.0
G1 X12.04 Y-5.41 Z1.74 F1800.0
G1 X10.95 Y-4.93 Z1.74 F1800.0
G1 X9.99 Y-4.23 Z1.74 F1800.0
G1 X9.19 Y-3.35 Z1.74 F1800.0
G1 X8.6 Y-2.32 Z1.74 F1800.0
G1 X8.23 Y-1.18 Z1.74 F1800.0
G1 X8.1 Y-0.0 Z1.74 F1800.0
G1 X8.23 Y1.18 Z1.74 F1800.0
G1 X8.6 Y2.32 Z1.74 F1800.0
G1 X9.19 Y3.35 Z1.74 F1800.0
G1 X9.99 Y4.23 Z1.74 F1800.0
G1 X10.95 Y4.93 Z1.74 F1800.0
G1 X12.04 Y5.41 Z1.74 F1800.0
G1 X13.2 Y5.66 Z1.74 F1800.0
G1 X14.39 Y5.66 Z1.74 F1800.0
G1 X15.56 Y5.41 Z1.74 F1800.0
G1 X16.64 Y4.93 Z1.74 F1800.0
G1 X17.61 Y4.23 Z1.74 F1800.0
G1 X18.4 Y3.35 Z1.74 F1800.0
G1 X19.0 Y2.32 Z1.74 F1800.0
G1 X19.36 Y1.18 Z1.74 F1800.0
G1 X19.49 Y0.0 Z1.74 F1800.0
G1 X19.36 Y-1.18 Z1.74 F1800.0
G1 X19.0 Y-2.32 Z1.74 F1800.0
G1 X18.79 Y-2.68 Z1.74 F1800.0
M108 R30.0
M102
G1 X18.56 Y-3.07 Z1.74 F1800.0
M108 R3.569
M103
(</loop>)
(<loop> inner )
G1 X16.48 Y-4.65 Z1.74 F3000.0
G1 X15.46 Y-5.11 Z1.74 F3000.0
G1 X14.36 Y-5.34 Z1.74 F3000.0
G1 X13.23 Y-5.34 Z1.74 F3000.0
G1 X-7.35 Y-0.44 Z1.74 F3000.0
M108 R30.0
M101
G1 X-8.13 Y-0.25 Z1.74 F3000.0
M108 R3.569
G1 X-8.16 Y-0.54 Z1.74 F1800.0
G1 X-8.23 Y-1.18 Z1.74 F1800.0
G1 X-8.6 Y-2.32 Z1.74 F1800.0
G1 X-9.19 Y-3.35 Z1.74 F1800.0
G1 X-9.99 Y-4.23 Z1.74 F1800.0
G1 X-10.95 Y-4.93 Z1.74 F1800.0
G1 X-12.04 Y-5.41 Z1.74 F1800.0
G1 X-13.2 Y-5.66 Z1.74 F1800.0
G1 X-14.39 Y-5.66 Z1.74 F1800.0
G1 X-15.56 Y-5.41 Z1.74 F1800.0
G1 X-16.64 Y-4.93 Z1.74 F1800.0
G1 X-17.61 Y-4.23 Z1.74 F1800.0
G1 X-18.4 Y-3.35 Z1.74 F1800.0
G1 X-19.0 Y-2.32 Z1.74 F1800.0
G1 X-19.36 Y-1.18 Z1.74 F1800.0
G1 X-19.49 Y-0.0 Z1.74 F1800.0
G1 X-19.36 Y1.18 Z1.74 F1800.0
G1 X-19.0 Y2.32 Z1.74 F1800.0
G1 X-18.4 Y3.35 Z1.74 F1800.0
G1 X-17.61 Y4.23 Z1.74 F1800.0
G1 X-16.64 Y4.93 Z1.74 F1800.0
G1 X-15.56 Y5.41 Z1.74 F1800.0
G1 X-14.39 Y5.66 Z1.74 F1800.0
G1 X-13.2 Y5.66 Z1.74 F1800.0
G1 X-12.04 Y5.41 Z1.74 F1800.0
G1 X-10.95 Y4.93 Z1.74 F1800.0
G1 X-9.99 Y4.23 Z1.74 F1800.0
G1 X-9.19 Y3.35 Z1.74 F1800.0
G1 X-8.6 Y2.32 Z1.74 F1800.0
G1 X-8.23 Y1.18 Z1.74 F1800.0
G1 X-8.12 Y0.2 Z1.74 F1800.0
M108 R30.0
M102
G1 X-8.1 Y0.0 Z1.74 F1800.0
G1 X-8.13 Y-0.25 Z1.74 F1800.0
M108 R3.569
M103
(</loop>)
(<loop> outer )
G1 X-8.16 Y-8.81 Z1.74 F3000.0
M108 R30.0
M101
G1 X-8.16 Y-9.61 Z1.74 F3000.0
M108 R3.569
G1 X27.0 Y-9.61 Z1.74 F1800.0
G1 X27.0 Y9.61 Z1.74 F1800.0
G1 X-27.0 Y9.61 Z1.74 F1800.0
G1 X-27.0 Y-9.61 Z1.74 F1800.0
G1 X-8.16 Y-9.61 Z1.74 F1800.0
M103
(</loop>)
(<perimeter> outer )
G1 X-8.16 Y-10.0 Z1.74 F3000.0
M101
G1 X27.4 Y-10.0 Z1.74 F1800.0
G1 X27.4 Y10.0 Z1.74 F1800.0
G1 X-27.4 Y10.0 Z1.74 F1800.0
G1 X-27.4 Y-10.0 Z1.74 F1800.0
G1 X-8.61 Y-10.0 Z1.74 F1800.0
M108 R30.0
M102
G1 X-8.16 Y-10.0 Z1.74 F1800.0
M108 R3.569
M103
(</perimeter>)
(</boundaryPerimeter>)
(<surroundingLoop>)
(<boundaryPerimeter>)
(<boundaryPoint> X-17.922 Y2.998 Z1.74 </boundaryPoint>)
(<boundaryPoint> X-17.209 Y3.79 Z1.74 </boundaryPoint>)
(<boundaryPoint> X-16.346 Y4.417 Z1.74 </boundaryPoint>)
(<boundaryPoint> X-15.372 Y4.85 Z1.74 </boundaryPoint>)
(<boundaryPoint> X-14.33 Y5.072 Z1.74 </boundaryPoint>)
(<boundaryPoint> X-13.263 Y5.072 Z1.74 </boundaryPoint>)
(<boundaryPoint> X-12.221 Y4.85 Z1.74 </boundaryPoint>)
(<boundaryPoint> X-11.246 Y4.417 Z1.74 </boundaryPoint>)
(<boundaryPoint> X-10.384 Y3.79 Z1.74 </boundaryPoint>)
(<boundaryPoint> X-9.671 Y2.998 Z1.74 </boundaryPoint>)
(<boundaryPoint> X-9.137 Y2.074 Z1.74 </boundaryPoint>)
(<boundaryPoint> X-8.808 Y1.06 Z1.74 </boundaryPoint>)
(<boundaryPoint> X-8.696 Y-0.0 Z1.74 </boundaryPoint>)
(<boundaryPoint> X-8.808 Y-1.06 Z1.74 </boundaryPoint>)
(<boundaryPoint> X-9.137 Y-2.074 Z1.74 </boundaryPoint>)
(<boundaryPoint> X-9.671 Y-2.998 Z1.74 </boundaryPoint>)
(<boundaryPoint> X-10.384 Y-3.79 Z1.74 </boundaryPoint>)
(<boundaryPoint> X-11.246 Y-4.417 Z1.74 </boundaryPoint>)
(<boundaryPoint> X-12.221 Y-4.85 Z1.74 </boundaryPoint>)
(<boundaryPoint> X-13.263 Y-5.072 Z1.74 </boundaryPoint>)
(<boundaryPoint> X-14.33 Y-5.072 Z1.74 </boundaryPoint>)
(<boundaryPoint> X-15.372 Y-4.85 Z1.74 </boundaryPoint>)
(<boundaryPoint> X-16.346 Y-4.417 Z1.74 </boundaryPoint>)
(<boundaryPoint> X-17.209 Y-3.79 Z1.74 </boundaryPoint>)
(<boundaryPoint> X-17.922 Y-2.998 Z1.74 </boundaryPoint>)
(<boundaryPoint> X-18.456 Y-2.074 Z1.74 </boundaryPoint>)
(<boundaryPoint> X-18.785 Y-1.06 Z1.74 </boundaryPoint>)
(<boundaryPoint> X-18.896 Y0.0 Z1.74 </boundaryPoint>)
(<boundaryPoint> X-18.785 Y1.06 Z1.74 </boundaryPoint>)
(<boundaryPoint> X-18.456 Y2.074 Z1.74 </boundaryPoint>)
(<perimeter> inner )
G1 X-10.76 Y-5.29 Z1.74 F3000.0
M108 R30.0
M101
G1 X-11.15 Y-4.59 Z1.74 F3000.0
M108 R3.569
G1 X-12.16 Y-5.04 Z1.74 F1800.0
G1 X-13.24 Y-5.27 Z1.74 F1800.0
G1 X-14.35 Y-5.27 Z1.74 F1800.0
G1 X-15.43 Y-5.04 Z1.74 F1800.0
G1 X-16.45 Y-4.59 Z1.74 F1800.0
G1 X-17.34 Y-3.94 Z1.74 F1800.0
G1 X-18.08 Y-3.11 Z1.74 F1800.0
G1 X-18.64 Y-2.15 Z1.74 F1800.0
G1 X-18.98 Y-1.1 Z1.74 F1800.0
G1 X-19.09 Y0.0 Z1.74 F1800.0
G1 X-18.98 Y1.1 Z1.74 F1800.0
G1 X-18.64 Y2.15 Z1.74 F1800.0
G1 X-18.08 Y3.11 Z1.74 F1800.0
G1 X-17.34 Y3.94 Z1.74 F1800.0
G1 X-16.45 Y4.59 Z1.74 F1800.0
G1 X-15.43 Y5.04 Z1.74 F1800.0
G1 X-14.35 Y5.27 Z1.74 F1800.0
G1 X-13.24 Y5.27 Z1.74 F1800.0
G1 X-12.16 Y5.04 Z1.74 F1800.0
G1 X-11.15 Y4.59 Z1.74 F1800.0
G1 X-10.25 Y3.94 Z1.74 F1800.0
G1 X-9.51 Y3.11 Z1.74 F1800.0
G1 X-8.96 Y2.15 Z1.74 F1800.0
G1 X-8.62 Y1.1 Z1.74 F1800.0
G1 X-8.5 Y-0.0 Z1.74 F1800.0
G1 X-8.62 Y-1.1 Z1.74 F1800.0
G1 X-8.96 Y-2.15 Z1.74 F1800.0
G1 X-9.51 Y-3.11 Z1.74 F1800.0
G1 X-10.25 Y-3.94 Z1.74 F1800.0
G1 X-10.78 Y-4.32 Z1.74 F1800.0
M108 R30.0
M102
G1 X-11.15 Y-4.59 Z1.74 F1800.0
M108 R3.569
M103
(</perimeter>)
(</boundaryPerimeter>)
(</surroundingLoop>)
(<surroundingLoop>)
(<boundaryPerimeter>)
(<boundaryPoint> X9.671 Y2.998 Z1.74 </boundaryPoint>)
(<boundaryPoint> X10.384 Y3.79 Z1.74 </boundaryPoint>)
(<boundaryPoint> X11.247 Y4.417 Z1.74 </boundaryPoint>)
(<boundaryPoint> X12.221 Y4.85 Z1.74 </boundaryPoint>)
(<boundaryPoint> X13.263 Y5.072 Z1.74 </boundaryPoint>)
(<boundaryPoint> X14.33 Y5.072 Z1.74 </boundaryPoint>)
(<boundaryPoint> X15.373 Y4.85 Z1.74 </boundaryPoint>)
(<boundaryPoint> X16.346 Y4.417 Z1.74 </boundaryPoint>)
(<boundaryPoint> X17.209 Y3.79 Z1.74 </boundaryPoint>)
(<boundaryPoint> X17.923 Y2.998 Z1.74 </boundaryPoint>)
(<boundaryPoint> X18.456 Y2.074 Z1.74 </boundaryPoint>)
(<boundaryPoint> X18.785 Y1.06 Z1.74 </boundaryPoint>)
(<boundaryPoint> X18.897 Y-0.0 Z1.74 </boundaryPoint>)
(<boundaryPoint> X18.785 Y-1.06 Z1.74 </boundaryPoint>)
(<boundaryPoint> X18.456 Y-2.074 Z1.74 </boundaryPoint>)
(<boundaryPoint> X17.923 Y-2.998 Z1.74 </boundaryPoint>)
(<boundaryPoint> X17.209 Y-3.79 Z1.74 </boundaryPoint>)
(<boundaryPoint> X16.346 Y-4.417 Z1.74 </boundaryPoint>)
(<boundaryPoint> X15.373 Y-4.85 Z1.74 </boundaryPoint>)
(<boundaryPoint> X14.33 Y-5.072 Z1.74 </boundaryPoint>)
(<boundaryPoint> X13.263 Y-5.072 Z1.74 </boundaryPoint>)
(<boundaryPoint> X12.221 Y-4.85 Z1.74 </boundaryPoint>)
(<boundaryPoint> X11.247 Y-4.417 Z1.74 </boundaryPoint>)
(<boundaryPoint> X10.384 Y-3.79 Z1.74 </boundaryPoint>)
(<boundaryPoint> X9.671 Y-2.998 Z1.74 </boundaryPoint>)
(<boundaryPoint> X9.137 Y-2.074 Z1.74 </boundaryPoint>)
(<boundaryPoint> X8.808 Y-1.06 Z1.74 </boundaryPoint>)
(<boundaryPoint> X8.696 Y0.0 Z1.74 </boundaryPoint>)
(<boundaryPoint> X8.808 Y1.06 Z1.74 </boundaryPoint>)
(<boundaryPoint> X9.137 Y2.074 Z1.74 </boundaryPoint>)
(<perimeter> inner )
G1 X7.83 Y-1.24 Z1.74 F3000.0
M108 R30.0
M101
G1 X8.62 Y-1.1 Z1.74 F3000.0
M108 R3.569
G1 X8.5 Y0.0 Z1.74 F1800.0
G1 X8.62 Y1.1 Z1.74 F1800.0
G1 X8.96 Y2.15 Z1.74 F1800.0
G1 X9.51 Y3.11 Z1.74 F1800.0
G1 X10.25 Y3.94 Z1.74 F1800.0
G1 X11.15 Y4.59 Z1.74 F1800.0
G1 X12.16 Y5.04 Z1.74 F1800.0
G1 X13.24 Y5.27 Z1.74 F1800.0
G1 X14.35 Y5.27 Z1.74 F1800.0
G1 X15.43 Y5.04 Z1.74 F1800.0
G1 X16.45 Y4.59 Z1.74 F1800.0
G1 X17.34 Y3.94 Z1.74 F1800.0
G1 X18.08 Y3.11 Z1.74 F1800.0
G1 X18.64 Y2.15 Z1.74 F1800.0
G1 X18.98 Y1.1 Z1.74 F1800.0
G1 X19.1 Y-0.0 Z1.74 F1800.0
G1 X18.98 Y-1.1 Z1.74 F1800.0
G1 X18.64 Y-2.15 Z1.74 F1800.0
G1 X18.08 Y-3.11 Z1.74 F1800.0
G1 X17.34 Y-3.94 Z1.74 F1800.0
G1 X16.45 Y-4.59 Z1.74 F1800.0
G1 X15.43 Y-5.04 Z1.74 F1800.0
G1 X14.35 Y-5.27 Z1.74 F1800.0
G1 X13.24 Y-5.27 Z1.74 F1800.0
G1 X12.16 Y-5.04 Z1.74 F1800.0
G1 X11.15 Y-4.59 Z1.74 F1800.0
G1 X10.25 Y-3.94 Z1.74 F1800.0
G1 X9.51 Y-3.11 Z1.74 F1800.0
G1 X8.96 Y-2.15 Z1.74 F1800.0
G1 X8.75 Y-1.53 Z1.74 F1800.0
M108 R30.0
M102
G1 X8.62 Y-1.1 Z1.74 F1800.0
M108 R3.569
M103
(</perimeter>)
(</boundaryPerimeter>)
(</surroundingLoop>)
G1 X9.0 Y-2.91 Z1.74 F3000.0
M108 R30.0
M101
G1 X9.16 Y-3.7 Z1.74 F3000.0
M108 R3.569
G1 X10.04 Y-4.58 Z1.74 F1800.0
G1 X10.47 Y-4.9 Z1.74 F1800.0
G1 X7.75 Y-7.51 Z1.74 F1800.0
G1 X7.75 Y-7.76 Z1.74 F1800.0
G1 X8.29 Y-8.92 Z1.74 F1800.0
G1 X8.76 Y-9.15 Z1.74 F1800.0
M108 R30.0
M102
G1 X9.16 Y-9.36 Z1.74 F1800.0
M108 R3.569
M103
G1 X7.78 Y-9.36 Z1.74 F3000.0
M108 R30.0
M101
G1 X6.98 Y-9.36 Z1.74 F3000.0
M108 R3.569
G1 X7.42 Y-8.92 Z1.74 F1800.0
G1 X7.52 Y-7.51 Z1.74 F1800.0
G1 X5.57 Y-5.58 Z1.74 F1800.0
G1 X5.57 Y-0.96 Z1.74 F1800.0
G1 X7.85 Y0.07 Z1.74 F1800.0
G1 X5.57 Y3.15 Z1.74 F1800.0
G1 X5.57 Y3.4 Z1.74 F1800.0
G1 X7.52 Y5.33 Z1.74 F1800.0
G1 X7.52 Y5.58 Z1.74 F1800.0
G1 X5.57 Y7.51 Z1.74 F1800.0
G1 X5.57 Y7.76 Z1.74 F1800.0
G1 X6.11 Y8.92 Z1.74 F1800.0
G1 X6.55 Y8.92 Z1.74 F1800.0
G1 X6.66 Y9.04 Z1.74 F1800.0
M108 R30.0
M102
G1 X6.98 Y9.36 Z1.74 F1800.0
M108 R3.569
M103
G1 X8.36 Y9.36 Z1.74 F3000.0
M108 R30.0
M101
G1 X9.16 Y9.36 Z1.74 F3000.0
M108 R3.569
G1 X9.6 Y8.92 Z1.74 F1800.0
G1 X9.7 Y7.51 Z1.74 F1800.0
G1 X7.75 Y5.58 Z1.74 F1800.0
G1 X7.91 Y2.42 Z1.74 F1800.0
G1 X10.04 Y4.58 Z1.74 F1800.0
G1 X10.47 Y4.9 Z1.74 F1800.0
M103
G1 X11.35 Y5.39 Z1.74 F3000.0
M101
G1 X10.91 Y5.19 Z1.74 F1800.0
G1 X9.93 Y7.51 Z1.74 F1800.0
G1 X10.04 Y9.36 Z1.74 F1800.0
G1 X10.47 Y8.92 Z1.74 F1800.0
G1 X10.91 Y8.92 Z1.74 F1800.0
G1 X11.35 Y9.36 Z1.74 F1800.0
G1 X11.78 Y8.92 Z1.74 F1800.0
G1 X12.6 Y6.24 Z1.74 F1800.0
G1 X13.09 Y5.9 Z1.74 F1800.0
G1 X13.96 Y5.92 Z1.74 F1800.0
G1 X13.09 Y8.92 Z1.74 F1800.0
G1 X13.53 Y9.36 Z1.74 F1800.0
G1 X13.96 Y8.92 Z1.74 F1800.0
G1 X14.3 Y7.76 Z1.74 F1800.0
G1 X14.49 Y6.34 Z1.74 F1800.0
G1 X14.84 Y5.83 Z1.74 F1800.0
G1 X15.2 Y6.07 Z1.74 F1800.0
G1 X15.27 Y5.74 Z1.74 F1800.0
G1 X15.71 Y5.63 Z1.74 F1800.0
G1 X16.32 Y5.83 Z1.74 F1800.0
G1 X16.58 Y8.92 Z1.74 F1800.0
G1 X16.11 Y9.15 Z1.74 F1800.0
M108 R30.0
M102
G1 X15.71 Y9.36 Z1.74 F1800.0
M108 R3.569
M103
G1 X17.09 Y9.36 Z1.74 F3000.0
M108 R30.0
M101
G1 X17.89 Y9.36 Z1.74 F3000.0
M108 R3.569
G1 X18.33 Y8.92 Z1.74 F1800.0
G1 X18.43 Y7.51 Z1.74 F1800.0
G1 X16.58 Y5.24 Z1.74 F1800.0
G1 X17.02 Y4.97 Z1.74 F1800.0
G1 X17.89 Y4.3 Z1.74 F1800.0
G1 X18.02 Y4.15 Z1.74 F1800.0
M108 R30.0
M102
G1 X18.33 Y3.81 Z1.74 F1800.0
M108 R3.569
M103
G1 X19.83 Y8.59 Z1.74 F3000.0
M108 R30.0
M101
G1 X20.07 Y9.36 Z1.74 F3000.0
M108 R3.569
G1 X19.64 Y8.92 Z1.74 F1800.0
G1 X19.2 Y8.92 Z1.74 F1800.0
G1 X18.76 Y9.36 Z1.74 F1800.0
G1 X18.66 Y7.51 Z1.74 F1800.0
G1 X20.61 Y5.58 Z1.74 F1800.0
G1 X20.61 Y5.33 Z1.74 F1800.0
G1 X19.2 Y2.48 Z1.74 F1800.0
G1 X20.61 Y1.22 Z1.74 F1800.0
G1 X20.61 Y0.96 Z1.74 F1800.0
G1 X19.64 Y1.05 Z1.74 F1800.0
G1 X20.61 Y-3.15 Z1.74 F1800.0
G1 X20.61 Y-3.4 Z1.74 F1800.0
G1 X18.66 Y-5.33 Z1.74 F1800.0
G1 X18.66 Y-5.58 Z1.74 F1800.0
G1 X20.61 Y-7.51 Z1.74 F1800.0
G1 X20.51 Y-8.92 Z1.74 F1800.0
G1 X20.39 Y-9.04 Z1.74 F1800.0
M108 R30.0
M102
G1 X20.07 Y-9.36 Z1.74 F1800.0
M108 R3.569
M103
G1 X21.45 Y-9.36 Z1.74 F3000.0
M108 R30.0
M101
G1 X22.25 Y-9.36 Z1.74 F3000.0
M108 R3.569
G1 X21.82 Y-8.92 Z1.74 F1800.0
G1 X21.38 Y-8.92 Z1.74 F1800.0
G1 X20.94 Y-9.36 Z1.74 F1800.0
G1 X20.84 Y-7.51 Z1.74 F1800.0
G1 X22.79 Y-5.58 Z1.74 F1800.0
G1 X22.79 Y-5.33 Z1.74 F1800.0
G1 X20.84 Y-3.4 Z1.74 F1800.0
G1 X20.84 Y-3.15 Z1.74 F1800.0
