(** This GCode was generated by ReplicatorG 0034 **)
(*  using Skeinforge (35)  *)
(*  for a Single headed Thing-O-Matic  *)
(*  on 2012/04/09 20:53:32 (-0400) *)
(<alteration>)
(**** beginning of start.gcode ****)
(This file is for a MakerBot Thing-O-Matic)
(**** begin initialization commands ****)
G21 (set units to mm)
G90 (set positioning to absolute)
M108 R5.0 (set extruder speed)
M103 (Make sure extruder is off)
M104 S225 T0 (set extruder temperature)
M109 S120 T0 (set heated-build-platform temperature)
(**** end initialization commands ****)
(**** begin homing ****)
G162 Z F1000 (home Z axis maximum)
G92 Z10 (set Z to 0)
G1 Z0.0 (move z down 10)
G162 Z F150 (home Z axis maximum)
G161 X Y F2500 (home XY axes minimum)
M132 X Y Z A B (Recall stored home offsets for XYZAB axis)
(**** end homing ****)
(**** begin pre-wipe commands ****)
( Some people have had problems with the nozzle hitting )
( bolts or wipers during this pre-extrusion warmup.     )
( If this happens to you, you can change the values for )
( the X and Y positions in the following code.          )
( The goal is to have the toolhead wipe its initial     )
( extrusion near the edge of the platform, [anchor it]  )
( so as not to have it interfere with the print.        )
( This file can be found in:                            )
( replicatorg/skein_engines/skeinforge-##/skeinforge_application/ )
( prefs/<profile name [e.g. Thingomatic-ABP-Mk7]>/alterations )
G1 X25.0 Y-60.0 Z10.0 F3300.0 (move to waiting position)
M6 T0 (wait for toolhead parts, nozzle, HBP, etc., to reach temperature)
G0 X25 Y-57 (Position Nozzle)
G0 Z0.7     (Position Height)
M108 R4.0   (Set Extruder Speed)
M101        (Start Extruder)
G4 P1500    (Create Anchor)
(**** end pre-wipe commands ****)
(**** end of start.gcode ****)
(</alteration>)
(<creation> skeinforge </creation>)
(<version> 10.11.05 </version>)
(<extruderInitialization>)
(<craftTypeName> extrusion </craftTypeName>)
M105
(<bridgeWidthMultiplier> 1.0 </bridgeWidthMultiplier>)
(<decimalPlacesCarried> 3 </decimalPlacesCarried>)
(<layerThickness> 0.32 </layerThickness>)
(<threadSequenceString> loops perimeter infill </threadSequenceString>)
(<operatingFeedRatePerSecond> 30.0 </operatingFeedRatePerSecond>)
(<operatingFlowRate> 3.56914845556 </operatingFlowRate>)
(<orbitalFeedRatePerSecond> 15.0 </orbitalFeedRatePerSecond>)
(<travelFeedRatePerSecond> 50.0 </travelFeedRatePerSecond>)
(<perimeterWidth> 0.393 </perimeterWidth>)
(<profileName> ABS </profileName>)
(<procedureDone> carve,bottom </procedureDone>)
(<procedureDone> preface </procedureDone>)
(<procedureDone> inset </procedureDone>)
(<procedureDone> fill </procedureDone>)
(<procedureDone> speed </procedureDone>)
(<procedureDone> raft </procedureDone>)
(<procedureDone> jitter </procedureDone>)
(<procedureDone> comb </procedureDone>)
(<procedureDone> cool </procedureDone>)
(<procedureDone> outline </procedureDone>)
(<procedureDone> reversal </procedureDone>)
(<procedureDone> export </procedureDone>)
(</extruderInitialization>)
(<extrusion>)
;M113 S1.0
M108 R3.569
(<layer> 0.46 )
(<surroundingLoop>)
(<boundaryPerimeter>)
(<boundaryPoint> X15.822 Y7.894 Z0.46 </boundaryPoint>)
(<boundaryPoint> X15.822 Y-42.786 Z0.46 </boundaryPoint>)
(<boundaryPoint> X43.122 Y-42.786 Z0.46 </boundaryPoint>)
(<boundaryPoint> X43.122 Y7.894 Z0.46 </boundaryPoint>)
(<loop> inner )
M108 R2.141
G1 X14.02 Y-44.59 Z0.46 F1080.0
M101
G1 X14.02 Y9.7 Z0.46 F1080.0
G1 X44.93 Y9.7 Z0.46 F1080.0
G1 X44.93 Y-44.59 Z0.46 F1080.0
G1 X14.29 Y-44.59 Z0.46 F1080.0
M108 R30.0
M102
G1 X14.02 Y-44.59 Z0.46 F1080.0
M108 R2.141
M103
G1 X20.58 Y-20.16 Z0.46 F3000.0
M108 R30.0
M101
G1 X20.79 Y-19.39 Z0.46 F3000.0
M108 R2.141
G1 X38.25 Y-19.39 Z0.46 F1080.0
G1 X38.25 Y-40.84 Z0.46 F1080.0
G1 X20.69 Y-40.84 Z0.46 F1080.0
G1 X20.69 Y-19.57 Z0.46 F1080.0
M108 R30.0
M102
G1 X20.69 Y-19.39 Z0.46 F1080.0
G1 X20.79 Y-19.39 Z0.46 F1080.0
M108 R2.141
M103
(</loop>)
(<loop> inner )
G1 X20.71 Y-16.3 Z0.46 F3000.0
M108 R30.0
M101
G1 X20.69 Y-15.5 Z0.46 F3000.0
M108 R2.141
G1 X20.69 Y5.95 Z0.46 F1080.0
G1 X38.25 Y5.95 Z0.46 F1080.0
G1 X38.25 Y-15.5 Z0.46 F1080.0
G1 X20.96 Y-15.5 Z0.46 F1080.0
M108 R30.0
M102
G1 X20.69 Y-15.5 Z0.46 F1080.0
M108 R2.141
M103
(</loop>)
(<loop> outer )
G1 X17.21 Y-15.5 Z0.46 F3000.0
M108 R30.0
M101
G1 X16.41 Y-15.5 Z0.46 F3000.0
M108 R2.141
G1 X16.41 Y-42.2 Z0.46 F1080.0
G1 X42.53 Y-42.2 Z0.46 F1080.0
G1 X42.53 Y7.31 Z0.46 F1080.0
G1 X16.41 Y7.31 Z0.46 F1080.0
G1 X16.41 Y-15.5 Z0.46 F1080.0
M103
(</loop>)
(<perimeter> outer )
G1 X16.02 Y-15.5 Z0.46 F3000.0
M101
G1 X16.02 Y-42.59 Z0.46 F1080.0
G1 X42.93 Y-42.59 Z0.46 F1080.0
G1 X42.93 Y7.7 Z0.46 F1080.0
G1 X16.02 Y7.7 Z0.46 F1080.0
G1 X16.02 Y-15.23 Z0.46 F1080.0
M108 R30.0
M102
G1 X16.02 Y-15.5 Z0.46 F1080.0
M108 R2.141
M103
(</perimeter>)
(</boundaryPerimeter>)
(<surroundingLoop>)
(<boundaryPerimeter>)
(<boundaryPoint> X37.662 Y5.36 Z0.46 </boundaryPoint>)
(<boundaryPoint> X37.662 Y-14.912 Z0.46 </boundaryPoint>)
(<boundaryPoint> X21.282 Y-14.912 Z0.46 </boundaryPoint>)
(<boundaryPoint> X21.282 Y5.36 Z0.46 </boundaryPoint>)
(<perimeter> inner )
G1 X20.29 Y-15.17 Z0.46 F3000.0
M108 R30.0
M101
G1 X21.09 Y-15.11 Z0.46 F3000.0
M108 R2.141
G1 X21.09 Y5.56 Z0.46 F1080.0
G1 X37.86 Y5.56 Z0.46 F1080.0
G1 X37.86 Y-15.11 Z0.46 F1080.0
G1 X21.36 Y-15.11 Z0.46 F1080.0
M108 R30.0
M102
G1 X21.09 Y-15.11 Z0.46 F1080.0
M108 R2.141
M103
(</perimeter>)
(</boundaryPerimeter>)
(</surroundingLoop>)
(<surroundingLoop>)
(<boundaryPerimeter>)
(<boundaryPoint> X37.662 Y-19.98 Z0.46 </boundaryPoint>)
(<boundaryPoint> X37.662 Y-40.252 Z0.46 </boundaryPoint>)
(<boundaryPoint> X21.282 Y-40.252 Z0.46 </boundaryPoint>)
(<boundaryPoint> X21.282 Y-19.98 Z0.46 </boundaryPoint>)
(<perimeter> inner )
G1 X21.09 Y-18.98 Z0.46 F3000.0
M108 R30.0
M101
G1 X21.09 Y-19.78 Z0.46 F3000.0
M108 R2.141
G1 X37.86 Y-19.78 Z0.46 F1080.0
G1 X37.86 Y-40.45 Z0.46 F1080.0
G1 X21.09 Y-40.45 Z0.46 F1080.0
G1 X21.09 Y-20.05 Z0.46 F1080.0
M108 R30.0
M102
G1 X21.09 Y-19.78 Z0.46 F1080.0
M108 R2.141
M103
(</perimeter>)
(</boundaryPerimeter>)
(</surroundingLoop>)
G1 X20.85 Y-16.24 Z0.46 F1800.0
M108 R30.0
M101
G1 X20.81 Y-15.76 Z0.46 F1800.0
M108 R2.141
G1 X20.81 Y-19.14 Z0.46 F1080.0
G1 X21.21 Y-19.14 Z0.46 F1080.0
G1 X21.21 Y-15.76 Z0.46 F1080.0
G1 X21.6 Y-15.76 Z0.46 F1080.0
G1 X21.6 Y-19.14 Z0.46 F1080.0
G1 X21.99 Y-19.14 Z0.46 F1080.0
G1 X21.99 Y-15.76 Z0.46 F1080.0
G1 X22.38 Y-15.76 Z0.46 F1080.0
G1 X22.38 Y-19.14 Z0.46 F1080.0
G1 X22.78 Y-19.14 Z0.46 F1080.0
G1 X22.78 Y-15.76 Z0.46 F1080.0
G1 X23.17 Y-15.76 Z0.46 F1080.0
G1 X23.17 Y-19.14 Z0.46 F1080.0
G1 X23.56 Y-19.14 Z0.46 F1080.0
G1 X23.56 Y-15.76 Z0.46 F1080.0
G1 X23.96 Y-15.76 Z0.46 F1080.0
G1 X23.96 Y-19.14 Z0.46 F1080.0
G1 X24.35 Y-19.14 Z0.46 F1080.0
G1 X24.35 Y-15.76 Z0.46 F1080.0
G1 X24.74 Y-15.76 Z0.46 F1080.0
G1 X24.74 Y-19.14 Z0.46 F1080.0
G1 X25.13 Y-19.14 Z0.46 F1080.0
G1 X25.13 Y-15.76 Z0.46 F1080.0
G1 X25.53 Y-15.76 Z0.46 F1080.0
G1 X25.53 Y-19.14 Z0.46 F1080.0
G1 X25.92 Y-19.14 Z0.46 F1080.0
G1 X25.92 Y-15.76 Z0.46 F1080.0
G1 X26.31 Y-15.76 Z0.46 F1080.0
G1 X26.31 Y-19.14 Z0.46 F1080.0
G1 X26.7 Y-19.14 Z0.46 F1080.0
G1 X26.7 Y-15.76 Z0.46 F1080.0
G1 X27.1 Y-15.76 Z0.46 F1080.0
G1 X27.1 Y-19.14 Z0.46 F1080.0
G1 X27.49 Y-19.14 Z0.46 F1080.0
G1 X27.49 Y-15.76 Z0.46 F1080.0
G1 X27.88 Y-15.76 Z0.46 F1080.0
G1 X27.88 Y-19.14 Z0.46 F1080.0
G1 X28.27 Y-19.14 Z0.46 F1080.0
G1 X28.27 Y-15.76 Z0.46 F1080.0
G1 X28.67 Y-15.76 Z0.46 F1080.0
G1 X28.67 Y-19.14 Z0.46 F1080.0
G1 X29.06 Y-19.14 Z0.46 F1080.0
G1 X29.06 Y-15.76 Z0.46 F1080.0
G1 X29.45 Y-15.76 Z0.46 F1080.0
G1 X29.45 Y-19.14 Z0.46 F1080.0
G1 X29.85 Y-19.14 Z0.46 F1080.0
G1 X29.85 Y-15.76 Z0.46 F1080.0
G1 X30.24 Y-15.76 Z0.46 F1080.0
G1 X30.24 Y-19.14 Z0.46 F1080.0
G1 X30.63 Y-19.14 Z0.46 F1080.0
G1 X30.63 Y-15.76 Z0.46 F1080.0
G1 X31.02 Y-15.76 Z0.46 F1080.0
G1 X31.02 Y-19.14 Z0.46 F1080.0
G1 X31.42 Y-19.14 Z0.46 F1080.0
G1 X31.42 Y-15.76 Z0.46 F1080.0
G1 X31.81 Y-15.76 Z0.46 F1080.0
G1 X31.81 Y-19.14 Z0.46 F1080.0
G1 X32.2 Y-19.14 Z0.46 F1080.0
G1 X32.2 Y-15.76 Z0.46 F1080.0
G1 X32.59 Y-15.76 Z0.46 F1080.0
G1 X32.59 Y-19.14 Z0.46 F1080.0
G1 X32.99 Y-19.14 Z0.46 F1080.0
G1 X32.99 Y-15.76 Z0.46 F1080.0
G1 X33.38 Y-15.76 Z0.46 F1080.0
G1 X33.38 Y-19.14 Z0.46 F1080.0
G1 X33.77 Y-19.14 Z0.46 F1080.0
G1 X33.77 Y-15.76 Z0.46 F1080.0
G1 X34.17 Y-15.76 Z0.46 F1080.0
G1 X34.17 Y-19.14 Z0.46 F1080.0
G1 X34.56 Y-19.14 Z0.46 F1080.0
G1 X34.56 Y-15.76 Z0.46 F1080.0
G1 X34.95 Y-15.76 Z0.46 F1080.0
G1 X34.95 Y-19.14 Z0.46 F1080.0
G1 X35.34 Y-19.14 Z0.46 F1080.0
G1 X35.34 Y-15.76 Z0.46 F1080.0
G1 X35.74 Y-15.76 Z0.46 F1080.0
G1 X35.74 Y-19.14 Z0.46 F1080.0
G1 X36.13 Y-19.14 Z0.46 F1080.0
G1 X36.13 Y-15.76 Z0.46 F1080.0
G1 X36.52 Y-15.76 Z0.46 F1080.0
G1 X36.52 Y-19.14 Z0.46 F1080.0
G1 X36.91 Y-19.14 Z0.46 F1080.0
G1 X36.91 Y-15.76 Z0.46 F1080.0
G1 X37.31 Y-15.76 Z0.46 F1080.0
G1 X37.31 Y-19.14 Z0.46 F1080.0
G1 X37.7 Y-19.14 Z0.46 F1080.0
G1 X37.7 Y-15.76 Z0.46 F1080.0
G1 X38.09 Y-15.76 Z0.46 F1080.0
G1 X38.09 Y-19.14 Z0.46 F1080.0
G1 X38.49 Y-19.14 Z0.46 F1080.0
G1 X38.49 Y-16.03 Z0.46 F1080.0
M108 R30.0
M102
G1 X38.49 Y-15.76 Z0.46 F1080.0
M108 R2.141
M103
G1 X38.49 Y-41.1 Z0.46 F1800.0
M101
G1 X38.49 Y-41.94 Z0.46 F1080.0
M103
G1 X38.09 Y-41.94 Z0.46 F1800.0
M101
G1 X38.09 Y-41.1 Z0.46 F1080.0
M103
G1 X37.7 Y-41.1 Z0.46 F1800.0
M101
G1 X37.7 Y-41.94 Z0.46 F1080.0
M103
G1 X37.31 Y-41.94 Z0.46 F1800.0
M101
G1 X37.31 Y-41.1 Z0.46 F1080.0
M103
G1 X36.91 Y-41.1 Z0.46 F1800.0
M101
G1 X36.91 Y-41.94 Z0.46 F1080.0
M103
G1 X36.52 Y-41.94 Z0.46 F1800.0
M101
G1 X36.52 Y-41.1 Z0.46 F1080.0
M103
G1 X36.13 Y-41.1 Z0.46 F1800.0
M101
G1 X36.13 Y-41.94 Z0.46 F1080.0
M103
G1 X35.74 Y-41.94 Z0.46 F1800.0
M101
G1 X35.74 Y-41.1 Z0.46 F1080.0
M103
G1 X35.34 Y-41.1 Z0.46 F1800.0
M101
G1 X35.34 Y-41.94 Z0.46 F1080.0
M103
G1 X34.95 Y-41.94 Z0.46 F1800.0
M101
G1 X34.95 Y-41.1 Z0.46 F1080.0
M103
G1 X34.56 Y-41.1 Z0.46 F1800.0
M101
G1 X34.56 Y-41.94 Z0.46 F1080.0
M103
G1 X34.17 Y-41.94 Z0.46 F1800.0
M101
G1 X34.17 Y-41.1 Z0.46 F1080.0
M103
G1 X33.77 Y-41.1 Z0.46 F1800.0
M101
G1 X33.77 Y-41.94 Z0.46 F1080.0
M103
G1 X33.38 Y-41.94 Z0.46 F1800.0
M101
G1 X33.38 Y-41.1 Z0.46 F1080.0
M103
G1 X32.99 Y-41.1 Z0.46 F1800.0
M101
G1 X32.99 Y-41.94 Z0.46 F1080.0
M103
G1 X32.59 Y-41.94 Z0.46 F1800.0
M101
G1 X32.59 Y-41.1 Z0.46 F1080.0
M103
G1 X32.2 Y-41.1 Z0.46 F1800.0
M101
G1 X32.2 Y-41.94 Z0.46 F1080.0
M103
G1 X31.81 Y-41.94 Z0.46 F1800.0
M101
G1 X31.81 Y-41.1 Z0.46 F1080.0
M103
G1 X31.42 Y-41.1 Z0.46 F1800.0
M101
G1 X31.42 Y-41.94 Z0.46 F1080.0
M103
G1 X31.02 Y-41.94 Z0.46 F1800.0
M101
G1 X31.02 Y-41.1 Z0.46 F1080.0
M103
G1 X30.63 Y-41.1 Z0.46 F1800.0
M101
G1 X30.63 Y-41.94 Z0.46 F1080.0
M103
G1 X30.24 Y-41.94 Z0.46 F1800.0
M101
G1 X30.24 Y-41.1 Z0.46 F1080.0
M103
G1 X29.85 Y-41.1 Z0.46 F1800.0
M101
G1 X29.85 Y-41.94 Z0.46 F1080.0
M103
G1 X29.45 Y-41.94 Z0.46 F1800.0
M101
G1 X29.45 Y-41.1 Z0.46 F1080.0
M103
G1 X29.06 Y-41.1 Z0.46 F1800.0
M101
G1 X29.06 Y-41.94 Z0.46 F1080.0
M103
G1 X28.67 Y-41.94 Z0.46 F1800.0
M101
G1 X28.67 Y-41.1 Z0.46 F1080.0
M103
G1 X28.27 Y-41.1 Z0.46 F1800.0
M101
G1 X28.27 Y-41.94 Z0.46 F1080.0
M103
G1 X27.88 Y-41.94 Z0.46 F1800.0
M101
G1 X27.88 Y-41.1 Z0.46 F1080.0
M103
G1 X27.49 Y-41.1 Z0.46 F1800.0
M101
G1 X27.49 Y-41.94 Z0.46 F1080.0
M103
G1 X27.1 Y-41.94 Z0.46 F1800.0
M101
G1 X27.1 Y-41.1 Z0.46 F1080.0
M103
G1 X26.7 Y-41.1 Z0.46 F1800.0
M101
G1 X26.7 Y-41.94 Z0.46 F1080.0
M103
G1 X26.31 Y-41.94 Z0.46 F1800.0
M101
G1 X26.31 Y-41.1 Z0.46 F1080.0
M103
G1 X25.92 Y-41.1 Z0.46 F1800.0
M101
G1 X25.92 Y-41.94 Z0.46 F1080.0
M103
G1 X25.53 Y-41.94 Z0.46 F1800.0
M101
G1 X25.53 Y-41.1 Z0.46 F1080.0
M103
G1 X25.13 Y-41.1 Z0.46 F1800.0
M101
G1 X25.13 Y-41.94 Z0.46 F1080.0
M103
G1 X24.74 Y-41.94 Z0.46 F1800.0
M101
G1 X24.74 Y-41.1 Z0.46 F1080.0
M103
G1 X24.35 Y-41.1 Z0.46 F1800.0
M101
G1 X24.35 Y-41.94 Z0.46 F1080.0
M103
G1 X23.96 Y-41.94 Z0.46 F1800.0
M101
G1 X23.96 Y-41.1 Z0.46 F1080.0
M103
G1 X23.56 Y-41.1 Z0.46 F1800.0
M101
G1 X23.56 Y-41.94 Z0.46 F1080.0
M103
G1 X23.17 Y-41.94 Z0.46 F1800.0
M101
G1 X23.17 Y-41.1 Z0.46 F1080.0
M103
G1 X22.78 Y-41.1 Z0.46 F1800.0
M101
G1 X22.78 Y-41.94 Z0.46 F1080.0
M103
G1 X22.38 Y-41.94 Z0.46 F1800.0
M101
G1 X22.38 Y-41.1 Z0.46 F1080.0
M103
G1 X21.99 Y-41.1 Z0.46 F1800.0
M101
G1 X21.99 Y-41.94 Z0.46 F1080.0
M103
G1 X21.6 Y-41.94 Z0.46 F1800.0
M101
G1 X21.6 Y-41.1 Z0.46 F1080.0
M103
G1 X21.21 Y-41.1 Z0.46 F1800.0
M101
G1 X21.21 Y-41.94 Z0.46 F1080.0
M103
G1 X20.81 Y-41.94 Z0.46 F1800.0
M101
G1 X20.81 Y-41.1 Z0.46 F1080.0
M103
G1 X38.4 Y-41.92 Z0.46 F1800.0
M108 R30.0
M101
G1 X38.88 Y-41.94 Z0.46 F1800.0
M108 R2.141
G1 X38.88 Y7.05 Z0.46 F1080.0
G1 X38.49 Y7.05 Z0.46 F1080.0
G1 X38.49 Y6.21 Z0.46 F1080.0
G1 X38.09 Y6.21 Z0.46 F1080.0
G1 X38.09 Y7.05 Z0.46 F1080.0
G1 X37.7 Y7.05 Z0.46 F1080.0
G1 X37.7 Y6.21 Z0.46 F1080.0
G1 X37.31 Y6.21 Z0.46 F1080.0
G1 X37.31 Y7.05 Z0.46 F1080.0
G1 X36.91 Y7.05 Z0.46 F1080.0
G1 X36.91 Y6.21 Z0.46 F1080.0
G1 X36.52 Y6.21 Z0.46 F1080.0
G1 X36.52 Y7.05 Z0.46 F1080.0
G1 X36.13 Y7.05 Z0.46 F1080.0
G1 X36.13 Y6.21 Z0.46 F1080.0
G1 X35.74 Y6.21 Z0.46 F1080.0
G1 X35.74 Y7.05 Z0.46 F1080.0
G1 X35.34 Y7.05 Z0.46 F1080.0
G1 X35.34 Y6.21 Z0.46 F1080.0
G1 X34.95 Y6.21 Z0.46 F1080.0
G1 X34.95 Y7.05 Z0.46 F1080.0
G1 X34.56 Y7.05 Z0.46 F1080.0
G1 X34.56 Y6.21 Z0.46 F1080.0
G1 X34.17 Y6.21 Z0.46 F1080.0
G1 X34.17 Y7.05 Z0.46 F1080.0
G1 X33.77 Y7.05 Z0.46 F1080.0
G1 X33.77 Y6.21 Z0.46 F1080.0
G1 X33.38 Y6.21 Z0.46 F1080.0
G1 X33.38 Y7.05 Z0.46 F1080.0
G1 X32.99 Y7.05 Z0.46 F1080.0
G1 X32.99 Y6.21 Z0.46 F1080.0
G1 X32.59 Y6.21 Z0.46 F1080.0
G1 X32.59 Y7.05 Z0.46 F1080.0
G1 X32.2 Y7.05 Z0.46 F1080.0
G1 X32.2 Y6.21 Z0.46 F1080.0
G1 X31.81 Y6.21 Z0.46 F1080.0
G1 X31.81 Y7.05 Z0.46 F1080.0
G1 X31.42 Y7.05 Z0.46 F1080.0
G1 X31.42 Y6.21 Z0.46 F1080.0
G1 X31.02 Y6.21 Z0.46 F1080.0
G1 X31.02 Y7.05 Z0.46 F1080.0
G1 X30.63 Y7.05 Z0.46 F1080.0
G1 X30.63 Y6.21 Z0.46 F1080.0
G1 X30.24 Y6.21 Z0.46 F1080.0
G1 X30.24 Y7.05 Z0.46 F1080.0
G1 X29.85 Y7.05 Z0.46 F1080.0
G1 X29.85 Y6.21 Z0.46 F1080.0
G1 X29.45 Y6.21 Z0.46 F1080.0
G1 X29.45 Y7.05 Z0.46 F1080.0
G1 X29.06 Y7.05 Z0.46 F1080.0
G1 X29.06 Y6.21 Z0.46 F1080.0
G1 X28.67 Y6.21 Z0.46 F1080.0
G1 X28.67 Y7.05 Z0.46 F1080.0
G1 X28.27 Y7.05 Z0.46 F1080.0
G1 X28.27 Y6.21 Z0.46 F1080.0
G1 X27.88 Y6.21 Z0.46 F1080.0
G1 X27.88 Y7.05 Z0.46 F1080.0
G1 X27.49 Y7.05 Z0.46 F1080.0
G1 X27.49 Y6.21 Z0.46 F1080.0
G1 X27.1 Y6.21 Z0.46 F1080.0
G1 X27.1 Y7.05 Z0.46 F1080.0
G1 X26.7 Y7.05 Z0.46 F1080.0
G1 X26.7 Y6.21 Z0.46 F1080.0
G1 X26.31 Y6.21 Z0.46 F1080.0
G1 X26.31 Y7.05 Z0.46 F1080.0
G1 X25.92 Y7.05 Z0.46 F1080.0
G1 X25.92 Y6.21 Z0.46 F1080.0
G1 X25.53 Y6.21 Z0.46 F1080.0
G1 X25.53 Y7.05 Z0.46 F1080.0
G1 X25.13 Y7.05 Z0.46 F1080.0
G1 X25.13 Y6.21 Z0.46 F1080.0
G1 X24.74 Y6.21 Z0.46 F1080.0
G1 X24.74 Y7.05 Z0.46 F1080.0
G1 X24.35 Y7.05 Z0.46 F1080.0
G1 X24.35 Y6.21 Z0.46 F1080.0
G1 X23.96 Y6.21 Z0.46 F1080.0
G1 X23.96 Y7.05 Z0.46 F1080.0
G1 X23.56 Y7.05 Z0.46 F1080.0
G1 X23.56 Y6.21 Z0.46 F1080.0
G1 X23.17 Y6.21 Z0.46 F1080.0
G1 X23.17 Y7.05 Z0.46 F1080.0
G1 X22.78 Y7.05 Z0.46 F1080.0
G1 X22.78 Y6.21 Z0.46 F1080.0
G1 X22.38 Y6.21 Z0.46 F1080.0
G1 X22.38 Y7.05 Z0.46 F1080.0
G1 X21.99 Y7.05 Z0.46 F1080.0
G1 X21.99 Y6.21 Z0.46 F1080.0
G1 X21.6 Y6.21 Z0.46 F1080.0
G1 X21.6 Y7.05 Z0.46 F1080.0
G1 X21.21 Y7.05 Z0.46 F1080.0
G1 X21.21 Y6.21 Z0.46 F1080.0
G1 X20.81 Y6.21 Z0.46 F1080.0
G1 X20.81 Y7.05 Z0.46 F1080.0
G1 X20.42 Y7.05 Z0.46 F1080.0
G1 X20.42 Y-41.94 Z0.46 F1080.0
M103
G1 X20.03 Y-41.94 Z0.46 F1800.0
M101
G1 X20.03 Y7.05 Z0.46 F1080.0
G1 X19.64 Y7.05 Z0.46 F1080.0
G1 X19.64 Y-41.94 Z0.46 F1080.0
M103
G1 X19.24 Y-41.94 Z0.46 F1800.0
M101
G1 X19.24 Y7.05 Z0.46 F1080.0
G1 X18.85 Y7.05 Z0.46 F1080.0
G1 X18.85 Y-41.94 Z0.46 F1080.0
M103
G1 X18.46 Y-41.94 Z0.46 F1800.0
M101
G1 X18.46 Y7.05 Z0.46 F1080.0
G1 X18.06 Y7.05 Z0.46 F1080.0
G1 X18.06 Y-41.94 Z0.46 F1080.0
M103
G1 X17.67 Y-41.94 Z0.46 F1800.0
M101
G1 X17.67 Y7.05 Z0.46 F1080.0
G1 X17.28 Y7.05 Z0.46 F1080.0
G1 X17.28 Y-41.94 Z0.46 F1080.0
M103
G1 X16.89 Y-41.94 Z0.46 F1800.0
M101
G1 X16.89 Y6.78 Z0.46 F1080.0
M108 R30.0
M102
G1 X16.89 Y7.05 Z0.46 F1080.0
M108 R2.141
M103
G1 X21.01 Y-2.41 Z0.46 F3000.0
G1 X21.14 Y-15.05 Z0.46 F3000.0
G1 X27.1 Y-15.19 Z0.46 F3000.0
G1 X29.45 Y-19.7 Z0.46 F3000.0
G1 X37.8 Y-19.84 Z0.46 F3000.0
G1 X37.94 Y-37.64 Z0.46 F3000.0
G1 X39.48 Y-41.5 Z0.46 F1800.0
M108 R30.0
M101
G1 X39.66 Y-41.94 Z0.46 F1800.0
M108 R2.141
G1 X39.66 Y7.05 Z0.46 F1080.0
G1 X39.27 Y7.05 Z0.46 F1080.0
G1 X39.27 Y-41.67 Z0.46 F1080.0
M108 R30.0
M102
G1 X39.27 Y-41.94 Z0.46 F1080.0
M108 R2.141
M103
G1 X39.97 Y-41.94 Z0.46 F1800.0
M108 R30.0
M101
G1 X40.45 Y-41.94 Z0.46 F1800.0
M108 R2.141
G1 X40.45 Y7.05 Z0.46 F1080.0
G1 X40.06 Y7.05 Z0.46 F1080.0
G1 X40.06 Y-41.67 Z0.46 F1080.0
M108 R30.0
M102
G1 X40.06 Y-41.94 Z0.46 F1080.0
M108 R2.141
M103
G1 X40.75 Y-41.94 Z0.46 F1800.0
M108 R30.0
M101
G1 X41.23 Y-41.94 Z0.46 F1800.0
M108 R2.141
G1 X41.23 Y7.05 Z0.46 F1080.0
G1 X40.84 Y7.05 Z0.46 F1080.0
G1 X40.84 Y-41.67 Z0.46 F1080.0
M108 R30.0
M102
G1 X40.84 Y-41.94 Z0.46 F1080.0
M108 R2.141
M103
G1 X41.54 Y-41.94 Z0.46 F1800.0
M108 R30.0
M101
G1 X42.02 Y-41.94 Z0.46 F1800.0
M108 R2.141
G1 X42.02 Y7.05 Z0.46 F1080.0
G1 X41.63 Y7.05 Z0.46 F1080.0
G1 X41.63 Y-41.67 Z0.46 F1080.0
M108 R30.0
M102
G1 X41.63 Y-41.94 Z0.46 F1080.0
M108 R2.141
M103
(</surroundingLoop>)
(</layer>)
(<layer> 0.78 )
(<surroundingLoop>)
(<boundaryPerimeter>)
(<boundaryPoint> X15.822 Y7.894 Z0.78 </boundaryPoint>)
(<boundaryPoint> X15.822 Y-42.786 Z0.78 </boundaryPoint>)
(<boundaryPoint> X43.122 Y-42.786 Z0.78 </boundaryPoint>)
(<boundaryPoint> X43.122 Y7.894 Z0.78 </boundaryPoint>)
(<loop> inner )
M108 R3.569
G1 X38.99 Y-40.92 Z0.71 F3000.0
M108 R30.0
M101
G1 X38.25 Y-40.63 Z0.78 F3000.0
M108 R3.569
G1 X38.25 Y-40.84 Z0.78 F1800.0
G1 X20.69 Y-40.84 Z0.78 F1800.0
G1 X20.69 Y-19.39 Z0.78 F1800.0
G1 X38.25 Y-19.39 Z0.78 F1800.0
G1 X38.25 Y-40.18 Z0.78 F1800.0
M108 R30.0
M102
G1 X38.25 Y-40.63 Z0.78 F1800.0
M108 R3.569
M103
(</loop>)
(<loop> inner )
G1 X38.25 Y-16.3 Z0.78 F3000.0
M108 R30.0
M101
G1 X38.25 Y-15.5 Z0.78 F3000.0
M108 R3.569
G1 X20.69 Y-15.5 Z0.78 F1800.0
G1 X20.69 Y5.95 Z0.78 F1800.0
G1 X38.25 Y5.95 Z0.78 F1800.0
G1 X38.25 Y-15.05 Z0.78 F1800.0
M108 R30.0
M102
G1 X38.25 Y-15.5 Z0.78 F1800.0
M108 R3.569
M103
(</loop>)
(<loop> outer )
G1 X41.73 Y-15.5 Z0.78 F3000.0
M108 R30.0
M101
G1 X42.53 Y-15.5 Z0.78 F3000.0
M108 R3.569
G1 X42.53 Y7.31 Z0.78 F1800.0
G1 X16.41 Y7.31 Z0.78 F1800.0
G1 X16.41 Y-42.2 Z0.78 F1800.0
G1 X42.53 Y-42.2 Z0.78 F1800.0
G1 X42.53 Y-15.5 Z0.78 F1800.0
M103
(</loop>)
(<perimeter> outer )
G1 X42.93 Y-15.5 Z0.78 F3000.0
M101
G1 X42.93 Y7.7 Z0.78 F1800.0
G1 X16.02 Y7.7 Z0.78 F1800.0
G1 X16.02 Y-42.59 Z0.78 F1800.0
G1 X42.93 Y-42.59 Z0.78 F1800.0
G1 X42.93 Y-15.95 Z0.78 F1800.0
M108 R30.0
M102
G1 X42.93 Y-15.5 Z0.78 F1800.0
M108 R3.569
M103
(</perimeter>)
(</boundaryPerimeter>)
(<surroundingLoop>)
(<boundaryPerimeter>)
(<boundaryPoint> X37.662 Y5.36 Z0.78 </boundaryPoint>)
(<boundaryPoint> X37.662 Y-14.912 Z0.78 </boundaryPoint>)
(<boundaryPoint> X21.282 Y-14.912 Z0.78 </boundaryPoint>)
(<boundaryPoint> X21.282 Y5.36 Z0.78 </boundaryPoint>)
(<perimeter> inner )
G1 X38.66 Y-15.17 Z0.78 F3000.0
M108 R30.0
M101
G1 X37.86 Y-15.11 Z0.78 F3000.0
M108 R3.569
G1 X21.09 Y-15.11 Z0.78 F1800.0
G1 X21.09 Y5.56 Z0.78 F1800.0
G1 X37.86 Y5.56 Z0.78 F1800.0
G1 X37.86 Y-14.66 Z0.78 F1800.0
M108 R30.0
M102
G1 X37.86 Y-15.11 Z0.78 F1800.0
M108 R3.569
M103
(</perimeter>)
(</boundaryPerimeter>)
(</surroundingLoop>)
(<surroundingLoop>)
(<boundaryPerimeter>)
(<boundaryPoint> X37.662 Y-19.98 Z0.78 </boundaryPoint>)
(<boundaryPoint> X37.662 Y-40.252 Z0.78 </boundaryPoint>)
(<boundaryPoint> X21.282 Y-40.252 Z0.78 </boundaryPoint>)
(<boundaryPoint> X21.282 Y-19.98 Z0.78 </boundaryPoint>)
(<perimeter> inner )
G1 X37.86 Y-18.98 Z0.78 F3000.0
M108 R30.0
M101
G1 X37.86 Y-19.78 Z0.78 F3000.0
M108 R3.569
G1 X37.86 Y-40.45 Z0.78 F1800.0
G1 X21.09 Y-40.45 Z0.78 F1800.0
G1 X21.09 Y-19.78 Z0.78 F1800.0
G1 X37.41 Y-19.78 Z0.78 F1800.0
M108 R30.0
M102
G1 X37.86 Y-19.78 Z0.78 F1800.0
M108 R3.569
M103
(</perimeter>)
(</boundaryPerimeter>)
(</surroundingLoop>)
G1 X17.47 Y-19.64 Z0.78 F3000.0
M108 R30.0
M101
G1 X16.67 Y-19.64 Z0.78 F3000.0
M108 R3.569
G1 X20.44 Y-19.64 Z0.78 F1800.0
M103
G1 X20.44 Y-20.03 Z0.78 F3000.0
M101
G1 X16.67 Y-20.03 Z0.78 F1800.0
M103
G1 X16.67 Y-20.42 Z0.78 F3000.0
M101
G1 X20.44 Y-20.42 Z0.78 F1800.0
M103
G1 X20.44 Y-20.81 Z0.78 F3000.0
M101
G1 X16.67 Y-20.81 Z0.78 F1800.0
M103
G1 X16.67 Y-21.21 Z0.78 F3000.0
M101
G1 X20.44 Y-21.21 Z0.78 F1800.0
M103
G1 X20.44 Y-21.6 Z0.78 F3000.0
M101
G1 X16.67 Y-21.6 Z0.78 F1800.0
M103
G1 X16.67 Y-21.99 Z0.78 F3000.0
M101
G1 X20.44 Y-21.99 Z0.78 F1800.0
M103
G1 X20.44 Y-22.38 Z0.78 F3000.0
M101
G1 X16.67 Y-22.38 Z0.78 F1800.0
M103
G1 X16.67 Y-22.78 Z0.78 F3000.0
M101
G1 X20.44 Y-22.78 Z0.78 F1800.0
M103
G1 X20.44 Y-23.17 Z0.78 F3000.0
M101
G1 X16.67 Y-23.17 Z0.78 F1800.0
M103
G1 X16.67 Y-23.56 Z0.78 F3000.0
M101
G1 X20.44 Y-23.56 Z0.78 F1800.0
M103
G1 X20.44 Y-23.96 Z0.78 F3000.0
M101
G1 X16.67 Y-23.96 Z0.78 F1800.0
M103
G1 X16.67 Y-24.35 Z0.78 F3000.0
M101
G1 X20.44 Y-24.35 Z0.78 F1800.0
M103
G1 X20.44 Y-24.74 Z0.78 F3000.0
M101
G1 X16.67 Y-24.74 Z0.78 F1800.0
M103
G1 X16.67 Y-25.13 Z0.78 F3000.0
M101
G1 X20.44 Y-25.13 Z0.78 F1800.0
M103
G1 X20.44 Y-25.53 Z0.78 F3000.0
M101
G1 X16.67 Y-25.53 Z0.78 F1800.0
M103
G1 X16.67 Y-25.92 Z0.78 F3000.0
M101
G1 X20.44 Y-25.92 Z0.78 F1800.0
M103
G1 X20.44 Y-26.31 Z0.78 F3000.0
M101
G1 X16.67 Y-26.31 Z0.78 F1800.0
M103
G1 X16.67 Y-26.7 Z0.78 F3000.0
M101
G1 X20.44 Y-26.7 Z0.78 F1800.0
M103
G1 X20.44 Y-27.1 Z0.78 F3000.0
M101
G1 X16.67 Y-27.1 Z0.78 F1800.0
M103
G1 X16.67 Y-27.49 Z0.78 F3000.0
M101
G1 X20.44 Y-27.49 Z0.78 F1800.0
M103
G1 X20.44 Y-27.88 Z0.78 F3000.0
M101
G1 X16.67 Y-27.88 Z0.78 F1800.0
M103
G1 X16.67 Y-28.27 Z0.78 F3000.0
M101
G1 X20.44 Y-28.27 Z0.78 F1800.0
M103
G1 X20.44 Y-28.67 Z0.78 F3000.0
M101
G1 X16.67 Y-28.67 Z0.78 F1800.0
M103
G1 X16.67 Y-29.06 Z0.78 F3000.0
M101
G1 X20.44 Y-29.06 Z0.78 F1800.0
M103
G1 X20.44 Y-29.45 Z0.78 F3000.0
M101
G1 X16.67 Y-29.45 Z0.78 F1800.0
M103
G1 X16.67 Y-29.85 Z0.78 F3000.0
M101
G1 X20.44 Y-29.85 Z0.78 F1800.0
M103
G1 X20.44 Y-30.24 Z0.78 F3000.0
M101
G1 X16.67 Y-30.24 Z0.78 F1800.0
M103
G1 X16.67 Y-30.63 Z0.78 F3000.0
M101
G1 X20.44 Y-30.63 Z0.78 F1800.0
M103
G1 X20.44 Y-31.02 Z0.78 F3000.0
M101
G1 X16.67 Y-31.02 Z0.78 F1800.0
M103
G1 X16.67 Y-31.42 Z0.78 F3000.0
M101
G1 X20.44 Y-31.42 Z0.78 F1800.0
M103
G1 X20.44 Y-31.81 Z0.78 F3000.0
M101
G1 X16.67 Y-31.81 Z0.78 F1800.0
M103
G1 X16.67 Y-32.2 Z0.78 F3000.0
M101
G1 X20.44 Y-32.2 Z0.78 F1800.0
M103
G1 X20.44 Y-32.59 Z0.78 F3000.0
M101
G1 X16.67 Y-32.59 Z0.78 F1800.0
M103
G1 X16.67 Y-32.99 Z0.78 F3000.0
M101
G1 X20.44 Y-32.99 Z0.78 F1800.0
M103
G1 X20.44 Y-33.38 Z0.78 F3000.0
M101
G1 X16.67 Y-33.38 Z0.78 F1800.0
M103
G1 X16.67 Y-33.77 Z0.78 F3000.0
M101
G1 X20.44 Y-33.77 Z0.78 F1800.0
M103
G1 X20.44 Y-34.17 Z0.78 F3000.0
M101
G1 X16.67 Y-34.17 Z0.78 F1800.0
M103
G1 X16.67 Y-34.56 Z0.78 F3000.0
M101
G1 X20.44 Y-34.56 Z0.78 F1800.0
M103
G1 X20.44 Y-34.95 Z0.78 F3000.0
M101
G1 X16.67 Y-34.95 Z0.78 F1800.0
M103
G1 X16.67 Y-35.34 Z0.78 F3000.0
M101
G1 X20.44 Y-35.34 Z0.78 F1800.0
M103
G1 X20.44 Y-35.74 Z0.78 F3000.0
M101
G1 X16.67 Y-35.74 Z0.78 F1800.0
M103
G1 X16.67 Y-36.13 Z0.78 F3000.0
M101
G1 X20.44 Y-36.13 Z0.78 F1800.0
M103
G1 X20.44 Y-36.52 Z0.78 F3000.0
M101
G1 X16.67 Y-36.52 Z0.78 F1800.0
M103
G1 X16.67 Y-36.91 Z0.78 F3000.0
M101
G1 X20.44 Y-36.91 Z0.78 F1800.0
M103
G1 X20.44 Y-37.31 Z0.78 F3000.0
M101
G1 X16.67 Y-37.31 Z0.78 F1800.0
M103
G1 X16.67 Y-37.7 Z0.78 F3000.0
M101
G1 X20.44 Y-37.7 Z0.78 F1800.0
M103
G1 X20.44 Y-38.09 Z0.78 F3000.0
M101
G1 X16.67 Y-38.09 Z0.78 F1800.0
M103
G1 X16.67 Y-38.49 Z0.78 F3000.0
M101
G1 X20.44 Y-38.49 Z0.78 F1800.0
M103
G1 X20.44 Y-38.88 Z0.78 F3000.0
M101
G1 X16.67 Y-38.88 Z0.78 F1800.0
M103
G1 X16.67 Y-39.27 Z0.78 F3000.0
M101
G1 X20.44 Y-39.27 Z0.78 F1800.0
M103
G1 X20.44 Y-39.66 Z0.78 F3000.0
M101
G1 X16.67 Y-39.66 Z0.78 F1800.0
M103
G1 X16.67 Y-40.06 Z0.78 F3000.0
M101
G1 X20.44 Y-40.06 Z0.78 F1800.0
M103
G1 X20.44 Y-40.45 Z0.78 F3000.0
M101
G1 X16.67 Y-40.45 Z0.78 F1800.0
M103
G1 X16.67 Y-40.84 Z0.78 F3000.0
M101
G1 X19.99 Y-40.84 Z0.78 F1800.0
M108 R30.0
M102
G1 X20.44 Y-40.84 Z0.78 F1800.0
M108 R3.569
M103
G1 X16.8 Y-19.64 Z0.78 F3000.0
M108 R30.0
M101
G1 X16.67 Y-18.85 Z0.78 F3000.0
M108 R3.569
G1 X42.28 Y-18.85 Z0.78 F1800.0
G1 X42.28 Y-19.24 Z0.78 F1800.0
G1 X38.51 Y-19.24 Z0.78 F1800.0
G1 X38.51 Y-19.64 Z0.78 F1800.0
G1 X42.28 Y-19.64 Z0.78 F1800.0
G1 X42.28 Y-20.03 Z0.78 F1800.0
G1 X38.51 Y-20.03 Z0.78 F1800.0
G1 X38.51 Y-20.42 Z0.78 F1800.0
G1 X42.28 Y-20.42 Z0.78 F1800.0
G1 X42.28 Y-20.81 Z0.78 F1800.0
G1 X38.51 Y-20.81 Z0.78 F1800.0
G1 X38.51 Y-21.21 Z0.78 F1800.0
G1 X42.28 Y-21.21 Z0.78 F1800.0
G1 X42.28 Y-21.6 Z0.78 F1800.0
G1 X38.51 Y-21.6 Z0.78 F1800.0
G1 X38.51 Y-21.99 Z0.78 F1800.0
G1 X42.28 Y-21.99 Z0.78 F1800.0
G1 X42.28 Y-22.38 Z0.78 F1800.0
G1 X38.51 Y-22.38 Z0.78 F1800.0
G1 X38.51 Y-22.78 Z0.78 F1800.0
G1 X42.28 Y-22.78 Z0.78 F1800.0
G1 X42.28 Y-23.17 Z0.78 F1800.0
G1 X38.51 Y-23.17 Z0.78 F1800.0
G1 X38.51 Y-23.56 Z0.78 F1800.0
G1 X42.28 Y-23.56 Z0.78 F1800.0
G1 X42.28 Y-23.96 Z0.78 F1800.0
G1 X38.51 Y-23.96 Z0.78 F1800.0
G1 X38.51 Y-24.35 Z0.78 F1800.0
G1 X42.28 Y-24.35 Z0.78 F1800.0
G1 X42.28 Y-24.74 Z0.78 F1800.0
G1 X38.51 Y-24.74 Z0.78 F1800.0
G1 X38.51 Y-25.13 Z0.78 F1800.0
G1 X42.28 Y-25.13 Z0.78 F1800.0
G1 X42.28 Y-25.53 Z0.78 F1800.0
G1 X38.51 Y-25.53 Z0.78 F1800.0
G1 X38.51 Y-25.92 Z0.78 F1800.0
G1 X42.28 Y-25.92 Z0.78 F1800.0
G1 X42.28 Y-26.31 Z0.78 F1800.0
G1 X38.51 Y-26.31 Z0.78 F1800.0
G1 X38.51 Y-26.7 Z0.78 F1800.0
G1 X42.28 Y-26.7 Z0.78 F1800.0
G1 X42.28 Y-27.1 Z0.78 F1800.0
G1 X38.51 Y-27.1 Z0.78 F1800.0
G1 X38.51 Y-27.49 Z0.78 F1800.0
G1 X42.28 Y-27.49 Z0.78 F1800.0
G1 X42.28 Y-27.88 Z0.78 F1800.0
G1 X38.51 Y-27.88 Z0.78 F1800.0
G1 X38.51 Y-28.27 Z0.78 F1800.0
G1 X42.28 Y-28.27 Z0.78 F1800.0
G1 X42.28 Y-28.67 Z0.78 F1800.0
G1 X38.51 Y-28.67 Z0.78 F1800.0
G1 X38.51 Y-29.06 Z0.78 F1800.0
G1 X42.28 Y-29.06 Z0.78 F1800.0
G1 X42.28 Y-29.45 Z0.78 F1800.0
G1 X38.51 Y-29.45 Z0.78 F1800.0
G1 X38.51 Y-29.85 Z0.78 F1800.0
G1 X42.28 Y-29.85 Z0.78 F1800.0
G1 X42.28 Y-30.24 Z0.78 F1800.0
G1 X38.51 Y-30.24 Z0.78 F1800.0
G1 X38.51 Y-30.63 Z0.78 F1800.0
G1 X42.28 Y-30.63 Z0.78 F1800.0
G1 X42.28 Y-31.02 Z0.78 F1800.0
G1 X38.51 Y-31.02 Z0.78 F1800.0
G1 X38.51 Y-31.42 Z0.78 F1800.0
G1 X42.28 Y-31.42 Z0.78 F1800.0
G1 X42.28 Y-31.81 Z0.78 F1800.0
G1 X38.51 Y-31.81 Z0.78 F1800.0
G1 X38.51 Y-32.2 Z0.78 F1800.0
G1 X42.28 Y-32.2 Z0.78 F1800.0
G1 X42.28 Y-32.59 Z0.78 F1800.0
G1 X38.51 Y-32.59 Z0.78 F1800.0
G1 X38.51 Y-32.99 Z0.78 F1800.0
G1 X42.28 Y-32.99 Z0.78 F1800.0
G1 X42.28 Y-33.38 Z0.78 F1800.0
G1 X38.51 Y-33.38 Z0.78 F1800.0
G1 X38.51 Y-33.77 Z0.78 F1800.0
G1 X42.28 Y-33.77 Z0.78 F1800.0
G1 X42.28 Y-34.17 Z0.78 F1800.0
G1 X38.51 Y-34.17 Z0.78 F1800.0
G1 X38.51 Y-34.56 Z0.78 F1800.0
G1 X42.28 Y-34.56 Z0.78 F1800.0
G1 X42.28 Y-34.95 Z0.78 F1800.0
G1 X38.51 Y-34.95 Z0.78 F1800.0
G1 X38.51 Y-35.34 Z0.78 F1800.0
G1 X42.28 Y-35.34 Z0.78 F1800.0
G1 X42.28 Y-35.74 Z0.78 F1800.0
G1 X38.51 Y-35.74 Z0.78 F1800.0
G1 X38.51 Y-36.13 Z0.78 F1800.0
G1 X42.28 Y-36.13 Z0.78 F1800.0
G1 X42.28 Y-36.52 Z0.78 F1800.0
G1 X38.51 Y-36.52 Z0.78 F1800.0
G1 X38.51 Y-36.91 Z0.78 F1800.0
G1 X42.28 Y-36.91 Z0.78 F1800.0
G1 X42.28 Y-37.31 Z0.78 F1800.0
G1 X38.51 Y-37.31 Z0.78 F1800.0
G1 X38.51 Y-37.7 Z0.78 F1800.0
G1 X42.28 Y-37.7 Z0.78 F1800.0
G1 X42.28 Y-38.09 Z0.78 F1800.0
G1 X38.51 Y-38.09 Z0.78 F1800.0
G1 X38.51 Y-38.49 Z0.78 F1800.0
G1 X42.28 Y-38.49 Z0.78 F1800.0
G1 X42.28 Y-38.88 Z0.78 F1800.0
G1 X38.51 Y-38.88 Z0.78 F1800.0
G1 X38.51 Y-39.27 Z0.78 F1800.0
G1 X42.28 Y-39.27 Z0.78 F1800.0
G1 X42.28 Y-39.66 Z0.78 F1800.0
G1 X38.51 Y-39.66 Z0.78 F1800.0
G1 X38.51 Y-40.06 Z0.78 F1800.0
G1 X42.28 Y-40.06 Z0.78 F1800.0
G1 X42.28 Y-40.45 Z0.78 F1800.0
G1 X38.51 Y-40.45 Z0.78 F1800.0
G1 X38.51 Y-40.84 Z0.78 F1800.0
G1 X42.28 Y-40.84 Z0.78 F1800.0
G1 X42.28 Y-41.23 Z0.78 F1800.0
G1 X16.67 Y-41.23 Z0.78 F1800.0
M103
G1 X16.67 Y-41.63 Z0.78 F3000.0
M101
G1 X41.83 Y-41.63 Z0.78 F1800.0
M108 R30.0
M102
G1 X42.28 Y-41.63 Z0.78 F1800.0
M108 R3.569
M103
G1 X37.94 Y-36.9 Z0.78 F3000.0
G1 X37.8 Y-19.84 Z0.78 F3000.0
G1 X21.14 Y-19.84 Z0.78 F3000.0
G1 X21.01 Y-20.11 Z0.78 F3000.0
G1 X20.88 Y-19.91 Z0.78 F3000.0
M108 R30.0
M101
G1 X20.44 Y-19.24 Z0.78 F3000.0
M108 R3.569
G1 X17.12 Y-19.24 Z0.78 F1800.0
M108 R30.0
M102
G1 X16.67 Y-19.24 Z0.78 F1800.0
M108 R3.569
M103
G1 X16.67 Y-18.86 Z0.78 F3000.0
M108 R30.0
M101
G1 X16.67 Y-18.06 Z0.78 F3000.0
M108 R3.569
G1 X42.28 Y-18.06 Z0.78 F1800.0
G1 X42.28 Y-18.46 Z0.78 F1800.0
G1 X17.12 Y-18.46 Z0.78 F1800.0
M108 R30.0
M102
G1 X16.67 Y-18.46 Z0.78 F1800.0
M108 R3.569
M103
G1 X16.67 Y-18.08 Z0.78 F3000.0
M108 R30.0
M101
G1 X16.67 Y-17.28 Z0.78 F3000.0
M108 R3.569
G1 X42.28 Y-17.28 Z0.78 F1800.0
G1 X42.28 Y-17.67 Z0.78 F1800.0
G1 X17.12 Y-17.67 Z0.78 F1800.0
M108 R30.0
M102
G1 X16.67 Y-17.67 Z0.78 F1800.0
M108 R3.569
M103
G1 X16.67 Y-17.29 Z0.78 F3000.0
M108 R30.0
M101
G1 X16.67 Y-16.49 Z0.78 F3000.0
M108 R3.569
G1 X42.28 Y-16.49 Z0.78 F1800.0
G1 X42.28 Y-16.89 Z0.78 F1800.0
G1 X17.12 Y-16.89 Z0.78 F1800.0
M108 R30.0
M102
G1 X16.67 Y-16.89 Z0.78 F1800.0
M108 R3.569
M103
G1 X16.67 Y5.48 Z0.78 F3000.0
M108 R30.0
M101
G1 X16.67 Y6.28 Z0.78 F3000.0
M108 R3.569
G1 X42.28 Y6.28 Z0.78 F1800.0
G1 X42.28 Y5.89 Z0.78 F1800.0
G1 X38.51 Y5.89 Z0.78 F1800.0
G1 X38.51 Y5.5 Z0.78 F1800.0
G1 X42.28 Y5.5 Z0.78 F1800.0
G1 X42.28 Y5.11 Z0.78 F1800.0
G1 X38.51 Y5.11 Z0.78 F1800.0
G1 X38.51 Y4.71 Z0.78 F1800.0
G1 X42.28 Y4.71 Z0.78 F1800.0
G1 X42.28 Y4.32 Z0.78 F1800.0
G1 X38.51 Y4.32 Z0.78 F1800.0
G1 X38.51 Y3.93 Z0.78 F1800.0
G1 X42.28 Y3.93 Z0.78 F1800.0
G1 X42.28 Y3.53 Z0.78 F1800.0
G1 X38.51 Y3.53 Z0.78 F1800.0
G1 X38.51 Y3.14 Z0.78 F1800.0
G1 X42.28 Y3.14 Z0.78 F1800.0
G1 X42.28 Y2.75 Z0.78 F1800.0
G1 X38.51 Y2.75 Z0.78 F1800.0
G1 X38.51 Y2.36 Z0.78 F1800.0
G1 X42.28 Y2.36 Z0.78 F1800.0
G1 X42.28 Y1.96 Z0.78 F1800.0
G1 X38.51 Y1.96 Z0.78 F1800.0
G1 X38.51 Y1.57 Z0.78 F1800.0
G1 X42.28 Y1.57 Z0.78 F1800.0
G1 X42.28 Y1.18 Z0.78 F1800.0
G1 X38.51 Y1.18 Z0.78 F1800.0
G1 X38.51 Y0.79 Z0.78 F1800.0
G1 X42.28 Y0.79 Z0.78 F1800.0
G1 X42.28 Y0.39 Z0.78 F1800.0
G1 X38.51 Y0.39 Z0.78 F1800.0
G1 X38.51 Y-0.0 Z0.78 F1800.0
G1 X42.28 Y-0.0 Z0.78 F1800.0
G1 X42.28 Y-0.39 Z0.78 F1800.0
G1 X38.51 Y-0.39 Z0.78 F1800.0
G1 X38.51 Y-0.79 Z0.78 F1800.0
G1 X42.28 Y-0.79 Z0.78 F1800.0
G1 X42.28 Y-1.18 Z0.78 F1800.0
G1 X38.51 Y-1.18 Z0.78 F1800.0
G1 X38.51 Y-1.57 Z0.78 F1800.0
G1 X42.28 Y-1.57 Z0.78 F1800.0
G1 X42.28 Y-1.96 Z0.78 F1800.0
G1 X38.51 Y-1.96 Z0.78 F1800.0
G1 X38.51 Y-2.36 Z0.78 F1800.0
G1 X42.28 Y-2.36 Z0.78 F1800.0
G1 X42.28 Y-2.75 Z0.78 F1800.0
G1 X38.51 Y-2.75 Z0.78 F1800.0
G1 X38.51 Y-3.14 Z0.78 F1800.0
G1 X42.28 Y-3.14 Z0.78 F1800.0
G1 X42.28 Y-3.53 Z0.78 F1800.0
G1 X38.51 Y-3.53 Z0.78 F1800.0
G1 X38.51 Y-3.93 Z0.78 F1800.0
G1 X42.28 Y-3.93 Z0.78 F1800.0
G1 X42.28 Y-4.32 Z0.78 F1800.0
G1 X38.51 Y-4.32 Z0.78 F1800.0
G1 X38.51 Y-4.71 Z0.78 F1800.0
G1 X42.28 Y-4.71 Z0.78 F1800.0
G1 X42.28 Y-5.11 Z0.78 F1800.0
G1 X38.51 Y-5.11 Z0.78 F1800.0
G1 X38.51 Y-5.5 Z0.78 F1800.0
G1 X42.28 Y-5.5 Z0.78 F1800.0
G1 X42.28 Y-5.89 Z0.78 F1800.0
G1 X38.51 Y-5.89 Z0.78 F1800.0
G1 X38.51 Y-6.28 Z0.78 F1800.0
G1 X42.28 Y-6.28 Z0.78 F1800.0
G1 X42.28 Y-6.68 Z0.78 F1800.0
G1 X38.51 Y-6.68 Z0.78 F1800.0
G1 X38.51 Y-7.07 Z0.78 F1800.0
G1 X42.28 Y-7.07 Z0.78 F1800.0
G1 X42.28 Y-7.46 Z0.78 F1800.0
G1 X38.51 Y-7.46 Z0.78 F1800.0
G1 X38.51 Y-7.85 Z0.78 F1800.0
G1 X42.28 Y-7.85 Z0.78 F1800.0
G1 X42.28 Y-8.25 Z0.78 F1800.0
G1 X38.51 Y-8.25 Z0.78 F1800.0
G1 X38.51 Y-8.64 Z0.78 F1800.0
G1 X42.28 Y-8.64 Z0.78 F1800.0
G1 X42.28 Y-9.03 Z0.78 F1800.0
G1 X38.51 Y-9.03 Z0.78 F1800.0
G1 X38.51 Y-9.43 Z0.78 F1800.0
G1 X42.28 Y-9.43 Z0.78 F1800.0
G1 X42.28 Y-9.82 Z0.78 F1800.0
G1 X38.51 Y-9.82 Z0.78 F1800.0
G1 X38.51 Y-10.21 Z0.78 F1800.0
G1 X42.28 Y-10.21 Z0.78 F1800.0
G1 X42.28 Y-10.6 Z0.78 F1800.0
G1 X38.51 Y-10.6 Z0.78 F1800.0
G1 X38.51 Y-11.0 Z0.78 F1800.0
G1 X42.28 Y-11.0 Z0.78 F1800.0
G1 X42.28 Y-11.39 Z0.78 F1800.0
G1 X38.51 Y-11.39 Z0.78 F1800.0
G1 X38.51 Y-11.78 Z0.78 F1800.0
G1 X42.28 Y-11.78 Z0.78 F1800.0
G1 X42.28 Y-12.17 Z0.78 F1800.0
G1 X38.51 Y-12.17 Z0.78 F1800.0
G1 X38.51 Y-12.57 Z0.78 F1800.0
G1 X42.28 Y-12.57 Z0.78 F1800.0
G1 X42.28 Y-12.96 Z0.78 F1800.0
G1 X38.51 Y-12.96 Z0.78 F1800.0
G1 X38.51 Y-13.35 Z0.78 F1800.0
G1 X42.28 Y-13.35 Z0.78 F1800.0
G1 X42.28 Y-13.74 Z0.78 F1800.0
G1 X38.51 Y-13.74 Z0.78 F1800.0
G1 X38.51 Y-14.14 Z0.78 F1800.0
G1 X42.28 Y-14.14 Z0.78 F1800.0
G1 X42.28 Y-14.53 Z0.78 F1800.0
G1 X38.51 Y-14.53 Z0.78 F1800.0
G1 X38.51 Y-14.92 Z0.78 F1800.0
G1 X42.28 Y-14.92 Z0.78 F1800.0
G1 X42.28 Y-15.32 Z0.78 F1800.0
G1 X38.51 Y-15.32 Z0.78 F1800.0
G1 X38.51 Y-15.71 Z0.78 F1800.0
G1 X42.28 Y-15.71 Z0.78 F1800.0
G1 X42.28 Y-16.1 Z0.78 F1800.0
G1 X16.67 Y-16.1 Z0.78 F1800.0
M103
G1 X16.67 Y-15.71 Z0.78 F3000.0
M101
G1 X20.44 Y-15.71 Z0.78 F1800.0
M103
G1 X20.44 Y-15.32 Z0.78 F3000.0
M101
G1 X16.67 Y-15.32 Z0.78 F1800.0
M103
G1 X16.67 Y-14.92 Z0.78 F3000.0
M101
G1 X20.44 Y-14.92 Z0.78 F1800.0
M103
G1 X20.44 Y-14.53 Z0.78 F3000.0
M101
G1 X16.67 Y-14.53 Z0.78 F1800.0
M103
G1 X16.67 Y-14.14 Z0.78 F3000.0
M101
G1 X20.44 Y-14.14 Z0.78 F1800.0
M103
G1 X20.44 Y-13.74 Z0.78 F3000.0
M101
G1 X16.67 Y-13.74 Z0.78 F1800.0
M103
G1 X16.67 Y-13.35 Z0.78 F3000.0
M101
G1 X20.44 Y-13.35 Z0.78 F1800.0
M103
G1 X20.44 Y-12.96 Z0.78 F3000.0
M101
G1 X16.67 Y-12.96 Z0.78 F1800.0
M103
G1 X16.67 Y-12.57 Z0.78 F3000.0
M101
G1 X20.44 Y-12.57 Z0.78 F1800.0
M103
G1 X20.44 Y-12.17 Z0.78 F3000.0
M101
G1 X16.67 Y-12.17 Z0.78 F1800.0
M103
G1 X16.67 Y-11.78 Z0.78 F3000.0
M101
G1 X20.44 Y-11.78 Z0.78 F1800.0
M103
G1 X20.44 Y-11.39 Z0.78 F3000.0
M101
G1 X16.67 Y-11.39 Z0.78 F1800.0
M103
G1 X16.67 Y-11.0 Z0.78 F3000.0
M101
G1 X20.44 Y-11.0 Z0.78 F1800.0
M103
G1 X20.44 Y-10.6 Z0.78 F3000.0
M101
G1 X16.67 Y-10.6 Z0.78 F1800.0
M103
G1 X16.67 Y-10.21 Z0.78 F3000.0
M101
G1 X20.44 Y-10.21 Z0.78 F1800.0
M103
G1 X20.44 Y-9.82 Z0.78 F3000.0
M101
G1 X16.67 Y-9.82 Z0.78 F1800.0
M103
G1 X16.67 Y-9.43 Z0.78 F3000.0
M101
G1 X20.44 Y-9.43 Z0.78 F1800.0
M103
G1 X20.44 Y-9.03 Z0.78 F3000.0
M101
G1 X16.67 Y-9.03 Z0.78 F1800.0
M103
G1 X16.67 Y-8.64 Z0.78 F3000.0
M101
G1 X20.44 Y-8.64 Z0.78 F1800.0
M103
G1 X20.44 Y-8.25 Z0.78 F3000.0
M101
G1 X16.67 Y-8.25 Z0.78 F1800.0
M103
G1 X16.67 Y-7.85 Z0.78 F3000.0
M101
G1 X20.44 Y-7.85 Z0.78 F1800.0
M103
G1 X20.44 Y-7.46 Z0.78 F3000.0
M101
G1 X16.67 Y-7.46 Z0.78 F1800.0
M103
G1 X16.67 Y-7.07 Z0.78 F3000.0
M101
G1 X20.44 Y-7.07 Z0.78 F1800.0
M103
G1 X20.44 Y-6.68 Z0.78 F3000.0
M101
G1 X16.67 Y-6.68 Z0.78 F1800.0
M103
G1 X16.67 Y-6.28 Z0.78 F3000.0
M101
G1 X20.44 Y-6.28 Z0.78 F1800.0
M103
G1 X20.44 Y-5.89 Z0.78 F3000.0
M101
G1 X16.67 Y-5.89 Z0.78 F1800.0
M103
G1 X16.67 Y-5.5 Z0.78 F3000.0
M101
G1 X20.44 Y-5.5 Z0.78 F1800.0
M103
G1 X20.44 Y-5.11 Z0.78 F3000.0
M101
G1 X16.67 Y-5.11 Z0.78 F1800.0
M103
G1 X16.67 Y-4.71 Z0.78 F3000.0
M101
G1 X20.44 Y-4.71 Z0.78 F1800.0
M103
G1 X20.44 Y-4.32 Z0.78 F3000.0
M101
G1 X16.67 Y-4.32 Z0.78 F1800.0
M103
G1 X16.67 Y-3.93 Z0.78 F3000.0
M101
G1 X20.44 Y-3.93 Z0.78 F1800.0
M103
G1 X20.44 Y-3.53 Z0.78 F3000.0
M101
G1 X16.67 Y-3.53 Z0.78 F1800.0
M103
G1 X16.67 Y-3.14 Z0.78 F3000.0
M101
G1 X20.44 Y-3.14 Z0.78 F1800.0
M103
G1 X20.44 Y-2.75 Z0.78 F3000.0
M101
G1 X16.67 Y-2.75 Z0.78 F1800.0
M103
G1 X16.67 Y-2.36 Z0.78 F3000.0
M101
G1 X20.44 Y-2.36 Z0.78 F1800.0
M103
G1 X20.44 Y-1.96 Z0.78 F3000.0
M101
G1 X16.67 Y-1.96 Z0.78 F1800.0
M103
G1 X16.67 Y-1.57 Z0.78 F3000.0
M101
G1 X20.44 Y-1.57 Z0.78 F1800.0
M103
G1 X20.44 Y-1.18 Z0.78 F3000.0
M101
G1 X16.67 Y-1.18 Z0.78 F1800.0
M103
G1 X16.67 Y-0.79 Z0.78 F3000.0
M101
G1 X20.44 Y-0.79 Z0.78 F1800.0
M103
G1 X20.44 Y-0.39 Z0.78 F3000.0
M101
G1 X16.67 Y-0.39 Z0.78 F1800.0
M103
G1 X16.67 Y-0.0 Z0.78 F3000.0
M101
G1 X20.44 Y-0.0 Z0.78 F1800.0
M103
G1 X20.44 Y0.39 Z0.78 F3000.0
M101
G1 X16.67 Y0.39 Z0.78 F1800.0
M103
G1 X16.67 Y0.79 Z0.78 F3000.0
M101
G1 X20.44 Y0.79 Z0.78 F1800.0
M103
G1 X20.44 Y1.18 Z0.78 F3000.0
M101
G1 X16.67 Y1.18 Z0.78 F1800.0
M103
G1 X16.67 Y1.57 Z0.78 F3000.0
M101
G1 X20.44 Y1.57 Z0.78 F1800.0
M103
G1 X20.44 Y1.96 Z0.78 F3000.0
M101
G1 X16.67 Y1.96 Z0.78 F1800.0
M103
G1 X16.67 Y2.36 Z0.78 F3000.0
M101
G1 X20.44 Y2.36 Z0.78 F1800.0
M103
G1 X20.44 Y2.75 Z0.78 F3000.0
M101
G1 X16.67 Y2.75 Z0.78 F1800.0
M103
G1 X16.67 Y3.14 Z0.78 F3000.0
M101
G1 X20.44 Y3.14 Z0.78 F1800.0
M103
G1 X20.44 Y3.53 Z0.78 F3000.0
M101
G1 X16.67 Y3.53 Z0.78 F1800.0
M103
G1 X16.67 Y3.93 Z0.78 F3000.0
M101
G1 X20.44 Y3.93 Z0.78 F1800.0
M103
G1 X20.44 Y4.32 Z0.78 F3000.0
M101
G1 X16.67 Y4.32 Z0.78 F1800.0
M103
G1 X16.67 Y4.71 Z0.78 F3000.0
M101
G1 X20.44 Y4.71 Z0.78 F1800.0
M103
G1 X20.44 Y5.11 Z0.78 F3000.0
M101
G1 X16.67 Y5.11 Z0.78 F1800.0
M103
G1 X16.67 Y5.5 Z0.78 F3000.0
M101
G1 X20.44 Y5.5 Z0.78 F1800.0
M103
G1 X20.44 Y5.89 Z0.78 F3000.0
M101
G1 X17.12 Y5.89 Z0.78 F1800.0
M108 R30.0
M102
G1 X16.67 Y5.89 Z0.78 F1800.0
M108 R3.569
M103
G1 X41.48 Y6.65 Z0.78 F3000.0
M108 R30.0
M101
G1 X42.28 Y6.68 Z0.78 F3000.0
M108 R3.569
G1 X17.12 Y6.68 Z0.78 F1800.0
M108 R30.0
M102
G1 X16.67 Y6.68 Z0.78 F1800.0
M108 R3.569
M103
(</surroundingLoop>)
(</layer>)
(<operatingLayerEnd> </operatingLayerEnd>)
(<layer> 1.1 )
(<surroundingLoop>)
(<boundaryPerimeter>)
(<boundaryPoint> X15.822 Y7.894 Z1.1 </boundaryPoint>)
(<boundaryPoint> X15.822 Y-42.786 Z1.1 </boundaryPoint>)
(<boundaryPoint> X43.122 Y-42.786 Z1.1 </boundaryPoint>)
(<boundaryPoint> X43.122 Y7.894 Z1.1 </boundaryPoint>)
(<loop> inner )
G1 X20.84 Y-18.6 Z1.09 F3000.0
M108 R30.0
M101
G1 X20.97 Y-19.39 Z1.1 F3000.0
M108 R3.569
G1 X38.25 Y-19.39 Z1.1 F1800.0
G1 X38.25 Y-40.84 Z1.1 F1800.0
G1 X20.69 Y-40.84 Z1.1 F1800.0
G1 X20.69 Y-19.56 Z1.1 F1800.0
M108 R30.0
M102
G1 X20.69 Y-19.39 Z1.1 F1800.0
G1 X20.97 Y-19.39 Z1.1 F1800.0
M108 R3.569
M103
(</loop>)
(<loop> inner )
G1 X20.97 Y-16.3 Z1.1 F3000.0
M108 R30.0
M101
G1 X20.97 Y-15.5 Z1.1 F3000.0
M108 R3.569
G1 X20.69 Y-15.5 Z1.1 F1800.0
G1 X20.69 Y5.95 Z1.1 F1800.0
G1 X38.25 Y5.95 Z1.1 F1800.0
G1 X38.25 Y-15.5 Z1.1 F1800.0
G1 X21.42 Y-15.5 Z1.1 F1800.0
M108 R30.0
M102
G1 X20.97 Y-15.5 Z1.1 F1800.0
M108 R3.569
M103
(</loop>)
(<loop> outer )
G1 X17.21 Y-15.5 Z1.1 F3000.0
M108 R30.0
M101
G1 X16.41 Y-15.5 Z1.1 F3000.0
M108 R3.569
G1 X16.41 Y-42.2 Z1.1 F1800.0
G1 X42.53 Y-42.2 Z1.1 F1800.0
G1 X42.53 Y7.31 Z1.1 F1800.0
G1 X16.41 Y7.31 Z1.1 F1800.0
G1 X16.41 Y-15.5 Z1.1 F1800.0
M103
(</loop>)
(<perimeter> outer )
G1 X16.02 Y-15.5 Z1.1 F3000.0
M101
G1 X16.02 Y-42.59 Z1.1 F1800.0
G1 X42.93 Y-42.59 Z1.1 F1800.0
G1 X42.93 Y7.7 Z1.1 F1800.0
G1 X16.02 Y7.7 Z1.1 F1800.0
G1 X16.02 Y-15.05 Z1.1 F1800.0
M108 R30.0
M102
G1 X16.02 Y-15.5 Z1.1 F1800.0
M108 R3.569
M103
(</perimeter>)
(</boundaryPerimeter>)
(<surroundingLoop>)
(<boundaryPerimeter>)
(<boundaryPoint> X37.662 Y5.36 Z1.1 </boundaryPoint>)
(<boundaryPoint> X37.662 Y-14.912 Z1.1 </boundaryPoint>)
(<boundaryPoint> X21.282 Y-14.912 Z1.1 </boundaryPoint>)
(<boundaryPoint> X21.282 Y5.36 Z1.1 </boundaryPoint>)
(<perimeter> inner )
G1 X20.29 Y-15.17 Z1.1 F3000.0
M108 R30.0
M101
G1 X21.09 Y-15.11 Z1.1 F3000.0
M108 R3.569
G1 X21.09 Y5.56 Z1.1 F1800.0
G1 X37.86 Y5.56 Z1.1 F1800.0
G1 X37.86 Y-15.11 Z1.1 F1800.0
G1 X21.54 Y-15.11 Z1.1 F1800.0
M108 R30.0
M102
G1 X21.09 Y-15.11 Z1.1 F1800.0
M108 R3.569
M103
(</perimeter>)
(</boundaryPerimeter>)
(</surroundingLoop>)
(<surroundingLoop>)
(<boundaryPerimeter>)
(<boundaryPoint> X37.662 Y-19.98 Z1.1 </boundaryPoint>)
(<boundaryPoint> X37.662 Y-40.252 Z1.1 </boundaryPoint>)
(<boundaryPoint> X21.282 Y-40.252 Z1.1 </boundaryPoint>)
(<boundaryPoint> X21.282 Y-19.98 Z1.1 </boundaryPoint>)
(<perimeter> inner )
G1 X21.09 Y-18.98 Z1.1 F3000.0
M108 R30.0
M101
G1 X21.09 Y-19.78 Z1.1 F3000.0
M108 R3.569
G1 X37.86 Y-19.78 Z1.1 F1800.0
G1 X37.86 Y-40.45 Z1.1 F1800.0
G1 X21.09 Y-40.45 Z1.1 F1800.0
G1 X21.09 Y-20.23 Z1.1 F1800.0
M108 R30.0
M102
G1 X21.09 Y-19.78 Z1.1 F1800.0
M108 R3.569
M103
(</perimeter>)
(</boundaryPerimeter>)
(</surroundingLoop>)
G1 X21.55 Y-19.52 Z1.1 F3000.0
M108 R30.0
M101
G1 X22.25 Y-19.14 Z1.1 F3000.0
M108 R3.569
G1 X20.51 Y-19.14 Z1.1 F1800.0
G1 X20.73 Y-16.24 Z1.1 F1800.0
G1 X20.51 Y-15.76 Z1.1 F1800.0
G1 X24.44 Y-15.76 Z1.1 F1800.0
G1 X22.91 Y-18.42 Z1.1 F1800.0
G1 X22.91 Y-18.67 Z1.1 F1800.0
G1 X22.69 Y-19.14 Z1.1 F1800.0
G1 X26.62 Y-19.14 Z1.1 F1800.0
G1 X25.09 Y-16.49 Z1.1 F1800.0
G1 X25.09 Y-16.24 Z1.1 F1800.0
G1 X24.87 Y-15.76 Z1.1 F1800.0
G1 X28.8 Y-15.76 Z1.1 F1800.0
G1 X27.27 Y-18.42 Z1.1 F1800.0
G1 X27.27 Y-18.67 Z1.1 F1800.0
G1 X27.05 Y-19.14 Z1.1 F1800.0
G1 X30.98 Y-19.14 Z1.1 F1800.0
G1 X29.45 Y-16.49 Z1.1 F1800.0
G1 X29.45 Y-16.24 Z1.1 F1800.0
G1 X29.23 Y-15.76 Z1.1 F1800.0
G1 X33.16 Y-15.76 Z1.1 F1800.0
G1 X31.63 Y-18.42 Z1.1 F1800.0
G1 X31.63 Y-18.67 Z1.1 F1800.0
G1 X31.42 Y-19.14 Z1.1 F1800.0
G1 X35.34 Y-19.14 Z1.1 F1800.0
G1 X33.82 Y-16.49 Z1.1 F1800.0
G1 X33.82 Y-16.24 Z1.1 F1800.0
G1 X33.6 Y-15.76 Z1.1 F1800.0
G1 X37.09 Y-15.76 Z1.1 F1800.0
G1 X36.0 Y-18.42 Z1.1 F1800.0
G1 X36.0 Y-18.67 Z1.1 F1800.0
G1 X35.78 Y-19.14 Z1.1 F1800.0
G1 X38.4 Y-19.14 Z1.1 F1800.0
G1 X38.06 Y-16.24 Z1.1 F1800.0
G1 X38.4 Y-15.76 Z1.1 F1800.0
G1 X37.98 Y-15.76 Z1.1 F1800.0
M108 R30.0
M102
G1 X37.53 Y-15.76 Z1.1 F1800.0
M108 R3.569
M103
G1 X37.49 Y-15.19 Z1.1 F3000.0
G1 X37.8 Y-15.05 Z1.1 F3000.0
G1 X37.8 Y5.5 Z1.1 F3000.0
G1 X36.91 Y5.61 Z1.1 F3000.0
M108 R30.0
M101
G1 X36.69 Y5.64 Z1.1 F3000.0
G1 X36.65 Y6.21 Z1.1 F3000.0
M108 R3.569
G1 X38.4 Y6.21 Z1.1 F1800.0
G1 X39.27 Y7.05 Z1.1 F1800.0
G1 X35.34 Y7.05 Z1.1 F1800.0
G1 X36.22 Y6.21 Z1.1 F1800.0
G1 X33.6 Y6.21 Z1.1 F1800.0
G1 X34.47 Y7.05 Z1.1 F1800.0
G1 X33.16 Y7.05 Z1.1 F1800.0
G1 X33.16 Y6.21 Z1.1 F1800.0
G1 X32.29 Y6.21 Z1.1 F1800.0
G1 X32.73 Y7.05 Z1.1 F1800.0
G1 X30.98 Y7.05 Z1.1 F1800.0
G1 X31.85 Y6.21 Z1.1 F1800.0
G1 X29.23 Y6.21 Z1.1 F1800.0
G1 X30.11 Y7.05 Z1.1 F1800.0
G1 X28.8 Y7.05 Z1.1 F1800.0
G1 X28.8 Y6.21 Z1.1 F1800.0
G1 X27.93 Y6.21 Z1.1 F1800.0
G1 X28.36 Y7.05 Z1.1 F1800.0
G1 X26.62 Y7.05 Z1.1 F1800.0
G1 X27.49 Y6.21 Z1.1 F1800.0
G1 X26.18 Y6.21 Z1.1 F1800.0
G1 X26.18 Y7.05 Z1.1 F1800.0
G1 X25.74 Y7.05 Z1.1 F1800.0
G1 X25.74 Y6.21 Z1.1 F1800.0
G1 X24.44 Y6.21 Z1.1 F1800.0
G1 X25.31 Y7.05 Z1.1 F1800.0
G1 X22.69 Y7.05 Z1.1 F1800.0
G1 X23.56 Y6.21 Z1.1 F1800.0
G1 X20.51 Y6.21 Z1.1 F1800.0
G1 X20.51 Y7.05 Z1.1 F1800.0
G1 X21.8 Y7.05 Z1.1 F1800.0
M108 R30.0
M102
G1 X22.25 Y7.05 Z1.1 F1800.0
M108 R3.569
M103
G1 X22.5 Y5.64 Z1.1 F3000.0
G1 X21.14 Y5.5 Z1.1 F3000.0
G1 X21.14 Y-15.05 Z1.1 F3000.0
G1 X25.44 Y-15.19 Z1.1 F3000.0
G1 X26.17 Y-19.7 Z1.1 F3000.0
G1 X21.14 Y-19.84 Z1.1 F3000.0
G1 X21.14 Y-40.39 Z1.1 F3000.0
G1 X28.89 Y-40.52 Z1.1 F3000.0
M108 R30.0
M101
G1 X29.11 Y-40.53 Z1.1 F3000.0
G1 X29.23 Y-41.1 Z1.1 F3000.0
M108 R3.569
G1 X29.67 Y-41.51 Z1.1 F1800.0
G1 X29.23 Y-41.94 Z1.1 F1800.0
G1 X28.36 Y-41.1 Z1.1 F1800.0
G1 X27.93 Y-41.53 Z1.1 F1800.0
G1 X27.93 Y-41.94 Z1.1 F1800.0
G1 X27.05 Y-41.1 Z1.1 F1800.0
G1 X27.05 Y-41.94 Z1.1 F1800.0
G1 X26.62 Y-41.53 Z1.1 F1800.0
G1 X26.18 Y-41.94 Z1.1 F1800.0
G1 X25.74 Y-41.51 Z1.1 F1800.0
G1 X25.85 Y-41.4 Z1.1 F1800.0
M108 R30.0
M102
G1 X26.18 Y-41.1 Z1.1 F1800.0
M108 R3.569
M103
G1 X25.54 Y-41.51 Z1.1 F3000.0
M108 R30.0
M101
G1 X24.87 Y-41.94 Z1.1 F3000.0
M108 R3.569
G1 X25.31 Y-41.53 Z1.1 F1800.0
G1 X24.87 Y-41.1 Z1.1 F1800.0
G1 X23.87 Y-41.41 Z1.1 F1800.0
G1 X24.0 Y-41.51 Z1.1 F1800.0
G1 X23.56 Y-41.94 Z1.1 F1800.0
G1 X23.18 Y-41.73 Z1.1 F1800.0
G1 X22.69 Y-41.94 Z1.1 F1800.0
G1 X22.69 Y-41.1 Z1.1 F1800.0
G1 X22.25 Y-41.53 Z1.1 F1800.0
G1 X21.82 Y-41.53 Z1.1 F1800.0
G1 X21.38 Y-41.94 Z1.1 F1800.0
G1 X21.38 Y-41.1 Z1.1 F1800.0
G1 X20.51 Y-41.94 Z1.1 F1800.0
G1 X20.51 Y-41.1 Z1.1 F1800.0
G1 X19.64 Y-41.51 Z1.1 F1800.0
G1 X19.2 Y-41.94 Z1.1 F1800.0
G1 X18.76 Y-41.51 Z1.1 F1800.0
G1 X18.33 Y-41.94 Z1.1 F1800.0
G1 X17.89 Y-41.51 Z1.1 F1800.0
G1 X18.54 Y-40.49 Z1.1 F1800.0
G1 X18.54 Y3.4 Z1.1 F1800.0
G1 X20.07 Y7.05 Z1.1 F1800.0
G1 X17.02 Y7.05 Z1.1 F1800.0
G1 X17.02 Y-41.49 Z1.1 F1800.0
M108 R30.0
M102
G1 X17.02 Y-41.94 Z1.1 F1800.0
M108 R3.569
M103
G1 X34.98 Y-41.94 Z1.1 F3000.0
M108 R30.0
M101
G1 X35.78 Y-41.94 Z1.1 F3000.0
M108 R3.569
G1 X36.22 Y-41.53 Z1.1 F1800.0
G1 X35.78 Y-41.1 Z1.1 F1800.0
G1 X34.77 Y-41.41 Z1.1 F1800.0
G1 X34.47 Y-41.94 Z1.1 F1800.0
G1 X34.09 Y-41.73 Z1.1 F1800.0
G1 X33.6 Y-41.94 Z1.1 F1800.0
G1 X33.6 Y-41.1 Z1.1 F1800.0
G1 X33.16 Y-41.53 Z1.1 F1800.0
G1 X32.73 Y-41.53 Z1.1 F1800.0
G1 X32.29 Y-41.94 Z1.1 F1800.0
G1 X32.29 Y-41.1 Z1.1 F1800.0
G1 X31.42 Y-41.94 Z1.1 F1800.0
G1 X30.98 Y-41.51 Z1.1 F1800.0
G1 X31.09 Y-41.4 Z1.1 F1800.0
M108 R30.0
M102
G1 X31.42 Y-41.1 Z1.1 F1800.0
M108 R3.569
M103
G1 X41.09 Y-41.88 Z1.1 F3000.0
M108 R30.0
M101
G1 X41.89 Y-41.94 Z1.1 F3000.0
M108 R3.569
G1 X41.45 Y-41.51 Z1.1 F1800.0
G1 X41.02 Y-41.51 Z1.1 F1800.0
G1 X40.48 Y-40.49 Z1.1 F1800.0
G1 X40.48 Y3.4 Z1.1 F1800.0
G1 X41.89 Y7.05 Z1.1 F1800.0
G1 X39.71 Y7.05 Z1.1 F1800.0
G1 X40.25 Y3.4 Z1.1 F1800.0
G1 X40.25 Y-14.31 Z1.1 F1800.0
G1 X38.29 Y-16.24 Z1.1 F1800.0
G1 X38.29 Y-16.49 Z1.1 F1800.0
G1 X40.25 Y-18.42 Z1.1 F1800.0
G1 X40.25 Y-40.49 Z1.1 F1800.0
G1 X40.58 Y-41.51 Z1.1 F1800.0
G1 X40.14 Y-41.94 Z1.1 F1800.0
G1 X40.13 Y-41.86 Z1.1 F1800.0
G1 X39.14 Y-41.63 Z1.1 F1800.0
G1 X38.4 Y-41.94 Z1.1 F1800.0
G1 X38.4 Y-41.53 Z1.1 F1800.0
G1 X37.96 Y-41.1 Z1.1 F1800.0
G1 X37.96 Y-41.94 Z1.1 F1800.0
G1 X37.53 Y-41.53 Z1.1 F1800.0
G1 X37.09 Y-41.94 Z1.1 F1800.0
G1 X36.65 Y-41.51 Z1.1 F1800.0
G1 X37.09 Y-41.1 Z1.1 F1800.0
M103
(</surroundingLoop>)
(</layer>)
(<layer> 1.42 )
(<surroundingLoop>)
(<boundaryPerimeter>)
(<boundaryPoint> X15.822 Y7.894 Z1.42 </boundaryPoint>)
(<boundaryPoint> X15.822 Y-42.786 Z1.42 </boundaryPoint>)
(<boundaryPoint> X43.122 Y-42.786 Z1.42 </boundaryPoint>)
(<boundaryPoint> X43.122 Y7.894 Z1.42 </boundaryPoint>)
(<loop> inner )
G1 X37.11 Y-40.84 Z1.42 F3000.0
M101
G1 X37.09 Y-40.84 Z1.42 F1800.0
G1 X20.69 Y-40.84 Z1.42 F1800.0
G1 X20.69 Y-19.39 Z1.42 F1800.0
G1 X38.25 Y-19.39 Z1.42 F1800.0
G1 X38.25 Y-40.84 Z1.42 F1800.0
G1 X37.56 Y-40.84 Z1.42 F1800.0
M108 R30.0
M102
G1 X37.11 Y-40.84 Z1.42 F1800.0
M108 R3.569
M103
(</loop>)
(<loop> inner )
G1 X37.11 Y-40.53 Z1.42 F3000.0
G1 X37.8 Y-40.39 Z1.42 F3000.0
G1 X37.8 Y-19.84 Z1.42 F3000.0
G1 X37.09 Y-19.7 Z1.42 F3000.0
G1 X37.09 Y-16.3 Z1.42 F3000.0
M108 R30.0
M101
G1 X37.09 Y-15.5 Z1.42 F3000.0
M108 R3.569
G1 X20.69 Y-15.5 Z1.42 F1800.0
G1 X20.69 Y5.95 Z1.42 F1800.0
G1 X38.25 Y5.95 Z1.42 F1800.0
G1 X38.25 Y-15.5 Z1.42 F1800.0
G1 X37.54 Y-15.5 Z1.42 F1800.0
M108 R30.0
M102
G1 X37.09 Y-15.5 Z1.42 F1800.0
M108 R3.569
M103
(</loop>)
(<loop> outer )
G1 X41.73 Y-15.5 Z1.42 F3000.0
M108 R30.0
M101
G1 X42.53 Y-15.5 Z1.42 F3000.0
M108 R3.569
G1 X42.53 Y7.31 Z1.42 F1800.0
G1 X16.41 Y7.31 Z1.42 F1800.0
G1 X16.41 Y-42.2 Z1.42 F1800.0
G1 X42.53 Y-42.2 Z1.42 F1800.0
G1 X42.53 Y-15.5 Z1.42 F1800.0
M103
(</loop>)
(<perimeter> outer )
G1 X42.93 Y-15.5 Z1.42 F3000.0
M101
G1 X42.93 Y7.7 Z1.42 F1800.0
G1 X16.02 Y7.7 Z1.42 F1800.0
G1 X16.02 Y-42.59 Z1.42 F1800.0
G1 X42.93 Y-42.59 Z1.42 F1800.0
G1 X42.93 Y-15.95 Z1.42 F1800.0
M108 R30.0
M102
G1 X42.93 Y-15.5 Z1.42 F1800.0
M108 R3.569
M103
(</perimeter>)
(</boundaryPerimeter>)
(<surroundingLoop>)
(<boundaryPerimeter>)
(<boundaryPoint> X37.662 Y5.36 Z1.42 </boundaryPoint>)
(<boundaryPoint> X37.662 Y-14.912 Z1.42 </boundaryPoint>)
(<boundaryPoint> X21.282 Y-14.912 Z1.42 </boundaryPoint>)
(<boundaryPoint> X21.282 Y5.36 Z1.42 </boundaryPoint>)
(<perimeter> inner )
G1 X38.66 Y-15.17 Z1.42 F3000.0
M108 R30.0
M101
G1 X37.86 Y-15.11 Z1.42 F3000.0
M108 R3.569
G1 X21.09 Y-15.11 Z1.42 F1800.0
G1 X21.09 Y5.56 Z1.42 F1800.0
G1 X37.86 Y5.56 Z1.42 F1800.0
G1 X37.86 Y-14.66 Z1.42 F1800.0
M108 R30.0
M102
G1 X37.86 Y-15.11 Z1.42 F1800.0
M108 R3.569
M103
(</perimeter>)
(</boundaryPerimeter>)
(</surroundingLoop>)
(<surroundingLoop>)
(<boundaryPerimeter>)
(<boundaryPoint> X37.662 Y-19.98 Z1.42 </boundaryPoint>)
(<boundaryPoint> X37.662 Y-40.252 Z1.42 </boundaryPoint>)
(<boundaryPoint> X21.282 Y-40.252 Z1.42 </boundaryPoint>)
(<boundaryPoint> X21.282 Y-19.98 Z1.42 </boundaryPoint>)
(<perimeter> inner )
G1 X37.86 Y-18.98 Z1.42 F3000.0
M108 R30.0
M101
G1 X37.86 Y-19.78 Z1.42 F3000.0
M108 R3.569
G1 X37.86 Y-40.45 Z1.42 F1800.0
G1 X21.09 Y-40.45 Z1.42 F1800.0
G1 X21.09 Y-19.78 Z1.42 F1800.0
G1 X37.41 Y-19.78 Z1.42 F1800.0
M108 R30.0
M102
G1 X37.86 Y-19.78 Z1.42 F1800.0
M108 R3.569
M103
(</perimeter>)
(</boundaryPerimeter>)
(</surroundingLoop>)
G1 X41.48 Y-19.66 Z1.42 F3000.0
M108 R30.0
M101
G1 X42.28 Y-19.64 Z1.42 F3000.0
M108 R3.569
G1 X42.28 Y-17.89 Z1.42 F1800.0
G1 X40.49 Y-18.66 Z1.42 F1800.0
G1 X40.23 Y-18.66 Z1.42 F1800.0
G1 X38.51 Y-19.2 Z1.42 F1800.0
G1 X38.51 Y-22.25 Z1.42 F1800.0
G1 X40.23 Y-22.79 Z1.42 F1800.0
G1 X40.49 Y-22.79 Z1.42 F1800.0
G1 X42.28 Y-20.07 Z1.42 F1800.0
G1 X42.28 Y-24.0 Z1.42 F1800.0
G1 X40.49 Y-23.02 Z1.42 F1800.0
G1 X40.23 Y-23.02 Z1.42 F1800.0
G1 X38.51 Y-22.69 Z1.42 F1800.0
G1 X38.51 Y-26.62 Z1.42 F1800.0
G1 X40.23 Y-27.16 Z1.42 F1800.0
G1 X40.49 Y-27.16 Z1.42 F1800.0
G1 X42.28 Y-24.44 Z1.42 F1800.0
G1 X42.28 Y-28.36 Z1.42 F1800.0
G1 X40.49 Y-27.39 Z1.42 F1800.0
G1 X40.23 Y-27.39 Z1.42 F1800.0
G1 X38.51 Y-27.05 Z1.42 F1800.0
G1 X38.51 Y-30.98 Z1.42 F1800.0
G1 X40.23 Y-31.52 Z1.42 F1800.0
G1 X40.49 Y-31.52 Z1.42 F1800.0
G1 X42.28 Y-28.8 Z1.42 F1800.0
G1 X42.28 Y-32.73 Z1.42 F1800.0
G1 X40.49 Y-31.75 Z1.42 F1800.0
G1 X40.23 Y-31.75 Z1.42 F1800.0
G1 X38.51 Y-31.42 Z1.42 F1800.0
G1 X38.51 Y-35.34 Z1.42 F1800.0
G1 X40.23 Y-35.88 Z1.42 F1800.0
G1 X40.49 Y-35.88 Z1.42 F1800.0
G1 X42.28 Y-33.16 Z1.42 F1800.0
G1 X42.28 Y-37.09 Z1.42 F1800.0
G1 X40.49 Y-36.11 Z1.42 F1800.0
G1 X40.23 Y-36.11 Z1.42 F1800.0
G1 X38.51 Y-35.78 Z1.42 F1800.0
G1 X38.51 Y-39.71 Z1.42 F1800.0
G1 X40.23 Y-40.25 Z1.42 F1800.0
G1 X40.49 Y-40.25 Z1.42 F1800.0
G1 X42.28 Y-37.53 Z1.42 F1800.0
G1 X42.28 Y-41.02 Z1.42 F1800.0
G1 X40.49 Y-40.48 Z1.42 F1800.0
G1 X40.23 Y-40.48 Z1.42 F1800.0
G1 X38.51 Y-40.14 Z1.42 F1800.0
G1 X38.51 Y-40.57 Z1.42 F1800.0
M108 R30.0
M102
G1 X38.51 Y-41.02 Z1.42 F1800.0
M108 R3.569
M103
G1 X41.48 Y-41.36 Z1.42 F3000.0
M108 R30.0
M101
G1 X42.28 Y-41.45 Z1.42 F3000.0
M108 R3.569
G1 X42.28 Y-41.89 Z1.42 F1800.0
G1 X16.67 Y-41.89 Z1.42 F1800.0
M103
G1 X16.67 Y-41.02 Z1.42 F3000.0
M101
G1 X20.44 Y-41.02 Z1.42 F1800.0
G1 X20.0 Y-40.58 Z1.42 F1800.0
G1 X17.1 Y-39.71 Z1.42 F1800.0
G1 X16.67 Y-38.83 Z1.42 F1800.0
G1 X17.1 Y-38.4 Z1.42 F1800.0
G1 X20.0 Y-39.71 Z1.42 F1800.0
G1 X20.0 Y-39.27 Z1.42 F1800.0
G1 X20.44 Y-38.83 Z1.42 F1800.0
G1 X20.0 Y-38.4 Z1.42 F1800.0
G1 X17.1 Y-37.09 Z1.42 F1800.0
G1 X16.67 Y-36.65 Z1.42 F1800.0
G1 X17.1 Y-36.22 Z1.42 F1800.0
G1 X20.0 Y-37.09 Z1.42 F1800.0
G1 X20.44 Y-36.65 Z1.42 F1800.0
G1 X20.0 Y-36.22 Z1.42 F1800.0
G1 X17.1 Y-35.34 Z1.42 F1800.0
G1 X17.1 Y-34.91 Z1.42 F1800.0
G1 X16.67 Y-34.47 Z1.42 F1800.0
G1 X17.1 Y-34.03 Z1.42 F1800.0
G1 X20.0 Y-35.34 Z1.42 F1800.0
G1 X20.44 Y-34.47 Z1.42 F1800.0
G1 X20.0 Y-34.03 Z1.42 F1800.0
G1 X20.44 Y-33.6 Z1.42 F1800.0
G1 X20.0 Y-33.16 Z1.42 F1800.0
G1 X17.1 Y-32.73 Z1.42 F1800.0
G1 X16.67 Y-32.29 Z1.42 F1800.0
G1 X17.1 Y-31.85 Z1.42 F1800.0
G1 X20.0 Y-32.73 Z1.42 F1800.0
G1 X20.44 Y-32.29 Z1.42 F1800.0
G1 X20.0 Y-31.85 Z1.42 F1800.0
G1 X17.1 Y-30.98 Z1.42 F1800.0
G1 X16.67 Y-30.11 Z1.42 F1800.0
G1 X17.1 Y-29.67 Z1.42 F1800.0
G1 X20.0 Y-30.98 Z1.42 F1800.0
G1 X20.44 Y-30.11 Z1.42 F1800.0
G1 X20.0 Y-29.67 Z1.42 F1800.0
G1 X17.1 Y-28.8 Z1.42 F1800.0
G1 X16.67 Y-27.93 Z1.42 F1800.0
G1 X17.1 Y-27.49 Z1.42 F1800.0
G1 X20.0 Y-28.8 Z1.42 F1800.0
G1 X20.0 Y-28.36 Z1.42 F1800.0
G1 X20.44 Y-27.93 Z1.42 F1800.0
G1 X20.0 Y-27.49 Z1.42 F1800.0
G1 X17.1 Y-26.62 Z1.42 F1800.0
G1 X17.1 Y-26.18 Z1.42 F1800.0
G1 X16.67 Y-25.74 Z1.42 F1800.0
G1 X17.1 Y-25.31 Z1.42 F1800.0
G1 X20.0 Y-26.62 Z1.42 F1800.0
G1 X20.44 Y-25.74 Z1.42 F1800.0
G1 X20.0 Y-25.31 Z1.42 F1800.0
G1 X17.1 Y-24.44 Z1.42 F1800.0
G1 X17.1 Y-24.0 Z1.42 F1800.0
G1 X16.67 Y-23.56 Z1.42 F1800.0
G1 X17.1 Y-23.13 Z1.42 F1800.0
G1 X20.0 Y-24.44 Z1.42 F1800.0
G1 X20.44 Y-23.56 Z1.42 F1800.0
G1 X20.0 Y-23.13 Z1.42 F1800.0
G1 X18.67 Y-22.91 Z1.42 F1800.0
G1 X18.42 Y-22.91 Z1.42 F1800.0
G1 X17.1 Y-22.69 Z1.42 F1800.0
G1 X16.67 Y-22.25 Z1.42 F1800.0
G1 X16.98 Y-21.94 Z1.42 F1800.0
G1 X16.67 Y-21.38 Z1.42 F1800.0
G1 X17.1 Y-20.94 Z1.42 F1800.0
G1 X20.0 Y-21.82 Z1.42 F1800.0
G1 X20.44 Y-21.38 Z1.42 F1800.0
G1 X20.0 Y-20.94 Z1.42 F1800.0
G1 X20.44 Y-20.51 Z1.42 F1800.0
G1 X20.0 Y-20.07 Z1.42 F1800.0
G1 X17.1 Y-20.07 Z1.42 F1800.0
G1 X17.1 Y-19.64 Z1.42 F1800.0
G1 X16.67 Y-19.2 Z1.42 F1800.0
G1 X17.1 Y-18.76 Z1.42 F1800.0
G1 X18.67 Y-18.66 Z1.42 F1800.0
G1 X20.01 Y-19.07 Z1.42 F1800.0
M108 R30.0
M102
G1 X20.44 Y-19.2 Z1.42 F1800.0
M108 R3.569
M103
G1 X17.19 Y-15.44 Z1.42 F3000.0
M108 R30.0
M101
G1 X16.67 Y-14.84 Z1.42 F3000.0
M108 R3.569
G1 X20.44 Y-14.84 Z1.42 F1800.0
G1 X20.0 Y-14.4 Z1.42 F1800.0
G1 X17.1 Y-13.96 Z1.42 F1800.0
G1 X16.98 Y-13.22 Z1.42 F1800.0
G1 X16.67 Y-12.65 Z1.42 F1800.0
G1 X17.1 Y-12.22 Z1.42 F1800.0
G1 X20.0 Y-13.53 Z1.42 F1800.0
G1 X20.44 Y-12.65 Z1.42 F1800.0
G1 X20.0 Y-12.22 Z1.42 F1800.0
G1 X17.1 Y-11.35 Z1.42 F1800.0
G1 X16.67 Y-10.47 Z1.42 F1800.0
G1 X17.1 Y-10.04 Z1.42 F1800.0
G1 X20.0 Y-11.35 Z1.42 F1800.0
G1 X20.44 Y-10.47 Z1.42 F1800.0
G1 X20.0 Y-10.04 Z1.42 F1800.0
G1 X17.1 Y-9.16 Z1.42 F1800.0
G1 X17.1 Y-8.73 Z1.42 F1800.0
G1 X16.67 Y-8.29 Z1.42 F1800.0
G1 X17.1 Y-7.85 Z1.42 F1800.0
G1 X20.0 Y-9.16 Z1.42 F1800.0
G1 X20.0 Y-8.73 Z1.42 F1800.0
G1 X20.44 Y-8.29 Z1.42 F1800.0
G1 X20.0 Y-7.85 Z1.42 F1800.0
G1 X17.1 Y-6.98 Z1.42 F1800.0
G1 X17.1 Y-6.55 Z1.42 F1800.0
G1 X16.67 Y-6.11 Z1.42 F1800.0
G1 X17.1 Y-5.67 Z1.42 F1800.0
G1 X20.0 Y-6.98 Z1.42 F1800.0
G1 X20.44 Y-6.11 Z1.42 F1800.0
G1 X20.0 Y-5.67 Z1.42 F1800.0
G1 X18.67 Y-5.34 Z1.42 F1800.0
G1 X17.1 Y-5.24 Z1.42 F1800.0
G1 X16.83 Y-3.96 Z1.42 F1800.0
G1 X16.67 Y-3.93 Z1.42 F1800.0
G1 X17.1 Y-3.49 Z1.42 F1800.0
G1 X20.0 Y-4.8 Z1.42 F1800.0
G1 X20.44 Y-3.93 Z1.42 F1800.0
G1 X20.0 Y-3.05 Z1.42 F1800.0
G1 X17.1 Y-3.05 Z1.42 F1800.0
G1 X16.98 Y-2.31 Z1.42 F1800.0
G1 X16.67 Y-1.75 Z1.42 F1800.0
G1 X17.1 Y-1.31 Z1.42 F1800.0
G1 X20.0 Y-2.18 Z1.42 F1800.0
G1 X20.44 Y-1.75 Z1.42 F1800.0
G1 X20.0 Y-1.31 Z1.42 F1800.0
G1 X17.1 Y-0.44 Z1.42 F1800.0
G1 X17.1 Y-0.0 Z1.42 F1800.0
G1 X16.67 Y0.44 Z1.42 F1800.0
G1 X17.1 Y0.87 Z1.42 F1800.0
G1 X20.0 Y-0.44 Z1.42 F1800.0
G1 X20.0 Y-0.0 Z1.42 F1800.0
G1 X20.44 Y0.44 Z1.42 F1800.0
G1 X20.0 Y0.87 Z1.42 F1800.0
G1 X17.1 Y2.18 Z1.42 F1800.0
G1 X16.67 Y2.62 Z1.42 F1800.0
G1 X17.1 Y3.05 Z1.42 F1800.0
G1 X20.0 Y2.18 Z1.42 F1800.0
G1 X20.44 Y2.62 Z1.42 F1800.0
G1 X20.0 Y3.05 Z1.42 F1800.0
G1 X18.67 Y3.39 Z1.42 F1800.0
G1 X17.1 Y3.49 Z1.42 F1800.0
G1 X16.83 Y4.77 Z1.42 F1800.0
G1 X16.67 Y4.8 Z1.42 F1800.0
G1 X17.1 Y5.24 Z1.42 F1800.0
G1 X20.0 Y3.93 Z1.42 F1800.0
G1 X20.44 Y4.8 Z1.42 F1800.0
G1 X20.0 Y5.24 Z1.42 F1800.0
G1 X17.1 Y6.11 Z1.42 F1800.0
G1 X17.1 Y6.55 Z1.42 F1800.0
G1 X16.67 Y6.98 Z1.42 F1800.0
G1 X20.54 Y6.53 Z1.42 F1800.0
G1 X42.28 Y6.98 Z1.42 F1800.0
G1 X42.28 Y3.93 Z1.42 F1800.0
G1 X40.49 Y3.39 Z1.42 F1800.0
G1 X40.23 Y3.39 Z1.42 F1800.0
G1 X38.51 Y6.11 Z1.42 F1800.0
G1 X38.51 Y2.18 Z1.42 F1800.0
G1 X40.23 Y3.16 Z1.42 F1800.0
G1 X42.28 Y3.49 Z1.42 F1800.0
G1 X42.28 Y-0.44 Z1.42 F1800.0
G1 X40.49 Y-0.98 Z1.42 F1800.0
G1 X40.23 Y-0.98 Z1.42 F1800.0
G1 X38.51 Y1.75 Z1.42 F1800.0
G1 X38.51 Y-2.18 Z1.42 F1800.0
G1 X40.23 Y-1.21 Z1.42 F1800.0
G1 X42.28 Y-0.87 Z1.42 F1800.0
G1 X42.28 Y-4.8 Z1.42 F1800.0
G1 X40.49 Y-5.34 Z1.42 F1800.0
G1 X40.23 Y-5.34 Z1.42 F1800.0
G1 X38.51 Y-2.62 Z1.42 F1800.0
G1 X38.51 Y-6.55 Z1.42 F1800.0
G1 X40.23 Y-5.57 Z1.42 F1800.0
G1 X42.28 Y-5.24 Z1.42 F1800.0
G1 X42.28 Y-9.16 Z1.42 F1800.0
G1 X40.49 Y-9.7 Z1.42 F1800.0
G1 X40.23 Y-9.7 Z1.42 F1800.0
G1 X38.51 Y-6.98 Z1.42 F1800.0
G1 X38.51 Y-10.91 Z1.42 F1800.0
G1 X40.23 Y-9.93 Z1.42 F1800.0
G1 X42.28 Y-9.6 Z1.42 F1800.0
G1 X42.28 Y-13.53 Z1.42 F1800.0
G1 X40.49 Y-14.07 Z1.42 F1800.0
G1 X40.23 Y-14.07 Z1.42 F1800.0
G1 X38.51 Y-11.35 Z1.42 F1800.0
G1 X38.51 Y-15.27 Z1.42 F1800.0
G1 X40.23 Y-14.3 Z1.42 F1800.0
G1 X42.28 Y-13.96 Z1.42 F1800.0
G1 X42.28 Y-17.45 Z1.42 F1800.0
G1 X40.49 Y-18.43 Z1.42 F1800.0
G1 X40.23 Y-18.43 Z1.42 F1800.0
G1 X38.51 Y-15.71 Z1.42 F1800.0
G1 X38.31 Y-16.36 Z1.42 F1800.0
G1 X38.05 Y-16.36 Z1.42 F1800.0
G1 X36.13 Y-18.54 Z1.42 F1800.0
G1 X35.87 Y-18.54 Z1.42 F1800.0
G1 X33.94 Y-16.36 Z1.42 F1800.0
G1 X33.69 Y-16.36 Z1.42 F1800.0
G1 X31.76 Y-18.54 Z1.42 F1800.0
G1 X31.51 Y-18.54 Z1.42 F1800.0
G1 X29.58 Y-16.36 Z1.42 F1800.0
G1 X29.33 Y-16.36 Z1.42 F1800.0
G1 X27.4 Y-18.54 Z1.42 F1800.0
G1 X27.14 Y-18.54 Z1.42 F1800.0
G1 X25.22 Y-16.36 Z1.42 F1800.0
G1 X24.96 Y-16.36 Z1.42 F1800.0
G1 X23.04 Y-18.54 Z1.42 F1800.0
G1 X22.78 Y-18.54 Z1.42 F1800.0
G1 X20.85 Y-16.36 Z1.42 F1800.0
G1 X20.6 Y-16.36 Z1.42 F1800.0
G1 X20.44 Y-15.71 Z1.42 F1800.0
G1 X20.0 Y-15.27 Z1.42 F1800.0
G1 X18.67 Y-18.43 Z1.42 F1800.0
G1 X16.67 Y-18.33 Z1.42 F1800.0
G1 X17.1 Y-17.89 Z1.42 F1800.0
G1 X17.1 Y-17.45 Z1.42 F1800.0
G1 X16.99 Y-17.34 Z1.42 F1800.0
M108 R30.0
M102
G1 X16.67 Y-17.02 Z1.42 F1800.0
M108 R3.569
M103
(</surroundingLoop>)
(</layer>)
(<layer> 1.74 )
(<surroundingLoop>)
(<boundaryPerimeter>)
(<boundaryPoint> X15.822 Y7.894 Z1.74 </boundaryPoint>)
(<boundaryPoint> X15.822 Y-42.786 Z1.74 </boundaryPoint>)
(<boundaryPoint> X43.122 Y-42.786 Z1.74 </boundaryPoint>)
(<boundaryPoint> X43.122 Y7.894 Z1.74 </boundaryPoint>)
(<loop> inner )
G1 X20.03 Y-19.27 Z1.69 F3000.0
M108 R30.0
M101
G1 X20.69 Y-19.71 Z1.74 F3000.0
M108 R3.569
G1 X20.69 Y-19.39 Z1.74 F1800.0
G1 X38.25 Y-19.39 Z1.74 F1800.0
G1 X38.25 Y-40.84 Z1.74 F1800.0
G1 X20.69 Y-40.84 Z1.74 F1800.0
G1 X20.69 Y-20.16 Z1.74 F1800.0
M108 R30.0
M102
G1 X20.69 Y-19.71 Z1.74 F1800.0
M108 R3.569
M103
(</loop>)
(<loop> inner )
G1 X20.69 Y-16.3 Z1.74 F3000.0
M108 R30.0
M101
G1 X20.69 Y-15.5 Z1.74 F3000.0
M108 R3.569
G1 X20.69 Y5.95 Z1.74 F1800.0
G1 X38.25 Y5.95 Z1.74 F1800.0
G1 X38.25 Y-15.5 Z1.74 F1800.0
G1 X21.14 Y-15.5 Z1.74 F1800.0
M108 R30.0
M102
G1 X20.69 Y-15.5 Z1.74 F1800.0
M108 R3.569
M103
(</loop>)
(<loop> outer )
G1 X17.21 Y-15.5 Z1.74 F3000.0
M108 R30.0
M101
G1 X16.41 Y-15.5 Z1.74 F3000.0
M108 R3.569
G1 X16.41 Y-42.2 Z1.74 F1800.0
G1 X42.53 Y-42.2 Z1.74 F1800.0
G1 X42.53 Y7.31 Z1.74 F1800.0
G1 X16.41 Y7.31 Z1.74 F1800.0
G1 X16.41 Y-15.5 Z1.74 F1800.0
M103
(</loop>)
(<perimeter> outer )
G1 X16.02 Y-15.5 Z1.74 F3000.0
M101
G1 X16.02 Y-42.59 Z1.74 F1800.0
G1 X42.93 Y-42.59 Z1.74 F1800.0
G1 X42.93 Y7.7 Z1.74 F1800.0
G1 X16.02 Y7.7 Z1.74 F1800.0
G1 X16.02 Y-15.05 Z1.74 F1800.0
M108 R30.0
M102
G1 X16.02 Y-15.5 Z1.74 F1800.0
M108 R3.569
M103
(</perimeter>)
(</boundaryPerimeter>)
(<surroundingLoop>)
(<boundaryPerimeter>)
(<boundaryPoint> X37.662 Y5.36 Z1.74 </boundaryPoint>)
(<boundaryPoint> X37.662 Y-14.912 Z1.74 </boundaryPoint>)
(<boundaryPoint> X21.282 Y-14.912 Z1.74 </boundaryPoint>)
(<boundaryPoint> X21.282 Y5.36 Z1.74 </boundaryPoint>)
(<perimeter> inner )
G1 X20.29 Y-15.17 Z1.74 F3000.0
M108 R30.0
M101
G1 X21.09 Y-15.11 Z1.74 F3000.0
M108 R3.569
G1 X21.09 Y5.56 Z1.74 F1800.0
G1 X37.86 Y5.56 Z1.74 F1800.0
G1 X37.86 Y-15.11 Z1.74 F1800.0
G1 X21.54 Y-15.11 Z1.74 F1800.0
M108 R30.0
M102
G1 X21.09 Y-15.11 Z1.74 F1800.0
M108 R3.569
M103
(</perimeter>)
(</boundaryPerimeter>)
(</surroundingLoop>)
(<surroundingLoop>)
(<boundaryPerimeter>)
(<boundaryPoint> X37.662 Y-19.98 Z1.74 </boundaryPoint>)
(<boundaryPoint> X37.662 Y-40.252 Z1.74 </boundaryPoint>)
(<boundaryPoint> X21.282 Y-40.252 Z1.74 </boundaryPoint>)
(<boundaryPoint> X21.282 Y-19.98 Z1.74 </boundaryPoint>)
(<perimeter> inner )
G1 X21.09 Y-18.98 Z1.74 F3000.0
M108 R30.0
M101
G1 X21.09 Y-19.78 Z1.74 F3000.0
M108 R3.569
G1 X37.86 Y-19.78 Z1.74 F1800.0
G1 X37.86 Y-40.45 Z1.74 F1800.0
G1 X21.09 Y-40.45 Z1.74 F1800.0
G1 X21.09 Y-20.23 Z1.74 F1800.0
M108 R30.0
M102
G1 X21.09 Y-19.78 Z1.74 F1800.0
M108 R3.569
M103
(</perimeter>)
(</boundaryPerimeter>)
(</surroundingLoop>)
G1 X21.55 Y-19.52 Z1.74 F3000.0
M108 R30.0
M101
G1 X22.25 Y-19.14 Z1.74 F3000.0
M108 R3.569
G1 X20.51 Y-19.14 Z1.74 F1800.0
G1 X20.73 Y-16.24 Z1.74 F1800.0
G1 X20.51 Y-15.76 Z1.74 F1800.0
G1 X24.44 Y-15.76 Z1.74 F1800.0
G1 X22.91 Y-18.42 Z1.74 F1800.0
G1 X22.91 Y-18.67 Z1.74 F1800.0
G1 X22.69 Y-19.14 Z1.74 F1800.0
G1 X26.62 Y-19.14 Z1.74 F1800.0
G1 X25.09 Y-16.49 Z1.74 F1800.0
G1 X25.09 Y-16.24 Z1.74 F1800.0
G1 X24.87 Y-15.76 Z1.74 F1800.0
G1 X28.8 Y-15.76 Z1.74 F1800.0
G1 X27.27 Y-18.42 Z1.74 F1800.0
G1 X27.27 Y-18.67 Z1.74 F1800.0
G1 X27.05 Y-19.14 Z1.74 F1800.0
G1 X30.98 Y-19.14 Z1.74 F1800.0
G1 X29.45 Y-16.49 Z1.74 F1800.0
G1 X29.45 Y-16.24 Z1.74 F1800.0
G1 X29.23 Y-15.76 Z1.74 F1800.0
G1 X33.16 Y-15.76 Z1.74 F1800.0
G1 X31.63 Y-18.42 Z1.74 F1800.0
G1 X31.63 Y-18.67 Z1.74 F1800.0
G1 X31.42 Y-19.14 Z1.74 F1800.0
G1 X35.34 Y-19.14 Z1.74 F1800.0
G1 X33.82 Y-16.49 Z1.74 F1800.0
G1 X33.82 Y-16.24 Z1.74 F1800.0
G1 X33.6 Y-15.76 Z1.74 F1800.0
G1 X37.09 Y-15.76 Z1.74 F1800.0
G1 X36.0 Y-18.42 Z1.74 F1800.0
G1 X36.0 Y-18.67 Z1.74 F1800.0
G1 X35.78 Y-19.14 Z1.74 F1800.0
G1 X38.4 Y-19.14 Z1.74 F1800.0
G1 X38.06 Y-16.24 Z1.74 F1800.0
G1 X38.4 Y-15.76 Z1.74 F1800.0
G1 X37.98 Y-15.76 Z1.74 F1800.0
M108 R30.0
M102
G1 X37.53 Y-15.76 Z1.74 F1800.0
M108 R3.569
M103
G1 X37.49 Y-15.19 Z1.74 F3000.0
G1 X37.8 Y-15.05 Z1.74 F3000.0
G1 X37.8 Y5.5 Z1.74 F3000.0
G1 X36.91 Y5.61 Z1.74 F3000.0
M108 R30.0
M101
G1 X36.69 Y5.64 Z1.74 F3000.0
G1 X36.65 Y6.21 Z1.74 F3000.0
M108 R3.569
G1 X38.4 Y6.21 Z1.74 F1800.0
G1 X39.27 Y7.05 Z1.74 F1800.0
G1 X35.34 Y7.05 Z1.74 F1800.0
G1 X36.22 Y6.21 Z1.74 F1800.0
G1 X33.6 Y6.21 Z1.74 F1800.0
G1 X34.47 Y7.05 Z1.74 F1800.0
G1 X33.16 Y7.05 Z1.74 F1800.0
G1 X33.16 Y6.21 Z1.74 F1800.0
G1 X32.29 Y6.21 Z1.74 F1800.0
G1 X32.73 Y7.05 Z1.74 F1800.0
G1 X30.98 Y7.05 Z1.74 F1800.0
G1 X31.85 Y6.21 Z1.74 F1800.0
G1 X29.23 Y6.21 Z1.74 F1800.0
G1 X30.11 Y7.05 Z1.74 F1800.0
G1 X28.8 Y7.05 Z1.74 F1800.0
G1 X28.8 Y6.21 Z1.74 F1800.0
G1 X27.93 Y6.21 Z1.74 F1800.0
G1 X28.36 Y7.05 Z1.74 F1800.0
G1 X26.62 Y7.05 Z1.74 F1800.0
G1 X27.49 Y6.21 Z1.74 F1800.0
G1 X26.18 Y6.21 Z1.74 F1800.0
G1 X26.18 Y7.05 Z1.74 F1800.0
G1 X25.74 Y7.05 Z1.74 F1800.0
G1 X25.74 Y6.21 Z1.74 F1800.0
G1 X24.44 Y6.21 Z1.74 F1800.0
G1 X25.31 Y7.05 Z1.74 F1800.0
G1 X22.69 Y7.05 Z1.74 F1800.0
G1 X23.56 Y6.21 Z1.74 F1800.0
G1 X20.51 Y6.21 Z1.74 F1800.0
G1 X20.51 Y7.05 Z1.74 F1800.0
G1 X21.8 Y7.05 Z1.74 F1800.0
M108 R30.0
M102
G1 X22.25 Y7.05 Z1.74 F1800.0
M108 R3.569
M103
G1 X22.5 Y5.64 Z1.74 F3000.0
G1 X21.14 Y5.5 Z1.74 F3000.0
G1 X21.14 Y-15.05 Z1.74 F3000.0
G1 X25.44 Y-15.19 Z1.74 F3000.0
G1 X26.17 Y-19.7 Z1.74 F3000.0
G1 X21.14 Y-19.84 Z1.74 F3000.0
G1 X21.14 Y-40.39 Z1.74 F3000.0
G1 X28.89 Y-40.52 Z1.74 F3000.0
M108 R30.0
M101
G1 X29.11 Y-40.53 Z1.74 F3000.0
G1 X29.23 Y-41.1 Z1.74 F3000.0
M108 R3.569
G1 X29.67 Y-41.51 Z1.74 F1800.0
G1 X29.23 Y-41.94 Z1.74 F1800.0
G1 X28.36 Y-41.1 Z1.74 F1800.0
G1 X27.93 Y-41.53 Z1.74 F1800.0
G1 X27.93 Y-41.94 Z1.74 F1800.0
G1 X27.05 Y-41.1 Z1.74 F1800.0
G1 X27.05 Y-41.94 Z1.74 F1800.0
G1 X26.62 Y-41.53 Z1.74 F1800.0
G1 X26.18 Y-41.94 Z1.74 F1800.0
G1 X25.74 Y-41.51 Z1.74 F1800.0
G1 X25.85 Y-41.4 Z1.74 F1800.0
M108 R30.0
M102
G1 X26.18 Y-41.1 Z1.74 F1800.0
M108 R3.569
M103
G1 X25.54 Y-41.51 Z1.74 F3000.0
M108 R30.0
M101
G1 X24.87 Y-41.94 Z1.74 F3000.0
M108 R3.569
G1 X25.31 Y-41.53 Z1.74 F1800.0
G1 X24.87 Y-41.1 Z1.74 F1800.0
G1 X23.87 Y-41.41 Z1.74 F1800.0
G1 X24.0 Y-41.51 Z1.74 F1800.0
G1 X23.56 Y-41.94 Z1.74 F1800.0
G1 X23.18 Y-41.73 Z1.74 F1800.0
G1 X22.69 Y-41.94 Z1.74 F1800.0
G1 X22.69 Y-41.1 Z1.74 F1800.0
G1 X22.25 Y-41.53 Z1.74 F1800.0
G1 X21.82 Y-41.53 Z1.74 F1800.0
G1 X21.38 Y-41.94 Z1.74 F1800.0
G1 X21.38 Y-41.1 Z1.74 F1800.0
G1 X20.51 Y-41.94 Z1.74 F1800.0
G1 X20.51 Y-41.1 Z1.74 F1800.0
G1 X19.64 Y-41.51 Z1.74 F1800.0
G1 X19.2 Y-41.94 Z1.74 F1800.0
G1 X18.76 Y-41.51 Z1.74 F1800.0
G1 X18.33 Y-41.94 Z1.74 F1800.0
G1 X17.89 Y-41.51 Z1.74 F1800.0
G1 X18.54 Y-40.49 Z1.74 F1800.0
G1 X18.54 Y3.4 Z1.74 F1800.0
G1 X20.07 Y7.05 Z1.74 F1800.0
G1 X17.02 Y7.05 Z1.74 F1800.0
G1 X17.02 Y-41.49 Z1.74 F1800.0
M108 R30.0
M102
G1 X17.02 Y-41.94 Z1.74 F1800.0
M108 R3.569
M103
G1 X34.98 Y-41.94 Z1.74 F3000.0
M108 R30.0
M101
G1 X35.78 Y-41.94 Z1.74 F3000.0
M108 R3.569
G1 X36.22 Y-41.53 Z1.74 F1800.0
G1 X35.78 Y-41.1 Z1.74 F1800.0
G1 X34.77 Y-41.41 Z1.74 F1800.0
G1 X34.47 Y-41.94 Z1.74 F1800.0
G1 X34.09 Y-41.73 Z1.74 F1800.0
G1 X33.6 Y-41.94 Z1.74 F1800.0
G1 X33.6 Y-41.1 Z1.74 F1800.0
G1 X33.16 Y-41.53 Z1.74 F1800.0
G1 X32.73 Y-41.53 Z1.74 F1800.0
G1 X32.29 Y-41.94 Z1.74 F1800.0
G1 X32.29 Y-41.1 Z1.74 F1800.0
G1 X31.42 Y-41.94 Z1.74 F1800.0
G1 X30.98 Y-41.51 Z1.74 F1800.0
G1 X31.09 Y-41.4 Z1.74 F1800.0
M108 R30.0
M102
G1 X31.42 Y-41.1 Z1.74 F1800.0
M108 R3.569
M103
G1 X41.09 Y-41.88 Z1.74 F3000.0
M108 R30.0
M101
G1 X41.89 Y-41.94 Z1.74 F3000.0
M108 R3.569
G1 X41.45 Y-41.51 Z1.74 F1800.0
G1 X41.02 Y-41.51 Z1.74 F1800.0
G1 X40.48 Y-40.49 Z1.74 F1800.0
G1 X40.48 Y3.4 Z1.74 F1800.0
G1 X41.89 Y7.05 Z1.74 F1800.0
G1 X39.71 Y7.05 Z1.74 F1800.0
G1 X40.25 Y3.4 Z1.74 F1800.0
G1 X40.25 Y-14.31 Z1.74 F1800.0
G1 X38.29 Y-16.24 Z1.74 F1800.0
G1 X38.29 Y-16.49 Z1.74 F1800.0
G1 X40.25 Y-18.42 Z1.74 F1800.0
G1 X40.25 Y-40.49 Z1.74 F1800.0
G1 X40.58 Y-41.51 Z1.74 F1800.0
G1 X40.14 Y-41.94 Z1.74 F1800.0
G1 X40.13 Y-41.86 Z1.74 F1800.0
G1 X39.14 Y-41.63 Z1.74 F1800.0
G1 X38.4 Y-41.94 Z1.74 F1800.0
G1 X38.4 Y-41.53 Z1.74 F1800.0
G1 X37.96 Y-41.1 Z1.74 F1800.0
G1 X37.96 Y-41.94 Z1.74 F1800.0
G1 X37.53 Y-41.53 Z1.74 F1800.0
G1 X37.09 Y-41.94 Z1.74 F1800.0
G1 X36.65 Y-41.51 Z1.74 F1800.0
G1 X37.09 Y-41.1 Z1.74 F1800.0
M103
(</surroundingLoop>)
(</layer>)
(<layer> 2.06 )
(<surroundingLoop>)
(<boundaryPerimeter>)
(<boundaryPoint> X15.822 Y7.894 Z2.06 </boundaryPoint>)
(<boundaryPoint> X15.822 Y-42.786 Z2.06 </boundaryPoint>)
(<boundaryPoint> X43.122 Y-42.786 Z2.06 </boundaryPoint>)
(<boundaryPoint> X43.122 Y7.894 Z2.06 </boundaryPoint>)
(<loop> inner )
G1 X36.92 Y-40.84 Z2.06 F3000.0
M101
G1 X20.69 Y-40.84 Z2.06 F1800.0
G1 X20.69 Y-19.39 Z2.06 F1800.0
G1 X38.25 Y-19.39 Z2.06 F1800.0
G1 X38.25 Y-40.84 Z2.06 F1800.0
G1 X37.37 Y-40.84 Z2.06 F1800.0
M108 R30.0
M102
G1 X37.09 Y-40.84 Z2.06 F1800.0
G1 X36.92 Y-40.84 Z2.06 F1800.0
M108 R3.569
M103
(</loop>)
(<loop> inner )
G1 X36.93 Y-40.53 Z2.06 F3000.0
G1 X37.8 Y-40.39 Z2.06 F3000.0
G1 X37.8 Y-19.84 Z2.06 F3000.0
G1 X37.06 Y-19.7 Z2.06 F3000.0
G1 X37.08 Y-16.3 Z2.06 F3000.0
M108 R30.0
M101
G1 X37.09 Y-15.5 Z2.06 F3000.0
M108 R3.569
G1 X20.69 Y-15.5 Z2.06 F1800.0
G1 X20.69 Y5.95 Z2.06 F1800.0
G1 X38.25 Y5.95 Z2.06 F1800.0
G1 X38.25 Y-15.5 Z2.06 F1800.0
G1 X37.54 Y-15.5 Z2.06 F1800.0
M108 R30.0
M102
G1 X37.09 Y-15.5 Z2.06 F1800.0
M108 R3.569
M103
(</loop>)
(<loop> outer )
G1 X41.73 Y-15.5 Z2.06 F3000.0
M108 R30.0
M101
G1 X42.53 Y-15.5 Z2.06 F3000.0
M108 R3.569
G1 X42.53 Y7.31 Z2.06 F1800.0
G1 X16.41 Y7.31 Z2.06 F1800.0
G1 X16.41 Y-42.2 Z2.06 F1800.0
G1 X42.53 Y-42.2 Z2.06 F1800.0
G1 X42.53 Y-15.5 Z2.06 F1800.0
M103
(</loop>)
(<perimeter> outer )
G1 X42.93 Y-15.5 Z2.06 F3000.0
M101
G1 X42.93 Y7.7 Z2.06 F1800.0
G1 X16.02 Y7.7 Z2.06 F1800.0
G1 X16.02 Y-42.59 Z2.06 F1800.0
G1 X42.93 Y-42.59 Z2.06 F1800.0
G1 X42.93 Y-15.95 Z2.06 F1800.0
M108 R30.0
M102
G1 X42.93 Y-15.5 Z2.06 F1800.0
M108 R3.569
M103
(</perimeter>)
(</boundaryPerimeter>)
(<surroundingLoop>)
(<boundaryPerimeter>)
(<boundaryPoint> X37.662 Y5.36 Z2.06 </boundaryPoint>)
(<boundaryPoint> X37.662 Y-14.912 Z2.06 </boundaryPoint>)
(<boundaryPoint> X21.282 Y-14.912 Z2.06 </boundaryPoint>)
(<boundaryPoint> X21.282 Y5.36 Z2.06 </boundaryPoint>)
(<perimeter> inner )
G1 X38.66 Y-15.17 Z2.06 F3000.0
M108 R30.0
M101
G1 X37.86 Y-15.11 Z2.06 F3000.0
M108 R3.569
G1 X21.09 Y-15.11 Z2.06 F1800.0
G1 X21.09 Y5.56 Z2.06 F1800.0
G1 X37.86 Y5.56 Z2.06 F1800.0
G1 X37.86 Y-14.66 Z2.06 F1800.0
M108 R30.0
M102
G1 X37.86 Y-15.11 Z2.06 F1800.0
M108 R3.569
M103
(</perimeter>)
(</boundaryPerimeter>)
(</surroundingLoop>)
(<surroundingLoop>)
(<boundaryPerimeter>)
(<boundaryPoint> X37.662 Y-19.98 Z2.06 </boundaryPoint>)
(<boundaryPoint> X37.662 Y-40.252 Z2.06 </boundaryPoint>)
(<boundaryPoint> X21.282 Y-40.252 Z2.06 </boundaryPoint>)
(<boundaryPoint> X21.282 Y-19.98 Z2.06 </boundaryPoint>)
(<perimeter> inner )
G1 X37.86 Y-18.98 Z2.06 F3000.0
M108 R30.0
M101
G1 X37.86 Y-19.78 Z2.06 F3000.0
M108 R3.569
G1 X37.86 Y-40.45 Z2.06 F1800.0
G1 X21.09 Y-40.45 Z2.06 F1800.0
G1 X21.09 Y-19.78 Z2.06 F1800.0
G1 X37.41 Y-19.78 Z2.06 F1800.0
M108 R30.0
M102
G1 X37.86 Y-19.78 Z2.06 F1800.0
M108 R3.569
M103
(</perimeter>)
(</boundaryPerimeter>)
(</surroundingLoop>)
G1 X41.48 Y-19.66 Z2.06 F3000.0
M108 R30.0
M101
G1 X42.28 Y-19.64 Z2.06 F3000.0
M108 R3.569
G1 X42.28 Y-17.89 Z2.06 F1800.0
G1 X40.49 Y-18.66 Z2.06 F1800.0
G1 X40.23 Y-18.66 Z2.06 F1800.0
G1 X38.51 Y-19.2 Z2.06 F1800.0
G1 X38.51 Y-22.25 Z2.06 F1800.0
G1 X40.23 Y-22.79 Z2.06 F1800.0
G1 X40.49 Y-22.79 Z2.06 F1800.0
G1 X42.28 Y-20.07 Z2.06 F1800.0
G1 X42.28 Y-24.0 Z2.06 F1800.0
G1 X40.49 Y-23.02 Z2.06 F1800.0
G1 X40.23 Y-23.02 Z2.06 F1800.0
G1 X38.51 Y-22.69 Z2.06 F1800.0
G1 X38.51 Y-26.62 Z2.06 F1800.0
G1 X40.23 Y-27.16 Z2.06 F1800.0
G1 X40.49 Y-27.16 Z2.06 F1800.0
G1 X42.28 Y-24.44 Z2.06 F1800.0
G1 X42.28 Y-28.36 Z2.06 F1800.0
G1 X40.49 Y-27.39 Z2.06 F1800.0
G1 X40.23 Y-27.39 Z2.06 F1800.0
G1 X38.51 Y-27.05 Z2.06 F1800.0
G1 X38.51 Y-30.98 Z2.06 F1800.0
G1 X40.23 Y-31.52 Z2.06 F1800.0
G1 X40.49 Y-31.52 Z2.06 F1800.0
G1 X42.28 Y-28.8 Z2.06 F1800.0
G1 X42.28 Y-32.73 Z2.06 F1800.0
G1 X40.49 Y-31.75 Z2.06 F1800.0
G1 X40.23 Y-31.75 Z2.06 F1800.0
G1 X38.51 Y-31.42 Z2.06 F1800.0
G1 X38.51 Y-35.34 Z2.06 F1800.0
G1 X40.23 Y-35.88 Z2.06 F1800.0
G1 X40.49 Y-35.88 Z2.06 F1800.0
G1 X42.28 Y-33.16 Z2.06 F1800.0
G1 X42.28 Y-37.09 Z2.06 F1800.0
G1 X40.49 Y-36.11 Z2.06 F1800.0
G1 X40.23 Y-36.11 Z2.06 F1800.0
G1 X38.51 Y-35.78 Z2.06 F1800.0
G1 X38.51 Y-39.71 Z2.06 F1800.0
G1 X40.23 Y-40.25 Z2.06 F1800.0
G1 X40.49 Y-40.25 Z2.06 F1800.0
G1 X42.28 Y-37.53 Z2.06 F1800.0
G1 X42.28 Y-41.02 Z2.06 F1800.0
G1 X40.49 Y-40.48 Z2.06 F1800.0
G1 X40.23 Y-40.48 Z2.06 F1800.0
G1 X38.51 Y-40.14 Z2.06 F1800.0
G1 X38.51 Y-40.57 Z2.06 F1800.0
M108 R30.0
M102
G1 X38.51 Y-41.02 Z2.06 F1800.0
M108 R3.569
M103
G1 X41.48 Y-41.36 Z2.06 F3000.0
M108 R30.0
M101
G1 X42.28 Y-41.45 Z2.06 F3000.0
M108 R3.569
G1 X42.28 Y-41.89 Z2.06 F1800.0
G1 X16.67 Y-41.89 Z2.06 F1800.0
M103
G1 X16.67 Y-41.02 Z2.06 F3000.0
M101
G1 X20.44 Y-41.02 Z2.06 F1800.0
G1 X20.0 Y-40.58 Z2.06 F1800.0
G1 X17.1 Y-39.71 Z2.06 F1800.0
G1 X16.67 Y-38.83 Z2.06 F1800.0
G1 X17.1 Y-38.4 Z2.06 F1800.0
G1 X20.0 Y-39.71 Z2.06 F1800.0
G1 X20.0 Y-39.27 Z2.06 F1800.0
G1 X20.44 Y-38.83 Z2.06 F1800.0
G1 X20.0 Y-38.4 Z2.06 F1800.0
G1 X17.1 Y-37.09 Z2.06 F1800.0
G1 X16.67 Y-36.65 Z2.06 F1800.0
G1 X17.1 Y-36.22 Z2.06 F1800.0
G1 X20.0 Y-37.09 Z2.06 F1800.0
G1 X20.44 Y-36.65 Z2.06 F1800.0
G1 X20.0 Y-36.22 Z2.06 F1800.0
G1 X17.1 Y-35.34 Z2.06 F1800.0
G1 X17.1 Y-34.91 Z2.06 F1800.0
G1 X16.67 Y-34.47 Z2.06 F1800.0
G1 X17.1 Y-34.03 Z2.06 F1800.0
G1 X20.0 Y-35.34 Z2.06 F1800.0
G1 X20.44 Y-34.47 Z2.06 F1800.0
G1 X20.0 Y-34.03 Z2.06 F1800.0
G1 X20.44 Y-33.6 Z2.06 F1800.0
G1 X20.0 Y-33.16 Z2.06 F1800.0
G1 X17.1 Y-32.73 Z2.06 F1800.0
G1 X16.67 Y-32.29 Z2.06 F1800.0
G1 X17.1 Y-31.85 Z2.06 F1800.0
G1 X20.0 Y-32.73 Z2.06 F1800.0
G1 X20.44 Y-32.29 Z2.06 F1800.0
G1 X20.0 Y-31.85 Z2.06 F1800.0
G1 X17.1 Y-30.98 Z2.06 F1800.0
G1 X16.67 Y-30.11 Z2.06 F1800.0
G1 X17.1 Y-29.67 Z2.06 F1800.0
G1 X20.0 Y-30.98 Z2.06 F1800.0
G1 X20.44 Y-30.11 Z2.06 F1800.0
G1 X20.0 Y-29.67 Z2.06 F1800.0
G1 X17.1 Y-28.8 Z2.06 F1800.0
G1 X16.67 Y-27.93 Z2.06 F1800.0
G1 X17.1 Y-27.49 Z2.06 F1800.0
G1 X20.0 Y-28.8 Z2.06 F1800.0
G1 X20.0 Y-28.36 Z2.06 F1800.0
G1 X20.44 Y-27.93 Z2.06 F1800.0
G1 X20.0 Y-27.49 Z2.06 F1800.0
G1 X17.1 Y-26.62 Z2.06 F1800.0
G1 X17.1 Y-26.18 Z2.06 F1800.0
G1 X16.67 Y-25.74 Z2.06 F1800.0
G1 X17.1 Y-25.31 Z2.06 F1800.0
G1 X20.0 Y-26.62 Z2.06 F1800.0
G1 X20.44 Y-25.74 Z2.06 F1800.0
G1 X20.0 Y-25.31 Z2.06 F1800.0
G1 X17.1 Y-24.44 Z2.06 F1800.0
G1 X17.1 Y-24.0 Z2.06 F1800.0
G1 X16.67 Y-23.56 Z2.06 F1800.0
G1 X17.1 Y-23.13 Z2.06 F1800.0
G1 X20.0 Y-24.44 Z2.06 F1800.0
G1 X20.44 Y-23.56 Z2.06 F1800.0
G1 X20.0 Y-23.13 Z2.06 F1800.0
G1 X18.67 Y-22.91 Z2.06 F1800.0
G1 X18.42 Y-22.91 Z2.06 F1800.0
G1 X17.1 Y-22.69 Z2.06 F1800.0
G1 X16.67 Y-22.25 Z2.06 F1800.0
G1 X16.98 Y-21.94 Z2.06 F1800.0
G1 X16.67 Y-21.38 Z2.06 F1800.0
G1 X17.1 Y-20.94 Z2.06 F1800.0
G1 X20.0 Y-21.82 Z2.06 F1800.0
G1 X20.44 Y-21.38 Z2.06 F1800.0
G1 X20.0 Y-20.94 Z2.06 F1800.0
G1 X20.44 Y-20.51 Z2.06 F1800.0
G1 X20.0 Y-20.07 Z2.06 F1800.0
G1 X17.1 Y-20.07 Z2.06 F1800.0
G1 X17.1 Y-19.64 Z2.06 F1800.0
G1 X16.67 Y-19.2 Z2.06 F1800.0
G1 X17.1 Y-18.76 Z2.06 F1800.0
G1 X18.67 Y-18.66 Z2.06 F1800.0
G1 X20.01 Y-19.07 Z2.06 F1800.0
M108 R30.0
M102
G1 X20.44 Y-19.2 Z2.06 F1800.0
M108 R3.569
M103
G1 X17.19 Y-15.44 Z2.06 F3000.0
M108 R30.0
M101
G1 X16.67 Y-14.84 Z2.06 F3000.0
M108 R3.569
G1 X20.44 Y-14.84 Z2.06 F1800.0
G1 X20.0 Y-14.4 Z2.06 F1800.0
G1 X17.1 Y-13.96 Z2.06 F1800.0
G1 X16.98 Y-13.22 Z2.06 F1800.0
G1 X16.67 Y-12.65 Z2.06 F1800.0
G1 X17.1 Y-12.22 Z2.06 F1800.0
G1 X20.0 Y-13.53 Z2.06 F1800.0
G1 X20.44 Y-12.65 Z2.06 F1800.0
G1 X20.0 Y-12.22 Z2.06 F1800.0
G1 X17.1 Y-11.35 Z2.06 F1800.0
G1 X16.67 Y-10.47 Z2.06 F1800.0
G1 X17.1 Y-10.04 Z2.06 F1800.0
G1 X20.0 Y-11.35 Z2.06 F1800.0
G1 X20.44 Y-10.47 Z2.06 F1800.0
G1 X20.0 Y-10.04 Z2.06 F1800.0
G1 X17.1 Y-9.16 Z2.06 F1800.0
G1 X17.1 Y-8.73 Z2.06 F1800.0
G1 X16.67 Y-8.29 Z2.06 F1800.0
G1 X17.1 Y-7.85 Z2.06 F1800.0
G1 X20.0 Y-9.16 Z2.06 F1800.0
G1 X20.0 Y-8.73 Z2.06 F1800.0
G1 X20.44 Y-8.29 Z2.06 F1800.0
G1 X20.0 Y-7.85 Z2.06 F1800.0
G1 X17.1 Y-6.98 Z2.06 F1800.0
G1 X17.1 Y-6.55 Z2.06 F1800.0
G1 X16.67 Y-6.11 Z2.06 F1800.0
G1 X17.1 Y-5.67 Z2.06 F1800.0
G1 X20.0 Y-6.98 Z2.06 F1800.0
G1 X20.44 Y-6.11 Z2.06 F1800.0
G1 X20.0 Y-5.67 Z2.06 F1800.0
G1 X18.67 Y-5.34 Z2.06 F1800.0
G1 X17.1 Y-5.24 Z2.06 F1800.0
G1 X16.83 Y-3.96 Z2.06 F1800.0
G1 X16.67 Y-3.93 Z2.06 F1800.0
G1 X17.1 Y-3.49 Z2.06 F1800.0
G1 X20.0 Y-4.8 Z2.06 F1800.0
G1 X20.44 Y-3.93 Z2.06 F1800.0
G1 X20.0 Y-3.05 Z2.06 F1800.0
G1 X17.1 Y-3.05 Z2.06 F1800.0
G1 X16.98 Y-2.31 Z2.06 F1800.0
G1 X16.67 Y-1.75 Z2.06 F1800.0
G1 X17.1 Y-1.31 Z2.06 F1800.0
G1 X20.0 Y-2.18 Z2.06 F1800.0
G1 X20.44 Y-1.75 Z2.06 F1800.0
G1 X20.0 Y-1.31 Z2.06 F1800.0
G1 X17.1 Y-0.44 Z2.06 F1800.0
G1 X17.1 Y-0.0 Z2.06 F1800.0
G1 X16.67 Y0.44 Z2.06 F1800.0
G1 X17.1 Y0.87 Z2.06 F1800.0
G1 X20.0 Y-0.44 Z2.06 F1800.0
G1 X20.0 Y-0.0 Z2.06 F1800.0
G1 X20.44 Y0.44 Z2.06 F1800.0
G1 X20.0 Y0.87 Z2.06 F1800.0
G1 X17.1 Y2.18 Z2.06 F1800.0
G1 X16.67 Y2.62 Z2.06 F1800.0
G1 X17.1 Y3.05 Z2.06 F1800.0
G1 X20.0 Y2.18 Z2.06 F1800.0
G1 X20.44 Y2.62 Z2.06 F1800.0
G1 X20.0 Y3.05 Z2.06 F1800.0
G1 X18.67 Y3.39 Z2.06 F1800.0
G1 X17.1 Y3.49 Z2.06 F1800.0
G1 X16.83 Y4.77 Z2.06 F1800.0
G1 X16.67 Y4.8 Z2.06 F1800.0
G1 X17.1 Y5.24 Z2.06 F1800.0
G1 X20.0 Y3.93 Z2.06 F1800.0
G1 X20.44 Y4.8 Z2.06 F1800.0
G1 X20.0 Y5.24 Z2.06 F1800.0
G1 X17.1 Y6.11 Z2.06 F1800.0
G1 X17.1 Y6.55 Z2.06 F1800.0
G1 X16.67 Y6.98 Z2.06 F1800.0
G1 X20.54 Y6.53 Z2.06 F1800.0
G1 X42.28 Y6.98 Z2.06 F1800.0
G1 X42.28 Y3.93 Z2.06 F1800.0
G1 X40.49 Y3.39 Z2.06 F1800.0
G1 X40.23 Y3.39 Z2.06 F1800.0
G1 X38.51 Y6.11 Z2.06 F1800.0
G1 X38.51 Y2.18 Z2.06 F1800.0
G1 X40.23 Y3.16 Z2.06 F1800.0
G1 X42.28 Y3.49 Z2.06 F1800.0
G1 X42.28 Y-0.44 Z2.06 F1800.0
G1 X40.49 Y-0.98 Z2.06 F1800.0
G1 X40.23 Y-0.98 Z2.06 F1800.0
G1 X38.51 Y1.75 Z2.06 F1800.0
G1 X38.51 Y-2.18 Z2.06 F1800.0
G1 X40.23 Y-1.21 Z2.06 F1800.0
G1 X42.28 Y-0.87 Z2.06 F1800.0
G1 X42.28 Y-4.8 Z2.06 F1800.0
G1 X40.49 Y-5.34 Z2.06 F1800.0
G1 X40.23 Y-5.34 Z2.06 F1800.0
G1 X38.51 Y-2.62 Z2.06 F1800.0
G1 X38.51 Y-6.55 Z2.06 F1800.0
G1 X40.23 Y-5.57 Z2.06 F1800.0
G1 X42.28 Y-5.24 Z2.06 F1800.0
G1 X42.28 Y-9.16 Z2.06 F1800.0
G1 X40.49 Y-9.7 Z2.06 F1800.0
G1 X40.23 Y-9.7 Z2.06 F1800.0
G1 X38.51 Y-6.98 Z2.06 F1800.0
G1 X38.51 Y-10.91 Z2.06 F1800.0
G1 X40.23 Y-9.93 Z2.06 F1800.0
G1 X42.28 Y-9.6 Z2.06 F1800.0
G1 X42.28 Y-13.53 Z2.06 F1800.0
G1 X40.49 Y-14.07 Z2.06 F1800.0
G1 X40.23 Y-14.07 Z2.06 F1800.0
G1 X38.51 Y-11.35 Z2.06 F1800.0
G1 X38.51 Y-15.27 Z2.06 F1800.0
G1 X40.23 Y-14.3 Z2.06 F1800.0
G1 X42.28 Y-13.96 Z2.06 F1800.0
G1 X42.28 Y-17.45 Z2.06 F1800.0
G1 X40.49 Y-18.43 Z2.06 F1800.0
G1 X40.23 Y-18.43 Z2.06 F1800.0
G1 X38.51 Y-15.71 Z2.06 F1800.0
G1 X38.31 Y-16.36 Z2.06 F1800.0
G1 X38.05 Y-16.36 Z2.06 F1800.0
G1 X36.13 Y-18.54 Z2.06 F1800.0
G1 X35.87 Y-18.54 Z2.06 F1800.0
G1 X33.94 Y-16.36 Z2.06 F1800.0
G1 X33.69 Y-16.36 Z2.06 F1800.0
G1 X31.76 Y-18.54 Z2.06 F1800.0
G1 X31.51 Y-18.54 Z2.06 F1800.0
G1 X29.58 Y-16.36 Z2.06 F1800.0
G1 X29.33 Y-16.36 Z2.06 F1800.0
G1 X27.4 Y-18.54 Z2.06 F1800.0
G1 X27.14 Y-18.54 Z2.06 F1800.0
G1 X25.22 Y-16.36 Z2.06 F1800.0
G1 X24.96 Y-16.36 Z2.06 F1800.0
G1 X23.04 Y-18.54 Z2.06 F1800.0
G1 X22.78 Y-18.54 Z2.06 F1800.0
G1 X20.85 Y-16.36 Z2.06 F1800.0
G1 X20.6 Y-16.36 Z2.06 F1800.0
G1 X20.44 Y-15.71 Z2.06 F1800.0
G1 X20.0 Y-15.27 Z2.06 F1800.0
G1 X18.67 Y-18.43 Z2.06 F1800.0
G1 X16.67 Y-18.33 Z2.06 F1800.0
G1 X17.1 Y-17.89 Z2.06 F1800.0
G1 X17.1 Y-17.45 Z2.06 F1800.0
G1 X16.99 Y-17.34 Z2.06 F1800.0
M108 R30.0
M102
G1 X16.67 Y-17.02 Z2.06 F1800.0
M108 R3.569
M103
(</surroundingLoop>)
(</layer>)
(<layer> 2.38 )
(<surroundingLoop>)
(<boundaryPerimeter>)
(<boundaryPoint> X15.822 Y7.894 Z2.38 </boundaryPoint>)
(<boundaryPoint> X15.822 Y-42.786 Z2.38 </boundaryPoint>)
(<boundaryPoint> X43.122 Y-42.786 Z2.38 </boundaryPoint>)
(<boundaryPoint> X43.122 Y7.894 Z2.38 </boundaryPoint>)
(<loop> inner )
G1 X20.02 Y-19.11 Z2.33 F3000.0
M108 R30.0
M101
G1 X20.69 Y-19.53 Z2.38 F3000.0
M108 R3.569
G1 X20.69 Y-19.39 Z2.38 F1800.0
G1 X38.25 Y-19.39 Z2.38 F1800.0
G1 X38.25 Y-40.84 Z2.38 F1800.0
G1 X20.69 Y-40.84 Z2.38 F1800.0
G1 X20.69 Y-19.98 Z2.38 F1800.0
M108 R30.0
M102
G1 X20.69 Y-19.53 Z2.38 F1800.0
M108 R3.569
M103
(</loop>)
(<loop> inner )
G1 X20.69 Y-16.3 Z2.38 F3000.0
M108 R30.0
M101
G1 X20.69 Y-15.5 Z2.38 F3000.0
M108 R3.569
G1 X20.69 Y5.95 Z2.38 F1800.0
G1 X38.25 Y5.95 Z2.38 F1800.0
G1 X38.25 Y-15.5 Z2.38 F1800.0
G1 X21.14 Y-15.5 Z2.38 F1800.0
M108 R30.0
M102
G1 X20.69 Y-15.5 Z2.38 F1800.0
M108 R3.569
M103
(</loop>)
(<loop> outer )
G1 X17.21 Y-15.5 Z2.38 F3000.0
M108 R30.0
M101
G1 X16.41 Y-15.5 Z2.38 F3000.0
M108 R3.569
G1 X16.41 Y-42.2 Z2.38 F1800.0
G1 X42.53 Y-42.2 Z2.38 F1800.0
G1 X42.53 Y7.31 Z2.38 F1800.0
G1 X16.41 Y7.31 Z2.38 F1800.0
G1 X16.41 Y-15.5 Z2.38 F1800.0
M103
(</loop>)
(<perimeter> outer )
G1 X16.02 Y-15.5 Z2.38 F3000.0
M101
G1 X16.02 Y-42.59 Z2.38 F1800.0
G1 X42.93 Y-42.59 Z2.38 F1800.0
G1 X42.93 Y7.7 Z2.38 F1800.0
G1 X16.02 Y7.7 Z2.38 F1800.0
G1 X16.02 Y-15.05 Z2.38 F1800.0
M108 R30.0
M102
G1 X16.02 Y-15.5 Z2.38 F1800.0
M108 R3.569
M103
(</perimeter>)
(</boundaryPerimeter>)
(<surroundingLoop>)
(<boundaryPerimeter>)
(<boundaryPoint> X37.662 Y5.36 Z2.38 </boundaryPoint>)
(<boundaryPoint> X37.662 Y-14.912 Z2.38 </boundaryPoint>)
(<boundaryPoint> X21.282 Y-14.912 Z2.38 </boundaryPoint>)
(<boundaryPoint> X21.282 Y5.36 Z2.38 </boundaryPoint>)
(<perimeter> inner )
G1 X20.29 Y-15.17 Z2.38 F3000.0
M108 R30.0
M101
G1 X21.09 Y-15.11 Z2.38 F3000.0
M108 R3.569
G1 X21.09 Y5.56 Z2.38 F1800.0
G1 X37.86 Y5.56 Z2.38 F1800.0
G1 X37.86 Y-15.11 Z2.38 F1800.0
G1 X21.54 Y-15.11 Z2.38 F1800.0
M108 R30.0
M102
G1 X21.09 Y-15.11 Z2.38 F1800.0
M108 R3.569
M103
(</perimeter>)
(</boundaryPerimeter>)
(</surroundingLoop>)
(<surroundingLoop>)
(<boundaryPerimeter>)
(<boundaryPoint> X37.662 Y-19.98 Z2.38 </boundaryPoint>)
(<boundaryPoint> X37.662 Y-40.252 Z2.38 </boundaryPoint>)
(<boundaryPoint> X21.282 Y-40.252 Z2.38 </boundaryPoint>)
(<boundaryPoint> X21.282 Y-19.98 Z2.38 </boundaryPoint>)
(<perimeter> inner )
G1 X21.09 Y-18.98 Z2.38 F3000.0
M108 R30.0
M101
G1 X21.09 Y-19.78 Z2.38 F3000.0
M108 R3.569
G1 X37.86 Y-19.78 Z2.38 F1800.0
G1 X37.86 Y-40.45 Z2.38 F1800.0
G1 X21.09 Y-40.45 Z2.38 F1800.0
G1 X21.09 Y-20.23 Z2.38 F1800.0
M108 R30.0
M102
G1 X21.09 Y-19.78 Z2.38 F1800.0
M108 R3.569
M103
(</perimeter>)
(</boundaryPerimeter>)
(</surroundingLoop>)
G1 X21.55 Y-19.52 Z2.38 F3000.0
M108 R30.0
M101
G1 X22.25 Y-19.14 Z2.38 F3000.0
M108 R3.569
G1 X20.51 Y-19.14 Z2.38 F1800.0
G1 X20.73 Y-16.24 Z2.38 F1800.0
G1 X20.51 Y-15.76 Z2.38 F1800.0
G1 X24.44 Y-15.76 Z2.38 F1800.0
G1 X22.91 Y-18.42 Z2.38 F1800.0
G1 X22.91 Y-18.67 Z2.38 F1800.0
G1 X22.69 Y-19.14 Z2.38 F1800.0
G1 X26.62 Y-19.14 Z2.38 F1800.0
G1 X25.09 Y-16.49 Z2.38 F1800.0
G1 X25.09 Y-16.24 Z2.38 F1800.0
G1 X24.87 Y-15.76 Z2.38 F1800.0
G1 X28.8 Y-15.76 Z2.38 F1800.0
G1 X27.27 Y-18.42 Z2.38 F1800.0
G1 X27.27 Y-18.67 Z2.38 F1800.0
G1 X27.05 Y-19.14 Z2.38 F1800.0
G1 X30.98 Y-19.14 Z2.38 F1800.0
G1 X29.45 Y-16.49 Z2.38 F1800.0
G1 X29.45 Y-16.24 Z2.38 F1800.0
G1 X29.23 Y-15.76 Z2.38 F1800.0
G1 X33.16 Y-15.76 Z2.38 F1800.0
G1 X31.63 Y-18.42 Z2.38 F1800.0
G1 X31.63 Y-18.67 Z2.38 F1800.0
G1 X31.42 Y-19.14 Z2.38 F1800.0
G1 X35.34 Y-19.14 Z2.38 F1800.0
G1 X33.82 Y-16.49 Z2.38 F1800.0
G1 X33.82 Y-16.24 Z2.38 F1800.0
G1 X33.6 Y-15.76 Z2.38 F1800.0
G1 X37.09 Y-15.76 Z2.38 F1800.0
G1 X36.0 Y-18.42 Z2.38 F1800.0
G1 X36.0 Y-18.67 Z2.38 F1800.0
G1 X35.78 Y-19.14 Z2.38 F1800.0
G1 X38.4 Y-19.14 Z2.38 F1800.0
G1 X38.06 Y-16.24 Z2.38 F1800.0
G1 X38.4 Y-15.76 Z2.38 F1800.0
G1 X37.98 Y-15.76 Z2.38 F1800.0
M108 R30.0
M102
G1 X37.53 Y-15.76 Z2.38 F1800.0
M108 R3.569
M103
G1 X37.49 Y-15.19 Z2.38 F3000.0
G1 X37.8 Y-15.05 Z2.38 F3000.0
G1 X37.8 Y5.5 Z2.38 F3000.0
G1 X36.91 Y5.61 Z2.38 F3000.0
M108 R30.0
M101
G1 X36.69 Y5.64 Z2.38 F3000.0
G1 X36.65 Y6.21 Z2.38 F3000.0
M108 R3.569
G1 X38.4 Y6.21 Z2.38 F1800.0
G1 X39.27 Y7.05 Z2.38 F1800.0
G1 X35.34 Y7.05 Z2.38 F1800.0
G1 X36.22 Y6.21 Z2.38 F1800.0
G1 X33.6 Y6.21 Z2.38 F1800.0
G1 X34.47 Y7.05 Z2.38 F1800.0
G1 X33.16 Y7.05 Z2.38 F1800.0
G1 X33.16 Y6.21 Z2.38 F1800.0
G1 X32.29 Y6.21 Z2.38 F1800.0
G1 X32.73 Y7.05 Z2.38 F1800.0
G1 X30.98 Y7.05 Z2.38 F1800.0
G1 X31.85 Y6.21 Z2.38 F1800.0
G1 X29.23 Y6.21 Z2.38 F1800.0
G1 X30.11 Y7.05 Z2.38 F1800.0
G1 X28.8 Y7.05 Z2.38 F1800.0
G1 X28.8 Y6.21 Z2.38 F1800.0
G1 X27.93 Y6.21 Z2.38 F1800.0
G1 X28.36 Y7.05 Z2.38 F1800.0
G1 X26.62 Y7.05 Z2.38 F1800.0
G1 X27.49 Y6.21 Z2.38 F1800.0
G1 X26.18 Y6.21 Z2.38 F1800.0
G1 X26.18 Y7.05 Z2.38 F1800.0
G1 X25.74 Y7.05 Z2.38 F1800.0
G1 X25.74 Y6.21 Z2.38 F1800.0
G1 X24.44 Y6.21 Z2.38 F1800.0
G1 X25.31 Y7.05 Z2.38 F1800.0
G1 X22.69 Y7.05 Z2.38 F1800.0
G1 X23.56 Y6.21 Z2.38 F1800.0
G1 X20.51 Y6.21 Z2.38 F1800.0
G1 X20.51 Y7.05 Z2.38 F1800.0
G1 X21.8 Y7.05 Z2.38 F1800.0
M108 R30.0
M102
G1 X22.25 Y7.05 Z2.38 F1800.0
M108 R3.569
M103
G1 X22.5 Y5.64 Z2.38 F3000.0
G1 X21.14 Y5.5 Z2.38 F3000.0
G1 X21.14 Y-15.05 Z2.38 F3000.0
G1 X25.44 Y-15.19 Z2.38 F3000.0
G1 X26.17 Y-19.7 Z2.38 F3000.0
G1 X21.14 Y-19.84 Z2.38 F3000.0
G1 X21.14 Y-40.39 Z2.38 F3000.0
G1 X28.89 Y-40.52 Z2.38 F3000.0
M108 R30.0
M101
G1 X29.11 Y-40.53 Z2.38 F3000.0
G1 X29.23 Y-41.1 Z2.38 F3000.0
M108 R3.569
G1 X29.67 Y-41.51 Z2.38 F1800.0
G1 X29.23 Y-41.94 Z2.38 F1800.0
G1 X28.36 Y-41.1 Z2.38 F1800.0
G1 X27.93 Y-41.53 Z2.38 F1800.0
G1 X27.93 Y-41.94 Z2.38 F1800.0
G1 X27.05 Y-41.1 Z2.38 F1800.0
G1 X27.05 Y-41.94 Z2.38 F1800.0
G1 X26.62 Y-41.53 Z2.38 F1800.0
G1 X26.18 Y-41.94 Z2.38 F1800.0
G1 X25.74 Y-41.51 Z2.38 F1800.0
G1 X25.85 Y-41.4 Z2.38 F1800.0
M108 R30.0
M102
G1 X26.18 Y-41.1 Z2.38 F1800.0
M108 R3.569
M103
G1 X25.54 Y-41.51 Z2.38 F3000.0
M108 R30.0
M101
G1 X24.87 Y-41.94 Z2.38 F3000.0
M108 R3.569
G1 X25.31 Y-41.53 Z2.38 F1800.0
G1 X24.87 Y-41.1 Z2.38 F1800.0
G1 X23.87 Y-41.41 Z2.38 F1800.0
G1 X24.0 Y-41.51 Z2.38 F1800.0
G1 X23.56 Y-41.94 Z2.38 F1800.0
G1 X23.18 Y-41.73 Z2.38 F1800.0
G1 X22.69 Y-41.94 Z2.38 F1800.0
G1 X22.69 Y-41.1 Z2.38 F1800.0
G1 X22.25 Y-41.53 Z2.38 F1800.0
G1 X21.82 Y-41.53 Z2.38 F1800.0
G1 X21.38 Y-41.94 Z2.38 F1800.0
G1 X21.38 Y-41.1 Z2.38 F1800.0
G1 X20.51 Y-41.94 Z2.38 F1800.0
G1 X20.51 Y-41.1 Z2.38 F1800.0
G1 X19.64 Y-41.51 Z2.38 F1800.0
G1 X19.2 Y-41.94 Z2.38 F1800.0
G1 X18.76 Y-41.51 Z2.38 F1800.0
G1 X18.33 Y-41.94 Z2.38 F1800.0
G1 X17.89 Y-41.51 Z2.38 F1800.0
G1 X18.54 Y-40.49 Z2.38 F1800.0
G1 X18.54 Y3.4 Z2.38 F1800.0
G1 X20.07 Y7.05 Z2.38 F1800.0
G1 X17.02 Y7.05 Z2.38 F1800.0
G1 X17.02 Y-41.49 Z2.38 F1800.0
M108 R30.0
M102
G1 X17.02 Y-41.94 Z2.38 F1800.0
M108 R3.569
M103
G1 X34.98 Y-41.94 Z2.38 F3000.0
M108 R30.0
M101
G1 X35.78 Y-41.94 Z2.38 F3000.0
M108 R3.569
G1 X36.22 Y-41.53 Z2.38 F1800.0
G1 X35.78 Y-41.1 Z2.38 F1800.0
G1 X34.77 Y-41.41 Z2.38 F1800.0
G1 X34.47 Y-41.94 Z2.38 F1800.0
G1 X34.09 Y-41.73 Z2.38 F1800.0
G1 X33.6 Y-41.94 Z2.38 F1800.0
G1 X33.6 Y-41.1 Z2.38 F1800.0
G1 X33.16 Y-41.53 Z2.38 F1800.0
G1 X32.73 Y-41.53 Z2.38 F1800.0
G1 X32.29 Y-41.94 Z2.38 F1800.0
G1 X32.29 Y-41.1 Z2.38 F1800.0
G1 X31.42 Y-41.94 Z2.38 F1800.0
G1 X30.98 Y-41.51 Z2.38 F1800.0
G1 X31.09 Y-41.4 Z2.38 F1800.0
M108 R30.0
M102
G1 X31.42 Y-41.1 Z2.38 F1800.0
M108 R3.569
M103
G1 X41.09 Y-41.88 Z2.38 F3000.0
M108 R30.0
M101
G1 X41.89 Y-41.94 Z2.38 F3000.0
M108 R3.569
G1 X41.45 Y-41.51 Z2.38 F1800.0
G1 X41.02 Y-41.51 Z2.38 F1800.0
G1 X40.48 Y-40.49 Z2.38 F1800.0
G1 X40.48 Y3.4 Z2.38 F1800.0
G1 X41.89 Y7.05 Z2.38 F1800.0
G1 X39.71 Y7.05 Z2.38 F1800.0
G1 X40.25 Y3.4 Z2.38 F1800.0
G1 X40.25 Y-14.31 Z2.38 F1800.0
G1 X38.29 Y-16.24 Z2.38 F1800.0
G1 X38.29 Y-16.49 Z2.38 F1800.0
G1 X40.25 Y-18.42 Z2.38 F1800.0
G1 X40.25 Y-40.49 Z2.38 F1800.0
G1 X40.58 Y-41.51 Z2.38 F1800.0
G1 X40.14 Y-41.94 Z2.38 F1800.0
G1 X40.13 Y-41.86 Z2.38 F1800.0
G1 X39.14 Y-41.63 Z2.38 F1800.0
G1 X38.4 Y-41.94 Z2.38 F1800.0
G1 X38.4 Y-41.53 Z2.38 F1800.0
G1 X37.96 Y-41.1 Z2.38 F1800.0
G1 X37.96 Y-41.94 Z2.38 F1800.0
G1 X37.53 Y-41.53 Z2.38 F1800.0
G1 X37.09 Y-41.94 Z2.38 F1800.0
G1 X36.65 Y-41.51 Z2.38 F1800.0
G1 X37.09 Y-41.1 Z2.38 F1800.0
M103
(</surroundingLoop>)
(</layer>)
(<layer> 2.7 )
(<surroundingLoop>)
(<boundaryPerimeter>)
(<boundaryPoint> X15.822 Y7.894 Z2.7 </boundaryPoint>)
(<boundaryPoint> X15.822 Y-42.786 Z2.7 </boundaryPoint>)
(<boundaryPoint> X43.122 Y-42.786 Z2.7 </boundaryPoint>)
(<boundaryPoint> X43.122 Y7.894 Z2.7 </boundaryPoint>)
(<loop> inner )
G1 X36.74 Y-40.84 Z2.7 F3000.0
M101
G1 X20.69 Y-40.84 Z2.7 F1800.0
G1 X20.69 Y-19.39 Z2.7 F1800.0
G1 X38.25 Y-19.39 Z2.7 F1800.0
G1 X38.25 Y-40.84 Z2.7 F1800.0
G1 X37.19 Y-40.84 Z2.7 F1800.0
M108 R30.0
M102
G1 X37.09 Y-40.84 Z2.7 F1800.0
G1 X36.74 Y-40.84 Z2.7 F1800.0
M108 R3.569
M103
(</loop>)
(<loop> inner )
G1 X36.74 Y-40.53 Z2.7 F3000.0
G1 X37.8 Y-40.39 Z2.7 F3000.0
G1 X37.8 Y-19.84 Z2.7 F3000.0
G1 X36.74 Y-19.7 Z2.7 F3000.0
G1 X36.74 Y-16.3 Z2.7 F3000.0
M108 R30.0
M101
G1 X36.74 Y-15.5 Z2.7 F3000.0
M108 R3.569
G1 X20.69 Y-15.5 Z2.7 F1800.0
G1 X20.69 Y5.95 Z2.7 F1800.0
G1 X38.25 Y5.95 Z2.7 F1800.0
G1 X38.25 Y-15.5 Z2.7 F1800.0
G1 X37.19 Y-15.5 Z2.7 F1800.0
M108 R30.0
M102
G1 X37.09 Y-15.5 Z2.7 F1800.0
G1 X36.74 Y-15.5 Z2.7 F1800.0
M108 R3.569
M103
(</loop>)
(<loop> outer )
G1 X41.73 Y-15.5 Z2.7 F3000.0
M108 R30.0
M101
G1 X42.53 Y-15.5 Z2.7 F3000.0
M108 R3.569
G1 X42.53 Y7.31 Z2.7 F1800.0
G1 X16.41 Y7.31 Z2.7 F1800.0
G1 X16.41 Y-42.2 Z2.7 F1800.0
G1 X42.53 Y-42.2 Z2.7 F1800.0
G1 X42.53 Y-15.5 Z2.7 F1800.0
M103
(</loop>)
(<perimeter> outer )
G1 X42.93 Y-15.5 Z2.7 F3000.0
M101
G1 X42.93 Y7.7 Z2.7 F1800.0
G1 X16.02 Y7.7 Z2.7 F1800.0
G1 X16.02 Y-42.59 Z2.7 F1800.0
G1 X42.93 Y-42.59 Z2.7 F1800.0
G1 X42.93 Y-15.95 Z2.7 F1800.0
M108 R30.0
M102
G1 X42.93 Y-15.5 Z2.7 F1800.0
M108 R3.569
M103
(</perimeter>)
(</boundaryPerimeter>)
(<surroundingLoop>)
(<boundaryPerimeter>)
(<boundaryPoint> X37.662 Y5.36 Z2.7 </boundaryPoint>)
(<boundaryPoint> X37.662 Y-14.912 Z2.7 </boundaryPoint>)
(<boundaryPoint> X21.282 Y-14.912 Z2.7 </boundaryPoint>)
(<boundaryPoint> X21.282 Y5.36 Z2.7 </boundaryPoint>)
(<perimeter> inner )
G1 X38.66 Y-15.17 Z2.7 F3000.0
M108 R30.0
M101
G1 X37.86 Y-15.11 Z2.7 F3000.0
M108 R3.569
G1 X21.09 Y-15.11 Z2.7 F1800.0
G1 X21.09 Y5.56 Z2.7 F1800.0
G1 X37.86 Y5.56 Z2.7 F1800.0
G1 X37.86 Y-14.66 Z2.7 F1800.0
M108 R30.0
M102
G1 X37.86 Y-15.11 Z2.7 F1800.0
M108 R3.569
M103
(</perimeter>)
(</boundaryPerimeter>)
(</surroundingLoop>)
(<surroundingLoop>)
(<boundaryPerimeter>)
(<boundaryPoint> X37.662 Y-19.98 Z2.7 </boundaryPoint>)
(<boundaryPoint> X37.662 Y-40.252 Z2.7 </boundaryPoint>)
(<boundaryPoint> X21.282 Y-40.252 Z2.7 </boundaryPoint>)
(<boundaryPoint> X21.282 Y-19.98 Z2.7 </boundaryPoint>)
(<perimeter> inner )
G1 X37.86 Y-18.98 Z2.7 F3000.0
M108 R30.0
M101
G1 X37.86 Y-19.78 Z2.7 F3000.0
M108 R3.569
G1 X37.86 Y-40.45 Z2.7 F1800.0
G1 X21.09 Y-40.45 Z2.7 F1800.0
G1 X21.09 Y-19.78 Z2.7 F1800.0
G1 X37.41 Y-19.78 Z2.7 F1800.0
M108 R30.0
M102
G1 X37.86 Y-19.78 Z2.7 F1800.0
M108 R3.569
M103
(</perimeter>)
(</boundaryPerimeter>)
(</surroundingLoop>)
G1 X41.48 Y-19.66 Z2.7 F3000.0
M108 R30.0
M101
G1 X42.28 Y-19.64 Z2.7 F3000.0
M108 R3.569
G1 X42.28 Y-17.89 Z2.7 F1800.0
G1 X40.49 Y-18.66 Z2.7 F1800.0
G1 X40.23 Y-18.66 Z2.7 F1800.0
G1 X38.51 Y-19.2 Z2.7 F1800.0
G1 X38.51 Y-22.25 Z2.7 F1800.0
G1 X40.23 Y-22.79 Z2.7 F1800.0
G1 X40.49 Y-22.79 Z2.7 F1800.0
G1 X42.28 Y-20.07 Z2.7 F1800.0
G1 X42.28 Y-24.0 Z2.7 F1800.0
G1 X40.49 Y-23.02 Z2.7 F1800.0
G1 X40.23 Y-23.02 Z2.7 F1800.0
G1 X38.51 Y-22.69 Z2.7 F1800.0
G1 X38.51 Y-26.62 Z2.7 F1800.0
G1 X40.23 Y-27.16 Z2.7 F1800.0
G1 X40.49 Y-27.16 Z2.7 F1800.0
G1 X42.28 Y-24.44 Z2.7 F1800.0
G1 X42.28 Y-28.36 Z2.7 F1800.0
G1 X40.49 Y-27.39 Z2.7 F1800.0
G1 X40.23 Y-27.39 Z2.7 F1800.0
G1 X38.51 Y-27.05 Z2.7 F1800.0
G1 X38.51 Y-30.98 Z2.7 F1800.0
G1 X40.23 Y-31.52 Z2.7 F1800.0
G1 X40.49 Y-31.52 Z2.7 F1800.0
G1 X42.28 Y-28.8 Z2.7 F1800.0
G1 X42.28 Y-32.73 Z2.7 F1800.0
G1 X40.49 Y-31.75 Z2.7 F1800.0
G1 X40.23 Y-31.75 Z2.7 F1800.0
G1 X38.51 Y-31.42 Z2.7 F1800.0
G1 X38.51 Y-35.34 Z2.7 F1800.0
G1 X40.23 Y-35.88 Z2.7 F1800.0
G1 X40.49 Y-35.88 Z2.7 F1800.0
G1 X42.28 Y-33.16 Z2.7 F1800.0
G1 X42.28 Y-37.09 Z2.7 F1800.0
G1 X40.49 Y-36.11 Z2.7 F1800.0
G1 X40.23 Y-36.11 Z2.7 F1800.0
G1 X38.51 Y-35.78 Z2.7 F1800.0
G1 X38.51 Y-39.71 Z2.7 F1800.0
G1 X40.23 Y-40.25 Z2.7 F1800.0
G1 X40.49 Y-40.25 Z2.7 F1800.0
G1 X42.28 Y-37.53 Z2.7 F1800.0
G1 X42.28 Y-41.02 Z2.7 F1800.0
G1 X40.49 Y-40.48 Z2.7 F1800.0
G1 X40.23 Y-40.48 Z2.7 F1800.0
G1 X38.51 Y-40.14 Z2.7 F1800.0
G1 X38.51 Y-40.57 Z2.7 F1800.0
M108 R30.0
M102
G1 X38.51 Y-41.02 Z2.7 F1800.0
M108 R3.569
M103
G1 X41.48 Y-41.36 Z2.7 F3000.0
M108 R30.0
M101
G1 X42.28 Y-41.45 Z2.7 F3000.0
M108 R3.569
G1 X42.28 Y-41.89 Z2.7 F1800.0
G1 X16.67 Y-41.89 Z2.7 F1800.0
M103
G1 X16.67 Y-41.02 Z2.7 F3000.0
M101
G1 X20.44 Y-41.02 Z2.7 F1800.0
G1 X20.0 Y-40.58 Z2.7 F1800.0
G1 X17.1 Y-39.71 Z2.7 F1800.0
G1 X16.67 Y-38.83 Z2.7 F1800.0
G1 X17.1 Y-38.4 Z2.7 F1800.0
G1 X20.0 Y-39.71 Z2.7 F1800.0
G1 X20.0 Y-39.27 Z2.7 F1800.0
G1 X20.44 Y-38.83 Z2.7 F1800.0
G1 X20.0 Y-38.4 Z2.7 F1800.0
G1 X17.1 Y-37.09 Z2.7 F1800.0
G1 X16.67 Y-36.65 Z2.7 F1800.0
G1 X17.1 Y-36.22 Z2.7 F1800.0
G1 X20.0 Y-37.09 Z2.7 F1800.0
G1 X20.44 Y-36.65 Z2.7 F1800.0
G1 X20.0 Y-36.22 Z2.7 F1800.0
G1 X17.1 Y-35.34 Z2.7 F1800.0
G1 X17.1 Y-34.91 Z2.7 F1800.0
G1 X16.67 Y-34.47 Z2.7 F1800.0
G1 X17.1 Y-34.03 Z2.7 F1800.0
G1 X20.0 Y-35.34 Z2.7 F1800.0
G1 X20.44 Y-34.47 Z2.7 F1800.0
G1 X20.0 Y-34.03 Z2.7 F1800.0
G1 X20.44 Y-33.6 Z2.7 F1800.0
G1 X20.0 Y-33.16 Z2.7 F1800.0
G1 X17.1 Y-32.73 Z2.7 F1800.0
G1 X16.67 Y-32.29 Z2.7 F1800.0
G1 X17.1 Y-31.85 Z2.7 F1800.0
G1 X20.0 Y-32.73 Z2.7 F1800.0
G1 X20.44 Y-32.29 Z2.7 F1800.0
G1 X20.0 Y-31.85 Z2.7 F1800.0
G1 X17.1 Y-30.98 Z2.7 F1800.0
G1 X16.67 Y-30.11 Z2.7 F1800.0
G1 X17.1 Y-29.67 Z2.7 F1800.0
G1 X20.0 Y-30.98 Z2.7 F1800.0
G1 X20.44 Y-30.11 Z2.7 F1800.0
G1 X20.0 Y-29.67 Z2.7 F1800.0
G1 X17.1 Y-28.8 Z2.7 F1800.0
G1 X16.67 Y-27.93 Z2.7 F1800.0
G1 X17.1 Y-27.49 Z2.7 F1800.0
G1 X20.0 Y-28.8 Z2.7 F1800.0
G1 X20.0 Y-28.36 Z2.7 F1800.0
G1 X20.44 Y-27.93 Z2.7 F1800.0
G1 X20.0 Y-27.49 Z2.7 F1800.0
G1 X17.1 Y-26.62 Z2.7 F1800.0
G1 X17.1 Y-26.18 Z2.7 F1800.0
G1 X16.67 Y-25.74 Z2.7 F1800.0
G1 X17.1 Y-25.31 Z2.7 F1800.0
G1 X20.0 Y-26.62 Z2.7 F1800.0
G1 X20.44 Y-25.74 Z2.7 F1800.0
G1 X20.0 Y-25.31 Z2.7 F1800.0
G1 X17.1 Y-24.44 Z2.7 F1800.0
G1 X17.1 Y-24.0 Z2.7 F1800.0
G1 X16.67 Y-23.56 Z2.7 F1800.0
G1 X17.1 Y-23.13 Z2.7 F1800.0
G1 X20.0 Y-24.44 Z2.7 F1800.0
G1 X20.44 Y-23.56 Z2.7 F1800.0
G1 X20.0 Y-23.13 Z2.7 F1800.0
G1 X18.67 Y-22.91 Z2.7 F1800.0
G1 X18.42 Y-22.91 Z2.7 F1800.0
G1 X17.1 Y-22.69 Z2.7 F1800.0
G1 X16.67 Y-22.25 Z2.7 F1800.0
G1 X16.98 Y-21.94 Z2.7 F1800.0
G1 X16.67 Y-21.38 Z2.7 F1800.0
G1 X17.1 Y-20.94 Z2.7 F1800.0
G1 X20.0 Y-21.82 Z2.7 F1800.0
G1 X20.44 Y-21.38 Z2.7 F1800.0
G1 X20.0 Y-20.94 Z2.7 F1800.0
G1 X20.44 Y-20.51 Z2.7 F1800.0
G1 X20.0 Y-20.07 Z2.7 F1800.0
G1 X17.1 Y-20.07 Z2.7 F1800.0
G1 X17.1 Y-19.64 Z2.7 F1800.0
G1 X16.67 Y-19.2 Z2.7 F1800.0
G1 X17.1 Y-18.76 Z2.7 F1800.0
G1 X18.67 Y-18.66 Z2.7 F1800.0
G1 X20.01 Y-19.07 Z2.7 F1800.0
M108 R30.0
M102
G1 X20.44 Y-19.2 Z2.7 F1800.0
M108 R3.569
M103
G1 X17.19 Y-15.44 Z2.7 F3000.0
M108 R30.0
M101
G1 X16.67 Y-14.84 Z2.7 F3000.0
M108 R3.569
G1 X20.44 Y-14.84 Z2.7 F1800.0
G1 X20.0 Y-14.4 Z2.7 F1800.0
G1 X17.1 Y-13.96 Z2.7 F1800.0
G1 X16.98 Y-13.22 Z2.7 F1800.0
G1 X16.67 Y-12.65 Z2.7 F1800.0
G1 X17.1 Y-12.22 Z2.7 F1800.0
G1 X20.0 Y-13.53 Z2.7 F1800.0
G1 X20.44 Y-12.65 Z2.7 F1800.0
G1 X20.0 Y-12.22 Z2.7 F1800.0
G1 X17.1 Y-11.35 Z2.7 F1800.0
G1 X16.67 Y-10.47 Z2.7 F1800.0
G1 X17.1 Y-10.04 Z2.7 F1800.0
G1 X20.0 Y-11.35 Z2.7 F1800.0
G1 X20.44 Y-10.47 Z2.7 F1800.0
G1 X20.0 Y-10.04 Z2.7 F1800.0
G1 X17.1 Y-9.16 Z2.7 F1800.0
G1 X17.1 Y-8.73 Z2.7 F1800.0
G1 X16.67 Y-8.29 Z2.7 F1800.0
G1 X17.1 Y-7.85 Z2.7 F1800.0
G1 X20.0 Y-9.16 Z2.7 F1800.0
G1 X20.0 Y-8.73 Z2.7 F1800.0
G1 X20.44 Y-8.29 Z2.7 F1800.0
G1 X20.0 Y-7.85 Z2.7 F1800.0
G1 X17.1 Y-6.98 Z2.7 F1800.0
G1 X17.1 Y-6.55 Z2.7 F1800.0
G1 X16.67 Y-6.11 Z2.7 F1800.0
G1 X17.1 Y-5.67 Z2.7 F1800.0
G1 X20.0 Y-6.98 Z2.7 F1800.0
G1 X20.44 Y-6.11 Z2.7 F1800.0
G1 X20.0 Y-5.67 Z2.7 F1800.0
G1 X18.67 Y-5.34 Z2.7 F1800.0
G1 X17.1 Y-5.24 Z2.7 F1800.0
G1 X16.83 Y-3.96 Z2.7 F1800.0
G1 X16.67 Y-3.93 Z2.7 F1800.0
G1 X17.1 Y-3.49 Z2.7 F1800.0
G1 X20.0 Y-4.8 Z2.7 F1800.0
G1 X20.44 Y-3.93 Z2.7 F1800.0
G1 X20.0 Y-3.05 Z2.7 F1800.0
G1 X17.1 Y-3.05 Z2.7 F1800.0
G1 X16.98 Y-2.31 Z2.7 F1800.0
G1 X16.67 Y-1.75 Z2.7 F1800.0
G1 X17.1 Y-1.31 Z2.7 F1800.0
G1 X20.0 Y-2.18 Z2.7 F1800.0
G1 X20.44 Y-1.75 Z2.7 F1800.0
G1 X20.0 Y-1.31 Z2.7 F1800.0
G1 X17.1 Y-0.44 Z2.7 F1800.0
G1 X17.1 Y-0.0 Z2.7 F1800.0
G1 X16.67 Y0.44 Z2.7 F1800.0
G1 X17.1 Y0.87 Z2.7 F1800.0
G1 X20.0 Y-0.44 Z2.7 F1800.0
G1 X20.0 Y-0.0 Z2.7 F1800.0
G1 X20.44 Y0.44 Z2.7 F1800.0
G1 X20.0 Y0.87 Z2.7 F1800.0
G1 X17.1 Y2.18 Z2.7 F1800.0
G1 X16.67 Y2.62 Z2.7 F1800.0
G1 X17.1 Y3.05 Z2.7 F1800.0
G1 X20.0 Y2.18 Z2.7 F1800.0
G1 X20.44 Y2.62 Z2.7 F1800.0
G1 X20.0 Y3.05 Z2.7 F1800.0
G1 X18.67 Y3.39 Z2.7 F1800.0
G1 X17.1 Y3.49 Z2.7 F1800.0
G1 X16.83 Y4.77 Z2.7 F1800.0
G1 X16.67 Y4.8 Z2.7 F1800.0
G1 X17.1 Y5.24 Z2.7 F1800.0
G1 X20.0 Y3.93 Z2.7 F1800.0
G1 X20.44 Y4.8 Z2.7 F1800.0
G1 X20.0 Y5.24 Z2.7 F1800.0
G1 X17.1 Y6.11 Z2.7 F1800.0
G1 X17.1 Y6.55 Z2.7 F1800.0
G1 X16.67 Y6.98 Z2.7 F1800.0
G1 X20.54 Y6.53 Z2.7 F1800.0
G1 X42.28 Y6.98 Z2.7 F1800.0
G1 X42.28 Y3.93 Z2.7 F1800.0
G1 X40.49 Y3.39 Z2.7 F1800.0
G1 X40.23 Y3.39 Z2.7 F1800.0
G1 X38.51 Y6.11 Z2.7 F1800.0
G1 X38.51 Y2.18 Z2.7 F1800.0
G1 X40.23 Y3.16 Z2.7 F1800.0
G1 X42.28 Y3.49 Z2.7 F1800.0
G1 X42.28 Y-0.44 Z2.7 F1800.0
G1 X40.49 Y-0.98 Z2.7 F1800.0
G1 X40.23 Y-0.98 Z2.7 F1800.0
G1 X38.51 Y1.75 Z2.7 F1800.0
G1 X38.51 Y-2.18 Z2.7 F1800.0
G1 X40.23 Y-1.21 Z2.7 F1800.0
G1 X42.28 Y-0.87 Z2.7 F1800.0
G1 X42.28 Y-4.8 Z2.7 F1800.0
G1 X40.49 Y-5.34 Z2.7 F1800.0
G1 X40.23 Y-5.34 Z2.7 F1800.0
G1 X38.51 Y-2.62 Z2.7 F1800.0
G1 X38.51 Y-6.55 Z2.7 F1800.0
G1 X40.23 Y-5.57 Z2.7 F1800.0
G1 X42.28 Y-5.24 Z2.7 F1800.0
G1 X42.28 Y-9.16 Z2.7 F1800.0
G1 X40.49 Y-9.7 Z2.7 F1800.0
G1 X40.23 Y-9.7 Z2.7 F1800.0
G1 X38.51 Y-6.98 Z2.7 F1800.0
G1 X38.51 Y-10.91 Z2.7 F1800.0
G1 X40.23 Y-9.93 Z2.7 F1800.0
G1 X42.28 Y-9.6 Z2.7 F1800.0
G1 X42.28 Y-13.53 Z2.7 F1800.0
G1 X40.49 Y-14.07 Z2.7 F1800.0
G1 X40.23 Y-14.07 Z2.7 F1800.0
G1 X38.51 Y-11.35 Z2.7 F1800.0
G1 X38.51 Y-15.27 Z2.7 F1800.0
G1 X40.23 Y-14.3 Z2.7 F1800.0
G1 X42.28 Y-13.96 Z2.7 F1800.0
G1 X42.28 Y-17.45 Z2.7 F1800.0
G1 X40.49 Y-18.43 Z2.7 F1800.0
G1 X40.23 Y-18.43 Z2.7 F1800.0
G1 X38.51 Y-15.71 Z2.7 F1800.0
G1 X38.31 Y-16.36 Z2.7 F1800.0
G1 X38.05 Y-16.36 Z2.7 F1800.0
G1 X36.13 Y-18.54 Z2.7 F1800.0
G1 X35.87 Y-18.54 Z2.7 F1800.0
G1 X33.94 Y-16.36 Z2.7 F1800.0
G1 X33.69 Y-16.36 Z2.7 F1800.0
G1 X31.76 Y-18.54 Z2.7 F1800.0
G1 X31.51 Y-18.54 Z2.7 F1800.0
G1 X29.58 Y-16.36 Z2.7 F1800.0
G1 X29.33 Y-16.36 Z2.7 F1800.0
G1 X27.4 Y-18.54 Z2.7 F1800.0
G1 X27.14 Y-18.54 Z2.7 F1800.0
G1 X25.22 Y-16.36 Z2.7 F1800.0
G1 X24.96 Y-16.36 Z2.7 F1800.0
G1 X23.04 Y-18.54 Z2.7 F1800.0
G1 X22.78 Y-18.54 Z2.7 F1800.0
G1 X20.85 Y-16.36 Z2.7 F1800.0
G1 X20.6 Y-16.36 Z2.7 F1800.0
G1 X20.44 Y-15.71 Z2.7 F1800.0
G1 X20.0 Y-15.27 Z2.7 F1800.0
G1 X18.67 Y-18.43 Z2.7 F1800.0
G1 X16.67 Y-18.33 Z2.7 F1800.0
G1 X17.1 Y-17.89 Z2.7 F1800.0
G1 X17.1 Y-17.45 Z2.7 F1800.0
G1 X16.67 Y-17.02 Z2.7 F1800.0
M103
(</surroundingLoop>)
(</layer>)
(<layer> 3.02 )
(<surroundingLoop>)
(<boundaryPerimeter>)
(<boundaryPoint> X15.822 Y7.894 Z3.02 </boundaryPoint>)
(<boundaryPoint> X15.822 Y-42.786 Z3.02 </boundaryPoint>)
(<boundaryPoint> X43.122 Y-42.786 Z3.02 </boundaryPoint>)
(<boundaryPoint> X43.122 Y7.894 Z3.02 </boundaryPoint>)
(<loop> outer )
G1 X16.41 Y-17.07 Z3.02 F3000.0
M101
G1 X16.41 Y-42.2 Z3.02 F1800.0
G1 X42.53 Y-42.2 Z3.02 F1800.0
G1 X42.53 Y7.31 Z3.02 F1800.0
G1 X16.41 Y7.31 Z3.02 F1800.0
G1 X16.41 Y-17.02 Z3.02 F1800.0
G1 X16.41 Y-17.07 Z3.02 F1800.0
M103
(</loop>)
(<perimeter> outer )
G1 X16.02 Y-17.02 Z3.02 F3000.0
M101
G1 X16.02 Y-42.59 Z3.02 F1800.0
G1 X42.93 Y-42.59 Z3.02 F1800.0
G1 X42.93 Y7.7 Z3.02 F1800.0
G1 X16.02 Y7.7 Z3.02 F1800.0
G1 X16.02 Y-16.57 Z3.02 F1800.0
M108 R30.0
M102
G1 X16.02 Y-17.02 Z3.02 F1800.0
M108 R3.569
M103
(</perimeter>)
(</boundaryPerimeter>)
G1 X18.25 Y-41.14 Z3.02 F3000.0
M108 R30.0
M101
G1 X18.33 Y-41.94 Z3.02 F3000.0
M108 R3.569
G1 X18.43 Y3.4 Z3.02 F1800.0
G1 X20.07 Y7.05 Z3.02 F1800.0
G1 X17.02 Y7.05 Z3.02 F1800.0
G1 X17.02 Y-41.49 Z3.02 F1800.0
M108 R30.0
M102
G1 X17.02 Y-41.94 Z3.02 F1800.0
M108 R3.569
M103
G1 X20.58 Y-41.94 Z3.02 F3000.0
M108 R30.0
M101
G1 X21.38 Y-41.94 Z3.02 F3000.0
M108 R3.569
G1 X20.94 Y-41.51 Z3.02 F1800.0
G1 X20.84 Y5.58 Z3.02 F1800.0
G1 X21.38 Y7.05 Z3.02 F1800.0
G1 X20.51 Y7.05 Z3.02 F1800.0
G1 X20.61 Y5.33 Z3.02 F1800.0
G1 X18.66 Y3.4 Z3.02 F1800.0
G1 X18.66 Y3.15 Z3.02 F1800.0
G1 X20.61 Y1.22 Z3.02 F1800.0
G1 X20.61 Y0.96 Z3.02 F1800.0
G1 X18.66 Y-0.96 Z3.02 F1800.0
G1 X18.66 Y-1.22 Z3.02 F1800.0
G1 X20.61 Y-3.15 Z3.02 F1800.0
G1 X20.61 Y-3.4 Z3.02 F1800.0
G1 X18.66 Y-5.33 Z3.02 F1800.0
G1 X18.66 Y-5.58 Z3.02 F1800.0
G1 X20.61 Y-7.51 Z3.02 F1800.0
G1 X20.61 Y-7.76 Z3.02 F1800.0
G1 X18.66 Y-9.69 Z3.02 F1800.0
G1 X18.66 Y-9.95 Z3.02 F1800.0
G1 X20.61 Y-11.87 Z3.02 F1800.0
G1 X20.61 Y-12.13 Z3.02 F1800.0
G1 X18.66 Y-14.05 Z3.02 F1800.0
G1 X18.66 Y-14.31 Z3.02 F1800.0
G1 X20.61 Y-16.24 Z3.02 F1800.0
G1 X20.61 Y-16.49 Z3.02 F1800.0
G1 X18.66 Y-18.42 Z3.02 F1800.0
G1 X18.66 Y-18.67 Z3.02 F1800.0
G1 X20.61 Y-20.6 Z3.02 F1800.0
G1 X20.61 Y-20.85 Z3.02 F1800.0
G1 X18.66 Y-22.78 Z3.02 F1800.0
G1 X18.66 Y-23.04 Z3.02 F1800.0
G1 X20.61 Y-24.96 Z3.02 F1800.0
G1 X20.61 Y-25.22 Z3.02 F1800.0
G1 X18.66 Y-27.14 Z3.02 F1800.0
G1 X18.66 Y-27.4 Z3.02 F1800.0
G1 X20.61 Y-29.33 Z3.02 F1800.0
G1 X20.61 Y-29.58 Z3.02 F1800.0
G1 X18.66 Y-31.51 Z3.02 F1800.0
G1 X18.66 Y-31.76 Z3.02 F1800.0
G1 X20.61 Y-33.69 Z3.02 F1800.0
G1 X20.61 Y-33.94 Z3.02 F1800.0
G1 X18.66 Y-35.87 Z3.02 F1800.0
G1 X18.66 Y-36.13 Z3.02 F1800.0
G1 X20.61 Y-38.05 Z3.02 F1800.0
G1 X20.61 Y-38.31 Z3.02 F1800.0
G1 X18.66 Y-40.23 Z3.02 F1800.0
G1 X18.66 Y-40.49 Z3.02 F1800.0
G1 X19.2 Y-41.94 Z3.02 F1800.0
G1 X19.64 Y-41.51 Z3.02 F1800.0
G1 X20.07 Y-41.51 Z3.02 F1800.0
G1 X20.19 Y-41.62 Z3.02 F1800.0
M108 R30.0
M102
G1 X20.51 Y-41.94 Z3.02 F1800.0
M108 R3.569
M103
G1 X21.45 Y-41.94 Z3.02 F3000.0
M108 R30.0
M101
G1 X22.25 Y-41.94 Z3.02 F3000.0
M108 R3.569
G1 X22.25 Y7.05 Z3.02 F1800.0
G1 X21.82 Y7.05 Z3.02 F1800.0
G1 X21.82 Y-41.49 Z3.02 F1800.0
M108 R30.0
M102
G1 X21.82 Y-41.94 Z3.02 F1800.0
M108 R3.569
M103
G1 X22.33 Y-41.94 Z3.02 F3000.0
M108 R30.0
M101
G1 X23.13 Y-41.94 Z3.02 F3000.0
M108 R3.569
G1 X23.13 Y7.05 Z3.02 F1800.0
G1 X22.69 Y7.05 Z3.02 F1800.0
G1 X22.69 Y-41.49 Z3.02 F1800.0
M108 R30.0
M102
G1 X22.69 Y-41.94 Z3.02 F1800.0
M108 R3.569
M103
G1 X23.2 Y-41.94 Z3.02 F3000.0
M108 R30.0
M101
G1 X24.0 Y-41.94 Z3.02 F3000.0
M108 R3.569
G1 X24.0 Y7.05 Z3.02 F1800.0
G1 X23.56 Y7.05 Z3.02 F1800.0
G1 X23.56 Y-41.49 Z3.02 F1800.0
M108 R30.0
M102
G1 X23.56 Y-41.94 Z3.02 F1800.0
M108 R3.569
M103
