(** This GCode was generated by ReplicatorG 0034 **)
(*  using Skeinforge (35)  *)
(*  for a Single headed Thing-O-Matic  *)
(*  on 2012/04/09 21:21:36 (-0400) *)
(<alteration>)
(**** beginning of start.gcode ****)
(This file is for a MakerBot Thing-O-Matic)
(**** begin initialization commands ****)
G21 (set units to mm)
G90 (set positioning to absolute)
M108 R5.0 (set extruder speed)
M103 (Make sure extruder is off)
M104 S225 T0 (set extruder temperature)
M109 S120 T0 (set heated-build-platform temperature)
(**** end initialization commands ****)
(**** begin homing ****)
G162 Z F1000 (home Z axis maximum)
G92 Z10 (set Z to 0)
G1 Z0.0 (move z down 10)
G162 Z F150 (home Z axis maximum)
G161 X Y F2500 (home XY axes minimum)
M132 X Y Z A B (Recall stored home offsets for XYZAB axis)
(**** end homing ****)
(**** begin pre-wipe commands ****)
( Some people have had problems with the nozzle hitting )
( bolts or wipers during this pre-extrusion warmup.     )
( If this happens to you, you can change the values for )
( the X and Y positions in the following code.          )
( The goal is to have the toolhead wipe its initial     )
( extrusion near the edge of the platform, [anchor it]  )
( so as not to have it interfere with the print.        )
( This file can be found in:                            )
( replicatorg/skein_engines/skeinforge-##/skeinforge_application/ )
( prefs/<profile name [e.g. Thingomatic-ABP-Mk7]>/alterations )
G1 X25.0 Y-60.0 Z10.0 F3300.0 (move to waiting position)
M6 T0 (wait for toolhead parts, nozzle, HBP, etc., to reach temperature)
G0 X25 Y-57 (Position Nozzle)
G0 Z0.7     (Position Height)
M108 R4.0   (Set Extruder Speed)
M101        (Start Extruder)
G4 P1500    (Create Anchor)
(**** end pre-wipe commands ****)
(**** end of start.gcode ****)
(</alteration>)
(<creation> skeinforge </creation>)
(<version> 10.11.05 </version>)
(<extruderInitialization>)
(<craftTypeName> extrusion </craftTypeName>)
M105
(<bridgeWidthMultiplier> 1.0 </bridgeWidthMultiplier>)
(<decimalPlacesCarried> 3 </decimalPlacesCarried>)
(<layerThickness> 0.32 </layerThickness>)
(<threadSequenceString> loops perimeter infill </threadSequenceString>)
(<operatingFeedRatePerSecond> 30.0 </operatingFeedRatePerSecond>)
(<operatingFlowRate> 3.56914845556 </operatingFlowRate>)
(<orbitalFeedRatePerSecond> 15.0 </orbitalFeedRatePerSecond>)
(<travelFeedRatePerSecond> 50.0 </travelFeedRatePerSecond>)
(<perimeterWidth> 0.393 </perimeterWidth>)
(<profileName> ABS </profileName>)
(<procedureDone> carve,bottom </procedureDone>)
(<procedureDone> preface </procedureDone>)
(<procedureDone> inset </procedureDone>)
(<procedureDone> fill </procedureDone>)
(<procedureDone> speed </procedureDone>)
(<procedureDone> raft </procedureDone>)
(<procedureDone> jitter </procedureDone>)
(<procedureDone> comb </procedureDone>)
(<procedureDone> cool </procedureDone>)
(<procedureDone> outline </procedureDone>)
(<procedureDone> reversal </procedureDone>)
(<procedureDone> export </procedureDone>)
(</extruderInitialization>)
(<extrusion>)
;M113 S1.0
M108 R3.569
(<layer> 0.46 )
(<surroundingLoop>)
(<boundaryPerimeter>)
(<boundaryPoint> X15.203 Y-2.167 Z0.46 </boundaryPoint>)
(<boundaryPoint> X15.203 Y-11.897 Z0.46 </boundaryPoint>)
(<boundaryPoint> X5.473 Y-11.897 Z0.46 </boundaryPoint>)
(<boundaryPoint> X5.473 Y-39.197 Z0.46 </boundaryPoint>)
(<boundaryPoint> X42.503 Y-39.197 Z0.46 </boundaryPoint>)
(<boundaryPoint> X42.503 Y-2.167 Z0.46 </boundaryPoint>)
(<loop> outer )
M108 R2.141
G1 X44.31 Y-41.0 Z0.46 F1080.0
M101
G1 X3.67 Y-41.0 Z0.46 F1080.0
G1 X3.67 Y2.0 Z0.46 F1080.0
G1 X44.31 Y2.0 Z0.46 F1080.0
G1 X44.31 Y-40.73 Z0.46 F1080.0
M108 R30.0
M102
G1 X44.31 Y-41.0 Z0.46 F1080.0
M108 R2.141
M103
G1 X6.7 Y-13.06 Z0.46 F3000.0
M108 R30.0
M101
G1 X6.06 Y-12.58 Z0.46 F3000.0
M108 R2.141
G1 X6.06 Y-38.61 Z0.46 F1080.0
G1 X41.91 Y-38.61 Z0.46 F1080.0
G1 X41.91 Y-2.76 Z0.46 F1080.0
G1 X15.79 Y-2.76 Z0.46 F1080.0
G1 X15.79 Y-12.49 Z0.46 F1080.0
G1 X6.06 Y-12.49 Z0.46 F1080.0
G1 X6.06 Y-12.58 Z0.46 F1080.0
M103
(</loop>)
(<perimeter> outer )
G1 X5.67 Y-12.58 Z0.46 F3000.0
M101
G1 X5.67 Y-39.0 Z0.46 F1080.0
G1 X42.31 Y-39.0 Z0.46 F1080.0
G1 X42.31 Y-2.36 Z0.46 F1080.0
G1 X15.4 Y-2.36 Z0.46 F1080.0
G1 X15.4 Y-12.09 Z0.46 F1080.0
G1 X6.06 Y-12.09 Z0.46 F1080.0
G1 X5.67 Y-12.09 Z0.46 F1080.0
G1 X5.67 Y-12.31 Z0.46 F1080.0
M108 R30.0
M102
G1 X5.67 Y-12.58 Z0.46 F1080.0
M108 R2.141
M103
(</perimeter>)
(</boundaryPerimeter>)
G1 X6.2 Y-12.67 Z0.46 F1800.0
M108 R30.0
M101
G1 X6.68 Y-12.74 Z0.46 F1800.0
M108 R2.141
G1 X6.68 Y-38.08 Z0.46 F1080.0
M108 R30.0
M102
G1 X6.68 Y-38.35 Z0.46 F1080.0
M108 R2.141
M103
G1 X7.45 Y-13.22 Z0.46 F1800.0
M108 R30.0
M101
G1 X7.46 Y-12.74 Z0.46 F1800.0
M108 R2.141
G1 X7.46 Y-38.35 Z0.46 F1080.0
G1 X7.07 Y-38.35 Z0.46 F1080.0
G1 X7.07 Y-13.01 Z0.46 F1080.0
M108 R30.0
M102
G1 X7.07 Y-12.74 Z0.46 F1080.0
M108 R2.141
M103
G1 X7.77 Y-12.74 Z0.46 F1800.0
M108 R30.0
M101
G1 X8.25 Y-12.74 Z0.46 F1800.0
M108 R2.141
G1 X8.25 Y-38.35 Z0.46 F1080.0
G1 X7.85 Y-38.35 Z0.46 F1080.0
G1 X7.85 Y-13.01 Z0.46 F1080.0
M108 R30.0
M102
G1 X7.85 Y-12.74 Z0.46 F1080.0
M108 R2.141
M103
G1 X8.55 Y-12.74 Z0.46 F1800.0
M108 R30.0
M101
G1 X9.03 Y-12.74 Z0.46 F1800.0
M108 R2.141
G1 X9.03 Y-38.35 Z0.46 F1080.0
G1 X8.64 Y-38.35 Z0.46 F1080.0
G1 X8.64 Y-13.01 Z0.46 F1080.0
M108 R30.0
M102
G1 X8.64 Y-12.74 Z0.46 F1080.0
M108 R2.141
M103
G1 X9.34 Y-12.74 Z0.46 F1800.0
M108 R30.0
M101
G1 X9.82 Y-12.74 Z0.46 F1800.0
M108 R2.141
G1 X9.82 Y-38.35 Z0.46 F1080.0
G1 X9.43 Y-38.35 Z0.46 F1080.0
G1 X9.43 Y-13.01 Z0.46 F1080.0
M108 R30.0
M102
G1 X9.43 Y-12.74 Z0.46 F1080.0
M108 R2.141
M103
G1 X10.12 Y-12.74 Z0.46 F1800.0
M108 R30.0
M101
G1 X10.6 Y-12.74 Z0.46 F1800.0
M108 R2.141
G1 X10.6 Y-38.35 Z0.46 F1080.0
G1 X10.21 Y-38.35 Z0.46 F1080.0
G1 X10.21 Y-13.01 Z0.46 F1080.0
M108 R30.0
M102
G1 X10.21 Y-12.74 Z0.46 F1080.0
M108 R2.141
M103
G1 X10.91 Y-12.74 Z0.46 F1800.0
M108 R30.0
M101
G1 X11.39 Y-12.74 Z0.46 F1800.0
M108 R2.141
G1 X11.39 Y-38.35 Z0.46 F1080.0
G1 X11.0 Y-38.35 Z0.46 F1080.0
G1 X11.0 Y-13.01 Z0.46 F1080.0
M108 R30.0
M102
G1 X11.0 Y-12.74 Z0.46 F1080.0
M108 R2.141
M103
G1 X11.69 Y-12.74 Z0.46 F1800.0
M108 R30.0
M101
G1 X12.17 Y-12.74 Z0.46 F1800.0
M108 R2.141
G1 X12.17 Y-38.35 Z0.46 F1080.0
G1 X11.78 Y-38.35 Z0.46 F1080.0
G1 X11.78 Y-13.01 Z0.46 F1080.0
M108 R30.0
M102
G1 X11.78 Y-12.74 Z0.46 F1080.0
M108 R2.141
M103
G1 X12.48 Y-12.74 Z0.46 F1800.0
M108 R30.0
M101
G1 X12.96 Y-12.74 Z0.46 F1800.0
M108 R2.141
G1 X12.96 Y-38.35 Z0.46 F1080.0
G1 X12.57 Y-38.35 Z0.46 F1080.0
G1 X12.57 Y-13.01 Z0.46 F1080.0
M108 R30.0
M102
G1 X12.57 Y-12.74 Z0.46 F1080.0
M108 R2.141
M103
G1 X13.26 Y-12.74 Z0.46 F1800.0
M108 R30.0
M101
G1 X13.74 Y-12.74 Z0.46 F1800.0
M108 R2.141
G1 X13.74 Y-38.35 Z0.46 F1080.0
G1 X13.35 Y-38.35 Z0.46 F1080.0
G1 X13.35 Y-13.01 Z0.46 F1080.0
M108 R30.0
M102
G1 X13.35 Y-12.74 Z0.46 F1080.0
M108 R2.141
M103
G1 X14.05 Y-12.74 Z0.46 F1800.0
M108 R30.0
M101
G1 X14.53 Y-12.74 Z0.46 F1800.0
M108 R2.141
G1 X14.53 Y-38.35 Z0.46 F1080.0
G1 X14.14 Y-38.35 Z0.46 F1080.0
G1 X14.14 Y-13.01 Z0.46 F1080.0
M108 R30.0
M102
G1 X14.14 Y-12.74 Z0.46 F1080.0
M108 R2.141
M103
G1 X14.84 Y-12.74 Z0.46 F1800.0
M108 R30.0
M101
G1 X15.32 Y-12.74 Z0.46 F1800.0
M108 R2.141
G1 X15.32 Y-38.35 Z0.46 F1080.0
G1 X14.92 Y-38.35 Z0.46 F1080.0
G1 X14.92 Y-13.01 Z0.46 F1080.0
M108 R30.0
M102
G1 X14.92 Y-12.74 Z0.46 F1080.0
M108 R2.141
M103
G1 X15.03 Y-12.17 Z0.46 F3000.0
G1 X15.34 Y-12.04 Z0.46 F3000.0
G1 X15.48 Y-10.43 Z0.46 F3000.0
G1 X16.06 Y-3.49 Z0.46 F1800.0
M108 R30.0
M101
G1 X16.1 Y-3.01 Z0.46 F1800.0
M108 R2.141
G1 X16.1 Y-38.35 Z0.46 F1080.0
G1 X15.71 Y-38.35 Z0.46 F1080.0
G1 X15.71 Y-13.01 Z0.46 F1080.0
M108 R30.0
M102
G1 X15.71 Y-12.74 Z0.46 F1080.0
M108 R2.141
M103
G1 X16.83 Y-3.49 Z0.46 F1800.0
M108 R30.0
M101
G1 X16.89 Y-3.01 Z0.46 F1800.0
M108 R2.141
G1 X16.89 Y-38.35 Z0.46 F1080.0
G1 X16.49 Y-38.35 Z0.46 F1080.0
G1 X16.49 Y-3.28 Z0.46 F1080.0
M108 R30.0
M102
G1 X16.49 Y-3.01 Z0.46 F1080.0
M108 R2.141
M103
G1 X17.19 Y-3.01 Z0.46 F1800.0
M108 R30.0
M101
G1 X17.67 Y-3.01 Z0.46 F1800.0
M108 R2.141
G1 X17.67 Y-38.35 Z0.46 F1080.0
G1 X17.28 Y-38.35 Z0.46 F1080.0
G1 X17.28 Y-3.28 Z0.46 F1080.0
M108 R30.0
M102
G1 X17.28 Y-3.01 Z0.46 F1080.0
M108 R2.141
M103
G1 X17.98 Y-3.01 Z0.46 F1800.0
M108 R30.0
M101
G1 X18.46 Y-3.01 Z0.46 F1800.0
M108 R2.141
G1 X18.46 Y-38.35 Z0.46 F1080.0
G1 X18.06 Y-38.35 Z0.46 F1080.0
G1 X18.06 Y-3.28 Z0.46 F1080.0
M108 R30.0
M102
G1 X18.06 Y-3.01 Z0.46 F1080.0
M108 R2.141
M103
G1 X18.76 Y-3.01 Z0.46 F1800.0
M108 R30.0
M101
G1 X19.24 Y-3.01 Z0.46 F1800.0
M108 R2.141
G1 X19.24 Y-38.35 Z0.46 F1080.0
G1 X18.85 Y-38.35 Z0.46 F1080.0
G1 X18.85 Y-3.28 Z0.46 F1080.0
M108 R30.0
M102
G1 X18.85 Y-3.01 Z0.46 F1080.0
M108 R2.141
M103
G1 X19.55 Y-3.01 Z0.46 F1800.0
M108 R30.0
M101
G1 X20.03 Y-3.01 Z0.46 F1800.0
M108 R2.141
G1 X20.03 Y-38.35 Z0.46 F1080.0
G1 X19.64 Y-38.35 Z0.46 F1080.0
G1 X19.64 Y-3.28 Z0.46 F1080.0
M108 R30.0
M102
G1 X19.64 Y-3.01 Z0.46 F1080.0
M108 R2.141
M103
G1 X20.33 Y-3.01 Z0.46 F1800.0
M108 R30.0
M101
G1 X20.81 Y-3.01 Z0.46 F1800.0
M108 R2.141
G1 X20.81 Y-38.35 Z0.46 F1080.0
G1 X20.42 Y-38.35 Z0.46 F1080.0
G1 X20.42 Y-3.28 Z0.46 F1080.0
M108 R30.0
M102
G1 X20.42 Y-3.01 Z0.46 F1080.0
M108 R2.141
M103
G1 X21.12 Y-3.01 Z0.46 F1800.0
M108 R30.0
M101
G1 X21.6 Y-3.01 Z0.46 F1800.0
M108 R2.141
G1 X21.6 Y-38.35 Z0.46 F1080.0
G1 X21.21 Y-38.35 Z0.46 F1080.0
G1 X21.21 Y-3.28 Z0.46 F1080.0
M108 R30.0
M102
G1 X21.21 Y-3.01 Z0.46 F1080.0
M108 R2.141
M103
G1 X21.9 Y-3.01 Z0.46 F1800.0
M108 R30.0
M101
G1 X22.38 Y-3.01 Z0.46 F1800.0
M108 R2.141
G1 X22.38 Y-38.35 Z0.46 F1080.0
G1 X21.99 Y-38.35 Z0.46 F1080.0
G1 X21.99 Y-3.28 Z0.46 F1080.0
M108 R30.0
M102
G1 X21.99 Y-3.01 Z0.46 F1080.0
M108 R2.141
M103
G1 X22.69 Y-3.01 Z0.46 F1800.0
M108 R30.0
M101
G1 X23.17 Y-3.01 Z0.46 F1800.0
M108 R2.141
G1 X23.17 Y-38.35 Z0.46 F1080.0
G1 X22.78 Y-38.35 Z0.46 F1080.0
G1 X22.78 Y-3.28 Z0.46 F1080.0
M108 R30.0
M102
G1 X22.78 Y-3.01 Z0.46 F1080.0
M108 R2.141
M103
G1 X23.48 Y-3.01 Z0.46 F1800.0
M108 R30.0
M101
G1 X23.96 Y-3.01 Z0.46 F1800.0
M108 R2.141
G1 X23.96 Y-38.35 Z0.46 F1080.0
G1 X23.56 Y-38.35 Z0.46 F1080.0
G1 X23.56 Y-3.28 Z0.46 F1080.0
M108 R30.0
M102
G1 X23.56 Y-3.01 Z0.46 F1080.0
M108 R2.141
M103
G1 X24.26 Y-3.01 Z0.46 F1800.0
M108 R30.0
M101
G1 X24.74 Y-3.01 Z0.46 F1800.0
M108 R2.141
G1 X24.74 Y-38.35 Z0.46 F1080.0
G1 X24.35 Y-38.35 Z0.46 F1080.0
G1 X24.35 Y-3.28 Z0.46 F1080.0
M108 R30.0
M102
G1 X24.35 Y-3.01 Z0.46 F1080.0
M108 R2.141
M103
G1 X25.05 Y-3.01 Z0.46 F1800.0
M108 R30.0
M101
G1 X25.53 Y-3.01 Z0.46 F1800.0
M108 R2.141
G1 X25.53 Y-38.35 Z0.46 F1080.0
G1 X25.13 Y-38.35 Z0.46 F1080.0
G1 X25.13 Y-3.28 Z0.46 F1080.0
M108 R30.0
M102
G1 X25.13 Y-3.01 Z0.46 F1080.0
M108 R2.141
M103
G1 X25.83 Y-3.01 Z0.46 F1800.0
M108 R30.0
M101
G1 X26.31 Y-3.01 Z0.46 F1800.0
M108 R2.141
G1 X26.31 Y-38.35 Z0.46 F1080.0
G1 X25.92 Y-38.35 Z0.46 F1080.0
G1 X25.92 Y-3.28 Z0.46 F1080.0
M108 R30.0
M102
G1 X25.92 Y-3.01 Z0.46 F1080.0
M108 R2.141
M103
G1 X26.62 Y-3.01 Z0.46 F1800.0
M108 R30.0
M101
G1 X27.1 Y-3.01 Z0.46 F1800.0
M108 R2.141
G1 X27.1 Y-38.35 Z0.46 F1080.0
G1 X26.7 Y-38.35 Z0.46 F1080.0
G1 X26.7 Y-3.28 Z0.46 F1080.0
M108 R30.0
M102
G1 X26.7 Y-3.01 Z0.46 F1080.0
M108 R2.141
M103
G1 X27.4 Y-3.01 Z0.46 F1800.0
M108 R30.0
M101
G1 X27.88 Y-3.01 Z0.46 F1800.0
M108 R2.141
G1 X27.88 Y-38.35 Z0.46 F1080.0
G1 X27.49 Y-38.35 Z0.46 F1080.0
G1 X27.49 Y-3.28 Z0.46 F1080.0
M108 R30.0
M102
G1 X27.49 Y-3.01 Z0.46 F1080.0
M108 R2.141
M103
G1 X28.19 Y-3.01 Z0.46 F1800.0
M108 R30.0
M101
G1 X28.67 Y-3.01 Z0.46 F1800.0
M108 R2.141
G1 X28.67 Y-38.35 Z0.46 F1080.0
G1 X28.27 Y-38.35 Z0.46 F1080.0
G1 X28.27 Y-3.28 Z0.46 F1080.0
M108 R30.0
M102
G1 X28.27 Y-3.01 Z0.46 F1080.0
M108 R2.141
M103
G1 X28.97 Y-3.01 Z0.46 F1800.0
M108 R30.0
M101
G1 X29.45 Y-3.01 Z0.46 F1800.0
M108 R2.141
G1 X29.45 Y-38.35 Z0.46 F1080.0
G1 X29.06 Y-38.35 Z0.46 F1080.0
G1 X29.06 Y-3.28 Z0.46 F1080.0
M108 R30.0
M102
G1 X29.06 Y-3.01 Z0.46 F1080.0
M108 R2.141
M103
G1 X29.76 Y-3.01 Z0.46 F1800.0
M108 R30.0
M101
G1 X30.24 Y-3.01 Z0.46 F1800.0
M108 R2.141
G1 X30.24 Y-38.35 Z0.46 F1080.0
G1 X29.85 Y-38.35 Z0.46 F1080.0
G1 X29.85 Y-3.28 Z0.46 F1080.0
M108 R30.0
M102
G1 X29.85 Y-3.01 Z0.46 F1080.0
M108 R2.141
M103
G1 X30.54 Y-3.01 Z0.46 F1800.0
M108 R30.0
M101
G1 X31.02 Y-3.01 Z0.46 F1800.0
M108 R2.141
G1 X31.02 Y-38.35 Z0.46 F1080.0
G1 X30.63 Y-38.35 Z0.46 F1080.0
G1 X30.63 Y-3.28 Z0.46 F1080.0
M108 R30.0
M102
G1 X30.63 Y-3.01 Z0.46 F1080.0
M108 R2.141
M103
G1 X31.33 Y-3.01 Z0.46 F1800.0
M108 R30.0
M101
G1 X31.81 Y-3.01 Z0.46 F1800.0
M108 R2.141
G1 X31.81 Y-38.35 Z0.46 F1080.0
G1 X31.42 Y-38.35 Z0.46 F1080.0
G1 X31.42 Y-3.28 Z0.46 F1080.0
M108 R30.0
M102
G1 X31.42 Y-3.01 Z0.46 F1080.0
M108 R2.141
M103
G1 X32.11 Y-3.01 Z0.46 F1800.0
M108 R30.0
M101
G1 X32.59 Y-3.01 Z0.46 F1800.0
M108 R2.141
G1 X32.59 Y-38.35 Z0.46 F1080.0
G1 X32.2 Y-38.35 Z0.46 F1080.0
G1 X32.2 Y-3.28 Z0.46 F1080.0
M108 R30.0
M102
G1 X32.2 Y-3.01 Z0.46 F1080.0
M108 R2.141
M103
G1 X32.9 Y-3.01 Z0.46 F1800.0
M108 R30.0
M101
G1 X33.38 Y-3.01 Z0.46 F1800.0
M108 R2.141
G1 X33.38 Y-38.35 Z0.46 F1080.0
G1 X32.99 Y-38.35 Z0.46 F1080.0
G1 X32.99 Y-3.28 Z0.46 F1080.0
M108 R30.0
M102
G1 X32.99 Y-3.01 Z0.46 F1080.0
M108 R2.141
M103
G1 X33.69 Y-3.01 Z0.46 F1800.0
M108 R30.0
M101
G1 X34.17 Y-3.01 Z0.46 F1800.0
M108 R2.141
G1 X34.17 Y-38.35 Z0.46 F1080.0
G1 X33.77 Y-38.35 Z0.46 F1080.0
G1 X33.77 Y-3.28 Z0.46 F1080.0
M108 R30.0
M102
G1 X33.77 Y-3.01 Z0.46 F1080.0
M108 R2.141
M103
G1 X34.47 Y-3.01 Z0.46 F1800.0
M108 R30.0
M101
G1 X34.95 Y-3.01 Z0.46 F1800.0
M108 R2.141
G1 X34.95 Y-38.35 Z0.46 F1080.0
G1 X34.56 Y-38.35 Z0.46 F1080.0
G1 X34.56 Y-3.28 Z0.46 F1080.0
M108 R30.0
M102
G1 X34.56 Y-3.01 Z0.46 F1080.0
M108 R2.141
M103
G1 X35.26 Y-3.01 Z0.46 F1800.0
M108 R30.0
M101
G1 X35.74 Y-3.01 Z0.46 F1800.0
M108 R2.141
G1 X35.74 Y-38.35 Z0.46 F1080.0
G1 X35.34 Y-38.35 Z0.46 F1080.0
G1 X35.34 Y-3.28 Z0.46 F1080.0
M108 R30.0
M102
G1 X35.34 Y-3.01 Z0.46 F1080.0
M108 R2.141
M103
G1 X36.04 Y-3.01 Z0.46 F1800.0
M108 R30.0
M101
G1 X36.52 Y-3.01 Z0.46 F1800.0
M108 R2.141
G1 X36.52 Y-38.35 Z0.46 F1080.0
G1 X36.13 Y-38.35 Z0.46 F1080.0
G1 X36.13 Y-3.28 Z0.46 F1080.0
M108 R30.0
M102
G1 X36.13 Y-3.01 Z0.46 F1080.0
M108 R2.141
M103
G1 X36.83 Y-3.01 Z0.46 F1800.0
M108 R30.0
M101
G1 X37.31 Y-3.01 Z0.46 F1800.0
M108 R2.141
G1 X37.31 Y-38.35 Z0.46 F1080.0
G1 X36.91 Y-38.35 Z0.46 F1080.0
G1 X36.91 Y-3.28 Z0.46 F1080.0
M108 R30.0
M102
G1 X36.91 Y-3.01 Z0.46 F1080.0
M108 R2.141
M103
G1 X37.61 Y-3.01 Z0.46 F1800.0
M108 R30.0
M101
G1 X38.09 Y-3.01 Z0.46 F1800.0
M108 R2.141
G1 X38.09 Y-38.35 Z0.46 F1080.0
G1 X37.7 Y-38.35 Z0.46 F1080.0
G1 X37.7 Y-3.28 Z0.46 F1080.0
M108 R30.0
M102
G1 X37.7 Y-3.01 Z0.46 F1080.0
M108 R2.141
M103
G1 X38.4 Y-3.01 Z0.46 F1800.0
M108 R30.0
M101
G1 X38.88 Y-3.01 Z0.46 F1800.0
M108 R2.141
G1 X38.88 Y-38.35 Z0.46 F1080.0
G1 X38.49 Y-38.35 Z0.46 F1080.0
G1 X38.49 Y-3.28 Z0.46 F1080.0
M108 R30.0
M102
G1 X38.49 Y-3.01 Z0.46 F1080.0
M108 R2.141
M103
G1 X39.18 Y-3.01 Z0.46 F1800.0
M108 R30.0
M101
G1 X39.66 Y-3.01 Z0.46 F1800.0
M108 R2.141
G1 X39.66 Y-38.35 Z0.46 F1080.0
G1 X39.27 Y-38.35 Z0.46 F1080.0
G1 X39.27 Y-3.28 Z0.46 F1080.0
M108 R30.0
M102
G1 X39.27 Y-3.01 Z0.46 F1080.0
M108 R2.141
M103
G1 X39.97 Y-3.01 Z0.46 F1800.0
M108 R30.0
M101
G1 X40.45 Y-3.01 Z0.46 F1800.0
M108 R2.141
G1 X40.45 Y-38.35 Z0.46 F1080.0
G1 X40.06 Y-38.35 Z0.46 F1080.0
G1 X40.06 Y-3.28 Z0.46 F1080.0
M108 R30.0
M102
G1 X40.06 Y-3.01 Z0.46 F1080.0
M108 R2.141
M103
G1 X40.75 Y-3.01 Z0.46 F1800.0
M108 R30.0
M101
G1 X41.23 Y-3.01 Z0.46 F1800.0
M108 R2.141
G1 X41.23 Y-38.35 Z0.46 F1080.0
G1 X40.84 Y-38.35 Z0.46 F1080.0
G1 X40.84 Y-3.28 Z0.46 F1080.0
M108 R30.0
M102
G1 X40.84 Y-3.01 Z0.46 F1080.0
M108 R2.141
M103
G1 X41.62 Y-37.87 Z0.46 F1800.0
M108 R30.0
M101
G1 X41.63 Y-38.35 Z0.46 F1800.0
M108 R2.141
G1 X41.63 Y-3.01 Z0.46 F1080.0
M103
(</surroundingLoop>)
(</layer>)
(<layer> 0.78 )
(<surroundingLoop>)
(<boundaryPerimeter>)
(<boundaryPoint> X15.203 Y-2.167 Z0.78 </boundaryPoint>)
(<boundaryPoint> X15.203 Y-11.897 Z0.78 </boundaryPoint>)
(<boundaryPoint> X5.473 Y-11.897 Z0.78 </boundaryPoint>)
(<boundaryPoint> X5.473 Y-39.197 Z0.78 </boundaryPoint>)
(<boundaryPoint> X42.503 Y-39.197 Z0.78 </boundaryPoint>)
(<boundaryPoint> X42.503 Y-2.167 Z0.78 </boundaryPoint>)
(<loop> outer )
M108 R3.569
G1 X41.83 Y-2.76 Z0.78 F3000.0
M101
G1 X41.63 Y-2.76 Z0.78 F1800.0
G1 X15.79 Y-2.76 Z0.78 F1800.0
G1 X15.79 Y-12.49 Z0.78 F1800.0
G1 X6.06 Y-12.49 Z0.78 F1800.0
G1 X6.06 Y-38.61 Z0.78 F1800.0
G1 X41.91 Y-38.61 Z0.78 F1800.0
G1 X41.91 Y-2.76 Z0.78 F1800.0
G1 X41.83 Y-2.76 Z0.78 F1800.0
M103
(</loop>)
(<perimeter> outer )
G1 X41.83 Y-2.36 Z0.78 F3000.0
M101
G1 X41.63 Y-2.36 Z0.78 F1800.0
G1 X15.4 Y-2.36 Z0.78 F1800.0
G1 X15.4 Y-12.09 Z0.78 F1800.0
G1 X5.67 Y-12.09 Z0.78 F1800.0
G1 X5.67 Y-39.0 Z0.78 F1800.0
G1 X42.31 Y-39.0 Z0.78 F1800.0
G1 X42.31 Y-2.36 Z0.78 F1800.0
G1 X41.83 Y-2.36 Z0.78 F1800.0
M103
(</perimeter>)
(</boundaryPerimeter>)
G1 X41.66 Y-3.14 Z0.78 F3000.0
M101
G1 X16.05 Y-3.14 Z0.78 F1800.0
G1 X16.05 Y-3.53 Z0.78 F1800.0
G1 X41.66 Y-3.53 Z0.78 F1800.0
M103
G1 X41.66 Y-3.93 Z0.78 F3000.0
M101
G1 X16.05 Y-3.93 Z0.78 F1800.0
G1 X16.05 Y-4.32 Z0.78 F1800.0
G1 X41.66 Y-4.32 Z0.78 F1800.0
M103
G1 X41.66 Y-4.71 Z0.78 F3000.0
M101
G1 X16.05 Y-4.71 Z0.78 F1800.0
G1 X16.05 Y-5.11 Z0.78 F1800.0
G1 X41.66 Y-5.11 Z0.78 F1800.0
M103
G1 X41.66 Y-5.5 Z0.78 F3000.0
M101
G1 X16.05 Y-5.5 Z0.78 F1800.0
G1 X16.05 Y-5.89 Z0.78 F1800.0
G1 X41.66 Y-5.89 Z0.78 F1800.0
M103
G1 X41.66 Y-6.28 Z0.78 F3000.0
M101
G1 X16.05 Y-6.28 Z0.78 F1800.0
G1 X16.05 Y-6.68 Z0.78 F1800.0
G1 X41.66 Y-6.68 Z0.78 F1800.0
M103
G1 X41.66 Y-7.07 Z0.78 F3000.0
M101
G1 X16.05 Y-7.07 Z0.78 F1800.0
G1 X16.05 Y-7.46 Z0.78 F1800.0
G1 X41.66 Y-7.46 Z0.78 F1800.0
M103
G1 X41.66 Y-7.85 Z0.78 F3000.0
M101
G1 X16.05 Y-7.85 Z0.78 F1800.0
G1 X16.05 Y-8.25 Z0.78 F1800.0
G1 X41.66 Y-8.25 Z0.78 F1800.0
M103
G1 X41.66 Y-8.64 Z0.78 F3000.0
M101
G1 X16.05 Y-8.64 Z0.78 F1800.0
G1 X16.05 Y-9.03 Z0.78 F1800.0
G1 X41.66 Y-9.03 Z0.78 F1800.0
M103
G1 X41.66 Y-9.43 Z0.78 F3000.0
M101
G1 X16.05 Y-9.43 Z0.78 F1800.0
G1 X16.05 Y-9.82 Z0.78 F1800.0
G1 X41.66 Y-9.82 Z0.78 F1800.0
M103
G1 X41.66 Y-10.21 Z0.78 F3000.0
M101
G1 X16.05 Y-10.21 Z0.78 F1800.0
G1 X16.05 Y-10.6 Z0.78 F1800.0
G1 X41.66 Y-10.6 Z0.78 F1800.0
M103
G1 X41.66 Y-11.0 Z0.78 F3000.0
M101
G1 X16.05 Y-11.0 Z0.78 F1800.0
G1 X16.05 Y-11.39 Z0.78 F1800.0
G1 X41.66 Y-11.39 Z0.78 F1800.0
M103
G1 X41.66 Y-11.78 Z0.78 F3000.0
M101
G1 X16.05 Y-11.78 Z0.78 F1800.0
G1 X16.05 Y-12.17 Z0.78 F1800.0
G1 X41.66 Y-12.17 Z0.78 F1800.0
M103
G1 X41.66 Y-12.57 Z0.78 F3000.0
M101
G1 X16.5 Y-12.57 Z0.78 F1800.0
M108 R30.0
M102
G1 X16.05 Y-12.57 Z0.78 F1800.0
M108 R3.569
M103
G1 X7.12 Y-12.93 Z0.78 F3000.0
M108 R30.0
M101
G1 X6.32 Y-12.96 Z0.78 F3000.0
M108 R3.569
G1 X41.66 Y-12.96 Z0.78 F1800.0
M103
G1 X41.66 Y-13.35 Z0.78 F3000.0
M101
G1 X6.32 Y-13.35 Z0.78 F1800.0
G1 X6.32 Y-13.74 Z0.78 F1800.0
G1 X41.66 Y-13.74 Z0.78 F1800.0
M103
G1 X41.66 Y-14.14 Z0.78 F3000.0
M101
G1 X6.32 Y-14.14 Z0.78 F1800.0
G1 X6.32 Y-14.53 Z0.78 F1800.0
G1 X41.66 Y-14.53 Z0.78 F1800.0
M103
G1 X41.66 Y-14.92 Z0.78 F3000.0
M101
G1 X6.32 Y-14.92 Z0.78 F1800.0
G1 X6.32 Y-15.32 Z0.78 F1800.0
G1 X41.66 Y-15.32 Z0.78 F1800.0
M103
G1 X41.66 Y-15.71 Z0.78 F3000.0
M101
G1 X6.32 Y-15.71 Z0.78 F1800.0
G1 X6.32 Y-16.1 Z0.78 F1800.0
G1 X41.66 Y-16.1 Z0.78 F1800.0
M103
G1 X41.66 Y-16.49 Z0.78 F3000.0
M101
G1 X6.32 Y-16.49 Z0.78 F1800.0
G1 X6.32 Y-16.89 Z0.78 F1800.0
G1 X41.66 Y-16.89 Z0.78 F1800.0
M103
G1 X41.66 Y-17.28 Z0.78 F3000.0
M101
G1 X6.32 Y-17.28 Z0.78 F1800.0
G1 X6.32 Y-17.67 Z0.78 F1800.0
G1 X41.66 Y-17.67 Z0.78 F1800.0
M103
G1 X41.66 Y-18.06 Z0.78 F3000.0
M101
G1 X6.32 Y-18.06 Z0.78 F1800.0
G1 X6.32 Y-18.46 Z0.78 F1800.0
G1 X41.66 Y-18.46 Z0.78 F1800.0
M103
G1 X41.66 Y-18.85 Z0.78 F3000.0
M101
G1 X6.32 Y-18.85 Z0.78 F1800.0
G1 X6.32 Y-19.24 Z0.78 F1800.0
G1 X41.66 Y-19.24 Z0.78 F1800.0
M103
G1 X41.66 Y-19.64 Z0.78 F3000.0
M101
G1 X6.32 Y-19.64 Z0.78 F1800.0
G1 X6.32 Y-20.03 Z0.78 F1800.0
G1 X41.66 Y-20.03 Z0.78 F1800.0
M103
G1 X41.66 Y-20.42 Z0.78 F3000.0
M101
G1 X6.32 Y-20.42 Z0.78 F1800.0
G1 X6.32 Y-20.81 Z0.78 F1800.0
G1 X41.66 Y-20.81 Z0.78 F1800.0
M103
G1 X41.66 Y-21.21 Z0.78 F3000.0
M101
G1 X6.32 Y-21.21 Z0.78 F1800.0
G1 X6.32 Y-21.6 Z0.78 F1800.0
G1 X41.66 Y-21.6 Z0.78 F1800.0
M103
G1 X41.66 Y-21.99 Z0.78 F3000.0
M101
G1 X6.32 Y-21.99 Z0.78 F1800.0
G1 X6.32 Y-22.38 Z0.78 F1800.0
G1 X41.66 Y-22.38 Z0.78 F1800.0
M103
G1 X41.66 Y-22.78 Z0.78 F3000.0
M101
G1 X6.32 Y-22.78 Z0.78 F1800.0
G1 X6.32 Y-23.17 Z0.78 F1800.0
G1 X41.66 Y-23.17 Z0.78 F1800.0
M103
G1 X41.66 Y-23.56 Z0.78 F3000.0
M101
G1 X6.32 Y-23.56 Z0.78 F1800.0
G1 X6.32 Y-23.96 Z0.78 F1800.0
G1 X41.66 Y-23.96 Z0.78 F1800.0
M103
G1 X41.66 Y-24.35 Z0.78 F3000.0
M101
G1 X6.32 Y-24.35 Z0.78 F1800.0
G1 X6.32 Y-24.74 Z0.78 F1800.0
G1 X41.66 Y-24.74 Z0.78 F1800.0
M103
G1 X41.66 Y-25.13 Z0.78 F3000.0
M101
G1 X6.32 Y-25.13 Z0.78 F1800.0
G1 X6.32 Y-25.53 Z0.78 F1800.0
G1 X41.66 Y-25.53 Z0.78 F1800.0
M103
G1 X41.66 Y-25.92 Z0.78 F3000.0
M101
G1 X6.32 Y-25.92 Z0.78 F1800.0
G1 X6.32 Y-26.31 Z0.78 F1800.0
G1 X41.66 Y-26.31 Z0.78 F1800.0
M103
G1 X41.66 Y-26.7 Z0.78 F3000.0
M101
G1 X6.32 Y-26.7 Z0.78 F1800.0
G1 X6.32 Y-27.1 Z0.78 F1800.0
G1 X41.66 Y-27.1 Z0.78 F1800.0
M103
G1 X41.66 Y-27.49 Z0.78 F3000.0
M101
G1 X6.32 Y-27.49 Z0.78 F1800.0
G1 X6.32 Y-27.88 Z0.78 F1800.0
G1 X41.66 Y-27.88 Z0.78 F1800.0
M103
G1 X41.66 Y-28.27 Z0.78 F3000.0
M101
G1 X6.32 Y-28.27 Z0.78 F1800.0
G1 X6.32 Y-28.67 Z0.78 F1800.0
G1 X41.66 Y-28.67 Z0.78 F1800.0
M103
G1 X41.66 Y-29.06 Z0.78 F3000.0
M101
G1 X6.32 Y-29.06 Z0.78 F1800.0
G1 X6.32 Y-29.45 Z0.78 F1800.0
G1 X41.66 Y-29.45 Z0.78 F1800.0
M103
G1 X41.66 Y-29.85 Z0.78 F3000.0
M101
G1 X6.32 Y-29.85 Z0.78 F1800.0
G1 X6.32 Y-30.24 Z0.78 F1800.0
G1 X41.66 Y-30.24 Z0.78 F1800.0
M103
G1 X41.66 Y-30.63 Z0.78 F3000.0
M101
G1 X6.32 Y-30.63 Z0.78 F1800.0
G1 X6.32 Y-31.02 Z0.78 F1800.0
G1 X41.66 Y-31.02 Z0.78 F1800.0
M103
G1 X41.66 Y-31.42 Z0.78 F3000.0
M101
G1 X6.32 Y-31.42 Z0.78 F1800.0
G1 X6.32 Y-31.81 Z0.78 F1800.0
G1 X41.66 Y-31.81 Z0.78 F1800.0
M103
G1 X41.66 Y-32.2 Z0.78 F3000.0
M101
G1 X6.32 Y-32.2 Z0.78 F1800.0
G1 X6.32 Y-32.59 Z0.78 F1800.0
G1 X41.66 Y-32.59 Z0.78 F1800.0
M103
G1 X41.66 Y-32.99 Z0.78 F3000.0
M101
G1 X6.32 Y-32.99 Z0.78 F1800.0
G1 X6.32 Y-33.38 Z0.78 F1800.0
G1 X41.66 Y-33.38 Z0.78 F1800.0
M103
G1 X41.66 Y-33.77 Z0.78 F3000.0
M101
G1 X6.32 Y-33.77 Z0.78 F1800.0
G1 X6.32 Y-34.17 Z0.78 F1800.0
G1 X41.66 Y-34.17 Z0.78 F1800.0
M103
G1 X41.66 Y-34.56 Z0.78 F3000.0
M101
G1 X6.32 Y-34.56 Z0.78 F1800.0
G1 X6.32 Y-34.95 Z0.78 F1800.0
G1 X41.66 Y-34.95 Z0.78 F1800.0
M103
G1 X41.66 Y-35.34 Z0.78 F3000.0
M101
G1 X6.32 Y-35.34 Z0.78 F1800.0
G1 X6.32 Y-35.74 Z0.78 F1800.0
G1 X41.66 Y-35.74 Z0.78 F1800.0
M103
G1 X41.66 Y-36.13 Z0.78 F3000.0
M101
G1 X6.32 Y-36.13 Z0.78 F1800.0
G1 X6.32 Y-36.52 Z0.78 F1800.0
G1 X41.66 Y-36.52 Z0.78 F1800.0
M103
G1 X41.66 Y-36.91 Z0.78 F3000.0
M101
G1 X6.32 Y-36.91 Z0.78 F1800.0
G1 X6.32 Y-37.31 Z0.78 F1800.0
G1 X41.66 Y-37.31 Z0.78 F1800.0
M103
G1 X41.66 Y-37.7 Z0.78 F3000.0
M101
G1 X6.32 Y-37.7 Z0.78 F1800.0
G1 X6.32 Y-38.09 Z0.78 F1800.0
G1 X41.66 Y-38.09 Z0.78 F1800.0
M103
(</surroundingLoop>)
(</layer>)
(<operatingLayerEnd> </operatingLayerEnd>)
(<layer> 1.1 )
(<surroundingLoop>)
(<boundaryPerimeter>)
(<boundaryPoint> X15.203 Y-2.167 Z1.1 </boundaryPoint>)
(<boundaryPoint> X15.203 Y-11.897 Z1.1 </boundaryPoint>)
(<boundaryPoint> X5.473 Y-11.897 Z1.1 </boundaryPoint>)
(<boundaryPoint> X5.473 Y-39.197 Z1.1 </boundaryPoint>)
(<boundaryPoint> X42.503 Y-39.197 Z1.1 </boundaryPoint>)
(<boundaryPoint> X42.503 Y-2.167 Z1.1 </boundaryPoint>)
(<loop> outer )
G1 X41.91 Y-37.81 Z1.1 F3000.0
M101
G1 X41.91 Y-2.76 Z1.1 F1800.0
G1 X15.79 Y-2.76 Z1.1 F1800.0
G1 X15.79 Y-12.49 Z1.1 F1800.0
G1 X6.06 Y-12.49 Z1.1 F1800.0
G1 X6.06 Y-38.61 Z1.1 F1800.0
G1 X41.91 Y-38.61 Z1.1 F1800.0
G1 X41.91 Y-38.09 Z1.1 F1800.0
G1 X41.91 Y-37.81 Z1.1 F1800.0
M103
(</loop>)
(<perimeter> outer )
G1 X42.31 Y-37.81 Z1.1 F3000.0
M101
G1 X42.31 Y-2.36 Z1.1 F1800.0
G1 X15.4 Y-2.36 Z1.1 F1800.0
G1 X15.4 Y-12.09 Z1.1 F1800.0
G1 X5.67 Y-12.09 Z1.1 F1800.0
G1 X5.67 Y-39.0 Z1.1 F1800.0
G1 X42.31 Y-39.0 Z1.1 F1800.0
G1 X42.31 Y-38.26 Z1.1 F1800.0
M108 R30.0
M102
G1 X42.31 Y-38.09 Z1.1 F1800.0
G1 X42.31 Y-37.81 Z1.1 F1800.0
M108 R3.569
M103
(</perimeter>)
(</boundaryPerimeter>)
G1 X41.47 Y-3.81 Z1.1 F3000.0
M108 R30.0
M101
G1 X41.45 Y-3.01 Z1.1 F3000.0
M108 R3.569
G1 X41.45 Y-38.35 Z1.1 F1800.0
G1 X41.02 Y-38.35 Z1.1 F1800.0
G1 X39.27 Y-3.01 Z1.1 F1800.0
G1 X38.4 Y-3.45 Z1.1 F1800.0
G1 X38.29 Y-33.94 Z1.1 F1800.0
G1 X40.58 Y-38.35 Z1.1 F1800.0
G1 X37.09 Y-38.35 Z1.1 F1800.0
G1 X36.11 Y-36.13 Z1.1 F1800.0
G1 X36.11 Y-35.87 Z1.1 F1800.0
G1 X38.06 Y-33.94 Z1.1 F1800.0
G1 X38.06 Y-33.69 Z1.1 F1800.0
G1 X36.11 Y-31.76 Z1.1 F1800.0
G1 X36.11 Y-31.51 Z1.1 F1800.0
G1 X38.06 Y-29.58 Z1.1 F1800.0
G1 X38.06 Y-29.33 Z1.1 F1800.0
G1 X36.11 Y-27.4 Z1.1 F1800.0
G1 X36.11 Y-27.14 Z1.1 F1800.0
G1 X38.06 Y-25.22 Z1.1 F1800.0
G1 X38.06 Y-24.96 Z1.1 F1800.0
G1 X36.11 Y-23.04 Z1.1 F1800.0
G1 X36.11 Y-22.78 Z1.1 F1800.0
G1 X38.06 Y-20.85 Z1.1 F1800.0
G1 X38.06 Y-20.6 Z1.1 F1800.0
G1 X36.11 Y-18.67 Z1.1 F1800.0
G1 X36.11 Y-18.42 Z1.1 F1800.0
G1 X38.06 Y-16.49 Z1.1 F1800.0
G1 X38.06 Y-16.24 Z1.1 F1800.0
G1 X36.11 Y-14.31 Z1.1 F1800.0
G1 X36.11 Y-14.05 Z1.1 F1800.0
G1 X38.06 Y-12.13 Z1.1 F1800.0
G1 X38.06 Y-11.87 Z1.1 F1800.0
G1 X36.11 Y-9.95 Z1.1 F1800.0
G1 X36.11 Y-9.69 Z1.1 F1800.0
G1 X38.06 Y-7.76 Z1.1 F1800.0
G1 X38.06 Y-7.51 Z1.1 F1800.0
G1 X36.11 Y-5.58 Z1.1 F1800.0
G1 X35.78 Y-3.01 Z1.1 F1800.0
G1 X36.22 Y-3.45 Z1.1 F1800.0
G1 X36.65 Y-3.45 Z1.1 F1800.0
G1 X36.77 Y-3.33 Z1.1 F1800.0
M108 R30.0
M102
G1 X37.09 Y-3.01 Z1.1 F1800.0
M108 R3.569
M103
G1 X35.71 Y-3.01 Z1.1 F3000.0
M108 R30.0
M101
G1 X34.91 Y-3.01 Z1.1 F3000.0
M108 R3.569
G1 X35.34 Y-3.45 Z1.1 F1800.0
G1 X35.88 Y-5.33 Z1.1 F1800.0
G1 X35.88 Y-5.58 Z1.1 F1800.0
G1 X33.93 Y-7.51 Z1.1 F1800.0
G1 X33.93 Y-7.76 Z1.1 F1800.0
G1 X35.88 Y-9.69 Z1.1 F1800.0
G1 X35.88 Y-9.95 Z1.1 F1800.0
G1 X33.93 Y-11.87 Z1.1 F1800.0
G1 X33.93 Y-12.13 Z1.1 F1800.0
G1 X35.88 Y-14.05 Z1.1 F1800.0
G1 X35.88 Y-14.31 Z1.1 F1800.0
G1 X33.93 Y-16.24 Z1.1 F1800.0
G1 X33.93 Y-16.49 Z1.1 F1800.0
G1 X35.88 Y-18.42 Z1.1 F1800.0
G1 X35.88 Y-18.67 Z1.1 F1800.0
G1 X33.93 Y-20.6 Z1.1 F1800.0
G1 X33.93 Y-20.85 Z1.1 F1800.0
G1 X35.88 Y-22.78 Z1.1 F1800.0
G1 X35.88 Y-23.04 Z1.1 F1800.0
G1 X33.93 Y-24.96 Z1.1 F1800.0
G1 X33.93 Y-25.22 Z1.1 F1800.0
G1 X35.88 Y-27.14 Z1.1 F1800.0
G1 X35.88 Y-27.4 Z1.1 F1800.0
G1 X33.93 Y-29.33 Z1.1 F1800.0
G1 X33.93 Y-29.58 Z1.1 F1800.0
G1 X35.88 Y-31.51 Z1.1 F1800.0
G1 X35.88 Y-31.76 Z1.1 F1800.0
G1 X33.93 Y-33.69 Z1.1 F1800.0
G1 X33.93 Y-33.94 Z1.1 F1800.0
G1 X35.88 Y-35.87 Z1.1 F1800.0
G1 X35.88 Y-36.13 Z1.1 F1800.0
G1 X36.65 Y-38.35 Z1.1 F1800.0
G1 X32.29 Y-38.35 Z1.1 F1800.0
G1 X31.75 Y-36.13 Z1.1 F1800.0
G1 X31.75 Y-35.87 Z1.1 F1800.0
G1 X33.7 Y-33.94 Z1.1 F1800.0
G1 X33.7 Y-33.69 Z1.1 F1800.0
G1 X31.75 Y-31.76 Z1.1 F1800.0
G1 X31.75 Y-31.51 Z1.1 F1800.0
G1 X33.7 Y-29.58 Z1.1 F1800.0
G1 X33.7 Y-29.33 Z1.1 F1800.0
G1 X31.75 Y-27.4 Z1.1 F1800.0
G1 X31.75 Y-27.14 Z1.1 F1800.0
G1 X33.7 Y-25.22 Z1.1 F1800.0
G1 X33.7 Y-24.96 Z1.1 F1800.0
G1 X31.75 Y-23.04 Z1.1 F1800.0
G1 X31.75 Y-22.78 Z1.1 F1800.0
G1 X33.7 Y-20.85 Z1.1 F1800.0
G1 X33.7 Y-20.6 Z1.1 F1800.0
G1 X31.75 Y-18.67 Z1.1 F1800.0
G1 X31.75 Y-18.42 Z1.1 F1800.0
G1 X33.7 Y-16.49 Z1.1 F1800.0
G1 X33.7 Y-16.24 Z1.1 F1800.0
G1 X31.75 Y-14.31 Z1.1 F1800.0
G1 X31.75 Y-14.05 Z1.1 F1800.0
G1 X33.7 Y-12.13 Z1.1 F1800.0
G1 X33.7 Y-11.87 Z1.1 F1800.0
G1 X31.75 Y-9.95 Z1.1 F1800.0
G1 X31.75 Y-9.69 Z1.1 F1800.0
G1 X33.7 Y-7.76 Z1.1 F1800.0
G1 X33.7 Y-7.51 Z1.1 F1800.0
G1 X31.75 Y-5.58 Z1.1 F1800.0
G1 X31.85 Y-3.45 Z1.1 F1800.0
G1 X32.32 Y-3.21 Z1.1 F1800.0
M108 R30.0
M102
G1 X32.73 Y-3.01 Z1.1 F1800.0
M108 R3.569
M103
G1 X31.34 Y-3.01 Z1.1 F3000.0
M108 R30.0
M101
G1 X30.54 Y-3.01 Z1.1 F3000.0
M108 R3.569
G1 X30.98 Y-3.45 Z1.1 F1800.0
G1 X31.52 Y-5.33 Z1.1 F1800.0
G1 X31.52 Y-5.58 Z1.1 F1800.0
G1 X29.57 Y-7.51 Z1.1 F1800.0
G1 X29.57 Y-7.76 Z1.1 F1800.0
G1 X31.52 Y-9.69 Z1.1 F1800.0
G1 X31.52 Y-9.95 Z1.1 F1800.0
G1 X29.57 Y-11.87 Z1.1 F1800.0
G1 X29.57 Y-12.13 Z1.1 F1800.0
G1 X31.52 Y-14.05 Z1.1 F1800.0
G1 X31.52 Y-14.31 Z1.1 F1800.0
G1 X29.57 Y-16.24 Z1.1 F1800.0
G1 X29.57 Y-16.49 Z1.1 F1800.0
G1 X31.52 Y-18.42 Z1.1 F1800.0
G1 X31.52 Y-18.67 Z1.1 F1800.0
G1 X29.57 Y-20.6 Z1.1 F1800.0
G1 X29.57 Y-20.85 Z1.1 F1800.0
G1 X31.52 Y-22.78 Z1.1 F1800.0
G1 X31.52 Y-23.04 Z1.1 F1800.0
G1 X29.57 Y-24.96 Z1.1 F1800.0
G1 X29.57 Y-25.22 Z1.1 F1800.0
G1 X31.52 Y-27.14 Z1.1 F1800.0
G1 X31.52 Y-27.4 Z1.1 F1800.0
G1 X29.57 Y-29.33 Z1.1 F1800.0
G1 X29.57 Y-29.58 Z1.1 F1800.0
G1 X31.52 Y-31.51 Z1.1 F1800.0
G1 X31.52 Y-31.76 Z1.1 F1800.0
G1 X29.57 Y-33.69 Z1.1 F1800.0
G1 X29.57 Y-33.94 Z1.1 F1800.0
G1 X31.52 Y-35.87 Z1.1 F1800.0
G1 X31.85 Y-38.35 Z1.1 F1800.0
G1 X28.36 Y-38.35 Z1.1 F1800.0
G1 X27.39 Y-36.13 Z1.1 F1800.0
G1 X27.39 Y-35.87 Z1.1 F1800.0
G1 X29.34 Y-33.94 Z1.1 F1800.0
G1 X29.34 Y-33.69 Z1.1 F1800.0
G1 X27.39 Y-31.76 Z1.1 F1800.0
G1 X27.39 Y-31.51 Z1.1 F1800.0
G1 X29.34 Y-29.58 Z1.1 F1800.0
G1 X29.34 Y-29.33 Z1.1 F1800.0
G1 X27.39 Y-27.4 Z1.1 F1800.0
G1 X27.39 Y-27.14 Z1.1 F1800.0
G1 X29.34 Y-25.22 Z1.1 F1800.0
G1 X29.34 Y-24.96 Z1.1 F1800.0
G1 X27.39 Y-23.04 Z1.1 F1800.0
G1 X27.39 Y-22.78 Z1.1 F1800.0
G1 X29.34 Y-20.85 Z1.1 F1800.0
G1 X29.34 Y-20.6 Z1.1 F1800.0
G1 X27.39 Y-18.67 Z1.1 F1800.0
G1 X27.39 Y-18.42 Z1.1 F1800.0
G1 X29.34 Y-16.49 Z1.1 F1800.0
G1 X29.34 Y-16.24 Z1.1 F1800.0
G1 X27.39 Y-14.31 Z1.1 F1800.0
G1 X27.39 Y-14.05 Z1.1 F1800.0
G1 X29.34 Y-12.13 Z1.1 F1800.0
G1 X29.34 Y-11.87 Z1.1 F1800.0
G1 X27.39 Y-9.95 Z1.1 F1800.0
G1 X27.39 Y-9.69 Z1.1 F1800.0
G1 X29.34 Y-7.76 Z1.1 F1800.0
G1 X29.34 Y-7.51 Z1.1 F1800.0
G1 X27.39 Y-5.58 Z1.1 F1800.0
G1 X27.05 Y-3.01 Z1.1 F1800.0
G1 X27.49 Y-3.45 Z1.1 F1800.0
G1 X27.93 Y-3.45 Z1.1 F1800.0
G1 X28.04 Y-3.33 Z1.1 F1800.0
M108 R30.0
M102
G1 X28.36 Y-3.01 Z1.1 F1800.0
M108 R3.569
M103
G1 X26.98 Y-3.01 Z1.1 F3000.0
M108 R30.0
M101
G1 X26.18 Y-3.01 Z1.1 F3000.0
M108 R3.569
G1 X26.62 Y-3.45 Z1.1 F1800.0
G1 X27.16 Y-5.33 Z1.1 F1800.0
G1 X27.16 Y-5.58 Z1.1 F1800.0
G1 X25.2 Y-7.51 Z1.1 F1800.0
G1 X25.2 Y-7.76 Z1.1 F1800.0
G1 X27.16 Y-9.69 Z1.1 F1800.0
G1 X27.16 Y-9.95 Z1.1 F1800.0
G1 X25.2 Y-11.87 Z1.1 F1800.0
G1 X25.2 Y-12.13 Z1.1 F1800.0
G1 X27.16 Y-14.05 Z1.1 F1800.0
G1 X27.16 Y-14.31 Z1.1 F1800.0
G1 X25.2 Y-16.24 Z1.1 F1800.0
G1 X25.2 Y-16.49 Z1.1 F1800.0
G1 X27.16 Y-18.42 Z1.1 F1800.0
G1 X27.16 Y-18.67 Z1.1 F1800.0
G1 X25.2 Y-20.6 Z1.1 F1800.0
G1 X25.2 Y-20.85 Z1.1 F1800.0
G1 X27.16 Y-22.78 Z1.1 F1800.0
G1 X27.16 Y-23.04 Z1.1 F1800.0
G1 X25.2 Y-24.96 Z1.1 F1800.0
G1 X25.2 Y-25.22 Z1.1 F1800.0
G1 X27.16 Y-27.14 Z1.1 F1800.0
G1 X27.16 Y-27.4 Z1.1 F1800.0
G1 X25.2 Y-29.33 Z1.1 F1800.0
G1 X25.2 Y-29.58 Z1.1 F1800.0
G1 X27.16 Y-31.51 Z1.1 F1800.0
G1 X27.16 Y-31.76 Z1.1 F1800.0
G1 X25.2 Y-33.69 Z1.1 F1800.0
G1 X25.2 Y-33.94 Z1.1 F1800.0
G1 X27.16 Y-35.87 Z1.1 F1800.0
G1 X27.16 Y-36.13 Z1.1 F1800.0
G1 X27.93 Y-38.35 Z1.1 F1800.0
G1 X23.56 Y-38.35 Z1.1 F1800.0
G1 X23.02 Y-36.13 Z1.1 F1800.0
G1 X23.02 Y-35.87 Z1.1 F1800.0
G1 X24.97 Y-33.94 Z1.1 F1800.0
G1 X24.97 Y-33.69 Z1.1 F1800.0
G1 X23.02 Y-31.76 Z1.1 F1800.0
G1 X23.02 Y-31.51 Z1.1 F1800.0
G1 X24.97 Y-29.58 Z1.1 F1800.0
G1 X24.97 Y-29.33 Z1.1 F1800.0
G1 X23.02 Y-27.4 Z1.1 F1800.0
G1 X23.02 Y-27.14 Z1.1 F1800.0
G1 X24.97 Y-25.22 Z1.1 F1800.0
G1 X24.97 Y-24.96 Z1.1 F1800.0
G1 X23.02 Y-23.04 Z1.1 F1800.0
G1 X23.02 Y-22.78 Z1.1 F1800.0
G1 X24.97 Y-20.85 Z1.1 F1800.0
G1 X24.97 Y-20.6 Z1.1 F1800.0
G1 X23.02 Y-18.67 Z1.1 F1800.0
G1 X23.02 Y-18.42 Z1.1 F1800.0
G1 X24.97 Y-16.49 Z1.1 F1800.0
G1 X24.97 Y-16.24 Z1.1 F1800.0
G1 X23.02 Y-14.31 Z1.1 F1800.0
G1 X23.02 Y-14.05 Z1.1 F1800.0
G1 X24.97 Y-12.13 Z1.1 F1800.0
G1 X24.97 Y-11.87 Z1.1 F1800.0
G1 X23.02 Y-9.95 Z1.1 F1800.0
G1 X23.02 Y-9.69 Z1.1 F1800.0
G1 X24.97 Y-7.76 Z1.1 F1800.0
G1 X24.97 Y-7.51 Z1.1 F1800.0
G1 X23.02 Y-5.58 Z1.1 F1800.0
G1 X23.13 Y-3.45 Z1.1 F1800.0
G1 X23.56 Y-3.45 Z1.1 F1800.0
G1 X23.68 Y-3.33 Z1.1 F1800.0
M108 R30.0
M102
G1 X24.0 Y-3.01 Z1.1 F1800.0
M108 R3.569
M103
G1 X22.62 Y-3.01 Z1.1 F3000.0
M108 R30.0
M101
G1 X21.82 Y-3.01 Z1.1 F3000.0
M108 R3.569
G1 X22.25 Y-3.45 Z1.1 F1800.0
G1 X22.79 Y-5.33 Z1.1 F1800.0
G1 X22.79 Y-5.58 Z1.1 F1800.0
G1 X20.84 Y-7.51 Z1.1 F1800.0
G1 X20.84 Y-7.76 Z1.1 F1800.0
G1 X22.79 Y-9.69 Z1.1 F1800.0
G1 X22.79 Y-9.95 Z1.1 F1800.0
G1 X20.84 Y-11.87 Z1.1 F1800.0
G1 X20.84 Y-12.13 Z1.1 F1800.0
G1 X22.79 Y-14.05 Z1.1 F1800.0
G1 X22.79 Y-14.31 Z1.1 F1800.0
G1 X20.84 Y-16.24 Z1.1 F1800.0
G1 X20.84 Y-16.49 Z1.1 F1800.0
G1 X22.79 Y-18.42 Z1.1 F1800.0
G1 X22.79 Y-18.67 Z1.1 F1800.0
G1 X20.84 Y-20.6 Z1.1 F1800.0
G1 X20.84 Y-20.85 Z1.1 F1800.0
G1 X22.79 Y-22.78 Z1.1 F1800.0
G1 X22.79 Y-23.04 Z1.1 F1800.0
G1 X20.84 Y-24.96 Z1.1 F1800.0
G1 X20.84 Y-25.22 Z1.1 F1800.0
G1 X22.79 Y-27.14 Z1.1 F1800.0
G1 X22.79 Y-27.4 Z1.1 F1800.0
G1 X20.84 Y-29.33 Z1.1 F1800.0
G1 X20.84 Y-29.58 Z1.1 F1800.0
G1 X22.79 Y-31.51 Z1.1 F1800.0
G1 X22.79 Y-31.76 Z1.1 F1800.0
G1 X20.84 Y-33.69 Z1.1 F1800.0
G1 X20.84 Y-33.94 Z1.1 F1800.0
G1 X22.79 Y-35.87 Z1.1 F1800.0
G1 X22.79 Y-36.13 Z1.1 F1800.0
G1 X23.13 Y-38.35 Z1.1 F1800.0
G1 X19.64 Y-38.35 Z1.1 F1800.0
G1 X18.66 Y-36.13 Z1.1 F1800.0
G1 X18.66 Y-35.87 Z1.1 F1800.0
G1 X20.61 Y-33.94 Z1.1 F1800.0
G1 X20.61 Y-33.69 Z1.1 F1800.0
G1 X18.66 Y-31.76 Z1.1 F1800.0
G1 X18.66 Y-31.51 Z1.1 F1800.0
G1 X20.61 Y-29.58 Z1.1 F1800.0
G1 X20.61 Y-29.33 Z1.1 F1800.0
G1 X18.66 Y-27.4 Z1.1 F1800.0
G1 X18.66 Y-27.14 Z1.1 F1800.0
G1 X20.61 Y-25.22 Z1.1 F1800.0
G1 X20.61 Y-24.96 Z1.1 F1800.0
G1 X18.66 Y-23.04 Z1.1 F1800.0
G1 X18.66 Y-22.78 Z1.1 F1800.0
G1 X20.61 Y-20.85 Z1.1 F1800.0
G1 X20.61 Y-20.6 Z1.1 F1800.0
G1 X18.66 Y-18.67 Z1.1 F1800.0
G1 X18.66 Y-18.42 Z1.1 F1800.0
G1 X20.61 Y-16.49 Z1.1 F1800.0
G1 X20.61 Y-16.24 Z1.1 F1800.0
G1 X18.66 Y-14.31 Z1.1 F1800.0
G1 X18.66 Y-14.05 Z1.1 F1800.0
G1 X20.61 Y-12.13 Z1.1 F1800.0
G1 X20.61 Y-11.87 Z1.1 F1800.0
G1 X18.66 Y-9.95 Z1.1 F1800.0
G1 X18.66 Y-9.69 Z1.1 F1800.0
G1 X20.61 Y-7.76 Z1.1 F1800.0
G1 X20.61 Y-7.51 Z1.1 F1800.0
G1 X18.66 Y-5.58 Z1.1 F1800.0
G1 X18.76 Y-3.45 Z1.1 F1800.0
G1 X19.23 Y-3.21 Z1.1 F1800.0
M108 R30.0
M102
G1 X19.64 Y-3.01 Z1.1 F1800.0
M108 R3.569
M103
G1 X18.25 Y-3.01 Z1.1 F3000.0
M108 R30.0
M101
G1 X17.45 Y-3.01 Z1.1 F3000.0
M108 R3.569
G1 X17.89 Y-3.45 Z1.1 F1800.0
G1 X18.43 Y-5.33 Z1.1 F1800.0
G1 X18.43 Y-5.58 Z1.1 F1800.0
G1 X16.36 Y-7.51 Z1.1 F1800.0
G1 X16.36 Y-7.76 Z1.1 F1800.0
G1 X18.43 Y-9.69 Z1.1 F1800.0
G1 X18.43 Y-9.95 Z1.1 F1800.0
G1 X16.36 Y-11.87 Z1.1 F1800.0
G1 X16.36 Y-12.13 Z1.1 F1800.0
G1 X18.43 Y-14.05 Z1.1 F1800.0
G1 X18.43 Y-14.31 Z1.1 F1800.0
G1 X16.48 Y-16.24 Z1.1 F1800.0
G1 X16.48 Y-16.49 Z1.1 F1800.0
G1 X18.43 Y-18.42 Z1.1 F1800.0
G1 X18.43 Y-18.67 Z1.1 F1800.0
G1 X16.48 Y-20.6 Z1.1 F1800.0
G1 X16.48 Y-20.85 Z1.1 F1800.0
G1 X18.43 Y-22.78 Z1.1 F1800.0
G1 X18.43 Y-23.04 Z1.1 F1800.0
G1 X16.48 Y-24.96 Z1.1 F1800.0
G1 X16.48 Y-25.22 Z1.1 F1800.0
G1 X18.43 Y-27.14 Z1.1 F1800.0
G1 X18.43 Y-27.4 Z1.1 F1800.0
G1 X16.48 Y-29.33 Z1.1 F1800.0
G1 X16.48 Y-29.58 Z1.1 F1800.0
G1 X18.43 Y-31.51 Z1.1 F1800.0
G1 X18.43 Y-31.76 Z1.1 F1800.0
G1 X16.48 Y-33.69 Z1.1 F1800.0
G1 X16.48 Y-33.94 Z1.1 F1800.0
G1 X18.43 Y-35.87 Z1.1 F1800.0
G1 X18.43 Y-36.13 Z1.1 F1800.0
G1 X19.2 Y-38.35 Z1.1 F1800.0
G1 X14.84 Y-38.35 Z1.1 F1800.0
G1 X14.3 Y-36.13 Z1.1 F1800.0
G1 X14.3 Y-35.87 Z1.1 F1800.0
G1 X16.25 Y-33.94 Z1.1 F1800.0
G1 X16.25 Y-33.69 Z1.1 F1800.0
G1 X14.3 Y-31.76 Z1.1 F1800.0
G1 X14.3 Y-31.51 Z1.1 F1800.0
G1 X16.25 Y-29.58 Z1.1 F1800.0
G1 X16.25 Y-29.33 Z1.1 F1800.0
G1 X14.3 Y-27.4 Z1.1 F1800.0
G1 X14.3 Y-27.14 Z1.1 F1800.0
G1 X16.25 Y-25.22 Z1.1 F1800.0
G1 X16.25 Y-24.96 Z1.1 F1800.0
G1 X14.3 Y-23.04 Z1.1 F1800.0
G1 X14.3 Y-22.78 Z1.1 F1800.0
G1 X16.25 Y-20.85 Z1.1 F1800.0
G1 X16.25 Y-20.6 Z1.1 F1800.0
G1 X14.3 Y-18.67 Z1.1 F1800.0
G1 X14.3 Y-18.42 Z1.1 F1800.0
G1 X16.25 Y-16.49 Z1.1 F1800.0
G1 X16.25 Y-16.24 Z1.1 F1800.0
G1 X14.3 Y-14.31 Z1.1 F1800.0
G1 X14.3 Y-14.05 Z1.1 F1800.0
G1 X13.96 Y-12.74 Z1.1 F1800.0
G1 X14.4 Y-13.18 Z1.1 F1800.0
G1 X14.84 Y-13.18 Z1.1 F1800.0
G1 X14.95 Y-13.06 Z1.1 F1800.0
M108 R30.0
M102
G1 X15.27 Y-12.74 Z1.1 F1800.0
M108 R3.569
M103
G1 X13.89 Y-12.74 Z1.1 F3000.0
M108 R30.0
M101
G1 X13.09 Y-12.74 Z1.1 F3000.0
M108 R3.569
G1 X13.53 Y-13.18 Z1.1 F1800.0
G1 X14.07 Y-14.05 Z1.1 F1800.0
G1 X14.07 Y-14.31 Z1.1 F1800.0
G1 X12.11 Y-16.24 Z1.1 F1800.0
G1 X12.11 Y-16.49 Z1.1 F1800.0
G1 X14.07 Y-18.42 Z1.1 F1800.0
G1 X14.07 Y-18.67 Z1.1 F1800.0
G1 X12.11 Y-20.6 Z1.1 F1800.0
G1 X12.11 Y-20.85 Z1.1 F1800.0
G1 X14.07 Y-22.78 Z1.1 F1800.0
G1 X14.07 Y-23.04 Z1.1 F1800.0
G1 X12.11 Y-24.96 Z1.1 F1800.0
G1 X12.11 Y-25.22 Z1.1 F1800.0
G1 X14.07 Y-27.14 Z1.1 F1800.0
G1 X14.07 Y-27.4 Z1.1 F1800.0
G1 X12.11 Y-29.33 Z1.1 F1800.0
G1 X12.11 Y-29.58 Z1.1 F1800.0
G1 X14.07 Y-31.51 Z1.1 F1800.0
G1 X14.07 Y-31.76 Z1.1 F1800.0
G1 X12.11 Y-33.69 Z1.1 F1800.0
G1 X12.11 Y-33.94 Z1.1 F1800.0
G1 X14.07 Y-35.87 Z1.1 F1800.0
G1 X14.4 Y-38.35 Z1.1 F1800.0
G1 X10.47 Y-38.35 Z1.1 F1800.0
G1 X9.93 Y-36.13 Z1.1 F1800.0
G1 X9.93 Y-35.87 Z1.1 F1800.0
G1 X11.88 Y-33.94 Z1.1 F1800.0
G1 X11.88 Y-33.69 Z1.1 F1800.0
G1 X9.93 Y-31.76 Z1.1 F1800.0
G1 X9.93 Y-31.51 Z1.1 F1800.0
G1 X11.88 Y-29.58 Z1.1 F1800.0
G1 X11.88 Y-29.33 Z1.1 F1800.0
G1 X9.93 Y-27.4 Z1.1 F1800.0
G1 X9.93 Y-27.14 Z1.1 F1800.0
G1 X11.88 Y-25.22 Z1.1 F1800.0
G1 X11.88 Y-24.96 Z1.1 F1800.0
G1 X9.93 Y-23.04 Z1.1 F1800.0
G1 X9.93 Y-22.78 Z1.1 F1800.0
G1 X11.88 Y-20.85 Z1.1 F1800.0
G1 X11.88 Y-20.6 Z1.1 F1800.0
G1 X9.93 Y-18.67 Z1.1 F1800.0
G1 X9.93 Y-18.42 Z1.1 F1800.0
G1 X11.88 Y-16.49 Z1.1 F1800.0
G1 X11.88 Y-16.24 Z1.1 F1800.0
G1 X9.93 Y-14.31 Z1.1 F1800.0
G1 X10.04 Y-13.18 Z1.1 F1800.0
G1 X10.51 Y-12.94 Z1.1 F1800.0
M108 R30.0
M102
G1 X10.91 Y-12.74 Z1.1 F1800.0
M108 R3.569
M103
G1 X9.53 Y-12.74 Z1.1 F3000.0
M108 R30.0
M101
G1 X8.73 Y-12.74 Z1.1 F3000.0
M108 R3.569
G1 X9.16 Y-13.18 Z1.1 F1800.0
G1 X9.7 Y-14.05 Z1.1 F1800.0
G1 X9.7 Y-14.31 Z1.1 F1800.0
G1 X7.75 Y-16.24 Z1.1 F1800.0
G1 X7.75 Y-16.49 Z1.1 F1800.0
G1 X9.7 Y-18.42 Z1.1 F1800.0
G1 X9.7 Y-18.67 Z1.1 F1800.0
G1 X7.75 Y-20.6 Z1.1 F1800.0
G1 X7.75 Y-20.85 Z1.1 F1800.0
G1 X9.7 Y-22.78 Z1.1 F1800.0
G1 X9.7 Y-23.04 Z1.1 F1800.0
G1 X7.75 Y-24.96 Z1.1 F1800.0
G1 X7.75 Y-25.22 Z1.1 F1800.0
G1 X9.7 Y-27.14 Z1.1 F1800.0
G1 X9.7 Y-27.4 Z1.1 F1800.0
G1 X7.75 Y-29.33 Z1.1 F1800.0
G1 X7.75 Y-29.58 Z1.1 F1800.0
G1 X9.7 Y-31.51 Z1.1 F1800.0
G1 X9.7 Y-31.76 Z1.1 F1800.0
G1 X7.75 Y-33.69 Z1.1 F1800.0
G1 X7.75 Y-33.94 Z1.1 F1800.0
G1 X9.7 Y-35.87 Z1.1 F1800.0
G1 X10.04 Y-38.35 Z1.1 F1800.0
G1 X6.55 Y-38.35 Z1.1 F1800.0
G1 X7.52 Y-33.94 Z1.1 F1800.0
G1 X7.52 Y-16.24 Z1.1 F1800.0
G1 X6.98 Y-13.18 Z1.1 F1800.0
G1 X6.55 Y-12.74 Z1.1 F1800.0
M103
(</surroundingLoop>)
(</layer>)
(<layer> 1.42 )
(<surroundingLoop>)
(<boundaryPerimeter>)
(<boundaryPoint> X15.203 Y-2.167 Z1.42 </boundaryPoint>)
(<boundaryPoint> X15.203 Y-11.897 Z1.42 </boundaryPoint>)
(<boundaryPoint> X5.473 Y-11.897 Z1.42 </boundaryPoint>)
(<boundaryPoint> X5.473 Y-39.197 Z1.42 </boundaryPoint>)
(<boundaryPoint> X42.503 Y-39.197 Z1.42 </boundaryPoint>)
(<boundaryPoint> X42.503 Y-2.167 Z1.42 </boundaryPoint>)
(<loop> outer )
G1 X6.57 Y-12.49 Z1.42 F3000.0
M101
G1 X6.55 Y-12.49 Z1.42 F1800.0
G1 X6.06 Y-12.49 Z1.42 F1800.0
G1 X6.06 Y-38.61 Z1.42 F1800.0
G1 X41.91 Y-38.61 Z1.42 F1800.0
G1 X41.91 Y-2.76 Z1.42 F1800.0
G1 X15.79 Y-2.76 Z1.42 F1800.0
G1 X15.79 Y-12.49 Z1.42 F1800.0
G1 X6.57 Y-12.49 Z1.42 F1800.0
M103
(</loop>)
(<perimeter> outer )
G1 X6.55 Y-12.09 Z1.42 F3000.0
M101
G1 X5.67 Y-12.09 Z1.42 F1800.0
G1 X5.67 Y-39.0 Z1.42 F1800.0
G1 X42.31 Y-39.0 Z1.42 F1800.0
G1 X42.31 Y-2.36 Z1.42 F1800.0
G1 X15.4 Y-2.36 Z1.42 F1800.0
G1 X15.4 Y-12.09 Z1.42 F1800.0
G1 X7.0 Y-12.09 Z1.42 F1800.0
M108 R30.0
M102
G1 X6.55 Y-12.09 Z1.42 F1800.0
M108 R3.569
M103
(</perimeter>)
(</boundaryPerimeter>)
G1 X6.4 Y-13.6 Z1.42 F3000.0
M108 R30.0
M101
G1 X6.32 Y-14.4 Z1.42 F3000.0
M108 R3.569
G1 X6.32 Y-13.09 Z1.42 F1800.0
G1 X9.69 Y-14.07 Z1.42 F1800.0
G1 X18.67 Y-14.18 Z1.42 F1800.0
G1 X20.6 Y-12.11 Z1.42 F1800.0
G1 X20.85 Y-12.11 Z1.42 F1800.0
G1 X22.78 Y-14.07 Z1.42 F1800.0
G1 X23.04 Y-14.07 Z1.42 F1800.0
G1 X24.96 Y-12.11 Z1.42 F1800.0
G1 X25.22 Y-12.11 Z1.42 F1800.0
G1 X27.14 Y-14.07 Z1.42 F1800.0
G1 X27.4 Y-14.07 Z1.42 F1800.0
G1 X29.33 Y-12.11 Z1.42 F1800.0
G1 X29.58 Y-12.11 Z1.42 F1800.0
G1 X31.51 Y-14.07 Z1.42 F1800.0
G1 X31.76 Y-14.07 Z1.42 F1800.0
G1 X33.69 Y-12.11 Z1.42 F1800.0
G1 X33.94 Y-12.11 Z1.42 F1800.0
G1 X35.87 Y-14.07 Z1.42 F1800.0
G1 X36.13 Y-14.07 Z1.42 F1800.0
G1 X38.05 Y-12.11 Z1.42 F1800.0
G1 X41.22 Y-12.65 Z1.42 F1800.0
G1 X41.66 Y-13.09 Z1.42 F1800.0
G1 X41.22 Y-13.53 Z1.42 F1800.0
G1 X41.34 Y-13.64 Z1.42 F1800.0
M108 R30.0
M102
G1 X41.66 Y-13.96 Z1.42 F1800.0
M108 R3.569
M103
G1 X41.66 Y-15.34 Z1.42 F3000.0
M108 R30.0
M101
G1 X41.66 Y-16.14 Z1.42 F3000.0
M108 R3.569
G1 X38.05 Y-16.25 Z1.42 F1800.0
G1 X36.13 Y-14.3 Z1.42 F1800.0
G1 X35.87 Y-14.3 Z1.42 F1800.0
G1 X33.94 Y-16.25 Z1.42 F1800.0
G1 X33.69 Y-16.25 Z1.42 F1800.0
G1 X31.76 Y-14.3 Z1.42 F1800.0
G1 X31.51 Y-14.3 Z1.42 F1800.0
G1 X29.58 Y-16.25 Z1.42 F1800.0
G1 X29.33 Y-16.25 Z1.42 F1800.0
G1 X27.4 Y-14.3 Z1.42 F1800.0
G1 X27.14 Y-14.3 Z1.42 F1800.0
G1 X25.22 Y-16.25 Z1.42 F1800.0
G1 X24.96 Y-16.25 Z1.42 F1800.0
G1 X23.04 Y-14.3 Z1.42 F1800.0
G1 X22.78 Y-14.3 Z1.42 F1800.0
G1 X20.85 Y-16.25 Z1.42 F1800.0
G1 X11.87 Y-16.25 Z1.42 F1800.0
G1 X9.95 Y-14.3 Z1.42 F1800.0
G1 X9.69 Y-14.3 Z1.42 F1800.0
G1 X7.76 Y-16.25 Z1.42 F1800.0
G1 X7.51 Y-16.25 Z1.42 F1800.0
G1 X6.32 Y-14.84 Z1.42 F1800.0
G1 X6.32 Y-18.33 Z1.42 F1800.0
G1 X7.64 Y-16.48 Z1.42 F1800.0
G1 X7.76 Y-16.48 Z1.42 F1800.0
G1 X9.69 Y-18.43 Z1.42 F1800.0
G1 X9.95 Y-18.43 Z1.42 F1800.0
G1 X11.87 Y-16.48 Z1.42 F1800.0
G1 X12.13 Y-16.48 Z1.42 F1800.0
G1 X14.05 Y-18.43 Z1.42 F1800.0
G1 X14.31 Y-18.43 Z1.42 F1800.0
G1 X16.24 Y-16.48 Z1.42 F1800.0
G1 X16.49 Y-16.48 Z1.42 F1800.0
G1 X18.42 Y-18.43 Z1.42 F1800.0
G1 X18.67 Y-18.43 Z1.42 F1800.0
G1 X20.6 Y-16.48 Z1.42 F1800.0
G1 X20.85 Y-16.48 Z1.42 F1800.0
G1 X22.78 Y-18.43 Z1.42 F1800.0
G1 X23.04 Y-18.43 Z1.42 F1800.0
G1 X24.96 Y-16.48 Z1.42 F1800.0
G1 X25.22 Y-16.48 Z1.42 F1800.0
G1 X27.14 Y-18.43 Z1.42 F1800.0
G1 X27.4 Y-18.43 Z1.42 F1800.0
G1 X29.33 Y-16.48 Z1.42 F1800.0
G1 X29.58 Y-16.48 Z1.42 F1800.0
G1 X31.51 Y-18.43 Z1.42 F1800.0
G1 X31.76 Y-18.43 Z1.42 F1800.0
G1 X33.69 Y-16.48 Z1.42 F1800.0
G1 X33.94 Y-16.48 Z1.42 F1800.0
G1 X35.87 Y-18.43 Z1.42 F1800.0
G1 X36.13 Y-18.43 Z1.42 F1800.0
G1 X38.05 Y-16.48 Z1.42 F1800.0
G1 X38.31 Y-16.48 Z1.42 F1800.0
G1 X41.22 Y-17.02 Z1.42 F1800.0
G1 X41.66 Y-17.45 Z1.42 F1800.0
G1 X41.22 Y-17.89 Z1.42 F1800.0
G1 X41.34 Y-18.01 Z1.42 F1800.0
M108 R30.0
M102
G1 X41.66 Y-18.33 Z1.42 F1800.0
M108 R3.569
M103
G1 X41.66 Y-19.71 Z1.42 F3000.0
M108 R30.0
M101
G1 X41.66 Y-20.51 Z1.42 F3000.0
M108 R3.569
G1 X38.05 Y-20.61 Z1.42 F1800.0
G1 X36.13 Y-18.66 Z1.42 F1800.0
G1 X35.87 Y-18.66 Z1.42 F1800.0
G1 X33.94 Y-20.61 Z1.42 F1800.0
G1 X33.69 Y-20.61 Z1.42 F1800.0
G1 X31.76 Y-18.66 Z1.42 F1800.0
G1 X31.51 Y-18.66 Z1.42 F1800.0
G1 X29.58 Y-20.61 Z1.42 F1800.0
G1 X29.33 Y-20.61 Z1.42 F1800.0
G1 X27.4 Y-18.66 Z1.42 F1800.0
G1 X27.14 Y-18.66 Z1.42 F1800.0
G1 X25.22 Y-20.61 Z1.42 F1800.0
G1 X24.96 Y-20.61 Z1.42 F1800.0
G1 X23.04 Y-18.66 Z1.42 F1800.0
G1 X22.78 Y-18.66 Z1.42 F1800.0
G1 X20.85 Y-20.61 Z1.42 F1800.0
G1 X20.6 Y-20.61 Z1.42 F1800.0
G1 X18.67 Y-18.66 Z1.42 F1800.0
G1 X18.42 Y-18.66 Z1.42 F1800.0
G1 X16.49 Y-20.61 Z1.42 F1800.0
G1 X16.24 Y-20.61 Z1.42 F1800.0
G1 X14.31 Y-18.66 Z1.42 F1800.0
G1 X14.05 Y-18.66 Z1.42 F1800.0
G1 X12.13 Y-20.61 Z1.42 F1800.0
G1 X11.87 Y-20.61 Z1.42 F1800.0
G1 X9.95 Y-18.66 Z1.42 F1800.0
G1 X9.69 Y-18.66 Z1.42 F1800.0
G1 X7.76 Y-20.61 Z1.42 F1800.0
G1 X7.51 Y-20.61 Z1.42 F1800.0
G1 X6.32 Y-18.76 Z1.42 F1800.0
G1 X6.32 Y-23.13 Z1.42 F1800.0
G1 X7.64 Y-20.84 Z1.42 F1800.0
G1 X7.76 Y-20.84 Z1.42 F1800.0
G1 X9.69 Y-22.79 Z1.42 F1800.0
G1 X9.95 Y-22.79 Z1.42 F1800.0
G1 X11.87 Y-20.84 Z1.42 F1800.0
G1 X12.13 Y-20.84 Z1.42 F1800.0
G1 X14.05 Y-22.79 Z1.42 F1800.0
G1 X14.31 Y-22.79 Z1.42 F1800.0
G1 X16.24 Y-20.84 Z1.42 F1800.0
G1 X16.49 Y-20.84 Z1.42 F1800.0
G1 X18.42 Y-22.79 Z1.42 F1800.0
G1 X18.67 Y-22.79 Z1.42 F1800.0
G1 X20.6 Y-20.84 Z1.42 F1800.0
G1 X20.85 Y-20.84 Z1.42 F1800.0
G1 X22.78 Y-22.79 Z1.42 F1800.0
G1 X23.04 Y-22.79 Z1.42 F1800.0
G1 X24.96 Y-20.84 Z1.42 F1800.0
G1 X25.22 Y-20.84 Z1.42 F1800.0
G1 X27.14 Y-22.79 Z1.42 F1800.0
G1 X27.4 Y-22.79 Z1.42 F1800.0
G1 X29.33 Y-20.84 Z1.42 F1800.0
G1 X29.58 Y-20.84 Z1.42 F1800.0
G1 X31.51 Y-22.79 Z1.42 F1800.0
G1 X31.76 Y-22.79 Z1.42 F1800.0
G1 X33.69 Y-20.84 Z1.42 F1800.0
G1 X33.94 Y-20.84 Z1.42 F1800.0
G1 X35.87 Y-22.79 Z1.42 F1800.0
G1 X36.13 Y-22.79 Z1.42 F1800.0
G1 X38.05 Y-20.84 Z1.42 F1800.0
G1 X38.31 Y-20.84 Z1.42 F1800.0
G1 X41.22 Y-21.38 Z1.42 F1800.0
G1 X41.66 Y-21.82 Z1.42 F1800.0
G1 X41.22 Y-22.25 Z1.42 F1800.0
G1 X41.34 Y-22.37 Z1.42 F1800.0
M108 R30.0
M102
G1 X41.66 Y-22.69 Z1.42 F1800.0
M108 R3.569
M103
G1 X41.66 Y-24.07 Z1.42 F3000.0
M108 R30.0
M101
G1 X41.66 Y-24.87 Z1.42 F3000.0
M108 R3.569
G1 X38.05 Y-24.97 Z1.42 F1800.0
G1 X36.13 Y-23.02 Z1.42 F1800.0
G1 X35.87 Y-23.02 Z1.42 F1800.0
G1 X33.94 Y-24.97 Z1.42 F1800.0
G1 X33.69 Y-24.97 Z1.42 F1800.0
G1 X31.76 Y-23.02 Z1.42 F1800.0
G1 X31.51 Y-23.02 Z1.42 F1800.0
G1 X29.58 Y-24.97 Z1.42 F1800.0
G1 X29.33 Y-24.97 Z1.42 F1800.0
G1 X27.4 Y-23.02 Z1.42 F1800.0
G1 X27.14 Y-23.02 Z1.42 F1800.0
G1 X25.22 Y-24.97 Z1.42 F1800.0
G1 X24.96 Y-24.97 Z1.42 F1800.0
G1 X23.04 Y-23.02 Z1.42 F1800.0
G1 X22.78 Y-23.02 Z1.42 F1800.0
G1 X20.85 Y-24.97 Z1.42 F1800.0
G1 X20.6 Y-24.97 Z1.42 F1800.0
G1 X18.67 Y-23.02 Z1.42 F1800.0
G1 X18.42 Y-23.02 Z1.42 F1800.0
G1 X16.49 Y-24.97 Z1.42 F1800.0
G1 X16.24 Y-24.97 Z1.42 F1800.0
G1 X14.31 Y-23.02 Z1.42 F1800.0
G1 X14.05 Y-23.02 Z1.42 F1800.0
G1 X12.13 Y-24.97 Z1.42 F1800.0
G1 X11.87 Y-24.97 Z1.42 F1800.0
G1 X9.95 Y-23.02 Z1.42 F1800.0
G1 X9.69 Y-23.02 Z1.42 F1800.0
G1 X7.76 Y-24.97 Z1.42 F1800.0
G1 X7.51 Y-24.97 Z1.42 F1800.0
G1 X6.32 Y-23.56 Z1.42 F1800.0
G1 X6.32 Y-27.49 Z1.42 F1800.0
G1 X7.64 Y-25.2 Z1.42 F1800.0
G1 X7.76 Y-25.2 Z1.42 F1800.0
G1 X9.69 Y-27.16 Z1.42 F1800.0
G1 X9.95 Y-27.16 Z1.42 F1800.0
G1 X11.87 Y-25.2 Z1.42 F1800.0
G1 X12.13 Y-25.2 Z1.42 F1800.0
G1 X14.05 Y-27.16 Z1.42 F1800.0
G1 X14.31 Y-27.16 Z1.42 F1800.0
G1 X16.24 Y-25.2 Z1.42 F1800.0
G1 X16.49 Y-25.2 Z1.42 F1800.0
G1 X18.42 Y-27.16 Z1.42 F1800.0
G1 X18.67 Y-27.16 Z1.42 F1800.0
G1 X20.6 Y-25.2 Z1.42 F1800.0
G1 X20.85 Y-25.2 Z1.42 F1800.0
G1 X22.78 Y-27.16 Z1.42 F1800.0
G1 X23.04 Y-27.16 Z1.42 F1800.0
G1 X24.96 Y-25.2 Z1.42 F1800.0
G1 X25.22 Y-25.2 Z1.42 F1800.0
G1 X27.14 Y-27.16 Z1.42 F1800.0
G1 X27.4 Y-27.16 Z1.42 F1800.0
G1 X29.33 Y-25.2 Z1.42 F1800.0
G1 X29.58 Y-25.2 Z1.42 F1800.0
G1 X31.51 Y-27.16 Z1.42 F1800.0
G1 X31.76 Y-27.16 Z1.42 F1800.0
G1 X33.69 Y-25.2 Z1.42 F1800.0
G1 X33.94 Y-25.2 Z1.42 F1800.0
G1 X35.87 Y-27.16 Z1.42 F1800.0
G1 X36.13 Y-27.16 Z1.42 F1800.0
G1 X38.05 Y-25.2 Z1.42 F1800.0
G1 X38.31 Y-25.2 Z1.42 F1800.0
G1 X41.22 Y-25.74 Z1.42 F1800.0
G1 X41.66 Y-26.18 Z1.42 F1800.0
G1 X41.22 Y-26.62 Z1.42 F1800.0
G1 X41.34 Y-26.73 Z1.42 F1800.0
M108 R30.0
M102
G1 X41.66 Y-27.05 Z1.42 F1800.0
M108 R3.569
M103
G1 X41.66 Y-28.43 Z1.42 F3000.0
M108 R30.0
M101
G1 X41.66 Y-29.23 Z1.42 F3000.0
M108 R3.569
G1 X38.05 Y-29.34 Z1.42 F1800.0
G1 X36.13 Y-27.39 Z1.42 F1800.0
G1 X35.87 Y-27.39 Z1.42 F1800.0
G1 X33.94 Y-29.34 Z1.42 F1800.0
G1 X33.69 Y-29.34 Z1.42 F1800.0
G1 X31.76 Y-27.39 Z1.42 F1800.0
G1 X31.51 Y-27.39 Z1.42 F1800.0
G1 X29.58 Y-29.34 Z1.42 F1800.0
G1 X29.33 Y-29.34 Z1.42 F1800.0
G1 X27.4 Y-27.39 Z1.42 F1800.0
G1 X27.14 Y-27.39 Z1.42 F1800.0
G1 X25.22 Y-29.34 Z1.42 F1800.0
G1 X24.96 Y-29.34 Z1.42 F1800.0
G1 X23.04 Y-27.39 Z1.42 F1800.0
G1 X22.78 Y-27.39 Z1.42 F1800.0
G1 X20.85 Y-29.34 Z1.42 F1800.0
G1 X20.6 Y-29.34 Z1.42 F1800.0
G1 X18.67 Y-27.39 Z1.42 F1800.0
G1 X18.42 Y-27.39 Z1.42 F1800.0
G1 X16.49 Y-29.34 Z1.42 F1800.0
G1 X16.24 Y-29.34 Z1.42 F1800.0
G1 X14.31 Y-27.39 Z1.42 F1800.0
G1 X14.05 Y-27.39 Z1.42 F1800.0
G1 X12.13 Y-29.34 Z1.42 F1800.0
G1 X11.87 Y-29.34 Z1.42 F1800.0
G1 X9.95 Y-27.39 Z1.42 F1800.0
G1 X9.69 Y-27.39 Z1.42 F1800.0
G1 X7.76 Y-29.34 Z1.42 F1800.0
G1 X7.51 Y-29.34 Z1.42 F1800.0
G1 X6.32 Y-27.93 Z1.42 F1800.0
G1 X6.32 Y-31.85 Z1.42 F1800.0
G1 X7.64 Y-29.57 Z1.42 F1800.0
G1 X7.76 Y-29.57 Z1.42 F1800.0
G1 X9.69 Y-31.52 Z1.42 F1800.0
G1 X9.95 Y-31.52 Z1.42 F1800.0
G1 X11.87 Y-29.57 Z1.42 F1800.0
G1 X12.13 Y-29.57 Z1.42 F1800.0
G1 X14.05 Y-31.52 Z1.42 F1800.0
G1 X14.31 Y-31.52 Z1.42 F1800.0
G1 X16.24 Y-29.57 Z1.42 F1800.0
G1 X16.49 Y-29.57 Z1.42 F1800.0
G1 X18.42 Y-31.52 Z1.42 F1800.0
G1 X18.67 Y-31.52 Z1.42 F1800.0
G1 X20.6 Y-29.57 Z1.42 F1800.0
G1 X20.85 Y-29.57 Z1.42 F1800.0
G1 X22.78 Y-31.52 Z1.42 F1800.0
G1 X23.04 Y-31.52 Z1.42 F1800.0
G1 X24.96 Y-29.57 Z1.42 F1800.0
G1 X25.22 Y-29.57 Z1.42 F1800.0
G1 X27.14 Y-31.52 Z1.42 F1800.0
G1 X27.4 Y-31.52 Z1.42 F1800.0
G1 X29.33 Y-29.57 Z1.42 F1800.0
G1 X29.58 Y-29.57 Z1.42 F1800.0
G1 X31.51 Y-31.52 Z1.42 F1800.0
G1 X31.76 Y-31.52 Z1.42 F1800.0
G1 X33.69 Y-29.57 Z1.42 F1800.0
G1 X33.94 Y-29.57 Z1.42 F1800.0
G1 X35.87 Y-31.52 Z1.42 F1800.0
G1 X36.13 Y-31.52 Z1.42 F1800.0
G1 X38.05 Y-29.57 Z1.42 F1800.0
G1 X38.31 Y-29.57 Z1.42 F1800.0
G1 X41.22 Y-30.11 Z1.42 F1800.0
G1 X41.66 Y-30.54 Z1.42 F1800.0
G1 X41.22 Y-30.98 Z1.42 F1800.0
G1 X41.34 Y-31.1 Z1.42 F1800.0
M108 R30.0
M102
G1 X41.66 Y-31.42 Z1.42 F1800.0
M108 R3.569
M103
G1 X41.66 Y-32.8 Z1.42 F3000.0
M108 R30.0
M101
G1 X41.66 Y-33.6 Z1.42 F3000.0
M108 R3.569
G1 X38.05 Y-33.7 Z1.42 F1800.0
G1 X36.13 Y-31.75 Z1.42 F1800.0
G1 X35.87 Y-31.75 Z1.42 F1800.0
G1 X33.94 Y-33.7 Z1.42 F1800.0
G1 X33.69 Y-33.7 Z1.42 F1800.0
G1 X31.76 Y-31.75 Z1.42 F1800.0
G1 X31.51 Y-31.75 Z1.42 F1800.0
G1 X29.58 Y-33.7 Z1.42 F1800.0
G1 X29.33 Y-33.7 Z1.42 F1800.0
G1 X27.4 Y-31.75 Z1.42 F1800.0
G1 X27.14 Y-31.75 Z1.42 F1800.0
G1 X25.22 Y-33.7 Z1.42 F1800.0
G1 X24.96 Y-33.7 Z1.42 F1800.0
G1 X23.04 Y-31.75 Z1.42 F1800.0
G1 X22.78 Y-31.75 Z1.42 F1800.0
G1 X20.85 Y-33.7 Z1.42 F1800.0
G1 X20.6 Y-33.7 Z1.42 F1800.0
G1 X18.67 Y-31.75 Z1.42 F1800.0
G1 X18.42 Y-31.75 Z1.42 F1800.0
G1 X16.49 Y-33.7 Z1.42 F1800.0
G1 X16.24 Y-33.7 Z1.42 F1800.0
G1 X14.31 Y-31.75 Z1.42 F1800.0
G1 X14.05 Y-31.75 Z1.42 F1800.0
G1 X12.13 Y-33.7 Z1.42 F1800.0
G1 X11.87 Y-33.7 Z1.42 F1800.0
G1 X9.95 Y-31.75 Z1.42 F1800.0
G1 X9.69 Y-31.75 Z1.42 F1800.0
G1 X7.76 Y-33.7 Z1.42 F1800.0
G1 X7.51 Y-33.7 Z1.42 F1800.0
G1 X6.32 Y-32.29 Z1.42 F1800.0
G1 X6.32 Y-36.22 Z1.42 F1800.0
G1 X7.64 Y-33.93 Z1.42 F1800.0
G1 X7.76 Y-33.93 Z1.42 F1800.0
G1 X9.69 Y-35.88 Z1.42 F1800.0
G1 X9.95 Y-35.88 Z1.42 F1800.0
G1 X11.87 Y-33.93 Z1.42 F1800.0
G1 X12.13 Y-33.93 Z1.42 F1800.0
G1 X14.05 Y-35.88 Z1.42 F1800.0
G1 X14.31 Y-35.88 Z1.42 F1800.0
G1 X16.24 Y-33.93 Z1.42 F1800.0
G1 X16.49 Y-33.93 Z1.42 F1800.0
G1 X18.42 Y-35.88 Z1.42 F1800.0
G1 X18.67 Y-35.88 Z1.42 F1800.0
G1 X20.6 Y-33.93 Z1.42 F1800.0
G1 X20.85 Y-33.93 Z1.42 F1800.0
G1 X22.78 Y-35.88 Z1.42 F1800.0
G1 X23.04 Y-35.88 Z1.42 F1800.0
G1 X24.96 Y-33.93 Z1.42 F1800.0
G1 X25.22 Y-33.93 Z1.42 F1800.0
G1 X27.14 Y-35.88 Z1.42 F1800.0
G1 X27.4 Y-35.88 Z1.42 F1800.0
G1 X29.33 Y-33.93 Z1.42 F1800.0
G1 X29.58 Y-33.93 Z1.42 F1800.0
G1 X31.51 Y-35.88 Z1.42 F1800.0
G1 X31.76 Y-35.88 Z1.42 F1800.0
G1 X33.69 Y-33.93 Z1.42 F1800.0
G1 X33.94 Y-33.93 Z1.42 F1800.0
G1 X35.87 Y-35.88 Z1.42 F1800.0
G1 X36.13 Y-35.88 Z1.42 F1800.0
G1 X38.05 Y-33.93 Z1.42 F1800.0
G1 X38.31 Y-33.93 Z1.42 F1800.0
G1 X41.22 Y-34.47 Z1.42 F1800.0
G1 X41.66 Y-34.91 Z1.42 F1800.0
G1 X41.22 Y-35.34 Z1.42 F1800.0
G1 X41.34 Y-35.46 Z1.42 F1800.0
M108 R30.0
M102
G1 X41.66 Y-35.78 Z1.42 F1800.0
M108 R3.569
M103
G1 X41.66 Y-37.16 Z1.42 F3000.0
M108 R30.0
M101
G1 X41.66 Y-37.96 Z1.42 F3000.0
M108 R3.569
G1 X41.22 Y-37.53 Z1.42 F1800.0
G1 X36.13 Y-36.11 Z1.42 F1800.0
G1 X9.69 Y-36.11 Z1.42 F1800.0
G1 X6.32 Y-36.65 Z1.42 F1800.0
G1 X6.32 Y-37.51 Z1.42 F1800.0
M108 R30.0
M102
G1 X6.32 Y-37.96 Z1.42 F1800.0
M108 R3.569
M103
G1 X41.02 Y-12.26 Z1.42 F3000.0
M108 R30.0
M101
G1 X41.66 Y-11.78 Z1.42 F3000.0
M108 R3.569
G1 X38.05 Y-11.88 Z1.42 F1800.0
G1 X36.13 Y-9.93 Z1.42 F1800.0
G1 X35.87 Y-9.93 Z1.42 F1800.0
G1 X33.94 Y-11.88 Z1.42 F1800.0
G1 X33.69 Y-11.88 Z1.42 F1800.0
G1 X31.76 Y-9.93 Z1.42 F1800.0
G1 X31.51 Y-9.93 Z1.42 F1800.0
G1 X29.58 Y-11.88 Z1.42 F1800.0
G1 X29.33 Y-11.88 Z1.42 F1800.0
G1 X27.4 Y-9.93 Z1.42 F1800.0
G1 X27.14 Y-9.93 Z1.42 F1800.0
G1 X25.22 Y-11.88 Z1.42 F1800.0
G1 X24.96 Y-11.88 Z1.42 F1800.0
G1 X23.04 Y-9.93 Z1.42 F1800.0
G1 X22.78 Y-9.93 Z1.42 F1800.0
G1 X20.85 Y-11.88 Z1.42 F1800.0
G1 X20.6 Y-11.88 Z1.42 F1800.0
G1 X18.67 Y-9.93 Z1.42 F1800.0
G1 X16.05 Y-10.04 Z1.42 F1800.0
G1 X16.05 Y-11.35 Z1.42 F1800.0
G1 X16.49 Y-12.0 Z1.42 F1800.0
G1 X16.24 Y-12.0 Z1.42 F1800.0
G1 X16.05 Y-11.78 Z1.42 F1800.0
G1 X16.05 Y-12.2 Z1.42 F1800.0
M108 R30.0
M102
G1 X16.05 Y-12.65 Z1.42 F1800.0
M108 R3.569
M103
G1 X40.87 Y-7.58 Z1.42 F3000.0
M108 R30.0
M101
G1 X41.66 Y-7.42 Z1.42 F3000.0
M108 R3.569
G1 X38.05 Y-7.52 Z1.42 F1800.0
G1 X36.13 Y-5.57 Z1.42 F1800.0
G1 X35.87 Y-5.57 Z1.42 F1800.0
G1 X33.94 Y-7.52 Z1.42 F1800.0
G1 X33.69 Y-7.52 Z1.42 F1800.0
G1 X31.76 Y-5.57 Z1.42 F1800.0
G1 X31.51 Y-5.57 Z1.42 F1800.0
G1 X29.58 Y-7.52 Z1.42 F1800.0
G1 X29.33 Y-7.52 Z1.42 F1800.0
G1 X27.4 Y-5.57 Z1.42 F1800.0
G1 X27.14 Y-5.57 Z1.42 F1800.0
G1 X25.22 Y-7.52 Z1.42 F1800.0
G1 X24.96 Y-7.52 Z1.42 F1800.0
G1 X23.04 Y-5.57 Z1.42 F1800.0
G1 X22.78 Y-5.57 Z1.42 F1800.0
G1 X20.85 Y-7.52 Z1.42 F1800.0
G1 X20.6 Y-7.52 Z1.42 F1800.0
G1 X18.67 Y-5.57 Z1.42 F1800.0
G1 X16.05 Y-5.67 Z1.42 F1800.0
G1 X16.05 Y-6.98 Z1.42 F1800.0
G1 X16.49 Y-7.64 Z1.42 F1800.0
G1 X16.24 Y-7.64 Z1.42 F1800.0
G1 X16.05 Y-7.42 Z1.42 F1800.0
G1 X16.05 Y-9.6 Z1.42 F1800.0
G1 X18.67 Y-9.7 Z1.42 F1800.0
G1 X20.6 Y-7.75 Z1.42 F1800.0
G1 X20.85 Y-7.75 Z1.42 F1800.0
G1 X22.78 Y-9.7 Z1.42 F1800.0
G1 X23.04 Y-9.7 Z1.42 F1800.0
G1 X24.96 Y-7.75 Z1.42 F1800.0
G1 X25.22 Y-7.75 Z1.42 F1800.0
G1 X27.14 Y-9.7 Z1.42 F1800.0
G1 X27.4 Y-9.7 Z1.42 F1800.0
G1 X29.33 Y-7.75 Z1.42 F1800.0
G1 X29.58 Y-7.75 Z1.42 F1800.0
G1 X31.51 Y-9.7 Z1.42 F1800.0
G1 X31.76 Y-9.7 Z1.42 F1800.0
G1 X33.69 Y-7.75 Z1.42 F1800.0
G1 X33.94 Y-7.75 Z1.42 F1800.0
G1 X35.87 Y-9.7 Z1.42 F1800.0
G1 X36.13 Y-9.7 Z1.42 F1800.0
G1 X38.05 Y-7.75 Z1.42 F1800.0
G1 X41.22 Y-8.29 Z1.42 F1800.0
G1 X41.66 Y-8.73 Z1.42 F1800.0
G1 X41.22 Y-9.16 Z1.42 F1800.0
G1 X41.34 Y-9.28 Z1.42 F1800.0
M108 R30.0
M102
G1 X41.66 Y-9.6 Z1.42 F1800.0
M108 R3.569
M103
G1 X41.66 Y-3.85 Z1.42 F3000.0
M108 R30.0
M101
G1 X41.66 Y-3.05 Z1.42 F3000.0
M108 R3.569
G1 X16.05 Y-3.05 Z1.42 F1800.0
G1 X16.05 Y-5.24 Z1.42 F1800.0
G1 X18.42 Y-5.34 Z1.42 F1800.0
G1 X41.66 Y-5.24 Z1.42 F1800.0
M103
(</surroundingLoop>)
(</layer>)
(<layer> 1.74 )
(<surroundingLoop>)
(<boundaryPerimeter>)
(<boundaryPoint> X15.203 Y-2.167 Z1.74 </boundaryPoint>)
(<boundaryPoint> X15.203 Y-11.897 Z1.74 </boundaryPoint>)
(<boundaryPoint> X5.473 Y-11.897 Z1.74 </boundaryPoint>)
(<boundaryPoint> X5.473 Y-39.197 Z1.74 </boundaryPoint>)
(<boundaryPoint> X42.503 Y-39.197 Z1.74 </boundaryPoint>)
(<boundaryPoint> X42.503 Y-2.167 Z1.74 </boundaryPoint>)
(<loop> outer )
G1 X41.91 Y-5.56 Z1.74 F3000.0
M101
G1 X41.91 Y-5.24 Z1.74 F1800.0
G1 X41.91 Y-2.76 Z1.74 F1800.0
G1 X15.79 Y-2.76 Z1.74 F1800.0
G1 X15.79 Y-12.49 Z1.74 F1800.0
G1 X6.06 Y-12.49 Z1.74 F1800.0
G1 X6.06 Y-38.61 Z1.74 F1800.0
G1 X41.91 Y-38.61 Z1.74 F1800.0
G1 X41.91 Y-5.56 Z1.74 F1800.0
M103
(</loop>)
(<perimeter> outer )
G1 X42.31 Y-5.56 Z1.74 F3000.0
M101
G1 X42.31 Y-5.24 Z1.74 F1800.0
G1 X42.31 Y-2.36 Z1.74 F1800.0
G1 X15.4 Y-2.36 Z1.74 F1800.0
G1 X15.4 Y-12.09 Z1.74 F1800.0
G1 X5.67 Y-12.09 Z1.74 F1800.0
G1 X5.67 Y-39.0 Z1.74 F1800.0
G1 X42.31 Y-39.0 Z1.74 F1800.0
G1 X42.31 Y-6.01 Z1.74 F1800.0
M108 R30.0
M102
G1 X42.31 Y-5.56 Z1.74 F1800.0
M108 R3.569
M103
(</perimeter>)
(</boundaryPerimeter>)
G1 X41.71 Y-3.77 Z1.74 F3000.0
M108 R30.0
M101
G1 X41.45 Y-3.01 Z1.74 F3000.0
M108 R3.569
G1 X41.45 Y-38.35 Z1.74 F1800.0
G1 X41.02 Y-38.35 Z1.74 F1800.0
G1 X39.27 Y-3.01 Z1.74 F1800.0
G1 X38.4 Y-3.45 Z1.74 F1800.0
G1 X38.29 Y-33.94 Z1.74 F1800.0
G1 X40.58 Y-38.35 Z1.74 F1800.0
G1 X37.09 Y-38.35 Z1.74 F1800.0
G1 X36.11 Y-36.13 Z1.74 F1800.0
G1 X36.11 Y-35.87 Z1.74 F1800.0
G1 X38.06 Y-33.94 Z1.74 F1800.0
G1 X38.06 Y-33.69 Z1.74 F1800.0
G1 X36.11 Y-31.76 Z1.74 F1800.0
G1 X36.11 Y-31.51 Z1.74 F1800.0
G1 X38.06 Y-29.58 Z1.74 F1800.0
G1 X38.06 Y-29.33 Z1.74 F1800.0
G1 X36.11 Y-27.4 Z1.74 F1800.0
G1 X36.11 Y-27.14 Z1.74 F1800.0
G1 X38.06 Y-25.22 Z1.74 F1800.0
G1 X38.06 Y-24.96 Z1.74 F1800.0
G1 X36.11 Y-23.04 Z1.74 F1800.0
G1 X36.11 Y-22.78 Z1.74 F1800.0
G1 X38.06 Y-20.85 Z1.74 F1800.0
G1 X38.06 Y-20.6 Z1.74 F1800.0
G1 X36.11 Y-18.67 Z1.74 F1800.0
G1 X36.11 Y-18.42 Z1.74 F1800.0
G1 X38.06 Y-16.49 Z1.74 F1800.0
G1 X38.06 Y-16.24 Z1.74 F1800.0
G1 X36.11 Y-14.31 Z1.74 F1800.0
G1 X36.11 Y-14.05 Z1.74 F1800.0
G1 X38.06 Y-12.13 Z1.74 F1800.0
G1 X38.06 Y-11.87 Z1.74 F1800.0
G1 X36.11 Y-9.95 Z1.74 F1800.0
G1 X36.11 Y-9.69 Z1.74 F1800.0
G1 X38.06 Y-7.76 Z1.74 F1800.0
G1 X38.06 Y-7.51 Z1.74 F1800.0
G1 X36.11 Y-5.58 Z1.74 F1800.0
G1 X35.78 Y-3.01 Z1.74 F1800.0
G1 X36.22 Y-3.45 Z1.74 F1800.0
G1 X36.65 Y-3.45 Z1.74 F1800.0
G1 X36.77 Y-3.33 Z1.74 F1800.0
M108 R30.0
M102
G1 X37.09 Y-3.01 Z1.74 F1800.0
M108 R3.569
M103
G1 X35.71 Y-3.01 Z1.74 F3000.0
M108 R30.0
M101
G1 X34.91 Y-3.01 Z1.74 F3000.0
M108 R3.569
G1 X35.34 Y-3.45 Z1.74 F1800.0
G1 X35.88 Y-5.33 Z1.74 F1800.0
G1 X35.88 Y-5.58 Z1.74 F1800.0
G1 X33.93 Y-7.51 Z1.74 F1800.0
G1 X33.93 Y-7.76 Z1.74 F1800.0
G1 X35.88 Y-9.69 Z1.74 F1800.0
G1 X35.88 Y-9.95 Z1.74 F1800.0
G1 X33.93 Y-11.87 Z1.74 F1800.0
G1 X33.93 Y-12.13 Z1.74 F1800.0
G1 X35.88 Y-14.05 Z1.74 F1800.0
G1 X35.88 Y-14.31 Z1.74 F1800.0
G1 X33.93 Y-16.24 Z1.74 F1800.0
G1 X33.93 Y-16.49 Z1.74 F1800.0
G1 X35.88 Y-18.42 Z1.74 F1800.0
G1 X35.88 Y-18.67 Z1.74 F1800.0
G1 X33.93 Y-20.6 Z1.74 F1800.0
G1 X33.93 Y-20.85 Z1.74 F1800.0
G1 X35.88 Y-22.78 Z1.74 F1800.0
G1 X35.88 Y-23.04 Z1.74 F1800.0
G1 X33.93 Y-24.96 Z1.74 F1800.0
G1 X33.93 Y-25.22 Z1.74 F1800.0
G1 X35.88 Y-27.14 Z1.74 F1800.0
G1 X35.88 Y-27.4 Z1.74 F1800.0
G1 X33.93 Y-29.33 Z1.74 F1800.0
G1 X33.93 Y-29.58 Z1.74 F1800.0
G1 X35.88 Y-31.51 Z1.74 F1800.0
G1 X35.88 Y-31.76 Z1.74 F1800.0
G1 X33.93 Y-33.69 Z1.74 F1800.0
G1 X33.93 Y-33.94 Z1.74 F1800.0
G1 X35.88 Y-35.87 Z1.74 F1800.0
G1 X35.88 Y-36.13 Z1.74 F1800.0
G1 X36.65 Y-38.35 Z1.74 F1800.0
G1 X32.29 Y-38.35 Z1.74 F1800.0
G1 X31.75 Y-36.13 Z1.74 F1800.0
G1 X31.75 Y-35.87 Z1.74 F1800.0
G1 X33.7 Y-33.94 Z1.74 F1800.0
G1 X33.7 Y-33.69 Z1.74 F1800.0
G1 X31.75 Y-31.76 Z1.74 F1800.0
G1 X31.75 Y-31.51 Z1.74 F1800.0
G1 X33.7 Y-29.58 Z1.74 F1800.0
G1 X33.7 Y-29.33 Z1.74 F1800.0
G1 X31.75 Y-27.4 Z1.74 F1800.0
G1 X31.75 Y-27.14 Z1.74 F1800.0
G1 X33.7 Y-25.22 Z1.74 F1800.0
G1 X33.7 Y-24.96 Z1.74 F1800.0
G1 X31.75 Y-23.04 Z1.74 F1800.0
G1 X31.75 Y-22.78 Z1.74 F1800.0
G1 X33.7 Y-20.85 Z1.74 F1800.0
G1 X33.7 Y-20.6 Z1.74 F1800.0
G1 X31.75 Y-18.67 Z1.74 F1800.0
G1 X31.75 Y-18.42 Z1.74 F1800.0
G1 X33.7 Y-16.49 Z1.74 F1800.0
G1 X33.7 Y-16.24 Z1.74 F1800.0
G1 X31.75 Y-14.31 Z1.74 F1800.0
G1 X31.75 Y-14.05 Z1.74 F1800.0
G1 X33.7 Y-12.13 Z1.74 F1800.0
G1 X33.7 Y-11.87 Z1.74 F1800.0
G1 X31.75 Y-9.95 Z1.74 F1800.0
G1 X31.75 Y-9.69 Z1.74 F1800.0
G1 X33.7 Y-7.76 Z1.74 F1800.0
G1 X33.7 Y-7.51 Z1.74 F1800.0
G1 X31.75 Y-5.58 Z1.74 F1800.0
G1 X31.85 Y-3.45 Z1.74 F1800.0
G1 X32.32 Y-3.21 Z1.74 F1800.0
M108 R30.0
M102
G1 X32.73 Y-3.01 Z1.74 F1800.0
M108 R3.569
M103
G1 X31.34 Y-3.01 Z1.74 F3000.0
M108 R30.0
M101
G1 X30.54 Y-3.01 Z1.74 F3000.0
M108 R3.569
G1 X30.98 Y-3.45 Z1.74 F1800.0
G1 X31.52 Y-5.33 Z1.74 F1800.0
G1 X31.52 Y-5.58 Z1.74 F1800.0
G1 X29.57 Y-7.51 Z1.74 F1800.0
G1 X29.57 Y-7.76 Z1.74 F1800.0
G1 X31.52 Y-9.69 Z1.74 F1800.0
G1 X31.52 Y-9.95 Z1.74 F1800.0
G1 X29.57 Y-11.87 Z1.74 F1800.0
G1 X29.57 Y-12.13 Z1.74 F1800.0
G1 X31.52 Y-14.05 Z1.74 F1800.0
G1 X31.52 Y-14.31 Z1.74 F1800.0
G1 X29.57 Y-16.24 Z1.74 F1800.0
G1 X29.57 Y-16.49 Z1.74 F1800.0
G1 X31.52 Y-18.42 Z1.74 F1800.0
G1 X31.52 Y-18.67 Z1.74 F1800.0
G1 X29.57 Y-20.6 Z1.74 F1800.0
G1 X29.57 Y-20.85 Z1.74 F1800.0
G1 X31.52 Y-22.78 Z1.74 F1800.0
G1 X31.52 Y-23.04 Z1.74 F1800.0
G1 X29.57 Y-24.96 Z1.74 F1800.0
G1 X29.57 Y-25.22 Z1.74 F1800.0
G1 X31.52 Y-27.14 Z1.74 F1800.0
G1 X31.52 Y-27.4 Z1.74 F1800.0
G1 X29.57 Y-29.33 Z1.74 F1800.0
G1 X29.57 Y-29.58 Z1.74 F1800.0
G1 X31.52 Y-31.51 Z1.74 F1800.0
G1 X31.52 Y-31.76 Z1.74 F1800.0
G1 X29.57 Y-33.69 Z1.74 F1800.0
G1 X29.57 Y-33.94 Z1.74 F1800.0
G1 X31.52 Y-35.87 Z1.74 F1800.0
G1 X31.85 Y-38.35 Z1.74 F1800.0
G1 X28.36 Y-38.35 Z1.74 F1800.0
G1 X27.39 Y-36.13 Z1.74 F1800.0
G1 X27.39 Y-35.87 Z1.74 F1800.0
G1 X29.34 Y-33.94 Z1.74 F1800.0
G1 X29.34 Y-33.69 Z1.74 F1800.0
G1 X27.39 Y-31.76 Z1.74 F1800.0
G1 X27.39 Y-31.51 Z1.74 F1800.0
G1 X29.34 Y-29.58 Z1.74 F1800.0
G1 X29.34 Y-29.33 Z1.74 F1800.0
G1 X27.39 Y-27.4 Z1.74 F1800.0
G1 X27.39 Y-27.14 Z1.74 F1800.0
G1 X29.34 Y-25.22 Z1.74 F1800.0
G1 X29.34 Y-24.96 Z1.74 F1800.0
G1 X27.39 Y-23.04 Z1.74 F1800.0
G1 X27.39 Y-22.78 Z1.74 F1800.0
G1 X29.34 Y-20.85 Z1.74 F1800.0
G1 X29.34 Y-20.6 Z1.74 F1800.0
G1 X27.39 Y-18.67 Z1.74 F1800.0
G1 X27.39 Y-18.42 Z1.74 F1800.0
G1 X29.34 Y-16.49 Z1.74 F1800.0
G1 X29.34 Y-16.24 Z1.74 F1800.0
G1 X27.39 Y-14.31 Z1.74 F1800.0
G1 X27.39 Y-14.05 Z1.74 F1800.0
G1 X29.34 Y-12.13 Z1.74 F1800.0
G1 X29.34 Y-11.87 Z1.74 F1800.0
G1 X27.39 Y-9.95 Z1.74 F1800.0
G1 X27.39 Y-9.69 Z1.74 F1800.0
G1 X29.34 Y-7.76 Z1.74 F1800.0
G1 X29.34 Y-7.51 Z1.74 F1800.0
G1 X27.39 Y-5.58 Z1.74 F1800.0
G1 X27.05 Y-3.01 Z1.74 F1800.0
G1 X27.49 Y-3.45 Z1.74 F1800.0
G1 X27.93 Y-3.45 Z1.74 F1800.0
G1 X28.04 Y-3.33 Z1.74 F1800.0
M108 R30.0
M102
G1 X28.36 Y-3.01 Z1.74 F1800.0
M108 R3.569
M103
G1 X26.98 Y-3.01 Z1.74 F3000.0
M108 R30.0
M101
G1 X26.18 Y-3.01 Z1.74 F3000.0
M108 R3.569
G1 X26.62 Y-3.45 Z1.74 F1800.0
G1 X27.16 Y-5.33 Z1.74 F1800.0
G1 X27.16 Y-5.58 Z1.74 F1800.0
G1 X25.2 Y-7.51 Z1.74 F1800.0
G1 X25.2 Y-7.76 Z1.74 F1800.0
G1 X27.16 Y-9.69 Z1.74 F1800.0
G1 X27.16 Y-9.95 Z1.74 F1800.0
G1 X25.2 Y-11.87 Z1.74 F1800.0
G1 X25.2 Y-12.13 Z1.74 F1800.0
G1 X27.16 Y-14.05 Z1.74 F1800.0
G1 X27.16 Y-14.31 Z1.74 F1800.0
G1 X25.2 Y-16.24 Z1.74 F1800.0
G1 X25.2 Y-16.49 Z1.74 F1800.0
G1 X27.16 Y-18.42 Z1.74 F1800.0
G1 X27.16 Y-18.67 Z1.74 F1800.0
G1 X25.2 Y-20.6 Z1.74 F1800.0
G1 X25.2 Y-20.85 Z1.74 F1800.0
G1 X27.16 Y-22.78 Z1.74 F1800.0
G1 X27.16 Y-23.04 Z1.74 F1800.0
G1 X25.2 Y-24.96 Z1.74 F1800.0
G1 X25.2 Y-25.22 Z1.74 F1800.0
G1 X27.16 Y-27.14 Z1.74 F1800.0
G1 X27.16 Y-27.4 Z1.74 F1800.0
G1 X25.2 Y-29.33 Z1.74 F1800.0
G1 X25.2 Y-29.58 Z1.74 F1800.0
G1 X27.16 Y-31.51 Z1.74 F1800.0
G1 X27.16 Y-31.76 Z1.74 F1800.0
G1 X25.2 Y-33.69 Z1.74 F1800.0
G1 X25.2 Y-33.94 Z1.74 F1800.0
G1 X27.16 Y-35.87 Z1.74 F1800.0
G1 X27.16 Y-36.13 Z1.74 F1800.0
G1 X27.93 Y-38.35 Z1.74 F1800.0
G1 X23.56 Y-38.35 Z1.74 F1800.0
G1 X23.02 Y-36.13 Z1.74 F1800.0
G1 X23.02 Y-35.87 Z1.74 F1800.0
G1 X24.97 Y-33.94 Z1.74 F1800.0
G1 X24.97 Y-33.69 Z1.74 F1800.0
G1 X23.02 Y-31.76 Z1.74 F1800.0
G1 X23.02 Y-31.51 Z1.74 F1800.0
G1 X24.97 Y-29.58 Z1.74 F1800.0
G1 X24.97 Y-29.33 Z1.74 F1800.0
G1 X23.02 Y-27.4 Z1.74 F1800.0
G1 X23.02 Y-27.14 Z1.74 F1800.0
G1 X24.97 Y-25.22 Z1.74 F1800.0
G1 X24.97 Y-24.96 Z1.74 F1800.0
G1 X23.02 Y-23.04 Z1.74 F1800.0
G1 X23.02 Y-22.78 Z1.74 F1800.0
G1 X24.97 Y-20.85 Z1.74 F1800.0
G1 X24.97 Y-20.6 Z1.74 F1800.0
G1 X23.02 Y-18.67 Z1.74 F1800.0
G1 X23.02 Y-18.42 Z1.74 F1800.0
G1 X24.97 Y-16.49 Z1.74 F1800.0
G1 X24.97 Y-16.24 Z1.74 F1800.0
G1 X23.02 Y-14.31 Z1.74 F1800.0
G1 X23.02 Y-14.05 Z1.74 F1800.0
G1 X24.97 Y-12.13 Z1.74 F1800.0
G1 X24.97 Y-11.87 Z1.74 F1800.0
G1 X23.02 Y-9.95 Z1.74 F1800.0
G1 X23.02 Y-9.69 Z1.74 F1800.0
G1 X24.97 Y-7.76 Z1.74 F1800.0
G1 X24.97 Y-7.51 Z1.74 F1800.0
G1 X23.02 Y-5.58 Z1.74 F1800.0
G1 X23.13 Y-3.45 Z1.74 F1800.0
G1 X23.56 Y-3.45 Z1.74 F1800.0
G1 X23.68 Y-3.33 Z1.74 F1800.0
M108 R30.0
M102
G1 X24.0 Y-3.01 Z1.74 F1800.0
M108 R3.569
M103
G1 X22.62 Y-3.01 Z1.74 F3000.0
M108 R30.0
M101
G1 X21.82 Y-3.01 Z1.74 F3000.0
M108 R3.569
G1 X22.25 Y-3.45 Z1.74 F1800.0
G1 X22.79 Y-5.33 Z1.74 F1800.0
G1 X22.79 Y-5.58 Z1.74 F1800.0
G1 X20.84 Y-7.51 Z1.74 F1800.0
G1 X20.84 Y-7.76 Z1.74 F1800.0
G1 X22.79 Y-9.69 Z1.74 F1800.0
G1 X22.79 Y-9.95 Z1.74 F1800.0
G1 X20.84 Y-11.87 Z1.74 F1800.0
G1 X20.84 Y-12.13 Z1.74 F1800.0
G1 X22.79 Y-14.05 Z1.74 F1800.0
G1 X22.79 Y-14.31 Z1.74 F1800.0
G1 X20.84 Y-16.24 Z1.74 F1800.0
G1 X20.84 Y-16.49 Z1.74 F1800.0
G1 X22.79 Y-18.42 Z1.74 F1800.0
G1 X22.79 Y-18.67 Z1.74 F1800.0
G1 X20.84 Y-20.6 Z1.74 F1800.0
G1 X20.84 Y-20.85 Z1.74 F1800.0
G1 X22.79 Y-22.78 Z1.74 F1800.0
G1 X22.79 Y-23.04 Z1.74 F1800.0
G1 X20.84 Y-24.96 Z1.74 F1800.0
G1 X20.84 Y-25.22 Z1.74 F1800.0
G1 X22.79 Y-27.14 Z1.74 F1800.0
G1 X22.79 Y-27.4 Z1.74 F1800.0
G1 X20.84 Y-29.33 Z1.74 F1800.0
G1 X20.84 Y-29.58 Z1.74 F1800.0
G1 X22.79 Y-31.51 Z1.74 F1800.0
G1 X22.79 Y-31.76 Z1.74 F1800.0
G1 X20.84 Y-33.69 Z1.74 F1800.0
G1 X20.84 Y-33.94 Z1.74 F1800.0
G1 X22.79 Y-35.87 Z1.74 F1800.0
G1 X22.79 Y-36.13 Z1.74 F1800.0
G1 X23.13 Y-38.35 Z1.74 F1800.0
G1 X19.64 Y-38.35 Z1.74 F1800.0
G1 X18.66 Y-36.13 Z1.74 F1800.0
G1 X18.66 Y-35.87 Z1.74 F1800.0
G1 X20.61 Y-33.94 Z1.74 F1800.0
G1 X20.61 Y-33.69 Z1.74 F1800.0
G1 X18.66 Y-31.76 Z1.74 F1800.0
G1 X18.66 Y-31.51 Z1.74 F1800.0
G1 X20.61 Y-29.58 Z1.74 F1800.0
G1 X20.61 Y-29.33 Z1.74 F1800.0
G1 X18.66 Y-27.4 Z1.74 F1800.0
G1 X18.66 Y-27.14 Z1.74 F1800.0
G1 X20.61 Y-25.22 Z1.74 F1800.0
G1 X20.61 Y-24.96 Z1.74 F1800.0
G1 X18.66 Y-23.04 Z1.74 F1800.0
G1 X18.66 Y-22.78 Z1.74 F1800.0
G1 X20.61 Y-20.85 Z1.74 F1800.0
G1 X20.61 Y-20.6 Z1.74 F1800.0
G1 X18.66 Y-18.67 Z1.74 F1800.0
G1 X18.66 Y-18.42 Z1.74 F1800.0
G1 X20.61 Y-16.49 Z1.74 F1800.0
G1 X20.61 Y-16.24 Z1.74 F1800.0
G1 X18.66 Y-14.31 Z1.74 F1800.0
G1 X18.66 Y-14.05 Z1.74 F1800.0
G1 X20.61 Y-12.13 Z1.74 F1800.0
G1 X20.61 Y-11.87 Z1.74 F1800.0
G1 X18.66 Y-9.95 Z1.74 F1800.0
G1 X18.66 Y-9.69 Z1.74 F1800.0
G1 X20.61 Y-7.76 Z1.74 F1800.0
G1 X20.61 Y-7.51 Z1.74 F1800.0
G1 X18.66 Y-5.58 Z1.74 F1800.0
G1 X18.76 Y-3.45 Z1.74 F1800.0
G1 X19.23 Y-3.21 Z1.74 F1800.0
M108 R30.0
M102
G1 X19.64 Y-3.01 Z1.74 F1800.0
M108 R3.569
M103
G1 X18.25 Y-3.01 Z1.74 F3000.0
M108 R30.0
M101
G1 X17.45 Y-3.01 Z1.74 F3000.0
M108 R3.569
G1 X17.89 Y-3.45 Z1.74 F1800.0
G1 X18.43 Y-5.33 Z1.74 F1800.0
G1 X18.43 Y-5.58 Z1.74 F1800.0
G1 X16.36 Y-7.51 Z1.74 F1800.0
G1 X16.36 Y-7.76 Z1.74 F1800.0
G1 X18.43 Y-9.69 Z1.74 F1800.0
G1 X18.43 Y-9.95 Z1.74 F1800.0
G1 X16.36 Y-11.87 Z1.74 F1800.0
G1 X16.36 Y-12.13 Z1.74 F1800.0
G1 X18.43 Y-14.05 Z1.74 F1800.0
G1 X18.43 Y-14.31 Z1.74 F1800.0
G1 X16.48 Y-16.24 Z1.74 F1800.0
G1 X16.48 Y-16.49 Z1.74 F1800.0
G1 X18.43 Y-18.42 Z1.74 F1800.0
G1 X18.43 Y-18.67 Z1.74 F1800.0
G1 X16.48 Y-20.6 Z1.74 F1800.0
G1 X16.48 Y-20.85 Z1.74 F1800.0
G1 X18.43 Y-22.78 Z1.74 F1800.0
G1 X18.43 Y-23.04 Z1.74 F1800.0
G1 X16.48 Y-24.96 Z1.74 F1800.0
G1 X16.48 Y-25.22 Z1.74 F1800.0
G1 X18.43 Y-27.14 Z1.74 F1800.0
G1 X18.43 Y-27.4 Z1.74 F1800.0
G1 X16.48 Y-29.33 Z1.74 F1800.0
G1 X16.48 Y-29.58 Z1.74 F1800.0
G1 X18.43 Y-31.51 Z1.74 F1800.0
G1 X18.43 Y-31.76 Z1.74 F1800.0
G1 X16.48 Y-33.69 Z1.74 F1800.0
G1 X16.48 Y-33.94 Z1.74 F1800.0
G1 X18.43 Y-35.87 Z1.74 F1800.0
G1 X18.43 Y-36.13 Z1.74 F1800.0
G1 X19.2 Y-38.35 Z1.74 F1800.0
G1 X14.84 Y-38.35 Z1.74 F1800.0
G1 X14.3 Y-36.13 Z1.74 F1800.0
G1 X14.3 Y-35.87 Z1.74 F1800.0
G1 X16.25 Y-33.94 Z1.74 F1800.0
G1 X16.25 Y-33.69 Z1.74 F1800.0
G1 X14.3 Y-31.76 Z1.74 F1800.0
G1 X14.3 Y-31.51 Z1.74 F1800.0
G1 X16.25 Y-29.58 Z1.74 F1800.0
G1 X16.25 Y-29.33 Z1.74 F1800.0
G1 X14.3 Y-27.4 Z1.74 F1800.0
G1 X14.3 Y-27.14 Z1.74 F1800.0
G1 X16.25 Y-25.22 Z1.74 F1800.0
G1 X16.25 Y-24.96 Z1.74 F1800.0
G1 X14.3 Y-23.04 Z1.74 F1800.0
G1 X14.3 Y-22.78 Z1.74 F1800.0
G1 X16.25 Y-20.85 Z1.74 F1800.0
G1 X16.25 Y-20.6 Z1.74 F1800.0
G1 X14.3 Y-18.67 Z1.74 F1800.0
G1 X14.3 Y-18.42 Z1.74 F1800.0
G1 X16.25 Y-16.49 Z1.74 F1800.0
G1 X16.25 Y-16.24 Z1.74 F1800.0
G1 X14.3 Y-14.31 Z1.74 F1800.0
G1 X14.3 Y-14.05 Z1.74 F1800.0
G1 X13.96 Y-12.74 Z1.74 F1800.0
G1 X14.4 Y-13.18 Z1.74 F1800.0
G1 X14.84 Y-13.18 Z1.74 F1800.0
G1 X14.95 Y-13.06 Z1.74 F1800.0
M108 R30.0
M102
G1 X15.27 Y-12.74 Z1.74 F1800.0
M108 R3.569
M103
G1 X13.89 Y-12.74 Z1.74 F3000.0
M108 R30.0
M101
G1 X13.09 Y-12.74 Z1.74 F3000.0
M108 R3.569
G1 X13.53 Y-13.18 Z1.74 F1800.0
G1 X14.07 Y-14.05 Z1.74 F1800.0
G1 X14.07 Y-14.31 Z1.74 F1800.0
G1 X12.11 Y-16.24 Z1.74 F1800.0
G1 X12.11 Y-16.49 Z1.74 F1800.0
G1 X14.07 Y-18.42 Z1.74 F1800.0
G1 X14.07 Y-18.67 Z1.74 F1800.0
G1 X12.11 Y-20.6 Z1.74 F1800.0
G1 X12.11 Y-20.85 Z1.74 F1800.0
G1 X14.07 Y-22.78 Z1.74 F1800.0
G1 X14.07 Y-23.04 Z1.74 F1800.0
G1 X12.11 Y-24.96 Z1.74 F1800.0
G1 X12.11 Y-25.22 Z1.74 F1800.0
G1 X14.07 Y-27.14 Z1.74 F1800.0
G1 X14.07 Y-27.4 Z1.74 F1800.0
G1 X12.11 Y-29.33 Z1.74 F1800.0
G1 X12.11 Y-29.58 Z1.74 F1800.0
G1 X14.07 Y-31.51 Z1.74 F1800.0
G1 X14.07 Y-31.76 Z1.74 F1800.0
G1 X12.11 Y-33.69 Z1.74 F1800.0
G1 X12.11 Y-33.94 Z1.74 F1800.0
G1 X14.07 Y-35.87 Z1.74 F1800.0
G1 X14.4 Y-38.35 Z1.74 F1800.0
G1 X10.47 Y-38.35 Z1.74 F1800.0
G1 X9.93 Y-36.13 Z1.74 F1800.0
G1 X9.93 Y-35.87 Z1.74 F1800.0
G1 X11.88 Y-33.94 Z1.74 F1800.0
G1 X11.88 Y-33.69 Z1.74 F1800.0
G1 X9.93 Y-31.76 Z1.74 F1800.0
G1 X9.93 Y-31.51 Z1.74 F1800.0
G1 X11.88 Y-29.58 Z1.74 F1800.0
G1 X11.88 Y-29.33 Z1.74 F1800.0
G1 X9.93 Y-27.4 Z1.74 F1800.0
G1 X9.93 Y-27.14 Z1.74 F1800.0
G1 X11.88 Y-25.22 Z1.74 F1800.0
G1 X11.88 Y-24.96 Z1.74 F1800.0
G1 X9.93 Y-23.04 Z1.74 F1800.0
G1 X9.93 Y-22.78 Z1.74 F1800.0
G1 X11.88 Y-20.85 Z1.74 F1800.0
G1 X11.88 Y-20.6 Z1.74 F1800.0
G1 X9.93 Y-18.67 Z1.74 F1800.0
G1 X9.93 Y-18.42 Z1.74 F1800.0
G1 X11.88 Y-16.49 Z1.74 F1800.0
G1 X11.88 Y-16.24 Z1.74 F1800.0
G1 X9.93 Y-14.31 Z1.74 F1800.0
G1 X10.04 Y-13.18 Z1.74 F1800.0
G1 X10.51 Y-12.94 Z1.74 F1800.0
M108 R30.0
M102
G1 X10.91 Y-12.74 Z1.74 F1800.0
M108 R3.569
M103
G1 X9.53 Y-12.74 Z1.74 F3000.0
M108 R30.0
M101
G1 X8.73 Y-12.74 Z1.74 F3000.0
M108 R3.569
G1 X9.16 Y-13.18 Z1.74 F1800.0
G1 X9.7 Y-14.05 Z1.74 F1800.0
G1 X9.7 Y-14.31 Z1.74 F1800.0
G1 X7.75 Y-16.24 Z1.74 F1800.0
G1 X7.75 Y-16.49 Z1.74 F1800.0
G1 X9.7 Y-18.42 Z1.74 F1800.0
G1 X9.7 Y-18.67 Z1.74 F1800.0
G1 X7.75 Y-20.6 Z1.74 F1800.0
G1 X7.75 Y-20.85 Z1.74 F1800.0
G1 X9.7 Y-22.78 Z1.74 F1800.0
G1 X9.7 Y-23.04 Z1.74 F1800.0
G1 X7.75 Y-24.96 Z1.74 F1800.0
G1 X7.75 Y-25.22 Z1.74 F1800.0
G1 X9.7 Y-27.14 Z1.74 F1800.0
G1 X9.7 Y-27.4 Z1.74 F1800.0
G1 X7.75 Y-29.33 Z1.74 F1800.0
G1 X7.75 Y-29.58 Z1.74 F1800.0
G1 X9.7 Y-31.51 Z1.74 F1800.0
G1 X9.7 Y-31.76 Z1.74 F1800.0
G1 X7.75 Y-33.69 Z1.74 F1800.0
G1 X7.75 Y-33.94 Z1.74 F1800.0
G1 X9.7 Y-35.87 Z1.74 F1800.0
G1 X10.04 Y-38.35 Z1.74 F1800.0
G1 X6.55 Y-38.35 Z1.74 F1800.0
G1 X7.52 Y-33.94 Z1.74 F1800.0
G1 X7.52 Y-16.24 Z1.74 F1800.0
G1 X6.98 Y-13.18 Z1.74 F1800.0
G1 X6.55 Y-12.74 Z1.74 F1800.0
M103
(</surroundingLoop>)
(</layer>)
(<layer> 2.06 )
(<surroundingLoop>)
(<boundaryPerimeter>)
(<boundaryPoint> X15.203 Y-2.167 Z2.06 </boundaryPoint>)
(<boundaryPoint> X15.203 Y-11.897 Z2.06 </boundaryPoint>)
(<boundaryPoint> X5.473 Y-11.897 Z2.06 </boundaryPoint>)
(<boundaryPoint> X5.473 Y-39.197 Z2.06 </boundaryPoint>)
(<boundaryPoint> X42.503 Y-39.197 Z2.06 </boundaryPoint>)
(<boundaryPoint> X42.503 Y-2.167 Z2.06 </boundaryPoint>)
(<loop> outer )
G1 X6.38 Y-12.49 Z2.06 F3000.0
M101
G1 X6.06 Y-12.49 Z2.06 F1800.0
G1 X6.06 Y-38.61 Z2.06 F1800.0
G1 X41.91 Y-38.61 Z2.06 F1800.0
G1 X41.91 Y-2.76 Z2.06 F1800.0
G1 X15.79 Y-2.76 Z2.06 F1800.0
G1 X15.79 Y-12.49 Z2.06 F1800.0
G1 X6.55 Y-12.49 Z2.06 F1800.0
G1 X6.38 Y-12.49 Z2.06 F1800.0
M103
(</loop>)
(<perimeter> outer )
G1 X6.55 Y-12.09 Z2.06 F3000.0
M101
G1 X5.67 Y-12.09 Z2.06 F1800.0
G1 X5.67 Y-39.0 Z2.06 F1800.0
G1 X42.31 Y-39.0 Z2.06 F1800.0
G1 X42.31 Y-2.36 Z2.06 F1800.0
G1 X15.4 Y-2.36 Z2.06 F1800.0
G1 X15.4 Y-12.09 Z2.06 F1800.0
G1 X7.0 Y-12.09 Z2.06 F1800.0
M108 R30.0
M102
G1 X6.55 Y-12.09 Z2.06 F1800.0
M108 R3.569
M103
(</perimeter>)
(</boundaryPerimeter>)
G1 X6.4 Y-13.6 Z2.06 F3000.0
M108 R30.0
M101
G1 X6.32 Y-14.4 Z2.06 F3000.0
M108 R3.569
G1 X6.32 Y-13.09 Z2.06 F1800.0
G1 X9.69 Y-14.07 Z2.06 F1800.0
G1 X18.67 Y-14.18 Z2.06 F1800.0
G1 X20.6 Y-12.11 Z2.06 F1800.0
G1 X20.85 Y-12.11 Z2.06 F1800.0
G1 X22.78 Y-14.07 Z2.06 F1800.0
G1 X23.04 Y-14.07 Z2.06 F1800.0
G1 X24.96 Y-12.11 Z2.06 F1800.0
G1 X25.22 Y-12.11 Z2.06 F1800.0
G1 X27.14 Y-14.07 Z2.06 F1800.0
G1 X27.4 Y-14.07 Z2.06 F1800.0
G1 X29.33 Y-12.11 Z2.06 F1800.0
G1 X29.58 Y-12.11 Z2.06 F1800.0
G1 X31.51 Y-14.07 Z2.06 F1800.0
G1 X31.76 Y-14.07 Z2.06 F1800.0
G1 X33.69 Y-12.11 Z2.06 F1800.0
G1 X33.94 Y-12.11 Z2.06 F1800.0
G1 X35.87 Y-14.07 Z2.06 F1800.0
G1 X36.13 Y-14.07 Z2.06 F1800.0
G1 X38.05 Y-12.11 Z2.06 F1800.0
G1 X41.22 Y-12.65 Z2.06 F1800.0
G1 X41.66 Y-13.09 Z2.06 F1800.0
G1 X41.22 Y-13.53 Z2.06 F1800.0
G1 X41.34 Y-13.64 Z2.06 F1800.0
M108 R30.0
M102
G1 X41.66 Y-13.96 Z2.06 F1800.0
M108 R3.569
M103
G1 X41.66 Y-15.34 Z2.06 F3000.0
M108 R30.0
M101
G1 X41.66 Y-16.14 Z2.06 F3000.0
M108 R3.569
G1 X38.05 Y-16.25 Z2.06 F1800.0
G1 X36.13 Y-14.3 Z2.06 F1800.0
G1 X35.87 Y-14.3 Z2.06 F1800.0
G1 X33.94 Y-16.25 Z2.06 F1800.0
G1 X33.69 Y-16.25 Z2.06 F1800.0
G1 X31.76 Y-14.3 Z2.06 F1800.0
G1 X31.51 Y-14.3 Z2.06 F1800.0
G1 X29.58 Y-16.25 Z2.06 F1800.0
G1 X29.33 Y-16.25 Z2.06 F1800.0
G1 X27.4 Y-14.3 Z2.06 F1800.0
G1 X27.14 Y-14.3 Z2.06 F1800.0
G1 X25.22 Y-16.25 Z2.06 F1800.0
G1 X24.96 Y-16.25 Z2.06 F1800.0
G1 X23.04 Y-14.3 Z2.06 F1800.0
G1 X22.78 Y-14.3 Z2.06 F1800.0
G1 X20.85 Y-16.25 Z2.06 F1800.0
G1 X11.87 Y-16.25 Z2.06 F1800.0
G1 X9.95 Y-14.3 Z2.06 F1800.0
G1 X9.69 Y-14.3 Z2.06 F1800.0
G1 X7.76 Y-16.25 Z2.06 F1800.0
G1 X7.51 Y-16.25 Z2.06 F1800.0
G1 X6.32 Y-14.84 Z2.06 F1800.0
G1 X6.32 Y-18.33 Z2.06 F1800.0
G1 X7.64 Y-16.48 Z2.06 F1800.0
G1 X7.76 Y-16.48 Z2.06 F1800.0
G1 X9.69 Y-18.43 Z2.06 F1800.0
G1 X9.95 Y-18.43 Z2.06 F1800.0
G1 X11.87 Y-16.48 Z2.06 F1800.0
G1 X12.13 Y-16.48 Z2.06 F1800.0
G1 X14.05 Y-18.43 Z2.06 F1800.0
G1 X14.31 Y-18.43 Z2.06 F1800.0
G1 X16.24 Y-16.48 Z2.06 F1800.0
G1 X16.49 Y-16.48 Z2.06 F1800.0
G1 X18.42 Y-18.43 Z2.06 F1800.0
G1 X18.67 Y-18.43 Z2.06 F1800.0
G1 X20.6 Y-16.48 Z2.06 F1800.0
G1 X20.85 Y-16.48 Z2.06 F1800.0
G1 X22.78 Y-18.43 Z2.06 F1800.0
G1 X23.04 Y-18.43 Z2.06 F1800.0
G1 X24.96 Y-16.48 Z2.06 F1800.0
G1 X25.22 Y-16.48 Z2.06 F1800.0
G1 X27.14 Y-18.43 Z2.06 F1800.0
G1 X27.4 Y-18.43 Z2.06 F1800.0
G1 X29.33 Y-16.48 Z2.06 F1800.0
G1 X29.58 Y-16.48 Z2.06 F1800.0
G1 X31.51 Y-18.43 Z2.06 F1800.0
G1 X31.76 Y-18.43 Z2.06 F1800.0
G1 X33.69 Y-16.48 Z2.06 F1800.0
G1 X33.94 Y-16.48 Z2.06 F1800.0
G1 X35.87 Y-18.43 Z2.06 F1800.0
G1 X36.13 Y-18.43 Z2.06 F1800.0
G1 X38.05 Y-16.48 Z2.06 F1800.0
G1 X38.31 Y-16.48 Z2.06 F1800.0
G1 X41.22 Y-17.02 Z2.06 F1800.0
G1 X41.66 Y-17.45 Z2.06 F1800.0
G1 X41.22 Y-17.89 Z2.06 F1800.0
G1 X41.34 Y-18.01 Z2.06 F1800.0
M108 R30.0
M102
G1 X41.66 Y-18.33 Z2.06 F1800.0
M108 R3.569
M103
G1 X41.66 Y-19.71 Z2.06 F3000.0
M108 R30.0
M101
G1 X41.66 Y-20.51 Z2.06 F3000.0
M108 R3.569
G1 X38.05 Y-20.61 Z2.06 F1800.0
G1 X36.13 Y-18.66 Z2.06 F1800.0
G1 X35.87 Y-18.66 Z2.06 F1800.0
G1 X33.94 Y-20.61 Z2.06 F1800.0
G1 X33.69 Y-20.61 Z2.06 F1800.0
G1 X31.76 Y-18.66 Z2.06 F1800.0
G1 X31.51 Y-18.66 Z2.06 F1800.0
G1 X29.58 Y-20.61 Z2.06 F1800.0
G1 X29.33 Y-20.61 Z2.06 F1800.0
G1 X27.4 Y-18.66 Z2.06 F1800.0
G1 X27.14 Y-18.66 Z2.06 F1800.0
G1 X25.22 Y-20.61 Z2.06 F1800.0
G1 X24.96 Y-20.61 Z2.06 F1800.0
G1 X23.04 Y-18.66 Z2.06 F1800.0
G1 X22.78 Y-18.66 Z2.06 F1800.0
G1 X20.85 Y-20.61 Z2.06 F1800.0
G1 X20.6 Y-20.61 Z2.06 F1800.0
G1 X18.67 Y-18.66 Z2.06 F1800.0
G1 X18.42 Y-18.66 Z2.06 F1800.0
G1 X16.49 Y-20.61 Z2.06 F1800.0
G1 X16.24 Y-20.61 Z2.06 F1800.0
G1 X14.31 Y-18.66 Z2.06 F1800.0
G1 X14.05 Y-18.66 Z2.06 F1800.0
G1 X12.13 Y-20.61 Z2.06 F1800.0
G1 X11.87 Y-20.61 Z2.06 F1800.0
G1 X9.95 Y-18.66 Z2.06 F1800.0
G1 X9.69 Y-18.66 Z2.06 F1800.0
G1 X7.76 Y-20.61 Z2.06 F1800.0
G1 X7.51 Y-20.61 Z2.06 F1800.0
G1 X6.32 Y-18.76 Z2.06 F1800.0
G1 X6.32 Y-23.13 Z2.06 F1800.0
G1 X7.64 Y-20.84 Z2.06 F1800.0
G1 X7.76 Y-20.84 Z2.06 F1800.0
G1 X9.69 Y-22.79 Z2.06 F1800.0
G1 X9.95 Y-22.79 Z2.06 F1800.0
G1 X11.87 Y-20.84 Z2.06 F1800.0
G1 X12.13 Y-20.84 Z2.06 F1800.0
G1 X14.05 Y-22.79 Z2.06 F1800.0
G1 X14.31 Y-22.79 Z2.06 F1800.0
G1 X16.24 Y-20.84 Z2.06 F1800.0
G1 X16.49 Y-20.84 Z2.06 F1800.0
G1 X18.42 Y-22.79 Z2.06 F1800.0
G1 X18.67 Y-22.79 Z2.06 F1800.0
G1 X20.6 Y-20.84 Z2.06 F1800.0
G1 X20.85 Y-20.84 Z2.06 F1800.0
G1 X22.78 Y-22.79 Z2.06 F1800.0
G1 X23.04 Y-22.79 Z2.06 F1800.0
G1 X24.96 Y-20.84 Z2.06 F1800.0
G1 X25.22 Y-20.84 Z2.06 F1800.0
G1 X27.14 Y-22.79 Z2.06 F1800.0
G1 X27.4 Y-22.79 Z2.06 F1800.0
G1 X29.33 Y-20.84 Z2.06 F1800.0
G1 X29.58 Y-20.84 Z2.06 F1800.0
G1 X31.51 Y-22.79 Z2.06 F1800.0
G1 X31.76 Y-22.79 Z2.06 F1800.0
G1 X33.69 Y-20.84 Z2.06 F1800.0
G1 X33.94 Y-20.84 Z2.06 F1800.0
G1 X35.87 Y-22.79 Z2.06 F1800.0
G1 X36.13 Y-22.79 Z2.06 F1800.0
G1 X38.05 Y-20.84 Z2.06 F1800.0
G1 X38.31 Y-20.84 Z2.06 F1800.0
G1 X41.22 Y-21.38 Z2.06 F1800.0
G1 X41.66 Y-21.82 Z2.06 F1800.0
G1 X41.22 Y-22.25 Z2.06 F1800.0
G1 X41.34 Y-22.37 Z2.06 F1800.0
M108 R30.0
M102
G1 X41.66 Y-22.69 Z2.06 F1800.0
M108 R3.569
M103
G1 X41.66 Y-24.07 Z2.06 F3000.0
M108 R30.0
M101
G1 X41.66 Y-24.87 Z2.06 F3000.0
M108 R3.569
G1 X38.05 Y-24.97 Z2.06 F1800.0
G1 X36.13 Y-23.02 Z2.06 F1800.0
G1 X35.87 Y-23.02 Z2.06 F1800.0
G1 X33.94 Y-24.97 Z2.06 F1800.0
G1 X33.69 Y-24.97 Z2.06 F1800.0
G1 X31.76 Y-23.02 Z2.06 F1800.0
G1 X31.51 Y-23.02 Z2.06 F1800.0
G1 X29.58 Y-24.97 Z2.06 F1800.0
G1 X29.33 Y-24.97 Z2.06 F1800.0
G1 X27.4 Y-23.02 Z2.06 F1800.0
G1 X27.14 Y-23.02 Z2.06 F1800.0
G1 X25.22 Y-24.97 Z2.06 F1800.0
G1 X24.96 Y-24.97 Z2.06 F1800.0
G1 X23.04 Y-23.02 Z2.06 F1800.0
G1 X22.78 Y-23.02 Z2.06 F1800.0
G1 X20.85 Y-24.97 Z2.06 F1800.0
G1 X20.6 Y-24.97 Z2.06 F1800.0
G1 X18.67 Y-23.02 Z2.06 F1800.0
G1 X18.42 Y-23.02 Z2.06 F1800.0
G1 X16.49 Y-24.97 Z2.06 F1800.0
G1 X16.24 Y-24.97 Z2.06 F1800.0
G1 X14.31 Y-23.02 Z2.06 F1800.0
G1 X14.05 Y-23.02 Z2.06 F1800.0
G1 X12.13 Y-24.97 Z2.06 F1800.0
G1 X11.87 Y-24.97 Z2.06 F1800.0
G1 X9.95 Y-23.02 Z2.06 F1800.0
G1 X9.69 Y-23.02 Z2.06 F1800.0
G1 X7.76 Y-24.97 Z2.06 F1800.0
G1 X7.51 Y-24.97 Z2.06 F1800.0
G1 X6.32 Y-23.56 Z2.06 F1800.0
G1 X6.32 Y-27.49 Z2.06 F1800.0
G1 X7.64 Y-25.2 Z2.06 F1800.0
G1 X7.76 Y-25.2 Z2.06 F1800.0
G1 X9.69 Y-27.16 Z2.06 F1800.0
G1 X9.95 Y-27.16 Z2.06 F1800.0
G1 X11.87 Y-25.2 Z2.06 F1800.0
G1 X12.13 Y-25.2 Z2.06 F1800.0
G1 X14.05 Y-27.16 Z2.06 F1800.0
G1 X14.31 Y-27.16 Z2.06 F1800.0
G1 X16.24 Y-25.2 Z2.06 F1800.0
G1 X16.49 Y-25.2 Z2.06 F1800.0
G1 X18.42 Y-27.16 Z2.06 F1800.0
G1 X18.67 Y-27.16 Z2.06 F1800.0
G1 X20.6 Y-25.2 Z2.06 F1800.0
G1 X20.85 Y-25.2 Z2.06 F1800.0
G1 X22.78 Y-27.16 Z2.06 F1800.0
G1 X23.04 Y-27.16 Z2.06 F1800.0
G1 X24.96 Y-25.2 Z2.06 F1800.0
G1 X25.22 Y-25.2 Z2.06 F1800.0
G1 X27.14 Y-27.16 Z2.06 F1800.0
G1 X27.4 Y-27.16 Z2.06 F1800.0
G1 X29.33 Y-25.2 Z2.06 F1800.0
G1 X29.58 Y-25.2 Z2.06 F1800.0
G1 X31.51 Y-27.16 Z2.06 F1800.0
G1 X31.76 Y-27.16 Z2.06 F1800.0
G1 X33.69 Y-25.2 Z2.06 F1800.0
G1 X33.94 Y-25.2 Z2.06 F1800.0
G1 X35.87 Y-27.16 Z2.06 F1800.0
G1 X36.13 Y-27.16 Z2.06 F1800.0
G1 X38.05 Y-25.2 Z2.06 F1800.0
G1 X38.31 Y-25.2 Z2.06 F1800.0
G1 X41.22 Y-25.74 Z2.06 F1800.0
G1 X41.66 Y-26.18 Z2.06 F1800.0
G1 X41.22 Y-26.62 Z2.06 F1800.0
G1 X41.34 Y-26.73 Z2.06 F1800.0
M108 R30.0
M102
G1 X41.66 Y-27.05 Z2.06 F1800.0
M108 R3.569
M103
G1 X41.66 Y-28.43 Z2.06 F3000.0
M108 R30.0
M101
G1 X41.66 Y-29.23 Z2.06 F3000.0
M108 R3.569
G1 X38.05 Y-29.34 Z2.06 F1800.0
G1 X36.13 Y-27.39 Z2.06 F1800.0
G1 X35.87 Y-27.39 Z2.06 F1800.0
G1 X33.94 Y-29.34 Z2.06 F1800.0
G1 X33.69 Y-29.34 Z2.06 F1800.0
G1 X31.76 Y-27.39 Z2.06 F1800.0
G1 X31.51 Y-27.39 Z2.06 F1800.0
G1 X29.58 Y-29.34 Z2.06 F1800.0
G1 X29.33 Y-29.34 Z2.06 F1800.0
G1 X27.4 Y-27.39 Z2.06 F1800.0
G1 X27.14 Y-27.39 Z2.06 F1800.0
G1 X25.22 Y-29.34 Z2.06 F1800.0
G1 X24.96 Y-29.34 Z2.06 F1800.0
G1 X23.04 Y-27.39 Z2.06 F1800.0
G1 X22.78 Y-27.39 Z2.06 F1800.0
G1 X20.85 Y-29.34 Z2.06 F1800.0
G1 X20.6 Y-29.34 Z2.06 F1800.0
G1 X18.67 Y-27.39 Z2.06 F1800.0
G1 X18.42 Y-27.39 Z2.06 F1800.0
G1 X16.49 Y-29.34 Z2.06 F1800.0
G1 X16.24 Y-29.34 Z2.06 F1800.0
G1 X14.31 Y-27.39 Z2.06 F1800.0
G1 X14.05 Y-27.39 Z2.06 F1800.0
G1 X12.13 Y-29.34 Z2.06 F1800.0
G1 X11.87 Y-29.34 Z2.06 F1800.0
G1 X9.95 Y-27.39 Z2.06 F1800.0
G1 X9.69 Y-27.39 Z2.06 F1800.0
G1 X7.76 Y-29.34 Z2.06 F1800.0
G1 X7.51 Y-29.34 Z2.06 F1800.0
G1 X6.32 Y-27.93 Z2.06 F1800.0
G1 X6.32 Y-31.85 Z2.06 F1800.0
G1 X7.64 Y-29.57 Z2.06 F1800.0
G1 X7.76 Y-29.57 Z2.06 F1800.0
G1 X9.69 Y-31.52 Z2.06 F1800.0
G1 X9.95 Y-31.52 Z2.06 F1800.0
G1 X11.87 Y-29.57 Z2.06 F1800.0
G1 X12.13 Y-29.57 Z2.06 F1800.0
G1 X14.05 Y-31.52 Z2.06 F1800.0
G1 X14.31 Y-31.52 Z2.06 F1800.0
G1 X16.24 Y-29.57 Z2.06 F1800.0
G1 X16.49 Y-29.57 Z2.06 F1800.0
G1 X18.42 Y-31.52 Z2.06 F1800.0
G1 X18.67 Y-31.52 Z2.06 F1800.0
G1 X20.6 Y-29.57 Z2.06 F1800.0
G1 X20.85 Y-29.57 Z2.06 F1800.0
G1 X22.78 Y-31.52 Z2.06 F1800.0
G1 X23.04 Y-31.52 Z2.06 F1800.0
G1 X24.96 Y-29.57 Z2.06 F1800.0
G1 X25.22 Y-29.57 Z2.06 F1800.0
G1 X27.14 Y-31.52 Z2.06 F1800.0
G1 X27.4 Y-31.52 Z2.06 F1800.0
G1 X29.33 Y-29.57 Z2.06 F1800.0
G1 X29.58 Y-29.57 Z2.06 F1800.0
G1 X31.51 Y-31.52 Z2.06 F1800.0
G1 X31.76 Y-31.52 Z2.06 F1800.0
G1 X33.69 Y-29.57 Z2.06 F1800.0
G1 X33.94 Y-29.57 Z2.06 F1800.0
G1 X35.87 Y-31.52 Z2.06 F1800.0
G1 X36.13 Y-31.52 Z2.06 F1800.0
G1 X38.05 Y-29.57 Z2.06 F1800.0
G1 X38.31 Y-29.57 Z2.06 F1800.0
G1 X41.22 Y-30.11 Z2.06 F1800.0
G1 X41.66 Y-30.54 Z2.06 F1800.0
G1 X41.22 Y-30.98 Z2.06 F1800.0
G1 X41.34 Y-31.1 Z2.06 F1800.0
M108 R30.0
M102
G1 X41.66 Y-31.42 Z2.06 F1800.0
M108 R3.569
M103
G1 X41.66 Y-32.8 Z2.06 F3000.0
M108 R30.0
M101
G1 X41.66 Y-33.6 Z2.06 F3000.0
M108 R3.569
G1 X38.05 Y-33.7 Z2.06 F1800.0
G1 X36.13 Y-31.75 Z2.06 F1800.0
G1 X35.87 Y-31.75 Z2.06 F1800.0
G1 X33.94 Y-33.7 Z2.06 F1800.0
G1 X33.69 Y-33.7 Z2.06 F1800.0
G1 X31.76 Y-31.75 Z2.06 F1800.0
G1 X31.51 Y-31.75 Z2.06 F1800.0
G1 X29.58 Y-33.7 Z2.06 F1800.0
G1 X29.33 Y-33.7 Z2.06 F1800.0
G1 X27.4 Y-31.75 Z2.06 F1800.0
G1 X27.14 Y-31.75 Z2.06 F1800.0
G1 X25.22 Y-33.7 Z2.06 F1800.0
G1 X24.96 Y-33.7 Z2.06 F1800.0
G1 X23.04 Y-31.75 Z2.06 F1800.0
G1 X22.78 Y-31.75 Z2.06 F1800.0
G1 X20.85 Y-33.7 Z2.06 F1800.0
G1 X20.6 Y-33.7 Z2.06 F1800.0
G1 X18.67 Y-31.75 Z2.06 F1800.0
G1 X18.42 Y-31.75 Z2.06 F1800.0
G1 X16.49 Y-33.7 Z2.06 F1800.0
G1 X16.24 Y-33.7 Z2.06 F1800.0
G1 X14.31 Y-31.75 Z2.06 F1800.0
G1 X14.05 Y-31.75 Z2.06 F1800.0
G1 X12.13 Y-33.7 Z2.06 F1800.0
G1 X11.87 Y-33.7 Z2.06 F1800.0
G1 X9.95 Y-31.75 Z2.06 F1800.0
G1 X9.69 Y-31.75 Z2.06 F1800.0
G1 X7.76 Y-33.7 Z2.06 F1800.0
G1 X7.51 Y-33.7 Z2.06 F1800.0
G1 X6.32 Y-32.29 Z2.06 F1800.0
G1 X6.32 Y-36.22 Z2.06 F1800.0
G1 X7.64 Y-33.93 Z2.06 F1800.0
G1 X7.76 Y-33.93 Z2.06 F1800.0
G1 X9.69 Y-35.88 Z2.06 F1800.0
G1 X9.95 Y-35.88 Z2.06 F1800.0
G1 X11.87 Y-33.93 Z2.06 F1800.0
G1 X12.13 Y-33.93 Z2.06 F1800.0
G1 X14.05 Y-35.88 Z2.06 F1800.0
G1 X14.31 Y-35.88 Z2.06 F1800.0
G1 X16.24 Y-33.93 Z2.06 F1800.0
G1 X16.49 Y-33.93 Z2.06 F1800.0
G1 X18.42 Y-35.88 Z2.06 F1800.0
G1 X18.67 Y-35.88 Z2.06 F1800.0
G1 X20.6 Y-33.93 Z2.06 F1800.0
G1 X20.85 Y-33.93 Z2.06 F1800.0
G1 X22.78 Y-35.88 Z2.06 F1800.0
G1 X23.04 Y-35.88 Z2.06 F1800.0
G1 X24.96 Y-33.93 Z2.06 F1800.0
G1 X25.22 Y-33.93 Z2.06 F1800.0
G1 X27.14 Y-35.88 Z2.06 F1800.0
G1 X27.4 Y-35.88 Z2.06 F1800.0
G1 X29.33 Y-33.93 Z2.06 F1800.0
G1 X29.58 Y-33.93 Z2.06 F1800.0
G1 X31.51 Y-35.88 Z2.06 F1800.0
G1 X31.76 Y-35.88 Z2.06 F1800.0
G1 X33.69 Y-33.93 Z2.06 F1800.0
G1 X33.94 Y-33.93 Z2.06 F1800.0
G1 X35.87 Y-35.88 Z2.06 F1800.0
G1 X36.13 Y-35.88 Z2.06 F1800.0
G1 X38.05 Y-33.93 Z2.06 F1800.0
G1 X38.31 Y-33.93 Z2.06 F1800.0
G1 X41.22 Y-34.47 Z2.06 F1800.0
G1 X41.66 Y-34.91 Z2.06 F1800.0
G1 X41.22 Y-35.34 Z2.06 F1800.0
G1 X41.34 Y-35.46 Z2.06 F1800.0
M108 R30.0
M102
G1 X41.66 Y-35.78 Z2.06 F1800.0
M108 R3.569
M103
G1 X41.66 Y-37.16 Z2.06 F3000.0
M108 R30.0
M101
G1 X41.66 Y-37.96 Z2.06 F3000.0
M108 R3.569
G1 X41.22 Y-37.53 Z2.06 F1800.0
G1 X36.13 Y-36.11 Z2.06 F1800.0
G1 X9.69 Y-36.11 Z2.06 F1800.0
G1 X6.32 Y-36.65 Z2.06 F1800.0
G1 X6.32 Y-37.51 Z2.06 F1800.0
M108 R30.0
M102
G1 X6.32 Y-37.96 Z2.06 F1800.0
M108 R3.569
M103
G1 X41.02 Y-12.26 Z2.06 F3000.0
M108 R30.0
M101
G1 X41.66 Y-11.78 Z2.06 F3000.0
M108 R3.569
G1 X38.05 Y-11.88 Z2.06 F1800.0
G1 X36.13 Y-9.93 Z2.06 F1800.0
G1 X35.87 Y-9.93 Z2.06 F1800.0
G1 X33.94 Y-11.88 Z2.06 F1800.0
G1 X33.69 Y-11.88 Z2.06 F1800.0
G1 X31.76 Y-9.93 Z2.06 F1800.0
G1 X31.51 Y-9.93 Z2.06 F1800.0
G1 X29.58 Y-11.88 Z2.06 F1800.0
G1 X29.33 Y-11.88 Z2.06 F1800.0
G1 X27.4 Y-9.93 Z2.06 F1800.0
G1 X27.14 Y-9.93 Z2.06 F1800.0
G1 X25.22 Y-11.88 Z2.06 F1800.0
G1 X24.96 Y-11.88 Z2.06 F1800.0
G1 X23.04 Y-9.93 Z2.06 F1800.0
G1 X22.78 Y-9.93 Z2.06 F1800.0
G1 X20.85 Y-11.88 Z2.06 F1800.0
G1 X20.6 Y-11.88 Z2.06 F1800.0
G1 X18.67 Y-9.93 Z2.06 F1800.0
G1 X16.05 Y-10.04 Z2.06 F1800.0
G1 X16.05 Y-11.35 Z2.06 F1800.0
G1 X16.49 Y-12.0 Z2.06 F1800.0
G1 X16.24 Y-12.0 Z2.06 F1800.0
G1 X16.05 Y-11.78 Z2.06 F1800.0
G1 X16.05 Y-12.2 Z2.06 F1800.0
M108 R30.0
M102
G1 X16.05 Y-12.65 Z2.06 F1800.0
M108 R3.569
M103
G1 X40.87 Y-7.58 Z2.06 F3000.0
M108 R30.0
M101
G1 X41.66 Y-7.42 Z2.06 F3000.0
M108 R3.569
G1 X38.05 Y-7.52 Z2.06 F1800.0
G1 X36.13 Y-5.57 Z2.06 F1800.0
G1 X35.87 Y-5.57 Z2.06 F1800.0
G1 X33.94 Y-7.52 Z2.06 F1800.0
G1 X33.69 Y-7.52 Z2.06 F1800.0
G1 X31.76 Y-5.57 Z2.06 F1800.0
G1 X31.51 Y-5.57 Z2.06 F1800.0
G1 X29.58 Y-7.52 Z2.06 F1800.0
G1 X29.33 Y-7.52 Z2.06 F1800.0
G1 X27.4 Y-5.57 Z2.06 F1800.0
G1 X27.14 Y-5.57 Z2.06 F1800.0
G1 X25.22 Y-7.52 Z2.06 F1800.0
G1 X24.96 Y-7.52 Z2.06 F1800.0
G1 X23.04 Y-5.57 Z2.06 F1800.0
G1 X22.78 Y-5.57 Z2.06 F1800.0
G1 X20.85 Y-7.52 Z2.06 F1800.0
G1 X20.6 Y-7.52 Z2.06 F1800.0
G1 X18.67 Y-5.57 Z2.06 F1800.0
G1 X16.05 Y-5.67 Z2.06 F1800.0
G1 X16.05 Y-6.98 Z2.06 F1800.0
G1 X16.49 Y-7.64 Z2.06 F1800.0
G1 X16.24 Y-7.64 Z2.06 F1800.0
G1 X16.05 Y-7.42 Z2.06 F1800.0
G1 X16.05 Y-9.6 Z2.06 F1800.0
G1 X18.67 Y-9.7 Z2.06 F1800.0
G1 X20.6 Y-7.75 Z2.06 F1800.0
G1 X20.85 Y-7.75 Z2.06 F1800.0
G1 X22.78 Y-9.7 Z2.06 F1800.0
G1 X23.04 Y-9.7 Z2.06 F1800.0
G1 X24.96 Y-7.75 Z2.06 F1800.0
G1 X25.22 Y-7.75 Z2.06 F1800.0
G1 X27.14 Y-9.7 Z2.06 F1800.0
G1 X27.4 Y-9.7 Z2.06 F1800.0
G1 X29.33 Y-7.75 Z2.06 F1800.0
G1 X29.58 Y-7.75 Z2.06 F1800.0
G1 X31.51 Y-9.7 Z2.06 F1800.0
G1 X31.76 Y-9.7 Z2.06 F1800.0
G1 X33.69 Y-7.75 Z2.06 F1800.0
G1 X33.94 Y-7.75 Z2.06 F1800.0
G1 X35.87 Y-9.7 Z2.06 F1800.0
G1 X36.13 Y-9.7 Z2.06 F1800.0
G1 X38.05 Y-7.75 Z2.06 F1800.0
G1 X41.22 Y-8.29 Z2.06 F1800.0
G1 X41.66 Y-8.73 Z2.06 F1800.0
G1 X41.22 Y-9.16 Z2.06 F1800.0
G1 X41.34 Y-9.28 Z2.06 F1800.0
M108 R30.0
M102
G1 X41.66 Y-9.6 Z2.06 F1800.0
M108 R3.569
M103
G1 X41.66 Y-3.85 Z2.06 F3000.0
M108 R30.0
M101
G1 X41.66 Y-3.05 Z2.06 F3000.0
M108 R3.569
G1 X16.05 Y-3.05 Z2.06 F1800.0
G1 X16.05 Y-5.24 Z2.06 F1800.0
G1 X18.42 Y-5.34 Z2.06 F1800.0
G1 X41.66 Y-5.24 Z2.06 F1800.0
M103
(</surroundingLoop>)
(</layer>)
(<layer> 2.38 )
(<surroundingLoop>)
(<boundaryPerimeter>)
(<boundaryPoint> X15.203 Y-2.167 Z2.38 </boundaryPoint>)
(<boundaryPoint> X15.203 Y-11.897 Z2.38 </boundaryPoint>)
(<boundaryPoint> X5.473 Y-11.897 Z2.38 </boundaryPoint>)
(<boundaryPoint> X5.473 Y-39.197 Z2.38 </boundaryPoint>)
(<boundaryPoint> X42.503 Y-39.197 Z2.38 </boundaryPoint>)
(<boundaryPoint> X42.503 Y-2.167 Z2.38 </boundaryPoint>)
(<loop> outer )
G1 X41.91 Y-5.37 Z2.38 F3000.0
M101
G1 X41.91 Y-5.24 Z2.38 F1800.0
G1 X41.91 Y-2.76 Z2.38 F1800.0
G1 X15.79 Y-2.76 Z2.38 F1800.0
G1 X15.79 Y-12.49 Z2.38 F1800.0
G1 X6.06 Y-12.49 Z2.38 F1800.0
G1 X6.06 Y-38.61 Z2.38 F1800.0
G1 X41.91 Y-38.61 Z2.38 F1800.0
G1 X41.91 Y-5.37 Z2.38 F1800.0
M103
(</loop>)
(<perimeter> outer )
G1 X42.31 Y-5.24 Z2.38 F3000.0
M101
G1 X42.31 Y-2.36 Z2.38 F1800.0
G1 X15.4 Y-2.36 Z2.38 F1800.0
G1 X15.4 Y-12.09 Z2.38 F1800.0
G1 X5.67 Y-12.09 Z2.38 F1800.0
G1 X5.67 Y-39.0 Z2.38 F1800.0
G1 X42.31 Y-39.0 Z2.38 F1800.0
G1 X42.31 Y-5.69 Z2.38 F1800.0
M108 R30.0
M102
G1 X42.31 Y-5.24 Z2.38 F1800.0
M108 R3.569
M103
(</perimeter>)
(</boundaryPerimeter>)
G1 X41.74 Y-3.76 Z2.38 F3000.0
M108 R30.0
M101
G1 X41.45 Y-3.01 Z2.38 F3000.0
M108 R3.569
G1 X41.45 Y-38.35 Z2.38 F1800.0
G1 X41.02 Y-38.35 Z2.38 F1800.0
G1 X39.27 Y-3.01 Z2.38 F1800.0
G1 X38.4 Y-3.45 Z2.38 F1800.0
G1 X38.29 Y-33.94 Z2.38 F1800.0
G1 X40.58 Y-38.35 Z2.38 F1800.0
G1 X37.09 Y-38.35 Z2.38 F1800.0
G1 X36.11 Y-36.13 Z2.38 F1800.0
G1 X36.11 Y-35.87 Z2.38 F1800.0
G1 X38.06 Y-33.94 Z2.38 F1800.0
G1 X38.06 Y-33.69 Z2.38 F1800.0
G1 X36.11 Y-31.76 Z2.38 F1800.0
G1 X36.11 Y-31.51 Z2.38 F1800.0
G1 X38.06 Y-29.58 Z2.38 F1800.0
G1 X38.06 Y-29.33 Z2.38 F1800.0
G1 X36.11 Y-27.4 Z2.38 F1800.0
G1 X36.11 Y-27.14 Z2.38 F1800.0
G1 X38.06 Y-25.22 Z2.38 F1800.0
G1 X38.06 Y-24.96 Z2.38 F1800.0
G1 X36.11 Y-23.04 Z2.38 F1800.0
G1 X36.11 Y-22.78 Z2.38 F1800.0
G1 X38.06 Y-20.85 Z2.38 F1800.0
G1 X38.06 Y-20.6 Z2.38 F1800.0
G1 X36.11 Y-18.67 Z2.38 F1800.0
G1 X36.11 Y-18.42 Z2.38 F1800.0
G1 X38.06 Y-16.49 Z2.38 F1800.0
G1 X38.06 Y-16.24 Z2.38 F1800.0
G1 X36.11 Y-14.31 Z2.38 F1800.0
G1 X36.11 Y-14.05 Z2.38 F1800.0
G1 X38.06 Y-12.13 Z2.38 F1800.0
G1 X38.06 Y-11.87 Z2.38 F1800.0
G1 X36.11 Y-9.95 Z2.38 F1800.0
G1 X36.11 Y-9.69 Z2.38 F1800.0
G1 X38.06 Y-7.76 Z2.38 F1800.0
G1 X38.06 Y-7.51 Z2.38 F1800.0
G1 X36.11 Y-5.58 Z2.38 F1800.0
G1 X35.78 Y-3.01 Z2.38 F1800.0
G1 X36.22 Y-3.45 Z2.38 F1800.0
G1 X36.65 Y-3.45 Z2.38 F1800.0
G1 X36.77 Y-3.33 Z2.38 F1800.0
M108 R30.0
M102
G1 X37.09 Y-3.01 Z2.38 F1800.0
M108 R3.569
M103
G1 X35.71 Y-3.01 Z2.38 F3000.0
M108 R30.0
M101
G1 X34.91 Y-3.01 Z2.38 F3000.0
M108 R3.569
G1 X35.34 Y-3.45 Z2.38 F1800.0
G1 X35.88 Y-5.33 Z2.38 F1800.0
G1 X35.88 Y-5.58 Z2.38 F1800.0
G1 X33.93 Y-7.51 Z2.38 F1800.0
G1 X33.93 Y-7.76 Z2.38 F1800.0
G1 X35.88 Y-9.69 Z2.38 F1800.0
G1 X35.88 Y-9.95 Z2.38 F1800.0
G1 X33.93 Y-11.87 Z2.38 F1800.0
G1 X33.93 Y-12.13 Z2.38 F1800.0
G1 X35.88 Y-14.05 Z2.38 F1800.0
G1 X35.88 Y-14.31 Z2.38 F1800.0
G1 X33.93 Y-16.24 Z2.38 F1800.0
G1 X33.93 Y-16.49 Z2.38 F1800.0
G1 X35.88 Y-18.42 Z2.38 F1800.0
G1 X35.88 Y-18.67 Z2.38 F1800.0
G1 X33.93 Y-20.6 Z2.38 F1800.0
G1 X33.93 Y-20.85 Z2.38 F1800.0
G1 X35.88 Y-22.78 Z2.38 F1800.0
G1 X35.88 Y-23.04 Z2.38 F1800.0
G1 X33.93 Y-24.96 Z2.38 F1800.0
G1 X33.93 Y-25.22 Z2.38 F1800.0
G1 X35.88 Y-27.14 Z2.38 F1800.0
G1 X35.88 Y-27.4 Z2.38 F1800.0
G1 X33.93 Y-29.33 Z2.38 F1800.0
G1 X33.93 Y-29.58 Z2.38 F1800.0
G1 X35.88 Y-31.51 Z2.38 F1800.0
G1 X35.88 Y-31.76 Z2.38 F1800.0
G1 X33.93 Y-33.69 Z2.38 F1800.0
G1 X33.93 Y-33.94 Z2.38 F1800.0
G1 X35.88 Y-35.87 Z2.38 F1800.0
G1 X35.88 Y-36.13 Z2.38 F1800.0
G1 X36.65 Y-38.35 Z2.38 F1800.0
G1 X32.29 Y-38.35 Z2.38 F1800.0
G1 X31.75 Y-36.13 Z2.38 F1800.0
G1 X31.75 Y-35.87 Z2.38 F1800.0
G1 X33.7 Y-33.94 Z2.38 F1800.0
G1 X33.7 Y-33.69 Z2.38 F1800.0
G1 X31.75 Y-31.76 Z2.38 F1800.0
G1 X31.75 Y-31.51 Z2.38 F1800.0
G1 X33.7 Y-29.58 Z2.38 F1800.0
G1 X33.7 Y-29.33 Z2.38 F1800.0
G1 X31.75 Y-27.4 Z2.38 F1800.0
G1 X31.75 Y-27.14 Z2.38 F1800.0
G1 X33.7 Y-25.22 Z2.38 F1800.0
G1 X33.7 Y-24.96 Z2.38 F1800.0
G1 X31.75 Y-23.04 Z2.38 F1800.0
G1 X31.75 Y-22.78 Z2.38 F1800.0
G1 X33.7 Y-20.85 Z2.38 F1800.0
G1 X33.7 Y-20.6 Z2.38 F1800.0
G1 X31.75 Y-18.67 Z2.38 F1800.0
G1 X31.75 Y-18.42 Z2.38 F1800.0
G1 X33.7 Y-16.49 Z2.38 F1800.0
G1 X33.7 Y-16.24 Z2.38 F1800.0
G1 X31.75 Y-14.31 Z2.38 F1800.0
G1 X31.75 Y-14.05 Z2.38 F1800.0
G1 X33.7 Y-12.13 Z2.38 F1800.0
G1 X33.7 Y-11.87 Z2.38 F1800.0
G1 X31.75 Y-9.95 Z2.38 F1800.0
G1 X31.75 Y-9.69 Z2.38 F1800.0
G1 X33.7 Y-7.76 Z2.38 F1800.0
G1 X33.7 Y-7.51 Z2.38 F1800.0
G1 X31.75 Y-5.58 Z2.38 F1800.0
G1 X31.85 Y-3.45 Z2.38 F1800.0
G1 X32.32 Y-3.21 Z2.38 F1800.0
M108 R30.0
M102
G1 X32.73 Y-3.01 Z2.38 F1800.0
M108 R3.569
M103
G1 X31.34 Y-3.01 Z2.38 F3000.0
M108 R30.0
M101
G1 X30.54 Y-3.01 Z2.38 F3000.0
M108 R3.569
G1 X30.98 Y-3.45 Z2.38 F1800.0
G1 X31.52 Y-5.33 Z2.38 F1800.0
G1 X31.52 Y-5.58 Z2.38 F1800.0
G1 X29.57 Y-7.51 Z2.38 F1800.0
G1 X29.57 Y-7.76 Z2.38 F1800.0
G1 X31.52 Y-9.69 Z2.38 F1800.0
G1 X31.52 Y-9.95 Z2.38 F1800.0
G1 X29.57 Y-11.87 Z2.38 F1800.0
G1 X29.57 Y-12.13 Z2.38 F1800.0
G1 X31.52 Y-14.05 Z2.38 F1800.0
G1 X31.52 Y-14.31 Z2.38 F1800.0
G1 X29.57 Y-16.24 Z2.38 F1800.0
G1 X29.57 Y-16.49 Z2.38 F1800.0
G1 X31.52 Y-18.42 Z2.38 F1800.0
G1 X31.52 Y-18.67 Z2.38 F1800.0
G1 X29.57 Y-20.6 Z2.38 F1800.0
G1 X29.57 Y-20.85 Z2.38 F1800.0
G1 X31.52 Y-22.78 Z2.38 F1800.0
G1 X31.52 Y-23.04 Z2.38 F1800.0
G1 X29.57 Y-24.96 Z2.38 F1800.0
G1 X29.57 Y-25.22 Z2.38 F1800.0
G1 X31.52 Y-27.14 Z2.38 F1800.0
G1 X31.52 Y-27.4 Z2.38 F1800.0
G1 X29.57 Y-29.33 Z2.38 F1800.0
G1 X29.57 Y-29.58 Z2.38 F1800.0
G1 X31.52 Y-31.51 Z2.38 F1800.0
G1 X31.52 Y-31.76 Z2.38 F1800.0
G1 X29.57 Y-33.69 Z2.38 F1800.0
G1 X29.57 Y-33.94 Z2.38 F1800.0
G1 X31.52 Y-35.87 Z2.38 F1800.0
G1 X31.85 Y-38.35 Z2.38 F1800.0
G1 X28.36 Y-38.35 Z2.38 F1800.0
G1 X27.39 Y-36.13 Z2.38 F1800.0
G1 X27.39 Y-35.87 Z2.38 F1800.0
G1 X29.34 Y-33.94 Z2.38 F1800.0
G1 X29.34 Y-33.69 Z2.38 F1800.0
G1 X27.39 Y-31.76 Z2.38 F1800.0
G1 X27.39 Y-31.51 Z2.38 F1800.0
G1 X29.34 Y-29.58 Z2.38 F1800.0
G1 X29.34 Y-29.33 Z2.38 F1800.0
G1 X27.39 Y-27.4 Z2.38 F1800.0
G1 X27.39 Y-27.14 Z2.38 F1800.0
G1 X29.34 Y-25.22 Z2.38 F1800.0
G1 X29.34 Y-24.96 Z2.38 F1800.0
G1 X27.39 Y-23.04 Z2.38 F1800.0
G1 X27.39 Y-22.78 Z2.38 F1800.0
G1 X29.34 Y-20.85 Z2.38 F1800.0
G1 X29.34 Y-20.6 Z2.38 F1800.0
G1 X27.39 Y-18.67 Z2.38 F1800.0
G1 X27.39 Y-18.42 Z2.38 F1800.0
G1 X29.34 Y-16.49 Z2.38 F1800.0
G1 X29.34 Y-16.24 Z2.38 F1800.0
G1 X27.39 Y-14.31 Z2.38 F1800.0
G1 X27.39 Y-14.05 Z2.38 F1800.0
G1 X29.34 Y-12.13 Z2.38 F1800.0
G1 X29.34 Y-11.87 Z2.38 F1800.0
G1 X27.39 Y-9.95 Z2.38 F1800.0
G1 X27.39 Y-9.69 Z2.38 F1800.0
G1 X29.34 Y-7.76 Z2.38 F1800.0
G1 X29.34 Y-7.51 Z2.38 F1800.0
G1 X27.39 Y-5.58 Z2.38 F1800.0
G1 X27.05 Y-3.01 Z2.38 F1800.0
G1 X27.49 Y-3.45 Z2.38 F1800.0
G1 X27.93 Y-3.45 Z2.38 F1800.0
G1 X28.04 Y-3.33 Z2.38 F1800.0
M108 R30.0
M102
G1 X28.36 Y-3.01 Z2.38 F1800.0
M108 R3.569
M103
G1 X26.98 Y-3.01 Z2.38 F3000.0
M108 R30.0
M101
G1 X26.18 Y-3.01 Z2.38 F3000.0
M108 R3.569
G1 X26.62 Y-3.45 Z2.38 F1800.0
G1 X27.16 Y-5.33 Z2.38 F1800.0
G1 X27.16 Y-5.58 Z2.38 F1800.0
G1 X25.2 Y-7.51 Z2.38 F1800.0
G1 X25.2 Y-7.76 Z2.38 F1800.0
G1 X27.16 Y-9.69 Z2.38 F1800.0
G1 X27.16 Y-9.95 Z2.38 F1800.0
G1 X25.2 Y-11.87 Z2.38 F1800.0
G1 X25.2 Y-12.13 Z2.38 F1800.0
G1 X27.16 Y-14.05 Z2.38 F1800.0
G1 X27.16 Y-14.31 Z2.38 F1800.0
G1 X25.2 Y-16.24 Z2.38 F1800.0
G1 X25.2 Y-16.49 Z2.38 F1800.0
G1 X27.16 Y-18.42 Z2.38 F1800.0
G1 X27.16 Y-18.67 Z2.38 F1800.0
G1 X25.2 Y-20.6 Z2.38 F1800.0
G1 X25.2 Y-20.85 Z2.38 F1800.0
G1 X27.16 Y-22.78 Z2.38 F1800.0
G1 X27.16 Y-23.04 Z2.38 F1800.0
G1 X25.2 Y-24.96 Z2.38 F1800.0
G1 X25.2 Y-25.22 Z2.38 F1800.0
G1 X27.16 Y-27.14 Z2.38 F1800.0
G1 X27.16 Y-27.4 Z2.38 F1800.0
G1 X25.2 Y-29.33 Z2.38 F1800.0
G1 X25.2 Y-29.58 Z2.38 F1800.0
G1 X27.16 Y-31.51 Z2.38 F1800.0
G1 X27.16 Y-31.76 Z2.38 F1800.0
G1 X25.2 Y-33.69 Z2.38 F1800.0
G1 X25.2 Y-33.94 Z2.38 F1800.0
G1 X27.16 Y-35.87 Z2.38 F1800.0
G1 X27.16 Y-36.13 Z2.38 F1800.0
G1 X27.93 Y-38.35 Z2.38 F1800.0
G1 X23.56 Y-38.35 Z2.38 F1800.0
G1 X23.02 Y-36.13 Z2.38 F1800.0
G1 X23.02 Y-35.87 Z2.38 F1800.0
G1 X24.97 Y-33.94 Z2.38 F1800.0
G1 X24.97 Y-33.69 Z2.38 F1800.0
G1 X23.02 Y-31.76 Z2.38 F1800.0
G1 X23.02 Y-31.51 Z2.38 F1800.0
G1 X24.97 Y-29.58 Z2.38 F1800.0
G1 X24.97 Y-29.33 Z2.38 F1800.0
G1 X23.02 Y-27.4 Z2.38 F1800.0
G1 X23.02 Y-27.14 Z2.38 F1800.0
G1 X24.97 Y-25.22 Z2.38 F1800.0
G1 X24.97 Y-24.96 Z2.38 F1800.0
G1 X23.02 Y-23.04 Z2.38 F1800.0
G1 X23.02 Y-22.78 Z2.38 F1800.0
G1 X24.97 Y-20.85 Z2.38 F1800.0
G1 X24.97 Y-20.6 Z2.38 F1800.0
G1 X23.02 Y-18.67 Z2.38 F1800.0
G1 X23.02 Y-18.42 Z2.38 F1800.0
G1 X24.97 Y-16.49 Z2.38 F1800.0
G1 X24.97 Y-16.24 Z2.38 F1800.0
G1 X23.02 Y-14.31 Z2.38 F1800.0
G1 X23.02 Y-14.05 Z2.38 F1800.0
G1 X24.97 Y-12.13 Z2.38 F1800.0
G1 X24.97 Y-11.87 Z2.38 F1800.0
G1 X23.02 Y-9.95 Z2.38 F1800.0
G1 X23.02 Y-9.69 Z2.38 F1800.0
G1 X24.97 Y-7.76 Z2.38 F1800.0
G1 X24.97 Y-7.51 Z2.38 F1800.0
G1 X23.02 Y-5.58 Z2.38 F1800.0
G1 X23.13 Y-3.45 Z2.38 F1800.0
G1 X23.56 Y-3.45 Z2.38 F1800.0
G1 X23.68 Y-3.33 Z2.38 F1800.0
M108 R30.0
M102
G1 X24.0 Y-3.01 Z2.38 F1800.0
M108 R3.569
M103
G1 X22.62 Y-3.01 Z2.38 F3000.0
M108 R30.0
M101
G1 X21.82 Y-3.01 Z2.38 F3000.0
M108 R3.569
G1 X22.25 Y-3.45 Z2.38 F1800.0
G1 X22.79 Y-5.33 Z2.38 F1800.0
G1 X22.79 Y-5.58 Z2.38 F1800.0
G1 X20.84 Y-7.51 Z2.38 F1800.0
G1 X20.84 Y-7.76 Z2.38 F1800.0
G1 X22.79 Y-9.69 Z2.38 F1800.0
G1 X22.79 Y-9.95 Z2.38 F1800.0
G1 X20.84 Y-11.87 Z2.38 F1800.0
G1 X20.84 Y-12.13 Z2.38 F1800.0
G1 X22.79 Y-14.05 Z2.38 F1800.0
G1 X22.79 Y-14.31 Z2.38 F1800.0
G1 X20.84 Y-16.24 Z2.38 F1800.0
G1 X20.84 Y-16.49 Z2.38 F1800.0
G1 X22.79 Y-18.42 Z2.38 F1800.0
G1 X22.79 Y-18.67 Z2.38 F1800.0
G1 X20.84 Y-20.6 Z2.38 F1800.0
G1 X20.84 Y-20.85 Z2.38 F1800.0
G1 X22.79 Y-22.78 Z2.38 F1800.0
G1 X22.79 Y-23.04 Z2.38 F1800.0
G1 X20.84 Y-24.96 Z2.38 F1800.0
G1 X20.84 Y-25.22 Z2.38 F1800.0
G1 X22.79 Y-27.14 Z2.38 F1800.0
G1 X22.79 Y-27.4 Z2.38 F1800.0
G1 X20.84 Y-29.33 Z2.38 F1800.0
G1 X20.84 Y-29.58 Z2.38 F1800.0
G1 X22.79 Y-31.51 Z2.38 F1800.0
G1 X22.79 Y-31.76 Z2.38 F1800.0
G1 X20.84 Y-33.69 Z2.38 F1800.0
G1 X20.84 Y-33.94 Z2.38 F1800.0
G1 X22.79 Y-35.87 Z2.38 F1800.0
G1 X22.79 Y-36.13 Z2.38 F1800.0
G1 X23.13 Y-38.35 Z2.38 F1800.0
G1 X19.64 Y-38.35 Z2.38 F1800.0
G1 X18.66 Y-36.13 Z2.38 F1800.0
G1 X18.66 Y-35.87 Z2.38 F1800.0
G1 X20.61 Y-33.94 Z2.38 F1800.0
G1 X20.61 Y-33.69 Z2.38 F1800.0
G1 X18.66 Y-31.76 Z2.38 F1800.0
G1 X18.66 Y-31.51 Z2.38 F1800.0
G1 X20.61 Y-29.58 Z2.38 F1800.0
G1 X20.61 Y-29.33 Z2.38 F1800.0
G1 X18.66 Y-27.4 Z2.38 F1800.0
G1 X18.66 Y-27.14 Z2.38 F1800.0
G1 X20.61 Y-25.22 Z2.38 F1800.0
G1 X20.61 Y-24.96 Z2.38 F1800.0
G1 X18.66 Y-23.04 Z2.38 F1800.0
G1 X18.66 Y-22.78 Z2.38 F1800.0
G1 X20.61 Y-20.85 Z2.38 F1800.0
G1 X20.61 Y-20.6 Z2.38 F1800.0
G1 X18.66 Y-18.67 Z2.38 F1800.0
G1 X18.66 Y-18.42 Z2.38 F1800.0
G1 X20.61 Y-16.49 Z2.38 F1800.0
G1 X20.61 Y-16.24 Z2.38 F1800.0
G1 X18.66 Y-14.31 Z2.38 F1800.0
G1 X18.66 Y-14.05 Z2.38 F1800.0
G1 X20.61 Y-12.13 Z2.38 F1800.0
G1 X20.61 Y-11.87 Z2.38 F1800.0
G1 X18.66 Y-9.95 Z2.38 F1800.0
G1 X18.66 Y-9.69 Z2.38 F1800.0
G1 X20.61 Y-7.76 Z2.38 F1800.0
G1 X20.61 Y-7.51 Z2.38 F1800.0
G1 X18.66 Y-5.58 Z2.38 F1800.0
G1 X18.76 Y-3.45 Z2.38 F1800.0
G1 X19.23 Y-3.21 Z2.38 F1800.0
M108 R30.0
M102
G1 X19.64 Y-3.01 Z2.38 F1800.0
M108 R3.569
M103
G1 X18.25 Y-3.01 Z2.38 F3000.0
M108 R30.0
M101
G1 X17.45 Y-3.01 Z2.38 F3000.0
M108 R3.569
G1 X17.89 Y-3.45 Z2.38 F1800.0
G1 X18.43 Y-5.33 Z2.38 F1800.0
G1 X18.43 Y-5.58 Z2.38 F1800.0
G1 X16.36 Y-7.51 Z2.38 F1800.0
G1 X16.36 Y-7.76 Z2.38 F1800.0
G1 X18.43 Y-9.69 Z2.38 F1800.0
G1 X18.43 Y-9.95 Z2.38 F1800.0
G1 X16.36 Y-11.87 Z2.38 F1800.0
G1 X16.36 Y-12.13 Z2.38 F1800.0
G1 X18.43 Y-14.05 Z2.38 F1800.0
G1 X18.43 Y-14.31 Z2.38 F1800.0
G1 X16.48 Y-16.24 Z2.38 F1800.0
G1 X16.48 Y-16.49 Z2.38 F1800.0
G1 X18.43 Y-18.42 Z2.38 F1800.0
G1 X18.43 Y-18.67 Z2.38 F1800.0
G1 X16.48 Y-20.6 Z2.38 F1800.0
G1 X16.48 Y-20.85 Z2.38 F1800.0
G1 X18.43 Y-22.78 Z2.38 F1800.0
G1 X18.43 Y-23.04 Z2.38 F1800.0
G1 X16.48 Y-24.96 Z2.38 F1800.0
G1 X16.48 Y-25.22 Z2.38 F1800.0
G1 X18.43 Y-27.14 Z2.38 F1800.0
G1 X18.43 Y-27.4 Z2.38 F1800.0
G1 X16.48 Y-29.33 Z2.38 F1800.0
G1 X16.48 Y-29.58 Z2.38 F1800.0
G1 X18.43 Y-31.51 Z2.38 F1800.0
G1 X18.43 Y-31.76 Z2.38 F1800.0
G1 X16.48 Y-33.69 Z2.38 F1800.0
G1 X16.48 Y-33.94 Z2.38 F1800.0
G1 X18.43 Y-35.87 Z2.38 F1800.0
G1 X18.43 Y-36.13 Z2.38 F1800.0
G1 X19.2 Y-38.35 Z2.38 F1800.0
G1 X14.84 Y-38.35 Z2.38 F1800.0
G1 X14.3 Y-36.13 Z2.38 F1800.0
G1 X14.3 Y-35.87 Z2.38 F1800.0
G1 X16.25 Y-33.94 Z2.38 F1800.0
G1 X16.25 Y-33.69 Z2.38 F1800.0
G1 X14.3 Y-31.76 Z2.38 F1800.0
G1 X14.3 Y-31.51 Z2.38 F1800.0
G1 X16.25 Y-29.58 Z2.38 F1800.0
G1 X16.25 Y-29.33 Z2.38 F1800.0
G1 X14.3 Y-27.4 Z2.38 F1800.0
G1 X14.3 Y-27.14 Z2.38 F1800.0
G1 X16.25 Y-25.22 Z2.38 F1800.0
G1 X16.25 Y-24.96 Z2.38 F1800.0
G1 X14.3 Y-23.04 Z2.38 F1800.0
G1 X14.3 Y-22.78 Z2.38 F1800.0
G1 X16.25 Y-20.85 Z2.38 F1800.0
G1 X16.25 Y-20.6 Z2.38 F1800.0
G1 X14.3 Y-18.67 Z2.38 F1800.0
G1 X14.3 Y-18.42 Z2.38 F1800.0
G1 X16.25 Y-16.49 Z2.38 F1800.0
G1 X16.25 Y-16.24 Z2.38 F1800.0
G1 X14.3 Y-14.31 Z2.38 F1800.0
G1 X14.3 Y-14.05 Z2.38 F1800.0
G1 X13.96 Y-12.74 Z2.38 F1800.0
G1 X14.4 Y-13.18 Z2.38 F1800.0
G1 X14.84 Y-13.18 Z2.38 F1800.0
G1 X14.95 Y-13.06 Z2.38 F1800.0
M108 R30.0
M102
G1 X15.27 Y-12.74 Z2.38 F1800.0
M108 R3.569
M103
G1 X13.89 Y-12.74 Z2.38 F3000.0
M108 R30.0
M101
G1 X13.09 Y-12.74 Z2.38 F3000.0
M108 R3.569
G1 X13.53 Y-13.18 Z2.38 F1800.0
G1 X14.07 Y-14.05 Z2.38 F1800.0
G1 X14.07 Y-14.31 Z2.38 F1800.0
G1 X12.11 Y-16.24 Z2.38 F1800.0
G1 X12.11 Y-16.49 Z2.38 F1800.0
G1 X14.07 Y-18.42 Z2.38 F1800.0
G1 X14.07 Y-18.67 Z2.38 F1800.0
