(** This GCode was generated by ReplicatorG 0034 **)
(*  using Skeinforge (35)  *)
(*  for a Single headed Thing-O-Matic  *)
(*  on 2012/04/09 18:15:07 (-0400) *)
(**** beginning of start.gcode ****)
(This file is for a MakerBot Thing-O-Matic)
(**** begin initialization commands ****)
G21 (set units to mm)
G90 (set positioning to absolute)
M108 R5.0 (set extruder speed)
M103 (Make sure extruder is off)
M104 S225 T0 (set extruder temperature)
M109 S100 T0 (set heated-build-platform temperature)
(**** end initialization commands ****)
(**** begin homing ****)
G162 Z F1000 (home Z axis maximum)
G92 Z10 (set Z to 0)
G1 Z0 (move z down 10)
G162 Z F150 (home Z axis maximum)
G161 X Y F2500 (home XY axes minimum)
M132 X Y Z A B (Recall stored home offsets for XYZAB axis)
(**** end homing ****)
(**** begin pre-wipe commands ****)
( Some people have had problems with the nozzle hitting )
( bolts or wipers during this pre-extrusion warmup.     )
( If this happens to you, you can change the values for )
( the X and Y positions in the following code.          )
( The goal is to have the toolhead wipe its initial     )
( extrusion near the edge of the platform, [anchor it]  )
( so as not to have it interfere with the print.        )
( This file can be found in:                            )
( replicatorg/skein_engines/skeinforge-##/skeinforge_application/ )
( prefs/<profile name [e.g. Thingomatic-ABP-Mk7]>/alterations )
G1 X25 Y-60 Z10 F3300.0 (move to waiting position)
M6 T0 (wait for toolhead parts, nozzle, HBP, etc., to reach temperature)
G0 X25 Y-57 (Position Nozzle)
G0 Z0.6     (Position Height)
M108 R4.0   (Set Extruder Speed)
M101        (Start Extruder)
G4 P1500    (Create Anchor)
(**** end pre-wipe commands ****)
(**** end of start.gcode ****)
(<creation> skeinforge </creation>)
(<version> 10.11.05 </version>)
(<extruderInitialization>)
(<craftTypeName> extrusion </craftTypeName>)
M105
(<bridgeWidthMultiplier> 1.0 </bridgeWidthMultiplier>)
(<decimalPlacesCarried> 3 </decimalPlacesCarried>)
(<layerThickness> 0.32 </layerThickness>)
(<threadSequenceString> loops perimeter infill </threadSequenceString>)
(<operatingFeedRatePerSecond> 30.0 </operatingFeedRatePerSecond>)
(<operatingFlowRate> 3.56914845556 </operatingFlowRate>)
(<orbitalFeedRatePerSecond> 15.0 </orbitalFeedRatePerSecond>)
(<travelFeedRatePerSecond> 50.0 </travelFeedRatePerSecond>)
(<perimeterWidth> 0.393 </perimeterWidth>)
(<profileName> ABS </profileName>)
(<procedureDone> carve,bottom </procedureDone>)
(<procedureDone> preface </procedureDone>)
(<procedureDone> inset </procedureDone>)
(<procedureDone> fill </procedureDone>)
(<procedureDone> speed </procedureDone>)
(<procedureDone> raft </procedureDone>)
(<procedureDone> jitter </procedureDone>)
(<procedureDone> comb </procedureDone>)
(<procedureDone> cool </procedureDone>)
(<procedureDone> outline </procedureDone>)
(<procedureDone> reversal </procedureDone>)
(<procedureDone> export </procedureDone>)
(</extruderInitialization>)
(<extrusion>)
;M113 S1.0
M108 R3.569
(<layer> 0.46 )
(<surroundingLoop>)
(<boundaryPerimeter>)
(<boundaryPoint> X45.78 Y20.968 Z0.46 </boundaryPoint>)
(<boundaryPoint> X-4.9 Y20.968 Z0.46 </boundaryPoint>)
(<boundaryPoint> X-4.9 Y-6.332 Z0.46 </boundaryPoint>)
(<boundaryPoint> X45.78 Y-6.332 Z0.46 </boundaryPoint>)
(<loop> outer )
M108 R2.141
G1 X-6.7 Y22.77 Z0.46 F1080.0
M101
G1 X47.58 Y22.77 Z0.46 F1080.0
G1 X47.58 Y-50.44 Z0.46 F1080.0
G1 X-6.7 Y-50.44 Z0.46 F1080.0
G1 X-6.7 Y22.5 Z0.46 F1080.0
M108 R30.0
M102
G1 X-6.7 Y22.77 Z0.46 F1080.0
M108 R2.141
M103
G1 X-4.39 Y0.7 Z0.46 F3000.0
M108 R30.0
M101
G1 X-4.31 Y-0.09 Z0.46 F3000.0
M108 R2.141
G1 X-4.31 Y-5.74 Z0.46 F1080.0
G1 X45.19 Y-5.74 Z0.46 F1080.0
G1 X45.19 Y20.38 Z0.46 F1080.0
G1 X-4.31 Y20.38 Z0.46 F1080.0
G1 X-4.31 Y0.0 Z0.46 F1080.0
G1 X-4.31 Y-0.09 Z0.46 F1080.0
M103
(</loop>)
(<perimeter> outer )
G1 X-4.7 Y0.0 Z0.46 F3000.0
M101
G1 X-4.7 Y-6.14 Z0.46 F1080.0
G1 X45.58 Y-6.14 Z0.46 F1080.0
G1 X45.58 Y20.77 Z0.46 F1080.0
G1 X-4.7 Y20.77 Z0.46 F1080.0
G1 X-4.7 Y0.27 Z0.46 F1080.0
M108 R30.0
M102
G1 X-4.7 Y0.0 Z0.46 F1080.0
M108 R2.141
M103
(</perimeter>)
(</boundaryPerimeter>)
G1 X-3.99 Y-5.01 Z0.46 F1800.0
M108 R30.0
M101
G1 X-3.93 Y-5.49 Z0.46 F1800.0
M108 R2.141
G1 X-3.93 Y20.12 Z0.46 F1080.0
G1 X-3.53 Y20.12 Z0.46 F1080.0
G1 X-3.53 Y-5.49 Z0.46 F1080.0
G1 X-3.14 Y-5.49 Z0.46 F1080.0
G1 X-3.14 Y20.12 Z0.46 F1080.0
G1 X-2.75 Y20.12 Z0.46 F1080.0
G1 X-2.75 Y-5.49 Z0.46 F1080.0
G1 X-2.36 Y-5.49 Z0.46 F1080.0
G1 X-2.36 Y20.12 Z0.46 F1080.0
G1 X-1.96 Y20.12 Z0.46 F1080.0
G1 X-1.96 Y-5.49 Z0.46 F1080.0
G1 X-1.57 Y-5.49 Z0.46 F1080.0
G1 X-1.57 Y20.12 Z0.46 F1080.0
G1 X-1.18 Y20.12 Z0.46 F1080.0
G1 X-1.18 Y-5.49 Z0.46 F1080.0
G1 X-0.79 Y-5.49 Z0.46 F1080.0
G1 X-0.79 Y20.12 Z0.46 F1080.0
G1 X-0.39 Y20.12 Z0.46 F1080.0
G1 X-0.39 Y-5.49 Z0.46 F1080.0
G1 X-0.0 Y-5.49 Z0.46 F1080.0
G1 X0.0 Y20.12 Z0.46 F1080.0
G1 X0.39 Y20.12 Z0.46 F1080.0
G1 X0.39 Y-5.49 Z0.46 F1080.0
G1 X0.79 Y-5.49 Z0.46 F1080.0
G1 X0.79 Y20.12 Z0.46 F1080.0
G1 X1.18 Y20.12 Z0.46 F1080.0
G1 X1.18 Y-5.49 Z0.46 F1080.0
G1 X1.57 Y-5.49 Z0.46 F1080.0
G1 X1.57 Y20.12 Z0.46 F1080.0
G1 X1.96 Y20.12 Z0.46 F1080.0
G1 X1.96 Y-5.49 Z0.46 F1080.0
G1 X2.36 Y-5.49 Z0.46 F1080.0
G1 X2.36 Y20.12 Z0.46 F1080.0
G1 X2.75 Y20.12 Z0.46 F1080.0
G1 X2.75 Y-5.49 Z0.46 F1080.0
G1 X3.14 Y-5.49 Z0.46 F1080.0
G1 X3.14 Y20.12 Z0.46 F1080.0
G1 X3.53 Y20.12 Z0.46 F1080.0
G1 X3.53 Y-5.49 Z0.46 F1080.0
G1 X3.93 Y-5.49 Z0.46 F1080.0
G1 X3.93 Y20.12 Z0.46 F1080.0
G1 X4.32 Y20.12 Z0.46 F1080.0
G1 X4.32 Y-5.49 Z0.46 F1080.0
G1 X4.71 Y-5.49 Z0.46 F1080.0
G1 X4.71 Y20.12 Z0.46 F1080.0
G1 X5.11 Y20.12 Z0.46 F1080.0
G1 X5.11 Y-5.49 Z0.46 F1080.0
G1 X5.5 Y-5.49 Z0.46 F1080.0
G1 X5.5 Y20.12 Z0.46 F1080.0
G1 X5.89 Y20.12 Z0.46 F1080.0
G1 X5.89 Y-5.49 Z0.46 F1080.0
G1 X6.28 Y-5.49 Z0.46 F1080.0
G1 X6.28 Y20.12 Z0.46 F1080.0
G1 X6.68 Y20.12 Z0.46 F1080.0
G1 X6.68 Y-5.49 Z0.46 F1080.0
G1 X7.07 Y-5.49 Z0.46 F1080.0
G1 X7.07 Y20.12 Z0.46 F1080.0
G1 X7.46 Y20.12 Z0.46 F1080.0
G1 X7.46 Y-5.49 Z0.46 F1080.0
G1 X7.85 Y-5.49 Z0.46 F1080.0
G1 X7.85 Y20.12 Z0.46 F1080.0
G1 X8.25 Y20.12 Z0.46 F1080.0
G1 X8.25 Y-5.49 Z0.46 F1080.0
G1 X8.64 Y-5.49 Z0.46 F1080.0
G1 X8.64 Y20.12 Z0.46 F1080.0
G1 X9.03 Y20.12 Z0.46 F1080.0
G1 X9.03 Y-5.49 Z0.46 F1080.0
G1 X9.43 Y-5.49 Z0.46 F1080.0
G1 X9.43 Y20.12 Z0.46 F1080.0
G1 X9.82 Y20.12 Z0.46 F1080.0
G1 X9.82 Y-5.49 Z0.46 F1080.0
G1 X10.21 Y-5.49 Z0.46 F1080.0
G1 X10.21 Y20.12 Z0.46 F1080.0
G1 X10.6 Y20.12 Z0.46 F1080.0
G1 X10.6 Y-5.49 Z0.46 F1080.0
G1 X11.0 Y-5.49 Z0.46 F1080.0
G1 X11.0 Y20.12 Z0.46 F1080.0
G1 X11.39 Y20.12 Z0.46 F1080.0
G1 X11.39 Y-5.49 Z0.46 F1080.0
G1 X11.78 Y-5.49 Z0.46 F1080.0
G1 X11.78 Y20.12 Z0.46 F1080.0
G1 X12.17 Y20.12 Z0.46 F1080.0
G1 X12.17 Y-5.49 Z0.46 F1080.0
G1 X12.57 Y-5.49 Z0.46 F1080.0
G1 X12.57 Y20.12 Z0.46 F1080.0
G1 X12.96 Y20.12 Z0.46 F1080.0
G1 X12.96 Y-5.49 Z0.46 F1080.0
G1 X13.35 Y-5.49 Z0.46 F1080.0
G1 X13.35 Y20.12 Z0.46 F1080.0
G1 X13.74 Y20.12 Z0.46 F1080.0
G1 X13.74 Y-5.49 Z0.46 F1080.0
G1 X14.14 Y-5.49 Z0.46 F1080.0
G1 X14.14 Y20.12 Z0.46 F1080.0
G1 X14.53 Y20.12 Z0.46 F1080.0
G1 X14.53 Y-5.49 Z0.46 F1080.0
G1 X14.92 Y-5.49 Z0.46 F1080.0
G1 X14.92 Y20.12 Z0.46 F1080.0
G1 X15.32 Y20.12 Z0.46 F1080.0
G1 X15.32 Y-5.49 Z0.46 F1080.0
G1 X15.71 Y-5.49 Z0.46 F1080.0
G1 X15.71 Y20.12 Z0.46 F1080.0
G1 X16.1 Y20.12 Z0.46 F1080.0
G1 X16.1 Y-5.49 Z0.46 F1080.0
G1 X16.49 Y-5.49 Z0.46 F1080.0
G1 X16.49 Y20.12 Z0.46 F1080.0
G1 X16.89 Y20.12 Z0.46 F1080.0
G1 X16.89 Y-5.49 Z0.46 F1080.0
G1 X17.28 Y-5.49 Z0.46 F1080.0
G1 X17.28 Y20.12 Z0.46 F1080.0
G1 X17.67 Y20.12 Z0.46 F1080.0
G1 X17.67 Y-5.49 Z0.46 F1080.0
G1 X18.06 Y-5.49 Z0.46 F1080.0
G1 X18.06 Y20.12 Z0.46 F1080.0
G1 X18.46 Y20.12 Z0.46 F1080.0
G1 X18.46 Y-5.49 Z0.46 F1080.0
G1 X18.85 Y-5.49 Z0.46 F1080.0
G1 X18.85 Y20.12 Z0.46 F1080.0
G1 X19.24 Y20.12 Z0.46 F1080.0
G1 X19.24 Y-5.49 Z0.46 F1080.0
G1 X19.64 Y-5.49 Z0.46 F1080.0
G1 X19.64 Y20.12 Z0.46 F1080.0
G1 X20.03 Y20.12 Z0.46 F1080.0
G1 X20.03 Y-5.49 Z0.46 F1080.0
G1 X20.42 Y-5.49 Z0.46 F1080.0
G1 X20.42 Y20.12 Z0.46 F1080.0
G1 X20.81 Y20.12 Z0.46 F1080.0
G1 X20.81 Y-5.49 Z0.46 F1080.0
G1 X21.21 Y-5.49 Z0.46 F1080.0
G1 X21.21 Y20.12 Z0.46 F1080.0
G1 X21.6 Y20.12 Z0.46 F1080.0
G1 X21.6 Y-5.49 Z0.46 F1080.0
G1 X21.99 Y-5.49 Z0.46 F1080.0
G1 X21.99 Y20.12 Z0.46 F1080.0
G1 X22.38 Y20.12 Z0.46 F1080.0
G1 X22.38 Y-5.49 Z0.46 F1080.0
G1 X22.78 Y-5.49 Z0.46 F1080.0
G1 X22.78 Y20.12 Z0.46 F1080.0
G1 X23.17 Y20.12 Z0.46 F1080.0
G1 X23.17 Y-5.49 Z0.46 F1080.0
G1 X23.56 Y-5.49 Z0.46 F1080.0
G1 X23.56 Y20.12 Z0.46 F1080.0
G1 X23.96 Y20.12 Z0.46 F1080.0
G1 X23.96 Y-5.49 Z0.46 F1080.0
G1 X24.35 Y-5.49 Z0.46 F1080.0
G1 X24.35 Y20.12 Z0.46 F1080.0
G1 X24.74 Y20.12 Z0.46 F1080.0
G1 X24.74 Y-5.49 Z0.46 F1080.0
G1 X25.13 Y-5.49 Z0.46 F1080.0
G1 X25.13 Y20.12 Z0.46 F1080.0
G1 X25.53 Y20.12 Z0.46 F1080.0
G1 X25.53 Y-5.49 Z0.46 F1080.0
G1 X25.92 Y-5.49 Z0.46 F1080.0
G1 X25.92 Y20.12 Z0.46 F1080.0
G1 X26.31 Y20.12 Z0.46 F1080.0
G1 X26.31 Y-5.49 Z0.46 F1080.0
G1 X26.7 Y-5.49 Z0.46 F1080.0
G1 X26.7 Y20.12 Z0.46 F1080.0
G1 X27.1 Y20.12 Z0.46 F1080.0
G1 X27.1 Y-5.49 Z0.46 F1080.0
G1 X27.49 Y-5.49 Z0.46 F1080.0
G1 X27.49 Y20.12 Z0.46 F1080.0
G1 X27.88 Y20.12 Z0.46 F1080.0
G1 X27.88 Y-5.49 Z0.46 F1080.0
G1 X28.27 Y-5.49 Z0.46 F1080.0
G1 X28.27 Y20.12 Z0.46 F1080.0
G1 X28.67 Y20.12 Z0.46 F1080.0
G1 X28.67 Y-5.49 Z0.46 F1080.0
G1 X29.06 Y-5.49 Z0.46 F1080.0
G1 X29.06 Y20.12 Z0.46 F1080.0
G1 X29.45 Y20.12 Z0.46 F1080.0
G1 X29.45 Y-5.49 Z0.46 F1080.0
G1 X29.85 Y-5.49 Z0.46 F1080.0
G1 X29.85 Y20.12 Z0.46 F1080.0
G1 X30.24 Y20.12 Z0.46 F1080.0
G1 X30.24 Y-5.49 Z0.46 F1080.0
G1 X30.63 Y-5.49 Z0.46 F1080.0
G1 X30.63 Y20.12 Z0.46 F1080.0
G1 X31.02 Y20.12 Z0.46 F1080.0
G1 X31.02 Y-5.49 Z0.46 F1080.0
G1 X31.42 Y-5.49 Z0.46 F1080.0
G1 X31.42 Y20.12 Z0.46 F1080.0
G1 X31.81 Y20.12 Z0.46 F1080.0
G1 X31.81 Y-5.49 Z0.46 F1080.0
G1 X32.2 Y-5.49 Z0.46 F1080.0
G1 X32.2 Y20.12 Z0.46 F1080.0
G1 X32.59 Y20.12 Z0.46 F1080.0
G1 X32.59 Y-5.49 Z0.46 F1080.0
G1 X32.99 Y-5.49 Z0.46 F1080.0
G1 X32.99 Y20.12 Z0.46 F1080.0
G1 X33.38 Y20.12 Z0.46 F1080.0
G1 X33.38 Y-5.49 Z0.46 F1080.0
G1 X33.77 Y-5.49 Z0.46 F1080.0
G1 X33.77 Y20.12 Z0.46 F1080.0
G1 X34.17 Y20.12 Z0.46 F1080.0
G1 X34.17 Y-5.49 Z0.46 F1080.0
G1 X34.56 Y-5.49 Z0.46 F1080.0
G1 X34.56 Y20.12 Z0.46 F1080.0
G1 X34.95 Y20.12 Z0.46 F1080.0
G1 X34.95 Y-5.49 Z0.46 F1080.0
G1 X35.34 Y-5.49 Z0.46 F1080.0
G1 X35.34 Y20.12 Z0.46 F1080.0
G1 X35.74 Y20.12 Z0.46 F1080.0
G1 X35.74 Y-5.49 Z0.46 F1080.0
G1 X36.13 Y-5.49 Z0.46 F1080.0
G1 X36.13 Y20.12 Z0.46 F1080.0
G1 X36.52 Y20.12 Z0.46 F1080.0
G1 X36.52 Y-5.49 Z0.46 F1080.0
G1 X36.91 Y-5.49 Z0.46 F1080.0
G1 X36.91 Y20.12 Z0.46 F1080.0
G1 X37.31 Y20.12 Z0.46 F1080.0
G1 X37.31 Y-5.49 Z0.46 F1080.0
G1 X37.7 Y-5.49 Z0.46 F1080.0
G1 X37.7 Y20.12 Z0.46 F1080.0
G1 X38.09 Y20.12 Z0.46 F1080.0
G1 X38.09 Y-5.49 Z0.46 F1080.0
G1 X38.49 Y-5.49 Z0.46 F1080.0
G1 X38.49 Y20.12 Z0.46 F1080.0
G1 X38.88 Y20.12 Z0.46 F1080.0
G1 X38.88 Y-5.49 Z0.46 F1080.0
G1 X39.27 Y-5.49 Z0.46 F1080.0
G1 X39.27 Y20.12 Z0.46 F1080.0
G1 X39.66 Y20.12 Z0.46 F1080.0
G1 X39.66 Y-5.49 Z0.46 F1080.0
G1 X40.06 Y-5.49 Z0.46 F1080.0
G1 X40.06 Y20.12 Z0.46 F1080.0
G1 X40.45 Y20.12 Z0.46 F1080.0
G1 X40.45 Y-5.49 Z0.46 F1080.0
G1 X40.84 Y-5.49 Z0.46 F1080.0
G1 X40.84 Y20.12 Z0.46 F1080.0
G1 X41.23 Y20.12 Z0.46 F1080.0
G1 X41.23 Y-5.49 Z0.46 F1080.0
G1 X41.63 Y-5.49 Z0.46 F1080.0
G1 X41.63 Y20.12 Z0.46 F1080.0
G1 X42.02 Y20.12 Z0.46 F1080.0
G1 X42.02 Y-5.49 Z0.46 F1080.0
G1 X42.41 Y-5.49 Z0.46 F1080.0
G1 X42.41 Y20.12 Z0.46 F1080.0
G1 X42.8 Y20.12 Z0.46 F1080.0
G1 X42.8 Y-5.49 Z0.46 F1080.0
G1 X43.2 Y-5.49 Z0.46 F1080.0
G1 X43.2 Y20.12 Z0.46 F1080.0
G1 X43.59 Y20.12 Z0.46 F1080.0
G1 X43.59 Y-5.49 Z0.46 F1080.0
G1 X43.98 Y-5.49 Z0.46 F1080.0
G1 X43.98 Y20.12 Z0.46 F1080.0
G1 X44.38 Y20.12 Z0.46 F1080.0
G1 X44.38 Y-5.49 Z0.46 F1080.0
G1 X44.77 Y-5.49 Z0.46 F1080.0
G1 X44.77 Y19.85 Z0.46 F1080.0
M108 R30.0
M102
G1 X44.77 Y20.12 Z0.46 F1080.0
M108 R2.141
M103
(</surroundingLoop>)
(<surroundingLoop>)
(<boundaryPerimeter>)
(<boundaryPoint> X45.78 Y-21.332 Z0.46 </boundaryPoint>)
(<boundaryPoint> X-4.9 Y-21.332 Z0.46 </boundaryPoint>)
(<boundaryPoint> X-4.9 Y-48.632 Z0.46 </boundaryPoint>)
(<boundaryPoint> X45.78 Y-48.632 Z0.46 </boundaryPoint>)
(<loop> outer )
G1 X44.68 Y-21.12 Z0.46 F3000.0
M108 R30.0
M101
G1 X44.68 Y-21.92 Z0.46 F3000.0
M108 R2.141
G1 X-4.31 Y-21.92 Z0.46 F1080.0
G1 X-4.31 Y-48.04 Z0.46 F1080.0
G1 X45.19 Y-48.04 Z0.46 F1080.0
G1 X45.19 Y-21.92 Z0.46 F1080.0
G1 X44.77 Y-21.92 Z0.46 F1080.0
G1 X44.68 Y-21.92 Z0.46 F1080.0
M103
(</loop>)
(<perimeter> outer )
G1 X44.77 Y-21.53 Z0.46 F3000.0
M101
G1 X-4.7 Y-21.53 Z0.46 F1080.0
G1 X-4.7 Y-48.44 Z0.46 F1080.0
G1 X45.58 Y-48.44 Z0.46 F1080.0
G1 X45.58 Y-21.53 Z0.46 F1080.0
G1 X45.04 Y-21.53 Z0.46 F1080.0
M108 R30.0
M102
G1 X44.77 Y-21.53 Z0.46 F1080.0
M108 R2.141
M103
(</perimeter>)
(</boundaryPerimeter>)
G1 X44.77 Y-47.31 Z0.46 F1800.0
M108 R30.0
M101
G1 X44.77 Y-47.79 Z0.46 F1800.0
M108 R2.141
G1 X44.77 Y-22.18 Z0.46 F1080.0
M103
G1 X44.38 Y-22.18 Z0.46 F1800.0
M101
G1 X44.38 Y-47.79 Z0.46 F1080.0
G1 X43.98 Y-47.79 Z0.46 F1080.0
G1 X43.98 Y-22.18 Z0.46 F1080.0
M103
G1 X43.59 Y-22.18 Z0.46 F1800.0
M101
G1 X43.59 Y-47.79 Z0.46 F1080.0
G1 X43.2 Y-47.79 Z0.46 F1080.0
G1 X43.2 Y-22.18 Z0.46 F1080.0
M103
G1 X42.8 Y-22.18 Z0.46 F1800.0
M101
G1 X42.8 Y-47.79 Z0.46 F1080.0
G1 X42.41 Y-47.79 Z0.46 F1080.0
G1 X42.41 Y-22.18 Z0.46 F1080.0
M103
G1 X42.02 Y-22.18 Z0.46 F1800.0
M101
G1 X42.02 Y-47.79 Z0.46 F1080.0
G1 X41.63 Y-47.79 Z0.46 F1080.0
G1 X41.63 Y-22.18 Z0.46 F1080.0
M103
G1 X41.23 Y-22.18 Z0.46 F1800.0
M101
G1 X41.23 Y-47.79 Z0.46 F1080.0
G1 X40.84 Y-47.79 Z0.46 F1080.0
G1 X40.84 Y-22.18 Z0.46 F1080.0
M103
G1 X40.45 Y-22.18 Z0.46 F1800.0
M101
G1 X40.45 Y-47.79 Z0.46 F1080.0
G1 X40.06 Y-47.79 Z0.46 F1080.0
G1 X40.06 Y-22.18 Z0.46 F1080.0
M103
G1 X39.66 Y-22.18 Z0.46 F1800.0
M101
G1 X39.66 Y-47.79 Z0.46 F1080.0
G1 X39.27 Y-47.79 Z0.46 F1080.0
G1 X39.27 Y-22.18 Z0.46 F1080.0
M103
G1 X38.88 Y-22.18 Z0.46 F1800.0
M101
G1 X38.88 Y-47.79 Z0.46 F1080.0
G1 X38.49 Y-47.79 Z0.46 F1080.0
G1 X38.49 Y-22.18 Z0.46 F1080.0
M103
G1 X38.09 Y-22.18 Z0.46 F1800.0
M101
G1 X38.09 Y-47.79 Z0.46 F1080.0
G1 X37.7 Y-47.79 Z0.46 F1080.0
G1 X37.7 Y-22.18 Z0.46 F1080.0
M103
G1 X37.31 Y-22.18 Z0.46 F1800.0
M101
G1 X37.31 Y-47.79 Z0.46 F1080.0
G1 X36.91 Y-47.79 Z0.46 F1080.0
G1 X36.91 Y-22.18 Z0.46 F1080.0
M103
G1 X36.52 Y-22.18 Z0.46 F1800.0
M101
G1 X36.52 Y-47.79 Z0.46 F1080.0
G1 X36.13 Y-47.79 Z0.46 F1080.0
G1 X36.13 Y-22.18 Z0.46 F1080.0
M103
G1 X35.74 Y-22.18 Z0.46 F1800.0
M101
G1 X35.74 Y-47.79 Z0.46 F1080.0
G1 X35.34 Y-47.79 Z0.46 F1080.0
G1 X35.34 Y-22.18 Z0.46 F1080.0
M103
G1 X34.95 Y-22.18 Z0.46 F1800.0
M101
G1 X34.95 Y-47.79 Z0.46 F1080.0
G1 X34.56 Y-47.79 Z0.46 F1080.0
G1 X34.56 Y-22.18 Z0.46 F1080.0
M103
G1 X34.17 Y-22.18 Z0.46 F1800.0
M101
G1 X34.17 Y-47.79 Z0.46 F1080.0
G1 X33.77 Y-47.79 Z0.46 F1080.0
G1 X33.77 Y-22.18 Z0.46 F1080.0
M103
G1 X33.38 Y-22.18 Z0.46 F1800.0
M101
G1 X33.38 Y-47.79 Z0.46 F1080.0
G1 X32.99 Y-47.79 Z0.46 F1080.0
G1 X32.99 Y-22.18 Z0.46 F1080.0
M103
G1 X32.59 Y-22.18 Z0.46 F1800.0
M101
G1 X32.59 Y-47.79 Z0.46 F1080.0
G1 X32.2 Y-47.79 Z0.46 F1080.0
G1 X32.2 Y-22.18 Z0.46 F1080.0
M103
G1 X31.81 Y-22.18 Z0.46 F1800.0
M101
G1 X31.81 Y-47.79 Z0.46 F1080.0
G1 X31.42 Y-47.79 Z0.46 F1080.0
G1 X31.42 Y-22.18 Z0.46 F1080.0
M103
G1 X31.02 Y-22.18 Z0.46 F1800.0
M101
G1 X31.02 Y-47.79 Z0.46 F1080.0
G1 X30.63 Y-47.79 Z0.46 F1080.0
G1 X30.63 Y-22.18 Z0.46 F1080.0
M103
G1 X30.24 Y-22.18 Z0.46 F1800.0
M101
G1 X30.24 Y-47.79 Z0.46 F1080.0
G1 X29.85 Y-47.79 Z0.46 F1080.0
G1 X29.85 Y-22.18 Z0.46 F1080.0
M103
G1 X29.45 Y-22.18 Z0.46 F1800.0
M101
G1 X29.45 Y-47.79 Z0.46 F1080.0
G1 X29.06 Y-47.79 Z0.46 F1080.0
G1 X29.06 Y-22.18 Z0.46 F1080.0
M103
G1 X28.67 Y-22.18 Z0.46 F1800.0
M101
G1 X28.67 Y-47.79 Z0.46 F1080.0
G1 X28.27 Y-47.79 Z0.46 F1080.0
G1 X28.27 Y-22.18 Z0.46 F1080.0
M103
G1 X27.88 Y-22.18 Z0.46 F1800.0
M101
G1 X27.88 Y-47.79 Z0.46 F1080.0
G1 X27.49 Y-47.79 Z0.46 F1080.0
G1 X27.49 Y-22.18 Z0.46 F1080.0
M103
G1 X27.1 Y-22.18 Z0.46 F1800.0
M101
G1 X27.1 Y-47.79 Z0.46 F1080.0
G1 X26.7 Y-47.79 Z0.46 F1080.0
G1 X26.7 Y-22.18 Z0.46 F1080.0
M103
G1 X26.31 Y-22.18 Z0.46 F1800.0
M101
G1 X26.31 Y-47.79 Z0.46 F1080.0
G1 X25.92 Y-47.79 Z0.46 F1080.0
G1 X25.92 Y-22.18 Z0.46 F1080.0
M103
G1 X25.53 Y-22.18 Z0.46 F1800.0
M101
G1 X25.53 Y-47.79 Z0.46 F1080.0
G1 X25.13 Y-47.79 Z0.46 F1080.0
G1 X25.13 Y-22.18 Z0.46 F1080.0
M103
G1 X24.74 Y-22.18 Z0.46 F1800.0
M101
G1 X24.74 Y-47.79 Z0.46 F1080.0
G1 X24.35 Y-47.79 Z0.46 F1080.0
G1 X24.35 Y-22.18 Z0.46 F1080.0
M103
G1 X23.96 Y-22.18 Z0.46 F1800.0
M101
G1 X23.96 Y-47.79 Z0.46 F1080.0
G1 X23.56 Y-47.79 Z0.46 F1080.0
G1 X23.56 Y-22.18 Z0.46 F1080.0
M103
G1 X23.17 Y-22.18 Z0.46 F1800.0
M101
G1 X23.17 Y-47.79 Z0.46 F1080.0
G1 X22.78 Y-47.79 Z0.46 F1080.0
G1 X22.78 Y-22.18 Z0.46 F1080.0
M103
G1 X22.38 Y-22.18 Z0.46 F1800.0
M101
G1 X22.38 Y-47.79 Z0.46 F1080.0
G1 X21.99 Y-47.79 Z0.46 F1080.0
G1 X21.99 Y-22.18 Z0.46 F1080.0
M103
G1 X21.6 Y-22.18 Z0.46 F1800.0
M101
G1 X21.6 Y-47.79 Z0.46 F1080.0
G1 X21.21 Y-47.79 Z0.46 F1080.0
G1 X21.21 Y-22.18 Z0.46 F1080.0
M103
G1 X20.81 Y-22.18 Z0.46 F1800.0
M101
G1 X20.81 Y-47.79 Z0.46 F1080.0
G1 X20.42 Y-47.79 Z0.46 F1080.0
G1 X20.42 Y-22.18 Z0.46 F1080.0
M103
G1 X20.03 Y-22.18 Z0.46 F1800.0
M101
G1 X20.03 Y-47.79 Z0.46 F1080.0
G1 X19.64 Y-47.79 Z0.46 F1080.0
G1 X19.64 Y-22.18 Z0.46 F1080.0
M103
G1 X19.24 Y-22.18 Z0.46 F1800.0
M101
G1 X19.24 Y-47.79 Z0.46 F1080.0
G1 X18.85 Y-47.79 Z0.46 F1080.0
G1 X18.85 Y-22.18 Z0.46 F1080.0
M103
G1 X18.46 Y-22.18 Z0.46 F1800.0
M101
G1 X18.46 Y-47.79 Z0.46 F1080.0
G1 X18.06 Y-47.79 Z0.46 F1080.0
G1 X18.06 Y-22.18 Z0.46 F1080.0
M103
G1 X17.67 Y-22.18 Z0.46 F1800.0
M101
G1 X17.67 Y-47.79 Z0.46 F1080.0
G1 X17.28 Y-47.79 Z0.46 F1080.0
G1 X17.28 Y-22.18 Z0.46 F1080.0
M103
G1 X16.89 Y-22.18 Z0.46 F1800.0
M101
G1 X16.89 Y-47.79 Z0.46 F1080.0
G1 X16.49 Y-47.79 Z0.46 F1080.0
G1 X16.49 Y-22.18 Z0.46 F1080.0
M103
G1 X16.1 Y-22.18 Z0.46 F1800.0
M101
G1 X16.1 Y-47.79 Z0.46 F1080.0
G1 X15.71 Y-47.79 Z0.46 F1080.0
G1 X15.71 Y-22.18 Z0.46 F1080.0
M103
G1 X15.32 Y-22.18 Z0.46 F1800.0
M101
G1 X15.32 Y-47.79 Z0.46 F1080.0
G1 X14.92 Y-47.79 Z0.46 F1080.0
G1 X14.92 Y-22.18 Z0.46 F1080.0
M103
G1 X14.53 Y-22.18 Z0.46 F1800.0
M101
G1 X14.53 Y-47.79 Z0.46 F1080.0
G1 X14.14 Y-47.79 Z0.46 F1080.0
G1 X14.14 Y-22.18 Z0.46 F1080.0
M103
G1 X13.74 Y-22.18 Z0.46 F1800.0
M101
G1 X13.74 Y-47.79 Z0.46 F1080.0
G1 X13.35 Y-47.79 Z0.46 F1080.0
G1 X13.35 Y-22.18 Z0.46 F1080.0
M103
G1 X12.96 Y-22.18 Z0.46 F1800.0
M101
G1 X12.96 Y-47.79 Z0.46 F1080.0
G1 X12.57 Y-47.79 Z0.46 F1080.0
G1 X12.57 Y-22.18 Z0.46 F1080.0
M103
G1 X12.17 Y-22.18 Z0.46 F1800.0
M101
G1 X12.17 Y-47.79 Z0.46 F1080.0
G1 X11.78 Y-47.79 Z0.46 F1080.0
G1 X11.78 Y-22.18 Z0.46 F1080.0
M103
G1 X11.39 Y-22.18 Z0.46 F1800.0
M101
G1 X11.39 Y-47.79 Z0.46 F1080.0
G1 X11.0 Y-47.79 Z0.46 F1080.0
G1 X11.0 Y-22.18 Z0.46 F1080.0
M103
G1 X10.6 Y-22.18 Z0.46 F1800.0
M101
G1 X10.6 Y-47.79 Z0.46 F1080.0
G1 X10.21 Y-47.79 Z0.46 F1080.0
G1 X10.21 Y-22.18 Z0.46 F1080.0
M103
G1 X9.82 Y-22.18 Z0.46 F1800.0
M101
G1 X9.82 Y-47.79 Z0.46 F1080.0
G1 X9.43 Y-47.79 Z0.46 F1080.0
G1 X9.43 Y-22.18 Z0.46 F1080.0
M103
G1 X9.03 Y-22.18 Z0.46 F1800.0
M101
G1 X9.03 Y-47.79 Z0.46 F1080.0
G1 X8.64 Y-47.79 Z0.46 F1080.0
G1 X8.64 Y-22.18 Z0.46 F1080.0
M103
G1 X8.25 Y-22.18 Z0.46 F1800.0
M101
G1 X8.25 Y-47.79 Z0.46 F1080.0
G1 X7.85 Y-47.79 Z0.46 F1080.0
G1 X7.85 Y-22.18 Z0.46 F1080.0
M103
G1 X7.46 Y-22.18 Z0.46 F1800.0
M101
G1 X7.46 Y-47.79 Z0.46 F1080.0
G1 X7.07 Y-47.79 Z0.46 F1080.0
G1 X7.07 Y-22.18 Z0.46 F1080.0
M103
G1 X6.68 Y-22.18 Z0.46 F1800.0
M101
G1 X6.68 Y-47.79 Z0.46 F1080.0
G1 X6.28 Y-47.79 Z0.46 F1080.0
G1 X6.28 Y-22.18 Z0.46 F1080.0
M103
G1 X5.89 Y-22.18 Z0.46 F1800.0
M101
G1 X5.89 Y-47.79 Z0.46 F1080.0
G1 X5.5 Y-47.79 Z0.46 F1080.0
G1 X5.5 Y-22.18 Z0.46 F1080.0
M103
G1 X5.11 Y-22.18 Z0.46 F1800.0
M101
G1 X5.11 Y-47.79 Z0.46 F1080.0
G1 X4.71 Y-47.79 Z0.46 F1080.0
G1 X4.71 Y-22.18 Z0.46 F1080.0
M103
G1 X4.32 Y-22.18 Z0.46 F1800.0
M101
G1 X4.32 Y-47.79 Z0.46 F1080.0
G1 X3.93 Y-47.79 Z0.46 F1080.0
G1 X3.93 Y-22.18 Z0.46 F1080.0
M103
G1 X3.53 Y-22.18 Z0.46 F1800.0
M101
G1 X3.53 Y-47.79 Z0.46 F1080.0
G1 X3.14 Y-47.79 Z0.46 F1080.0
G1 X3.14 Y-22.18 Z0.46 F1080.0
M103
G1 X2.75 Y-22.18 Z0.46 F1800.0
M101
G1 X2.75 Y-47.79 Z0.46 F1080.0
G1 X2.36 Y-47.79 Z0.46 F1080.0
G1 X2.36 Y-22.18 Z0.46 F1080.0
M103
G1 X1.96 Y-22.18 Z0.46 F1800.0
M101
G1 X1.96 Y-47.79 Z0.46 F1080.0
G1 X1.57 Y-47.79 Z0.46 F1080.0
G1 X1.57 Y-22.18 Z0.46 F1080.0
M103
G1 X1.18 Y-22.18 Z0.46 F1800.0
M101
G1 X1.18 Y-47.79 Z0.46 F1080.0
G1 X0.79 Y-47.79 Z0.46 F1080.0
G1 X0.79 Y-22.18 Z0.46 F1080.0
M103
G1 X0.39 Y-22.18 Z0.46 F1800.0
M101
G1 X0.39 Y-47.79 Z0.46 F1080.0
G1 X-0.0 Y-47.79 Z0.46 F1080.0
G1 X-0.0 Y-22.18 Z0.46 F1080.0
M103
G1 X-0.39 Y-22.18 Z0.46 F1800.0
M101
G1 X-0.39 Y-47.79 Z0.46 F1080.0
G1 X-0.79 Y-47.79 Z0.46 F1080.0
G1 X-0.79 Y-22.18 Z0.46 F1080.0
M103
G1 X-1.18 Y-22.18 Z0.46 F1800.0
M101
G1 X-1.18 Y-47.79 Z0.46 F1080.0
G1 X-1.57 Y-47.79 Z0.46 F1080.0
G1 X-1.57 Y-22.18 Z0.46 F1080.0
M103
G1 X-1.96 Y-22.18 Z0.46 F1800.0
M101
G1 X-1.96 Y-47.79 Z0.46 F1080.0
G1 X-2.36 Y-47.79 Z0.46 F1080.0
G1 X-2.36 Y-22.18 Z0.46 F1080.0
M103
G1 X-2.75 Y-22.18 Z0.46 F1800.0
M101
G1 X-2.75 Y-47.79 Z0.46 F1080.0
G1 X-3.14 Y-47.79 Z0.46 F1080.0
G1 X-3.14 Y-22.18 Z0.46 F1080.0
M103
G1 X-3.53 Y-22.18 Z0.46 F1800.0
M101
G1 X-3.53 Y-47.79 Z0.46 F1080.0
G1 X-3.93 Y-47.79 Z0.46 F1080.0
G1 X-3.93 Y-22.18 Z0.46 F1080.0
M103
(</surroundingLoop>)
(</layer>)
(<layer> 0.78 )
(<surroundingLoop>)
(<boundaryPerimeter>)
(<boundaryPoint> X45.78 Y-21.332 Z0.78 </boundaryPoint>)
(<boundaryPoint> X-4.9 Y-21.332 Z0.78 </boundaryPoint>)
(<boundaryPoint> X-4.9 Y-48.632 Z0.78 </boundaryPoint>)
(<boundaryPoint> X45.78 Y-48.632 Z0.78 </boundaryPoint>)
(<loop> outer )
M108 R3.569
G1 X-3.72 Y-21.92 Z0.78 F3000.0
M101
G1 X-3.93 Y-21.92 Z0.78 F1800.0
G1 X-4.31 Y-21.92 Z0.78 F1800.0
G1 X-4.31 Y-48.04 Z0.78 F1800.0
G1 X45.19 Y-48.04 Z0.78 F1800.0
G1 X45.19 Y-21.92 Z0.78 F1800.0
G1 X-3.72 Y-21.92 Z0.78 F1800.0
M103
(</loop>)
(<perimeter> outer )
G1 X-3.72 Y-21.53 Z0.78 F3000.0
M101
G1 X-3.93 Y-21.53 Z0.78 F1800.0
G1 X-4.7 Y-21.53 Z0.78 F1800.0
G1 X-4.7 Y-48.44 Z0.78 F1800.0
G1 X45.58 Y-48.44 Z0.78 F1800.0
G1 X45.58 Y-21.53 Z0.78 F1800.0
G1 X-3.72 Y-21.53 Z0.78 F1800.0
M103
(</perimeter>)
(</boundaryPerimeter>)
G1 X-4.06 Y-22.38 Z0.78 F3000.0
M101
G1 X44.94 Y-22.38 Z0.78 F1800.0
G1 X44.94 Y-22.78 Z0.78 F1800.0
G1 X-4.06 Y-22.78 Z0.78 F1800.0
M103
G1 X-4.06 Y-23.17 Z0.78 F3000.0
M101
G1 X44.94 Y-23.17 Z0.78 F1800.0
G1 X44.94 Y-23.56 Z0.78 F1800.0
G1 X-4.06 Y-23.56 Z0.78 F1800.0
M103
G1 X-4.06 Y-23.96 Z0.78 F3000.0
M101
G1 X44.94 Y-23.96 Z0.78 F1800.0
G1 X44.94 Y-24.35 Z0.78 F1800.0
G1 X-4.06 Y-24.35 Z0.78 F1800.0
M103
G1 X-4.06 Y-24.74 Z0.78 F3000.0
M101
G1 X44.94 Y-24.74 Z0.78 F1800.0
G1 X44.94 Y-25.13 Z0.78 F1800.0
G1 X-4.06 Y-25.13 Z0.78 F1800.0
M103
G1 X-4.06 Y-25.53 Z0.78 F3000.0
M101
G1 X44.94 Y-25.53 Z0.78 F1800.0
G1 X44.94 Y-25.92 Z0.78 F1800.0
G1 X-4.06 Y-25.92 Z0.78 F1800.0
M103
G1 X-4.06 Y-26.31 Z0.78 F3000.0
M101
G1 X44.94 Y-26.31 Z0.78 F1800.0
G1 X44.94 Y-26.7 Z0.78 F1800.0
G1 X-4.06 Y-26.7 Z0.78 F1800.0
M103
G1 X-4.06 Y-27.1 Z0.78 F3000.0
M101
G1 X44.94 Y-27.1 Z0.78 F1800.0
G1 X44.94 Y-27.49 Z0.78 F1800.0
G1 X-4.06 Y-27.49 Z0.78 F1800.0
M103
G1 X-4.06 Y-27.88 Z0.78 F3000.0
M101
G1 X44.94 Y-27.88 Z0.78 F1800.0
G1 X44.94 Y-28.27 Z0.78 F1800.0
G1 X-4.06 Y-28.27 Z0.78 F1800.0
M103
G1 X-4.06 Y-28.67 Z0.78 F3000.0
M101
G1 X44.94 Y-28.67 Z0.78 F1800.0
G1 X44.94 Y-29.06 Z0.78 F1800.0
G1 X-4.06 Y-29.06 Z0.78 F1800.0
M103
G1 X-4.06 Y-29.45 Z0.78 F3000.0
M101
G1 X44.94 Y-29.45 Z0.78 F1800.0
G1 X44.94 Y-29.85 Z0.78 F1800.0
G1 X-4.06 Y-29.85 Z0.78 F1800.0
M103
G1 X-4.06 Y-30.24 Z0.78 F3000.0
M101
G1 X44.94 Y-30.24 Z0.78 F1800.0
G1 X44.94 Y-30.63 Z0.78 F1800.0
G1 X-4.06 Y-30.63 Z0.78 F1800.0
M103
G1 X-4.06 Y-31.02 Z0.78 F3000.0
M101
G1 X44.94 Y-31.02 Z0.78 F1800.0
G1 X44.94 Y-31.42 Z0.78 F1800.0
G1 X-4.06 Y-31.42 Z0.78 F1800.0
M103
G1 X-4.06 Y-31.81 Z0.78 F3000.0
M101
G1 X44.94 Y-31.81 Z0.78 F1800.0
G1 X44.94 Y-32.2 Z0.78 F1800.0
G1 X-4.06 Y-32.2 Z0.78 F1800.0
M103
G1 X-4.06 Y-32.59 Z0.78 F3000.0
M101
G1 X44.94 Y-32.59 Z0.78 F1800.0
G1 X44.94 Y-32.99 Z0.78 F1800.0
G1 X-4.06 Y-32.99 Z0.78 F1800.0
M103
G1 X-4.06 Y-33.38 Z0.78 F3000.0
M101
G1 X44.94 Y-33.38 Z0.78 F1800.0
G1 X44.94 Y-33.77 Z0.78 F1800.0
G1 X-4.06 Y-33.77 Z0.78 F1800.0
M103
G1 X-4.06 Y-34.17 Z0.78 F3000.0
M101
G1 X44.94 Y-34.17 Z0.78 F1800.0
G1 X44.94 Y-34.56 Z0.78 F1800.0
G1 X-4.06 Y-34.56 Z0.78 F1800.0
M103
G1 X-4.06 Y-34.95 Z0.78 F3000.0
M101
G1 X44.94 Y-34.95 Z0.78 F1800.0
G1 X44.94 Y-35.34 Z0.78 F1800.0
G1 X-4.06 Y-35.34 Z0.78 F1800.0
M103
G1 X-4.06 Y-35.74 Z0.78 F3000.0
M101
G1 X44.94 Y-35.74 Z0.78 F1800.0
G1 X44.94 Y-36.13 Z0.78 F1800.0
G1 X-4.06 Y-36.13 Z0.78 F1800.0
M103
G1 X-4.06 Y-36.52 Z0.78 F3000.0
M101
G1 X44.94 Y-36.52 Z0.78 F1800.0
G1 X44.94 Y-36.91 Z0.78 F1800.0
G1 X-4.06 Y-36.91 Z0.78 F1800.0
M103
G1 X-4.06 Y-37.31 Z0.78 F3000.0
M101
G1 X44.94 Y-37.31 Z0.78 F1800.0
G1 X44.94 Y-37.7 Z0.78 F1800.0
G1 X-4.06 Y-37.7 Z0.78 F1800.0
M103
G1 X-4.06 Y-38.09 Z0.78 F3000.0
M101
G1 X44.94 Y-38.09 Z0.78 F1800.0
G1 X44.94 Y-38.49 Z0.78 F1800.0
G1 X-4.06 Y-38.49 Z0.78 F1800.0
M103
G1 X-4.06 Y-38.88 Z0.78 F3000.0
M101
G1 X44.94 Y-38.88 Z0.78 F1800.0
G1 X44.94 Y-39.27 Z0.78 F1800.0
G1 X-4.06 Y-39.27 Z0.78 F1800.0
M103
G1 X-4.06 Y-39.66 Z0.78 F3000.0
M101
G1 X44.94 Y-39.66 Z0.78 F1800.0
G1 X44.94 Y-40.06 Z0.78 F1800.0
G1 X-4.06 Y-40.06 Z0.78 F1800.0
M103
G1 X-4.06 Y-40.45 Z0.78 F3000.0
M101
G1 X44.94 Y-40.45 Z0.78 F1800.0
G1 X44.94 Y-40.84 Z0.78 F1800.0
G1 X-4.06 Y-40.84 Z0.78 F1800.0
M103
G1 X-4.06 Y-41.23 Z0.78 F3000.0
M101
G1 X44.94 Y-41.23 Z0.78 F1800.0
G1 X44.94 Y-41.63 Z0.78 F1800.0
G1 X-4.06 Y-41.63 Z0.78 F1800.0
M103
G1 X-4.06 Y-42.02 Z0.78 F3000.0
M101
G1 X44.94 Y-42.02 Z0.78 F1800.0
G1 X44.94 Y-42.41 Z0.78 F1800.0
G1 X-4.06 Y-42.41 Z0.78 F1800.0
M103
G1 X-4.06 Y-42.8 Z0.78 F3000.0
M101
G1 X44.94 Y-42.8 Z0.78 F1800.0
G1 X44.94 Y-43.2 Z0.78 F1800.0
G1 X-4.06 Y-43.2 Z0.78 F1800.0
M103
G1 X-4.06 Y-43.59 Z0.78 F3000.0
M101
G1 X44.94 Y-43.59 Z0.78 F1800.0
G1 X44.94 Y-43.98 Z0.78 F1800.0
G1 X-4.06 Y-43.98 Z0.78 F1800.0
M103
G1 X-4.06 Y-44.38 Z0.78 F3000.0
M101
G1 X44.94 Y-44.38 Z0.78 F1800.0
G1 X44.94 Y-44.77 Z0.78 F1800.0
G1 X-4.06 Y-44.77 Z0.78 F1800.0
M103
G1 X-4.06 Y-45.16 Z0.78 F3000.0
M101
G1 X44.94 Y-45.16 Z0.78 F1800.0
G1 X44.94 Y-45.55 Z0.78 F1800.0
G1 X-4.06 Y-45.55 Z0.78 F1800.0
M103
G1 X-4.06 Y-45.95 Z0.78 F3000.0
M101
G1 X44.94 Y-45.95 Z0.78 F1800.0
G1 X44.94 Y-46.34 Z0.78 F1800.0
G1 X-4.06 Y-46.34 Z0.78 F1800.0
M103
G1 X-4.06 Y-46.73 Z0.78 F3000.0
M101
G1 X44.94 Y-46.73 Z0.78 F1800.0
G1 X44.94 Y-47.12 Z0.78 F1800.0
G1 X-4.06 Y-47.12 Z0.78 F1800.0
M103
G1 X-4.06 Y-47.52 Z0.78 F3000.0
M101
G1 X44.49 Y-47.52 Z0.78 F1800.0
M108 R30.0
M102
G1 X44.94 Y-47.52 Z0.78 F1800.0
M108 R3.569
M103
(</surroundingLoop>)
(<surroundingLoop>)
(<boundaryPerimeter>)
(<boundaryPoint> X45.78 Y20.968 Z0.78 </boundaryPoint>)
(<boundaryPoint> X-4.9 Y20.968 Z0.78 </boundaryPoint>)
(<boundaryPoint> X-4.9 Y-6.332 Z0.78 </boundaryPoint>)
(<boundaryPoint> X45.78 Y-6.332 Z0.78 </boundaryPoint>)
(<loop> outer )
G1 X44.73 Y-6.54 Z0.78 F3000.0
M108 R30.0
M101
G1 X44.73 Y-5.74 Z0.78 F3000.0
M108 R3.569
G1 X44.94 Y-5.74 Z0.78 F1800.0
G1 X45.19 Y-5.74 Z0.78 F1800.0
G1 X45.19 Y20.38 Z0.78 F1800.0
G1 X-4.31 Y20.38 Z0.78 F1800.0
G1 X-4.31 Y-5.74 Z0.78 F1800.0
G1 X44.73 Y-5.74 Z0.78 F1800.0
M103
(</loop>)
(<perimeter> outer )
G1 X44.73 Y-6.14 Z0.78 F3000.0
M101
G1 X44.94 Y-6.14 Z0.78 F1800.0
G1 X45.58 Y-6.14 Z0.78 F1800.0
G1 X45.58 Y20.77 Z0.78 F1800.0
G1 X-4.7 Y20.77 Z0.78 F1800.0
G1 X-4.7 Y-6.14 Z0.78 F1800.0
G1 X44.28 Y-6.14 Z0.78 F1800.0
M108 R30.0
M102
G1 X44.73 Y-6.14 Z0.78 F1800.0
M108 R3.569
M103
(</perimeter>)
(</boundaryPerimeter>)
G1 X44.93 Y19.23 Z0.78 F3000.0
M108 R30.0
M101
G1 X44.94 Y20.03 Z0.78 F3000.0
M108 R3.569
G1 X-4.06 Y20.03 Z0.78 F1800.0
M103
G1 X-4.06 Y19.64 Z0.78 F3000.0
M101
G1 X44.94 Y19.64 Z0.78 F1800.0
G1 X44.94 Y19.24 Z0.78 F1800.0
G1 X-4.06 Y19.24 Z0.78 F1800.0
M103
G1 X-4.06 Y18.85 Z0.78 F3000.0
M101
G1 X44.94 Y18.85 Z0.78 F1800.0
G1 X44.94 Y18.46 Z0.78 F1800.0
G1 X-4.06 Y18.46 Z0.78 F1800.0
M103
G1 X-4.06 Y18.06 Z0.78 F3000.0
M101
G1 X44.94 Y18.06 Z0.78 F1800.0
G1 X44.94 Y17.67 Z0.78 F1800.0
G1 X-4.06 Y17.67 Z0.78 F1800.0
M103
G1 X-4.06 Y17.28 Z0.78 F3000.0
M101
G1 X44.94 Y17.28 Z0.78 F1800.0
G1 X44.94 Y16.89 Z0.78 F1800.0
G1 X-4.06 Y16.89 Z0.78 F1800.0
M103
G1 X-4.06 Y16.49 Z0.78 F3000.0
M101
G1 X44.94 Y16.49 Z0.78 F1800.0
G1 X44.94 Y16.1 Z0.78 F1800.0
G1 X-4.06 Y16.1 Z0.78 F1800.0
M103
G1 X-4.06 Y15.71 Z0.78 F3000.0
M101
G1 X44.94 Y15.71 Z0.78 F1800.0
G1 X44.94 Y15.32 Z0.78 F1800.0
G1 X-4.06 Y15.32 Z0.78 F1800.0
M103
G1 X-4.06 Y14.92 Z0.78 F3000.0
M101
G1 X44.94 Y14.92 Z0.78 F1800.0
G1 X44.94 Y14.53 Z0.78 F1800.0
G1 X-4.06 Y14.53 Z0.78 F1800.0
M103
G1 X-4.06 Y14.14 Z0.78 F3000.0
M101
G1 X44.94 Y14.14 Z0.78 F1800.0
G1 X44.94 Y13.74 Z0.78 F1800.0
G1 X-4.06 Y13.74 Z0.78 F1800.0
M103
G1 X-4.06 Y13.35 Z0.78 F3000.0
M101
G1 X44.94 Y13.35 Z0.78 F1800.0
G1 X44.94 Y12.96 Z0.78 F1800.0
G1 X-4.06 Y12.96 Z0.78 F1800.0
M103
G1 X-4.06 Y12.57 Z0.78 F3000.0
M101
G1 X44.94 Y12.57 Z0.78 F1800.0
G1 X44.94 Y12.17 Z0.78 F1800.0
G1 X-4.06 Y12.17 Z0.78 F1800.0
M103
G1 X-4.06 Y11.78 Z0.78 F3000.0
M101
G1 X44.94 Y11.78 Z0.78 F1800.0
G1 X44.94 Y11.39 Z0.78 F1800.0
G1 X-4.06 Y11.39 Z0.78 F1800.0
M103
G1 X-4.06 Y11.0 Z0.78 F3000.0
M101
G1 X44.94 Y11.0 Z0.78 F1800.0
G1 X44.94 Y10.6 Z0.78 F1800.0
G1 X-4.06 Y10.6 Z0.78 F1800.0
M103
G1 X-4.06 Y10.21 Z0.78 F3000.0
M101
G1 X44.94 Y10.21 Z0.78 F1800.0
G1 X44.94 Y9.82 Z0.78 F1800.0
G1 X-4.06 Y9.82 Z0.78 F1800.0
M103
G1 X-4.06 Y9.43 Z0.78 F3000.0
M101
G1 X44.94 Y9.43 Z0.78 F1800.0
G1 X44.94 Y9.03 Z0.78 F1800.0
G1 X-4.06 Y9.03 Z0.78 F1800.0
M103
G1 X-4.06 Y8.64 Z0.78 F3000.0
M101
G1 X44.94 Y8.64 Z0.78 F1800.0
G1 X44.94 Y8.25 Z0.78 F1800.0
G1 X-4.06 Y8.25 Z0.78 F1800.0
M103
G1 X-4.06 Y7.85 Z0.78 F3000.0
M101
G1 X44.94 Y7.85 Z0.78 F1800.0
G1 X44.94 Y7.46 Z0.78 F1800.0
G1 X-4.06 Y7.46 Z0.78 F1800.0
M103
G1 X-4.06 Y7.07 Z0.78 F3000.0
M101
G1 X44.94 Y7.07 Z0.78 F1800.0
G1 X44.94 Y6.68 Z0.78 F1800.0
G1 X-4.06 Y6.68 Z0.78 F1800.0
M103
G1 X-4.06 Y6.28 Z0.78 F3000.0
M101
G1 X44.94 Y6.28 Z0.78 F1800.0
G1 X44.94 Y5.89 Z0.78 F1800.0
G1 X-4.06 Y5.89 Z0.78 F1800.0
M103
G1 X-4.06 Y5.5 Z0.78 F3000.0
M101
G1 X44.94 Y5.5 Z0.78 F1800.0
G1 X44.94 Y5.11 Z0.78 F1800.0
G1 X-4.06 Y5.11 Z0.78 F1800.0
M103
G1 X-4.06 Y4.71 Z0.78 F3000.0
M101
G1 X44.94 Y4.71 Z0.78 F1800.0
G1 X44.94 Y4.32 Z0.78 F1800.0
G1 X-4.06 Y4.32 Z0.78 F1800.0
M103
G1 X-4.06 Y3.93 Z0.78 F3000.0
M101
G1 X44.94 Y3.93 Z0.78 F1800.0
G1 X44.94 Y3.53 Z0.78 F1800.0
G1 X-4.06 Y3.53 Z0.78 F1800.0
M103
G1 X-4.06 Y3.14 Z0.78 F3000.0
M101
G1 X44.94 Y3.14 Z0.78 F1800.0
G1 X44.94 Y2.75 Z0.78 F1800.0
G1 X-4.06 Y2.75 Z0.78 F1800.0
M103
G1 X-4.06 Y2.36 Z0.78 F3000.0
M101
G1 X44.94 Y2.36 Z0.78 F1800.0
G1 X44.94 Y1.96 Z0.78 F1800.0
G1 X-4.06 Y1.96 Z0.78 F1800.0
M103
G1 X-4.06 Y1.57 Z0.78 F3000.0
M101
G1 X44.94 Y1.57 Z0.78 F1800.0
G1 X44.94 Y1.18 Z0.78 F1800.0
G1 X-4.06 Y1.18 Z0.78 F1800.0
M103
G1 X-4.06 Y0.79 Z0.78 F3000.0
M101
G1 X44.94 Y0.79 Z0.78 F1800.0
G1 X44.94 Y0.39 Z0.78 F1800.0
G1 X-4.06 Y0.39 Z0.78 F1800.0
M103
G1 X-4.06 Y0.0 Z0.78 F3000.0
M101
G1 X44.94 Y-0.0 Z0.78 F1800.0
G1 X44.94 Y-0.39 Z0.78 F1800.0
G1 X-4.06 Y-0.39 Z0.78 F1800.0
M103
G1 X-4.06 Y-0.79 Z0.78 F3000.0
M101
G1 X44.94 Y-0.79 Z0.78 F1800.0
G1 X44.94 Y-1.18 Z0.78 F1800.0
G1 X-4.06 Y-1.18 Z0.78 F1800.0
M103
G1 X-4.06 Y-1.57 Z0.78 F3000.0
M101
G1 X44.94 Y-1.57 Z0.78 F1800.0
G1 X44.94 Y-1.96 Z0.78 F1800.0
G1 X-4.06 Y-1.96 Z0.78 F1800.0
M103
G1 X-4.06 Y-2.36 Z0.78 F3000.0
M101
G1 X44.94 Y-2.36 Z0.78 F1800.0
G1 X44.94 Y-2.75 Z0.78 F1800.0
G1 X-4.06 Y-2.75 Z0.78 F1800.0
M103
G1 X-4.06 Y-3.14 Z0.78 F3000.0
M101
G1 X44.94 Y-3.14 Z0.78 F1800.0
G1 X44.94 Y-3.53 Z0.78 F1800.0
G1 X-4.06 Y-3.53 Z0.78 F1800.0
M103
G1 X-4.06 Y-3.93 Z0.78 F3000.0
M101
G1 X44.94 Y-3.93 Z0.78 F1800.0
G1 X44.94 Y-4.32 Z0.78 F1800.0
G1 X-4.06 Y-4.32 Z0.78 F1800.0
M103
G1 X-4.06 Y-4.71 Z0.78 F3000.0
M101
G1 X44.94 Y-4.71 Z0.78 F1800.0
G1 X44.94 Y-5.11 Z0.78 F1800.0
G1 X-4.06 Y-5.11 Z0.78 F1800.0
M103
(</surroundingLoop>)
(</layer>)
(<operatingLayerEnd> </operatingLayerEnd>)
(<layer> 1.1 )
(<surroundingLoop>)
(<boundaryPerimeter>)
(<boundaryPoint> X45.78 Y20.968 Z1.1 </boundaryPoint>)
(<boundaryPoint> X-4.9 Y20.968 Z1.1 </boundaryPoint>)
(<boundaryPoint> X-4.9 Y-6.332 Z1.1 </boundaryPoint>)
(<boundaryPoint> X45.78 Y-6.332 Z1.1 </boundaryPoint>)
(<loop> outer )
G1 X-4.31 Y-5.38 Z1.1 F3000.0
M101
G1 X-4.31 Y-5.74 Z1.1 F1800.0
G1 X45.19 Y-5.74 Z1.1 F1800.0
G1 X45.19 Y20.38 Z1.1 F1800.0
G1 X-4.31 Y20.38 Z1.1 F1800.0
G1 X-4.31 Y-5.11 Z1.1 F1800.0
G1 X-4.31 Y-5.38 Z1.1 F1800.0
M103
(</loop>)
(<perimeter> outer )
G1 X-4.7 Y-5.38 Z1.1 F3000.0
M101
G1 X-4.7 Y-6.14 Z1.1 F1800.0
G1 X45.58 Y-6.14 Z1.1 F1800.0
G1 X45.58 Y20.77 Z1.1 F1800.0
G1 X-4.7 Y20.77 Z1.1 F1800.0
G1 X-4.7 Y-5.11 Z1.1 F1800.0
G1 X-4.7 Y-5.38 Z1.1 F1800.0
M103
(</perimeter>)
(</boundaryPerimeter>)
G1 X-3.93 Y-5.49 Z1.1 F3000.0
M101
G1 X-3.49 Y-5.49 Z1.1 F1800.0
G1 X-3.39 Y16.49 Z1.1 F1800.0
G1 X-3.93 Y20.12 Z1.1 F1800.0
G1 X-1.31 Y20.12 Z1.1 F1800.0
G1 X-1.21 Y18.42 Z1.1 F1800.0
G1 X-3.16 Y16.49 Z1.1 F1800.0
G1 X-3.16 Y16.24 Z1.1 F1800.0
G1 X-1.21 Y14.31 Z1.1 F1800.0
G1 X-1.21 Y14.05 Z1.1 F1800.0
G1 X-3.16 Y12.13 Z1.1 F1800.0
G1 X-3.16 Y11.87 Z1.1 F1800.0
G1 X-1.21 Y9.95 Z1.1 F1800.0
G1 X-1.21 Y9.69 Z1.1 F1800.0
G1 X-3.16 Y7.76 Z1.1 F1800.0
G1 X-3.16 Y7.51 Z1.1 F1800.0
G1 X-1.21 Y5.58 Z1.1 F1800.0
G1 X-1.21 Y5.33 Z1.1 F1800.0
G1 X-3.16 Y3.4 Z1.1 F1800.0
G1 X-3.16 Y3.15 Z1.1 F1800.0
G1 X-1.21 Y1.22 Z1.1 F1800.0
G1 X-1.21 Y0.96 Z1.1 F1800.0
G1 X-3.16 Y-0.96 Z1.1 F1800.0
G1 X-3.16 Y-1.22 Z1.1 F1800.0
G1 X-1.21 Y-3.15 Z1.1 F1800.0
G1 X-1.21 Y-3.4 Z1.1 F1800.0
G1 X-3.05 Y-5.49 Z1.1 F1800.0
G1 X0.87 Y-5.49 Z1.1 F1800.0
G1 X-0.98 Y-3.4 Z1.1 F1800.0
G1 X-0.98 Y-3.15 Z1.1 F1800.0
G1 X0.98 Y-1.22 Z1.1 F1800.0
G1 X0.98 Y-0.96 Z1.1 F1800.0
G1 X-0.98 Y0.96 Z1.1 F1800.0
G1 X-0.98 Y1.22 Z1.1 F1800.0
G1 X0.98 Y3.15 Z1.1 F1800.0
G1 X0.98 Y3.4 Z1.1 F1800.0
G1 X-0.98 Y5.33 Z1.1 F1800.0
G1 X-0.98 Y5.58 Z1.1 F1800.0
G1 X0.98 Y7.51 Z1.1 F1800.0
G1 X0.98 Y7.76 Z1.1 F1800.0
G1 X-0.98 Y9.69 Z1.1 F1800.0
G1 X-0.98 Y9.95 Z1.1 F1800.0
G1 X0.98 Y11.87 Z1.1 F1800.0
G1 X0.98 Y12.13 Z1.1 F1800.0
G1 X-0.98 Y14.05 Z1.1 F1800.0
G1 X-0.98 Y14.31 Z1.1 F1800.0
G1 X0.98 Y16.24 Z1.1 F1800.0
G1 X0.98 Y16.49 Z1.1 F1800.0
G1 X-0.98 Y18.42 Z1.1 F1800.0
G1 X-0.87 Y20.12 Z1.1 F1800.0
G1 X3.05 Y20.12 Z1.1 F1800.0
G1 X3.16 Y18.42 Z1.1 F1800.0
G1 X1.21 Y16.49 Z1.1 F1800.0
G1 X1.21 Y16.24 Z1.1 F1800.0
G1 X3.16 Y14.31 Z1.1 F1800.0
G1 X3.16 Y14.05 Z1.1 F1800.0
G1 X1.21 Y12.13 Z1.1 F1800.0
G1 X1.21 Y11.87 Z1.1 F1800.0
G1 X3.16 Y9.95 Z1.1 F1800.0
G1 X3.16 Y9.69 Z1.1 F1800.0
G1 X1.21 Y7.76 Z1.1 F1800.0
G1 X1.21 Y7.51 Z1.1 F1800.0
G1 X3.16 Y5.58 Z1.1 F1800.0
G1 X3.16 Y5.33 Z1.1 F1800.0
G1 X1.21 Y3.4 Z1.1 F1800.0
G1 X1.21 Y3.15 Z1.1 F1800.0
G1 X3.16 Y1.22 Z1.1 F1800.0
G1 X3.16 Y0.96 Z1.1 F1800.0
G1 X1.21 Y-0.96 Z1.1 F1800.0
G1 X1.21 Y-1.22 Z1.1 F1800.0
G1 X3.16 Y-3.15 Z1.1 F1800.0
G1 X3.16 Y-3.4 Z1.1 F1800.0
G1 X1.31 Y-5.49 Z1.1 F1800.0
G1 X5.24 Y-5.49 Z1.1 F1800.0
G1 X3.39 Y-3.4 Z1.1 F1800.0
G1 X3.39 Y14.31 Z1.1 F1800.0
G1 X5.34 Y16.24 Z1.1 F1800.0
G1 X5.34 Y16.49 Z1.1 F1800.0
G1 X3.39 Y18.42 Z1.1 F1800.0
G1 X3.49 Y20.12 Z1.1 F1800.0
G1 X7.42 Y20.12 Z1.1 F1800.0
G1 X7.52 Y18.42 Z1.1 F1800.0
G1 X5.57 Y16.49 Z1.1 F1800.0
G1 X5.57 Y16.24 Z1.1 F1800.0
G1 X7.52 Y14.31 Z1.1 F1800.0
G1 X7.52 Y14.05 Z1.1 F1800.0
G1 X5.45 Y12.13 Z1.1 F1800.0
G1 X5.45 Y11.87 Z1.1 F1800.0
G1 X7.52 Y9.95 Z1.1 F1800.0
G1 X7.52 Y9.69 Z1.1 F1800.0
G1 X5.45 Y7.76 Z1.1 F1800.0
G1 X5.45 Y7.51 Z1.1 F1800.0
G1 X7.52 Y5.58 Z1.1 F1800.0
G1 X7.52 Y5.33 Z1.1 F1800.0
G1 X5.45 Y3.4 Z1.1 F1800.0
G1 X5.45 Y3.15 Z1.1 F1800.0
G1 X7.52 Y1.22 Z1.1 F1800.0
G1 X7.52 Y0.96 Z1.1 F1800.0
G1 X5.45 Y-0.96 Z1.1 F1800.0
G1 X5.45 Y-1.22 Z1.1 F1800.0
G1 X7.52 Y-3.15 Z1.1 F1800.0
G1 X7.52 Y-3.4 Z1.1 F1800.0
G1 X5.67 Y-5.49 Z1.1 F1800.0
G1 X9.6 Y-5.49 Z1.1 F1800.0
G1 X7.75 Y-3.4 Z1.1 F1800.0
G1 X7.75 Y-3.15 Z1.1 F1800.0
G1 X9.7 Y-1.22 Z1.1 F1800.0
G1 X9.7 Y-0.96 Z1.1 F1800.0
G1 X7.75 Y0.96 Z1.1 F1800.0
G1 X7.75 Y1.22 Z1.1 F1800.0
G1 X9.7 Y3.15 Z1.1 F1800.0
G1 X9.7 Y3.4 Z1.1 F1800.0
G1 X7.75 Y5.33 Z1.1 F1800.0
G1 X7.75 Y5.58 Z1.1 F1800.0
G1 X9.7 Y7.51 Z1.1 F1800.0
G1 X9.7 Y7.76 Z1.1 F1800.0
G1 X7.75 Y9.69 Z1.1 F1800.0
G1 X7.75 Y9.95 Z1.1 F1800.0
G1 X9.7 Y11.87 Z1.1 F1800.0
G1 X9.7 Y12.13 Z1.1 F1800.0
G1 X7.75 Y14.05 Z1.1 F1800.0
G1 X7.75 Y14.31 Z1.1 F1800.0
G1 X9.7 Y16.24 Z1.1 F1800.0
G1 X9.7 Y16.49 Z1.1 F1800.0
G1 X7.75 Y18.42 Z1.1 F1800.0
G1 X7.85 Y20.12 Z1.1 F1800.0
G1 X11.78 Y20.12 Z1.1 F1800.0
G1 X11.88 Y18.42 Z1.1 F1800.0
G1 X9.93 Y16.49 Z1.1 F1800.0
G1 X9.93 Y16.24 Z1.1 F1800.0
G1 X11.88 Y14.31 Z1.1 F1800.0
G1 X11.88 Y14.05 Z1.1 F1800.0
G1 X9.93 Y12.13 Z1.1 F1800.0
G1 X9.93 Y11.87 Z1.1 F1800.0
G1 X11.88 Y9.95 Z1.1 F1800.0
G1 X11.88 Y9.69 Z1.1 F1800.0
G1 X9.93 Y7.76 Z1.1 F1800.0
G1 X9.93 Y7.51 Z1.1 F1800.0
G1 X11.88 Y5.58 Z1.1 F1800.0
G1 X11.88 Y5.33 Z1.1 F1800.0
G1 X9.93 Y3.4 Z1.1 F1800.0
G1 X9.93 Y3.15 Z1.1 F1800.0
G1 X11.88 Y1.22 Z1.1 F1800.0
G1 X11.88 Y0.96 Z1.1 F1800.0
G1 X9.93 Y-0.96 Z1.1 F1800.0
G1 X9.93 Y-1.22 Z1.1 F1800.0
G1 X11.88 Y-3.15 Z1.1 F1800.0
G1 X11.88 Y-3.4 Z1.1 F1800.0
G1 X10.04 Y-5.49 Z1.1 F1800.0
G1 X13.96 Y-5.49 Z1.1 F1800.0
G1 X12.11 Y-3.4 Z1.1 F1800.0
G1 X12.11 Y-3.15 Z1.1 F1800.0
G1 X14.07 Y-1.22 Z1.1 F1800.0
G1 X14.07 Y-0.96 Z1.1 F1800.0
G1 X12.11 Y0.96 Z1.1 F1800.0
G1 X12.11 Y1.22 Z1.1 F1800.0
G1 X14.07 Y3.15 Z1.1 F1800.0
G1 X14.07 Y3.4 Z1.1 F1800.0
G1 X12.11 Y5.33 Z1.1 F1800.0
G1 X12.11 Y5.58 Z1.1 F1800.0
G1 X14.07 Y7.51 Z1.1 F1800.0
G1 X14.07 Y7.76 Z1.1 F1800.0
G1 X12.11 Y9.69 Z1.1 F1800.0
G1 X12.11 Y9.95 Z1.1 F1800.0
G1 X14.07 Y11.87 Z1.1 F1800.0
G1 X14.07 Y12.13 Z1.1 F1800.0
G1 X12.11 Y14.05 Z1.1 F1800.0
G1 X12.11 Y14.31 Z1.1 F1800.0
G1 X14.07 Y16.24 Z1.1 F1800.0
G1 X14.07 Y16.49 Z1.1 F1800.0
G1 X12.11 Y18.42 Z1.1 F1800.0
G1 X12.22 Y20.12 Z1.1 F1800.0
G1 X16.14 Y20.12 Z1.1 F1800.0
G1 X16.25 Y18.42 Z1.1 F1800.0
G1 X14.3 Y16.49 Z1.1 F1800.0
G1 X14.3 Y16.24 Z1.1 F1800.0
G1 X16.25 Y14.31 Z1.1 F1800.0
G1 X16.25 Y14.05 Z1.1 F1800.0
G1 X14.3 Y12.13 Z1.1 F1800.0
G1 X14.3 Y11.87 Z1.1 F1800.0
G1 X16.25 Y9.95 Z1.1 F1800.0
G1 X16.25 Y9.69 Z1.1 F1800.0
G1 X14.3 Y7.76 Z1.1 F1800.0
G1 X14.3 Y7.51 Z1.1 F1800.0
G1 X16.25 Y5.58 Z1.1 F1800.0
G1 X16.25 Y5.33 Z1.1 F1800.0
G1 X14.3 Y3.4 Z1.1 F1800.0
G1 X14.3 Y3.15 Z1.1 F1800.0
G1 X16.25 Y1.22 Z1.1 F1800.0
G1 X16.25 Y0.96 Z1.1 F1800.0
G1 X14.3 Y-0.96 Z1.1 F1800.0
G1 X14.3 Y-1.22 Z1.1 F1800.0
G1 X16.25 Y-3.15 Z1.1 F1800.0
G1 X16.25 Y-3.4 Z1.1 F1800.0
G1 X14.4 Y-5.49 Z1.1 F1800.0
G1 X18.33 Y-5.49 Z1.1 F1800.0
G1 X16.48 Y-3.4 Z1.1 F1800.0
G1 X16.48 Y-3.15 Z1.1 F1800.0
G1 X18.43 Y-1.22 Z1.1 F1800.0
G1 X18.43 Y-0.96 Z1.1 F1800.0
G1 X16.48 Y0.96 Z1.1 F1800.0
G1 X16.48 Y1.22 Z1.1 F1800.0
G1 X18.43 Y3.15 Z1.1 F1800.0
G1 X18.43 Y3.4 Z1.1 F1800.0
G1 X16.48 Y5.33 Z1.1 F1800.0
G1 X16.48 Y5.58 Z1.1 F1800.0
G1 X18.43 Y7.51 Z1.1 F1800.0
G1 X18.43 Y7.76 Z1.1 F1800.0
G1 X16.48 Y9.69 Z1.1 F1800.0
G1 X16.48 Y9.95 Z1.1 F1800.0
G1 X18.43 Y11.87 Z1.1 F1800.0
G1 X18.43 Y12.13 Z1.1 F1800.0
G1 X16.48 Y14.05 Z1.1 F1800.0
G1 X16.48 Y14.31 Z1.1 F1800.0
G1 X18.43 Y16.24 Z1.1 F1800.0
G1 X18.43 Y16.49 Z1.1 F1800.0
G1 X16.48 Y18.42 Z1.1 F1800.0
G1 X16.58 Y20.12 Z1.1 F1800.0
G1 X20.51 Y20.12 Z1.1 F1800.0
G1 X20.61 Y18.42 Z1.1 F1800.0
G1 X18.66 Y16.49 Z1.1 F1800.0
G1 X18.66 Y16.24 Z1.1 F1800.0
G1 X20.61 Y14.31 Z1.1 F1800.0
G1 X20.61 Y14.05 Z1.1 F1800.0
G1 X18.66 Y12.13 Z1.1 F1800.0
G1 X18.66 Y11.87 Z1.1 F1800.0
G1 X20.61 Y9.95 Z1.1 F1800.0
G1 X20.61 Y9.69 Z1.1 F1800.0
G1 X18.66 Y7.76 Z1.1 F1800.0
G1 X18.66 Y7.51 Z1.1 F1800.0
G1 X20.61 Y5.58 Z1.1 F1800.0
G1 X20.61 Y5.33 Z1.1 F1800.0
G1 X18.66 Y3.4 Z1.1 F1800.0
G1 X18.66 Y3.15 Z1.1 F1800.0
G1 X20.61 Y1.22 Z1.1 F1800.0
G1 X20.61 Y0.96 Z1.1 F1800.0
G1 X18.66 Y-0.96 Z1.1 F1800.0
G1 X18.66 Y-1.22 Z1.1 F1800.0
G1 X20.61 Y-3.15 Z1.1 F1800.0
G1 X20.61 Y-3.4 Z1.1 F1800.0
G1 X18.76 Y-5.49 Z1.1 F1800.0
G1 X22.69 Y-5.49 Z1.1 F1800.0
G1 X20.84 Y-3.4 Z1.1 F1800.0
G1 X20.84 Y-3.15 Z1.1 F1800.0
G1 X22.79 Y-1.22 Z1.1 F1800.0
G1 X22.79 Y-0.96 Z1.1 F1800.0
G1 X20.84 Y0.96 Z1.1 F1800.0
G1 X20.84 Y1.22 Z1.1 F1800.0
G1 X22.79 Y3.15 Z1.1 F1800.0
G1 X22.79 Y3.4 Z1.1 F1800.0
G1 X20.84 Y5.33 Z1.1 F1800.0
G1 X20.84 Y5.58 Z1.1 F1800.0
G1 X22.79 Y7.51 Z1.1 F1800.0
G1 X22.79 Y7.76 Z1.1 F1800.0
G1 X20.84 Y9.69 Z1.1 F1800.0
G1 X20.84 Y9.95 Z1.1 F1800.0
G1 X22.79 Y11.87 Z1.1 F1800.0
G1 X22.79 Y12.13 Z1.1 F1800.0
G1 X20.84 Y14.05 Z1.1 F1800.0
G1 X20.84 Y14.31 Z1.1 F1800.0
G1 X22.79 Y16.24 Z1.1 F1800.0
G1 X22.79 Y16.49 Z1.1 F1800.0
G1 X20.84 Y18.42 Z1.1 F1800.0
G1 X20.94 Y20.12 Z1.1 F1800.0
G1 X24.87 Y20.12 Z1.1 F1800.0
G1 X24.97 Y18.42 Z1.1 F1800.0
G1 X23.02 Y16.49 Z1.1 F1800.0
G1 X23.02 Y-1.22 Z1.1 F1800.0
G1 X24.97 Y-3.15 Z1.1 F1800.0
G1 X24.97 Y-3.4 Z1.1 F1800.0
G1 X23.13 Y-5.49 Z1.1 F1800.0
G1 X27.05 Y-5.49 Z1.1 F1800.0
G1 X25.2 Y-3.4 Z1.1 F1800.0
G1 X25.2 Y-3.15 Z1.1 F1800.0
G1 X27.16 Y-1.22 Z1.1 F1800.0
G1 X27.16 Y-0.96 Z1.1 F1800.0
G1 X25.09 Y0.96 Z1.1 F1800.0
G1 X25.09 Y1.22 Z1.1 F1800.0
G1 X27.16 Y3.15 Z1.1 F1800.0
G1 X27.16 Y3.4 Z1.1 F1800.0
G1 X25.09 Y5.33 Z1.1 F1800.0
G1 X25.09 Y5.58 Z1.1 F1800.0
G1 X27.16 Y7.51 Z1.1 F1800.0
G1 X27.16 Y7.76 Z1.1 F1800.0
G1 X25.09 Y9.69 Z1.1 F1800.0
G1 X25.09 Y9.95 Z1.1 F1800.0
G1 X27.16 Y11.87 Z1.1 F1800.0
G1 X27.16 Y12.13 Z1.1 F1800.0
G1 X25.09 Y14.05 Z1.1 F1800.0
G1 X25.09 Y14.31 Z1.1 F1800.0
G1 X27.16 Y16.24 Z1.1 F1800.0
G1 X27.16 Y16.49 Z1.1 F1800.0
G1 X25.2 Y18.42 Z1.1 F1800.0
G1 X25.31 Y20.12 Z1.1 F1800.0
G1 X29.23 Y20.12 Z1.1 F1800.0
G1 X29.34 Y18.42 Z1.1 F1800.0
G1 X27.39 Y16.49 Z1.1 F1800.0
G1 X27.39 Y16.24 Z1.1 F1800.0
G1 X29.34 Y14.31 Z1.1 F1800.0
G1 X29.34 Y14.05 Z1.1 F1800.0
G1 X27.39 Y12.13 Z1.1 F1800.0
G1 X27.39 Y11.87 Z1.1 F1800.0
G1 X29.34 Y9.95 Z1.1 F1800.0
G1 X29.34 Y9.69 Z1.1 F1800.0
G1 X27.39 Y7.76 Z1.1 F1800.0
G1 X27.39 Y7.51 Z1.1 F1800.0
G1 X29.34 Y5.58 Z1.1 F1800.0
G1 X29.34 Y5.33 Z1.1 F1800.0
G1 X27.39 Y3.4 Z1.1 F1800.0
G1 X27.39 Y3.15 Z1.1 F1800.0
G1 X29.34 Y1.22 Z1.1 F1800.0
G1 X29.34 Y0.96 Z1.1 F1800.0
G1 X27.39 Y-0.96 Z1.1 F1800.0
G1 X27.39 Y-1.22 Z1.1 F1800.0
G1 X29.34 Y-3.15 Z1.1 F1800.0
G1 X29.34 Y-3.4 Z1.1 F1800.0
G1 X27.49 Y-5.49 Z1.1 F1800.0
G1 X31.42 Y-5.49 Z1.1 F1800.0
G1 X29.57 Y-3.4 Z1.1 F1800.0
G1 X29.57 Y-3.15 Z1.1 F1800.0
G1 X31.52 Y-1.22 Z1.1 F1800.0
G1 X31.52 Y-0.96 Z1.1 F1800.0
G1 X29.57 Y0.96 Z1.1 F1800.0
G1 X29.57 Y1.22 Z1.1 F1800.0
G1 X31.52 Y3.15 Z1.1 F1800.0
G1 X31.52 Y3.4 Z1.1 F1800.0
G1 X29.57 Y5.33 Z1.1 F1800.0
G1 X29.57 Y5.58 Z1.1 F1800.0
G1 X31.52 Y7.51 Z1.1 F1800.0
G1 X31.52 Y7.76 Z1.1 F1800.0
G1 X29.57 Y9.69 Z1.1 F1800.0
G1 X29.57 Y9.95 Z1.1 F1800.0
G1 X31.52 Y11.87 Z1.1 F1800.0
G1 X31.52 Y12.13 Z1.1 F1800.0
G1 X29.57 Y14.05 Z1.1 F1800.0
G1 X29.57 Y14.31 Z1.1 F1800.0
G1 X31.52 Y16.24 Z1.1 F1800.0
G1 X31.52 Y16.49 Z1.1 F1800.0
G1 X29.57 Y18.42 Z1.1 F1800.0
G1 X29.67 Y20.12 Z1.1 F1800.0
G1 X33.6 Y20.12 Z1.1 F1800.0
G1 X33.7 Y18.42 Z1.1 F1800.0
G1 X31.75 Y16.49 Z1.1 F1800.0
G1 X31.75 Y16.24 Z1.1 F1800.0
G1 X33.7 Y14.31 Z1.1 F1800.0
G1 X33.7 Y14.05 Z1.1 F1800.0
G1 X31.75 Y12.13 Z1.1 F1800.0
G1 X31.75 Y11.87 Z1.1 F1800.0
G1 X33.7 Y9.95 Z1.1 F1800.0
G1 X33.7 Y9.69 Z1.1 F1800.0
G1 X31.75 Y7.76 Z1.1 F1800.0
G1 X31.75 Y7.51 Z1.1 F1800.0
G1 X33.7 Y5.58 Z1.1 F1800.0
G1 X33.7 Y5.33 Z1.1 F1800.0
G1 X31.75 Y3.4 Z1.1 F1800.0
G1 X31.75 Y3.15 Z1.1 F1800.0
G1 X33.7 Y1.22 Z1.1 F1800.0
G1 X33.7 Y0.96 Z1.1 F1800.0
G1 X31.75 Y-0.96 Z1.1 F1800.0
G1 X31.75 Y-1.22 Z1.1 F1800.0
G1 X33.7 Y-3.15 Z1.1 F1800.0
G1 X33.7 Y-3.4 Z1.1 F1800.0
G1 X31.85 Y-5.49 Z1.1 F1800.0
G1 X35.78 Y-5.49 Z1.1 F1800.0
G1 X33.93 Y-3.4 Z1.1 F1800.0
G1 X33.93 Y-3.15 Z1.1 F1800.0
G1 X35.88 Y-1.22 Z1.1 F1800.0
G1 X35.88 Y-0.96 Z1.1 F1800.0
G1 X33.93 Y0.96 Z1.1 F1800.0
G1 X33.93 Y1.22 Z1.1 F1800.0
G1 X35.88 Y3.15 Z1.1 F1800.0
G1 X35.88 Y3.4 Z1.1 F1800.0
G1 X33.93 Y5.33 Z1.1 F1800.0
G1 X33.93 Y5.58 Z1.1 F1800.0
G1 X35.88 Y7.51 Z1.1 F1800.0
G1 X35.88 Y7.76 Z1.1 F1800.0
G1 X33.93 Y9.69 Z1.1 F1800.0
G1 X33.93 Y9.95 Z1.1 F1800.0
G1 X35.88 Y11.87 Z1.1 F1800.0
G1 X35.88 Y12.13 Z1.1 F1800.0
G1 X33.93 Y14.05 Z1.1 F1800.0
G1 X33.93 Y14.31 Z1.1 F1800.0
G1 X35.88 Y16.24 Z1.1 F1800.0
G1 X35.88 Y16.49 Z1.1 F1800.0
G1 X33.93 Y18.42 Z1.1 F1800.0
G1 X34.03 Y20.12 Z1.1 F1800.0
G1 X37.96 Y20.12 Z1.1 F1800.0
G1 X38.06 Y18.42 Z1.1 F1800.0
G1 X36.11 Y16.49 Z1.1 F1800.0
G1 X36.11 Y16.24 Z1.1 F1800.0
G1 X38.06 Y14.31 Z1.1 F1800.0
G1 X38.06 Y14.05 Z1.1 F1800.0
G1 X36.11 Y12.13 Z1.1 F1800.0
G1 X36.11 Y11.87 Z1.1 F1800.0
G1 X38.06 Y9.95 Z1.1 F1800.0
G1 X38.06 Y9.69 Z1.1 F1800.0
G1 X36.11 Y7.76 Z1.1 F1800.0
G1 X36.11 Y7.51 Z1.1 F1800.0
G1 X38.06 Y5.58 Z1.1 F1800.0
G1 X38.06 Y5.33 Z1.1 F1800.0
G1 X36.11 Y3.4 Z1.1 F1800.0
G1 X36.11 Y3.15 Z1.1 F1800.0
G1 X38.06 Y1.22 Z1.1 F1800.0
G1 X38.06 Y0.96 Z1.1 F1800.0
G1 X36.11 Y-0.96 Z1.1 F1800.0
G1 X36.11 Y-1.22 Z1.1 F1800.0
G1 X38.06 Y-3.15 Z1.1 F1800.0
G1 X38.06 Y-3.4 Z1.1 F1800.0
G1 X36.22 Y-5.49 Z1.1 F1800.0
G1 X40.14 Y-5.49 Z1.1 F1800.0
G1 X38.29 Y-3.4 Z1.1 F1800.0
G1 X38.29 Y-3.15 Z1.1 F1800.0
G1 X40.25 Y-1.22 Z1.1 F1800.0
G1 X40.25 Y-0.96 Z1.1 F1800.0
G1 X38.29 Y0.96 Z1.1 F1800.0
G1 X38.29 Y1.22 Z1.1 F1800.0
G1 X40.25 Y3.15 Z1.1 F1800.0
G1 X40.25 Y3.4 Z1.1 F1800.0
G1 X38.29 Y5.33 Z1.1 F1800.0
G1 X38.29 Y5.58 Z1.1 F1800.0
G1 X40.25 Y7.51 Z1.1 F1800.0
G1 X40.25 Y7.76 Z1.1 F1800.0
G1 X38.29 Y9.69 Z1.1 F1800.0
G1 X38.29 Y9.95 Z1.1 F1800.0
G1 X40.25 Y11.87 Z1.1 F1800.0
G1 X40.25 Y12.13 Z1.1 F1800.0
G1 X38.29 Y14.05 Z1.1 F1800.0
G1 X38.29 Y14.31 Z1.1 F1800.0
G1 X40.25 Y16.24 Z1.1 F1800.0
G1 X40.25 Y16.49 Z1.1 F1800.0
G1 X38.29 Y18.42 Z1.1 F1800.0
G1 X38.4 Y20.12 Z1.1 F1800.0
G1 X42.32 Y20.12 Z1.1 F1800.0
G1 X42.43 Y18.42 Z1.1 F1800.0
G1 X40.48 Y16.49 Z1.1 F1800.0
G1 X40.48 Y16.24 Z1.1 F1800.0
G1 X42.43 Y14.31 Z1.1 F1800.0
G1 X42.43 Y14.05 Z1.1 F1800.0
G1 X40.48 Y12.13 Z1.1 F1800.0
G1 X40.48 Y11.87 Z1.1 F1800.0
G1 X42.43 Y9.95 Z1.1 F1800.0
G1 X42.43 Y9.69 Z1.1 F1800.0
G1 X40.48 Y7.76 Z1.1 F1800.0
G1 X40.48 Y7.51 Z1.1 F1800.0
G1 X42.43 Y5.58 Z1.1 F1800.0
G1 X42.43 Y5.33 Z1.1 F1800.0
G1 X40.48 Y3.4 Z1.1 F1800.0
G1 X40.48 Y3.15 Z1.1 F1800.0
G1 X42.43 Y1.22 Z1.1 F1800.0
G1 X42.43 Y0.96 Z1.1 F1800.0
G1 X40.48 Y-0.96 Z1.1 F1800.0
G1 X40.48 Y-1.22 Z1.1 F1800.0
G1 X42.43 Y-3.15 Z1.1 F1800.0
G1 X42.43 Y-3.4 Z1.1 F1800.0
G1 X40.58 Y-5.49 Z1.1 F1800.0
G1 X43.63 Y-5.49 Z1.1 F1800.0
G1 X42.66 Y-3.4 Z1.1 F1800.0
G1 X42.76 Y20.12 Z1.1 F1800.0
G1 X44.51 Y20.12 Z1.1 F1800.0
G1 X44.51 Y-5.47 Z1.1 F1800.0
M108 R30.0
M102
G1 X44.51 Y-5.49 Z1.1 F1800.0
G1 X44.07 Y-5.49 Z1.1 F1800.0
M108 R3.569
M103
(</surroundingLoop>)
(<surroundingLoop>)
(<boundaryPerimeter>)
(<boundaryPoint> X45.78 Y-21.332 Z1.1 </boundaryPoint>)
(<boundaryPoint> X-4.9 Y-21.332 Z1.1 </boundaryPoint>)
(<boundaryPoint> X-4.9 Y-48.632 Z1.1 </boundaryPoint>)
(<boundaryPoint> X45.78 Y-48.632 Z1.1 </boundaryPoint>)
(<loop> outer )
G1 X43.81 Y-21.12 Z1.1 F3000.0
M108 R30.0
M101
G1 X43.79 Y-21.92 Z1.1 F3000.0
M108 R3.569
G1 X-4.31 Y-21.92 Z1.1 F1800.0
G1 X-4.31 Y-48.04 Z1.1 F1800.0
G1 X45.19 Y-48.04 Z1.1 F1800.0
G1 X45.19 Y-21.92 Z1.1 F1800.0
G1 X44.07 Y-21.92 Z1.1 F1800.0
G1 X43.79 Y-21.92 Z1.1 F1800.0
M103
(</loop>)
(<perimeter> outer )
G1 X43.79 Y-21.53 Z1.1 F3000.0
M101
G1 X-4.7 Y-21.53 Z1.1 F1800.0
G1 X-4.7 Y-48.44 Z1.1 F1800.0
G1 X45.58 Y-48.44 Z1.1 F1800.0
G1 X45.58 Y-21.53 Z1.1 F1800.0
G1 X44.24 Y-21.53 Z1.1 F1800.0
M108 R30.0
M102
G1 X44.07 Y-21.53 Z1.1 F1800.0
G1 X43.79 Y-21.53 Z1.1 F1800.0
M108 R3.569
M103
(</perimeter>)
(</boundaryPerimeter>)
G1 X44.48 Y-46.99 Z1.1 F3000.0
M108 R30.0
M101
G1 X44.51 Y-47.79 Z1.1 F3000.0
M108 R3.569
G1 X44.51 Y-22.63 Z1.1 F1800.0
M108 R30.0
M102
G1 X44.51 Y-22.18 Z1.1 F1800.0
M108 R3.569
M103
G1 X43.56 Y-22.18 Z1.1 F3000.0
M108 R30.0
M101
G1 X42.76 Y-22.18 Z1.1 F3000.0
M108 R3.569
G1 X42.54 Y-47.03 Z1.1 F1800.0
G1 X44.07 Y-47.79 Z1.1 F1800.0
G1 X40.14 Y-47.79 Z1.1 F1800.0
G1 X40.48 Y-44.6 Z1.1 F1800.0
G1 X42.43 Y-42.67 Z1.1 F1800.0
G1 X42.43 Y-42.42 Z1.1 F1800.0
G1 X40.48 Y-40.49 Z1.1 F1800.0
G1 X40.48 Y-40.23 Z1.1 F1800.0
G1 X42.43 Y-38.31 Z1.1 F1800.0
G1 X42.43 Y-38.05 Z1.1 F1800.0
G1 X40.48 Y-36.13 Z1.1 F1800.0
G1 X40.48 Y-35.87 Z1.1 F1800.0
G1 X42.43 Y-33.94 Z1.1 F1800.0
G1 X42.43 Y-33.69 Z1.1 F1800.0
G1 X40.48 Y-31.76 Z1.1 F1800.0
G1 X40.48 Y-31.51 Z1.1 F1800.0
G1 X42.43 Y-29.58 Z1.1 F1800.0
G1 X42.43 Y-29.33 Z1.1 F1800.0
G1 X40.48 Y-27.4 Z1.1 F1800.0
G1 X40.48 Y-27.14 Z1.1 F1800.0
G1 X42.43 Y-25.22 Z1.1 F1800.0
G1 X42.43 Y-24.96 Z1.1 F1800.0
G1 X40.48 Y-23.04 Z1.1 F1800.0
G1 X40.53 Y-22.62 Z1.1 F1800.0
M108 R30.0
M102
G1 X40.58 Y-22.18 Z1.1 F1800.0
M108 R3.569
M103
G1 X39.2 Y-22.18 Z1.1 F3000.0
M108 R30.0
M101
G1 X38.4 Y-22.18 Z1.1 F3000.0
M108 R3.569
G1 X38.83 Y-22.61 Z1.1 F1800.0
G1 X39.27 Y-22.18 Z1.1 F1800.0
G1 X39.71 Y-22.61 Z1.1 F1800.0
G1 X40.25 Y-22.78 Z1.1 F1800.0
G1 X40.25 Y-23.04 Z1.1 F1800.0
G1 X38.29 Y-24.96 Z1.1 F1800.0
G1 X38.29 Y-25.22 Z1.1 F1800.0
G1 X40.25 Y-27.14 Z1.1 F1800.0
G1 X40.25 Y-27.4 Z1.1 F1800.0
G1 X38.29 Y-29.33 Z1.1 F1800.0
G1 X38.29 Y-29.58 Z1.1 F1800.0
G1 X40.25 Y-31.51 Z1.1 F1800.0
G1 X40.25 Y-31.76 Z1.1 F1800.0
G1 X38.29 Y-33.69 Z1.1 F1800.0
G1 X38.29 Y-33.94 Z1.1 F1800.0
G1 X40.25 Y-35.87 Z1.1 F1800.0
G1 X40.25 Y-36.13 Z1.1 F1800.0
G1 X38.29 Y-38.05 Z1.1 F1800.0
G1 X38.29 Y-38.31 Z1.1 F1800.0
G1 X40.25 Y-40.23 Z1.1 F1800.0
G1 X40.25 Y-40.49 Z1.1 F1800.0
G1 X38.29 Y-42.42 Z1.1 F1800.0
G1 X38.29 Y-42.67 Z1.1 F1800.0
G1 X40.25 Y-44.6 Z1.1 F1800.0
G1 X40.25 Y-44.85 Z1.1 F1800.0
G1 X38.18 Y-46.78 Z1.1 F1800.0
G1 X38.18 Y-47.03 Z1.1 F1800.0
G1 X39.71 Y-47.79 Z1.1 F1800.0
G1 X36.22 Y-47.79 Z1.1 F1800.0
G1 X36.11 Y-44.6 Z1.1 F1800.0
G1 X38.06 Y-42.67 Z1.1 F1800.0
G1 X38.06 Y-42.42 Z1.1 F1800.0
G1 X36.11 Y-40.49 Z1.1 F1800.0
G1 X36.11 Y-40.23 Z1.1 F1800.0
G1 X38.06 Y-38.31 Z1.1 F1800.0
G1 X38.06 Y-38.05 Z1.1 F1800.0
G1 X36.11 Y-36.13 Z1.1 F1800.0
G1 X36.11 Y-35.87 Z1.1 F1800.0
G1 X38.06 Y-33.94 Z1.1 F1800.0
G1 X38.06 Y-33.69 Z1.1 F1800.0
G1 X36.11 Y-31.76 Z1.1 F1800.0
G1 X36.11 Y-31.51 Z1.1 F1800.0
G1 X38.06 Y-29.58 Z1.1 F1800.0
G1 X38.06 Y-29.33 Z1.1 F1800.0
G1 X36.11 Y-27.4 Z1.1 F1800.0
G1 X36.11 Y-27.14 Z1.1 F1800.0
G1 X38.06 Y-25.22 Z1.1 F1800.0
G1 X38.06 Y-24.96 Z1.1 F1800.0
G1 X36.11 Y-23.04 Z1.1 F1800.0
G1 X36.11 Y-22.78 Z1.1 F1800.0
G1 X36.14 Y-22.62 Z1.1 F1800.0
M108 R30.0
M102
G1 X36.22 Y-22.18 Z1.1 F1800.0
M108 R3.569
M103
G1 X34.83 Y-22.18 Z1.1 F3000.0
M108 R30.0
M101
G1 X34.03 Y-22.18 Z1.1 F3000.0
M108 R3.569
G1 X34.47 Y-22.61 Z1.1 F1800.0
G1 X34.91 Y-22.18 Z1.1 F1800.0
G1 X35.34 Y-22.61 Z1.1 F1800.0
G1 X35.88 Y-22.78 Z1.1 F1800.0
G1 X35.88 Y-23.04 Z1.1 F1800.0
G1 X33.93 Y-24.96 Z1.1 F1800.0
G1 X33.93 Y-25.22 Z1.1 F1800.0
G1 X35.88 Y-27.14 Z1.1 F1800.0
G1 X35.88 Y-27.4 Z1.1 F1800.0
G1 X33.93 Y-29.33 Z1.1 F1800.0
G1 X33.93 Y-29.58 Z1.1 F1800.0
G1 X35.88 Y-31.51 Z1.1 F1800.0
G1 X35.88 Y-31.76 Z1.1 F1800.0
G1 X33.93 Y-33.69 Z1.1 F1800.0
G1 X33.93 Y-33.94 Z1.1 F1800.0
G1 X35.88 Y-35.87 Z1.1 F1800.0
G1 X35.88 Y-36.13 Z1.1 F1800.0
G1 X33.93 Y-38.05 Z1.1 F1800.0
G1 X33.93 Y-38.31 Z1.1 F1800.0
G1 X35.88 Y-40.23 Z1.1 F1800.0
G1 X35.88 Y-40.49 Z1.1 F1800.0
G1 X33.93 Y-42.42 Z1.1 F1800.0
G1 X33.93 Y-42.67 Z1.1 F1800.0
G1 X35.88 Y-44.6 Z1.1 F1800.0
G1 X35.88 Y-44.85 Z1.1 F1800.0
G1 X33.82 Y-46.78 Z1.1 F1800.0
G1 X33.82 Y-47.03 Z1.1 F1800.0
G1 X35.78 Y-47.35 Z1.1 F1800.0
G1 X35.34 Y-47.79 Z1.1 F1800.0
G1 X31.85 Y-47.79 Z1.1 F1800.0
G1 X31.75 Y-44.6 Z1.1 F1800.0
G1 X33.7 Y-42.67 Z1.1 F1800.0
G1 X33.7 Y-42.42 Z1.1 F1800.0
G1 X31.75 Y-40.49 Z1.1 F1800.0
G1 X31.75 Y-40.23 Z1.1 F1800.0
G1 X33.7 Y-38.31 Z1.1 F1800.0
G1 X33.7 Y-38.05 Z1.1 F1800.0
G1 X31.75 Y-36.13 Z1.1 F1800.0
G1 X31.75 Y-35.87 Z1.1 F1800.0
G1 X33.7 Y-33.94 Z1.1 F1800.0
G1 X33.7 Y-33.69 Z1.1 F1800.0
G1 X31.75 Y-31.76 Z1.1 F1800.0
G1 X31.75 Y-31.51 Z1.1 F1800.0
G1 X33.7 Y-29.58 Z1.1 F1800.0
G1 X33.7 Y-29.33 Z1.1 F1800.0
G1 X31.75 Y-27.4 Z1.1 F1800.0
G1 X31.75 Y-27.14 Z1.1 F1800.0
G1 X33.7 Y-25.22 Z1.1 F1800.0
G1 X33.7 Y-24.96 Z1.1 F1800.0
G1 X31.75 Y-23.04 Z1.1 F1800.0
G1 X31.8 Y-22.62 Z1.1 F1800.0
M108 R30.0
M102
G1 X31.85 Y-22.18 Z1.1 F1800.0
M108 R3.569
M103
G1 X30.47 Y-22.18 Z1.1 F3000.0
M108 R30.0
M101
G1 X29.67 Y-22.18 Z1.1 F3000.0
M108 R3.569
G1 X30.11 Y-22.61 Z1.1 F1800.0
G1 X30.54 Y-22.18 Z1.1 F1800.0
G1 X30.98 Y-22.61 Z1.1 F1800.0
G1 X31.52 Y-22.78 Z1.1 F1800.0
G1 X31.52 Y-23.04 Z1.1 F1800.0
G1 X29.57 Y-24.96 Z1.1 F1800.0
G1 X29.57 Y-25.22 Z1.1 F1800.0
G1 X31.52 Y-27.14 Z1.1 F1800.0
G1 X31.52 Y-27.4 Z1.1 F1800.0
G1 X29.57 Y-29.33 Z1.1 F1800.0
G1 X29.57 Y-29.58 Z1.1 F1800.0
G1 X31.52 Y-31.51 Z1.1 F1800.0
G1 X31.52 Y-31.76 Z1.1 F1800.0
G1 X29.57 Y-33.69 Z1.1 F1800.0
G1 X29.57 Y-33.94 Z1.1 F1800.0
G1 X31.52 Y-35.87 Z1.1 F1800.0
G1 X31.52 Y-36.13 Z1.1 F1800.0
G1 X29.57 Y-38.05 Z1.1 F1800.0
G1 X29.57 Y-38.31 Z1.1 F1800.0
G1 X31.52 Y-40.23 Z1.1 F1800.0
G1 X31.52 Y-40.49 Z1.1 F1800.0
G1 X29.57 Y-42.42 Z1.1 F1800.0
G1 X29.57 Y-42.67 Z1.1 F1800.0
G1 X31.52 Y-44.6 Z1.1 F1800.0
G1 X31.52 Y-44.85 Z1.1 F1800.0
G1 X29.45 Y-46.78 Z1.1 F1800.0
G1 X29.45 Y-47.03 Z1.1 F1800.0
G1 X31.42 Y-47.35 Z1.1 F1800.0
G1 X30.98 Y-47.79 Z1.1 F1800.0
G1 X27.05 Y-47.79 Z1.1 F1800.0
G1 X27.39 Y-44.6 Z1.1 F1800.0
G1 X29.34 Y-42.67 Z1.1 F1800.0
G1 X29.34 Y-42.42 Z1.1 F1800.0
G1 X27.39 Y-40.49 Z1.1 F1800.0
G1 X27.39 Y-40.23 Z1.1 F1800.0
G1 X29.34 Y-38.31 Z1.1 F1800.0
G1 X29.34 Y-38.05 Z1.1 F1800.0
G1 X27.39 Y-36.13 Z1.1 F1800.0
G1 X27.39 Y-35.87 Z1.1 F1800.0
G1 X29.34 Y-33.94 Z1.1 F1800.0
G1 X29.34 Y-33.69 Z1.1 F1800.0
G1 X27.39 Y-31.76 Z1.1 F1800.0
G1 X27.39 Y-31.51 Z1.1 F1800.0
G1 X29.34 Y-29.58 Z1.1 F1800.0
G1 X29.34 Y-29.33 Z1.1 F1800.0
G1 X27.39 Y-27.4 Z1.1 F1800.0
G1 X27.39 Y-27.14 Z1.1 F1800.0
G1 X29.34 Y-25.22 Z1.1 F1800.0
G1 X29.34 Y-24.96 Z1.1 F1800.0
G1 X27.39 Y-23.04 Z1.1 F1800.0
G1 X27.44 Y-22.62 Z1.1 F1800.0
M108 R30.0
M102
G1 X27.49 Y-22.18 Z1.1 F1800.0
M108 R3.569
M103
G1 X26.11 Y-22.18 Z1.1 F3000.0
M108 R30.0
M101
G1 X25.31 Y-22.18 Z1.1 F3000.0
M108 R3.569
G1 X25.74 Y-22.61 Z1.1 F1800.0
G1 X26.18 Y-22.18 Z1.1 F1800.0
G1 X26.62 Y-22.61 Z1.1 F1800.0
G1 X27.16 Y-22.78 Z1.1 F1800.0
G1 X27.16 Y-23.04 Z1.1 F1800.0
G1 X25.2 Y-24.96 Z1.1 F1800.0
G1 X25.2 Y-25.22 Z1.1 F1800.0
G1 X27.16 Y-27.14 Z1.1 F1800.0
G1 X27.16 Y-27.4 Z1.1 F1800.0
G1 X25.09 Y-29.33 Z1.1 F1800.0
G1 X25.09 Y-29.58 Z1.1 F1800.0
G1 X27.16 Y-31.51 Z1.1 F1800.0
G1 X27.16 Y-31.76 Z1.1 F1800.0
G1 X25.09 Y-33.69 Z1.1 F1800.0
G1 X25.09 Y-33.94 Z1.1 F1800.0
G1 X27.16 Y-35.87 Z1.1 F1800.0
G1 X27.16 Y-36.13 Z1.1 F1800.0
G1 X25.09 Y-38.05 Z1.1 F1800.0
G1 X25.09 Y-38.31 Z1.1 F1800.0
G1 X27.16 Y-40.23 Z1.1 F1800.0
G1 X27.16 Y-40.49 Z1.1 F1800.0
G1 X25.09 Y-42.42 Z1.1 F1800.0
G1 X25.09 Y-42.67 Z1.1 F1800.0
G1 X27.16 Y-44.6 Z1.1 F1800.0
G1 X27.16 Y-44.85 Z1.1 F1800.0
G1 X25.09 Y-46.78 Z1.1 F1800.0
G1 X25.09 Y-47.03 Z1.1 F1800.0
G1 X26.62 Y-47.79 Z1.1 F1800.0
G1 X23.13 Y-47.79 Z1.1 F1800.0
G1 X23.02 Y-27.14 Z1.1 F1800.0
G1 X24.97 Y-25.22 Z1.1 F1800.0
G1 X24.97 Y-24.96 Z1.1 F1800.0
G1 X23.02 Y-23.04 Z1.1 F1800.0
G1 X23.07 Y-22.62 Z1.1 F1800.0
M108 R30.0
M102
G1 X23.13 Y-22.18 Z1.1 F1800.0
M108 R3.569
M103
G1 X21.74 Y-22.18 Z1.1 F3000.0
M108 R30.0
M101
G1 X20.94 Y-22.18 Z1.1 F3000.0
M108 R3.569
G1 X21.38 Y-22.61 Z1.1 F1800.0
G1 X21.82 Y-22.18 Z1.1 F1800.0
G1 X22.25 Y-22.61 Z1.1 F1800.0
G1 X22.79 Y-22.78 Z1.1 F1800.0
G1 X22.79 Y-23.04 Z1.1 F1800.0
G1 X20.84 Y-24.96 Z1.1 F1800.0
G1 X20.84 Y-25.22 Z1.1 F1800.0
G1 X22.79 Y-27.14 Z1.1 F1800.0
G1 X22.79 Y-27.4 Z1.1 F1800.0
G1 X20.84 Y-29.33 Z1.1 F1800.0
G1 X20.84 Y-29.58 Z1.1 F1800.0
G1 X22.79 Y-31.51 Z1.1 F1800.0
G1 X22.79 Y-31.76 Z1.1 F1800.0
G1 X20.84 Y-33.69 Z1.1 F1800.0
G1 X20.84 Y-33.94 Z1.1 F1800.0
G1 X22.79 Y-35.87 Z1.1 F1800.0
G1 X22.79 Y-36.13 Z1.1 F1800.0
G1 X20.84 Y-38.05 Z1.1 F1800.0
G1 X20.84 Y-38.31 Z1.1 F1800.0
G1 X22.79 Y-40.23 Z1.1 F1800.0
G1 X22.79 Y-40.49 Z1.1 F1800.0
G1 X20.84 Y-42.42 Z1.1 F1800.0
G1 X20.84 Y-42.67 Z1.1 F1800.0
G1 X22.79 Y-44.6 Z1.1 F1800.0
G1 X22.79 Y-44.85 Z1.1 F1800.0
G1 X20.73 Y-46.78 Z1.1 F1800.0
G1 X20.73 Y-47.03 Z1.1 F1800.0
G1 X22.69 Y-47.35 Z1.1 F1800.0
G1 X22.25 Y-47.79 Z1.1 F1800.0
G1 X18.33 Y-47.79 Z1.1 F1800.0
G1 X18.66 Y-44.6 Z1.1 F1800.0
G1 X20.61 Y-42.67 Z1.1 F1800.0
G1 X20.61 Y-42.42 Z1.1 F1800.0
G1 X18.66 Y-40.49 Z1.1 F1800.0
G1 X18.66 Y-40.23 Z1.1 F1800.0
G1 X20.61 Y-38.31 Z1.1 F1800.0
G1 X20.61 Y-38.05 Z1.1 F1800.0
G1 X18.66 Y-36.13 Z1.1 F1800.0
G1 X18.66 Y-35.87 Z1.1 F1800.0
G1 X20.61 Y-33.94 Z1.1 F1800.0
G1 X20.61 Y-33.69 Z1.1 F1800.0
G1 X18.66 Y-31.76 Z1.1 F1800.0
G1 X18.66 Y-31.51 Z1.1 F1800.0
G1 X20.61 Y-29.58 Z1.1 F1800.0
G1 X20.61 Y-29.33 Z1.1 F1800.0
G1 X18.66 Y-27.4 Z1.1 F1800.0
G1 X18.66 Y-27.14 Z1.1 F1800.0
G1 X20.61 Y-25.22 Z1.1 F1800.0
G1 X20.61 Y-24.96 Z1.1 F1800.0
G1 X18.66 Y-23.04 Z1.1 F1800.0
G1 X18.71 Y-22.62 Z1.1 F1800.0
M108 R30.0
M102
G1 X18.76 Y-22.18 Z1.1 F1800.0
M108 R3.569
M103
G1 X17.38 Y-22.18 Z1.1 F3000.0
M108 R30.0
M101
G1 X16.58 Y-22.18 Z1.1 F3000.0
M108 R3.569
G1 X17.02 Y-22.61 Z1.1 F1800.0
G1 X17.45 Y-22.18 Z1.1 F1800.0
G1 X17.89 Y-22.61 Z1.1 F1800.0
G1 X18.43 Y-22.78 Z1.1 F1800.0
G1 X18.43 Y-23.04 Z1.1 F1800.0
G1 X16.48 Y-24.96 Z1.1 F1800.0
G1 X16.48 Y-25.22 Z1.1 F1800.0
G1 X18.43 Y-27.14 Z1.1 F1800.0
G1 X18.43 Y-27.4 Z1.1 F1800.0
G1 X16.48 Y-29.33 Z1.1 F1800.0
G1 X16.48 Y-29.58 Z1.1 F1800.0
G1 X18.43 Y-31.51 Z1.1 F1800.0
G1 X18.43 Y-31.76 Z1.1 F1800.0
G1 X16.48 Y-33.69 Z1.1 F1800.0
G1 X16.48 Y-33.94 Z1.1 F1800.0
G1 X18.43 Y-35.87 Z1.1 F1800.0
G1 X18.43 Y-36.13 Z1.1 F1800.0
G1 X16.48 Y-38.05 Z1.1 F1800.0
G1 X16.48 Y-38.31 Z1.1 F1800.0
G1 X18.43 Y-40.23 Z1.1 F1800.0
G1 X18.43 Y-40.49 Z1.1 F1800.0
G1 X16.48 Y-42.42 Z1.1 F1800.0
G1 X16.48 Y-42.67 Z1.1 F1800.0
G1 X18.43 Y-44.6 Z1.1 F1800.0
G1 X18.43 Y-44.85 Z1.1 F1800.0
G1 X16.36 Y-46.78 Z1.1 F1800.0
G1 X16.36 Y-47.03 Z1.1 F1800.0
G1 X17.89 Y-47.79 Z1.1 F1800.0
G1 X13.96 Y-47.79 Z1.1 F1800.0
G1 X14.3 Y-44.6 Z1.1 F1800.0
G1 X16.25 Y-42.67 Z1.1 F1800.0
G1 X16.25 Y-42.42 Z1.1 F1800.0
G1 X14.3 Y-40.49 Z1.1 F1800.0
G1 X14.3 Y-40.23 Z1.1 F1800.0
G1 X16.25 Y-38.31 Z1.1 F1800.0
G1 X16.25 Y-38.05 Z1.1 F1800.0
G1 X14.3 Y-36.13 Z1.1 F1800.0
G1 X14.3 Y-35.87 Z1.1 F1800.0
G1 X16.25 Y-33.94 Z1.1 F1800.0
G1 X16.25 Y-33.69 Z1.1 F1800.0
G1 X14.3 Y-31.76 Z1.1 F1800.0
G1 X14.3 Y-31.51 Z1.1 F1800.0
G1 X16.25 Y-29.58 Z1.1 F1800.0
G1 X16.25 Y-29.33 Z1.1 F1800.0
G1 X14.3 Y-27.4 Z1.1 F1800.0
G1 X14.3 Y-27.14 Z1.1 F1800.0
G1 X16.25 Y-25.22 Z1.1 F1800.0
G1 X16.25 Y-24.96 Z1.1 F1800.0
G1 X14.3 Y-23.04 Z1.1 F1800.0
G1 X14.35 Y-22.62 Z1.1 F1800.0
M108 R30.0
M102
G1 X14.4 Y-22.18 Z1.1 F1800.0
M108 R3.569
M103
G1 X13.02 Y-22.18 Z1.1 F3000.0
M108 R30.0
M101
G1 X12.22 Y-22.18 Z1.1 F3000.0
M108 R3.569
G1 X12.65 Y-22.61 Z1.1 F1800.0
G1 X13.09 Y-22.18 Z1.1 F1800.0
G1 X13.53 Y-22.61 Z1.1 F1800.0
G1 X14.07 Y-22.78 Z1.1 F1800.0
G1 X14.07 Y-23.04 Z1.1 F1800.0
G1 X12.11 Y-24.96 Z1.1 F1800.0
G1 X12.11 Y-25.22 Z1.1 F1800.0
G1 X14.07 Y-27.14 Z1.1 F1800.0
G1 X14.07 Y-27.4 Z1.1 F1800.0
G1 X12.11 Y-29.33 Z1.1 F1800.0
G1 X12.11 Y-29.58 Z1.1 F1800.0
G1 X14.07 Y-31.51 Z1.1 F1800.0
G1 X14.07 Y-31.76 Z1.1 F1800.0
G1 X12.11 Y-33.69 Z1.1 F1800.0
G1 X12.11 Y-33.94 Z1.1 F1800.0
G1 X14.07 Y-35.87 Z1.1 F1800.0
G1 X14.07 Y-36.13 Z1.1 F1800.0
G1 X12.11 Y-38.05 Z1.1 F1800.0
G1 X12.11 Y-38.31 Z1.1 F1800.0
G1 X14.07 Y-40.23 Z1.1 F1800.0
G1 X14.07 Y-40.49 Z1.1 F1800.0
G1 X12.11 Y-42.42 Z1.1 F1800.0
G1 X12.11 Y-42.67 Z1.1 F1800.0
G1 X14.07 Y-44.6 Z1.1 F1800.0
G1 X14.07 Y-44.85 Z1.1 F1800.0
G1 X12.0 Y-46.78 Z1.1 F1800.0
G1 X12.0 Y-47.03 Z1.1 F1800.0
G1 X13.53 Y-47.79 Z1.1 F1800.0
G1 X9.6 Y-47.79 Z1.1 F1800.0
G1 X9.93 Y-44.6 Z1.1 F1800.0
G1 X11.88 Y-42.67 Z1.1 F1800.0
G1 X11.88 Y-42.42 Z1.1 F1800.0
G1 X9.93 Y-40.49 Z1.1 F1800.0
G1 X9.93 Y-40.23 Z1.1 F1800.0
G1 X11.88 Y-38.31 Z1.1 F1800.0
G1 X11.88 Y-38.05 Z1.1 F1800.0
G1 X9.93 Y-36.13 Z1.1 F1800.0
G1 X9.93 Y-35.87 Z1.1 F1800.0
G1 X11.88 Y-33.94 Z1.1 F1800.0
G1 X11.88 Y-33.69 Z1.1 F1800.0
G1 X9.93 Y-31.76 Z1.1 F1800.0
G1 X9.93 Y-31.51 Z1.1 F1800.0
G1 X11.88 Y-29.58 Z1.1 F1800.0
G1 X11.88 Y-29.33 Z1.1 F1800.0
G1 X9.93 Y-27.4 Z1.1 F1800.0
G1 X9.93 Y-27.14 Z1.1 F1800.0
G1 X11.88 Y-25.22 Z1.1 F1800.0
G1 X11.88 Y-24.96 Z1.1 F1800.0
G1 X9.93 Y-23.04 Z1.1 F1800.0
G1 X9.98 Y-22.62 Z1.1 F1800.0
M108 R30.0
M102
G1 X10.04 Y-22.18 Z1.1 F1800.0
M108 R3.569
M103
G1 X8.65 Y-22.18 Z1.1 F3000.0
M108 R30.0
M101
G1 X7.85 Y-22.18 Z1.1 F3000.0
M108 R3.569
G1 X8.29 Y-22.61 Z1.1 F1800.0
G1 X8.73 Y-22.18 Z1.1 F1800.0
G1 X9.16 Y-22.61 Z1.1 F1800.0
G1 X9.7 Y-22.78 Z1.1 F1800.0
G1 X9.7 Y-23.04 Z1.1 F1800.0
G1 X7.75 Y-24.96 Z1.1 F1800.0
G1 X7.75 Y-25.22 Z1.1 F1800.0
G1 X9.7 Y-27.14 Z1.1 F1800.0
G1 X9.7 Y-27.4 Z1.1 F1800.0
G1 X7.75 Y-29.33 Z1.1 F1800.0
G1 X7.75 Y-29.58 Z1.1 F1800.0
G1 X9.7 Y-31.51 Z1.1 F1800.0
G1 X9.7 Y-31.76 Z1.1 F1800.0
G1 X7.75 Y-33.69 Z1.1 F1800.0
G1 X7.75 Y-33.94 Z1.1 F1800.0
G1 X9.7 Y-35.87 Z1.1 F1800.0
G1 X9.7 Y-36.13 Z1.1 F1800.0
G1 X7.75 Y-38.05 Z1.1 F1800.0
G1 X7.75 Y-38.31 Z1.1 F1800.0
G1 X9.7 Y-40.23 Z1.1 F1800.0
G1 X9.7 Y-40.49 Z1.1 F1800.0
G1 X7.75 Y-42.42 Z1.1 F1800.0
G1 X7.75 Y-42.67 Z1.1 F1800.0
G1 X9.7 Y-44.6 Z1.1 F1800.0
G1 X9.7 Y-44.85 Z1.1 F1800.0
G1 X7.64 Y-46.78 Z1.1 F1800.0
G1 X7.64 Y-47.03 Z1.1 F1800.0
G1 X9.16 Y-47.79 Z1.1 F1800.0
G1 X5.24 Y-47.79 Z1.1 F1800.0
G1 X5.45 Y-44.6 Z1.1 F1800.0
G1 X7.52 Y-42.67 Z1.1 F1800.0
G1 X7.52 Y-42.42 Z1.1 F1800.0
G1 X5.45 Y-40.49 Z1.1 F1800.0
G1 X5.45 Y-40.23 Z1.1 F1800.0
G1 X7.52 Y-38.31 Z1.1 F1800.0
G1 X7.52 Y-38.05 Z1.1 F1800.0
G1 X5.45 Y-36.13 Z1.1 F1800.0
G1 X5.45 Y-35.87 Z1.1 F1800.0
G1 X7.52 Y-33.94 Z1.1 F1800.0
G1 X7.52 Y-33.69 Z1.1 F1800.0
G1 X5.45 Y-31.76 Z1.1 F1800.0
G1 X5.45 Y-31.51 Z1.1 F1800.0
G1 X7.52 Y-29.58 Z1.1 F1800.0
G1 X7.52 Y-29.33 Z1.1 F1800.0
G1 X5.45 Y-27.4 Z1.1 F1800.0
G1 X5.45 Y-27.14 Z1.1 F1800.0
G1 X7.52 Y-25.22 Z1.1 F1800.0
G1 X7.52 Y-24.96 Z1.1 F1800.0
G1 X5.57 Y-23.04 Z1.1 F1800.0
G1 X5.57 Y-22.78 Z1.1 F1800.0
G1 X5.6 Y-22.62 Z1.1 F1800.0
M108 R30.0
M102
G1 X5.67 Y-22.18 Z1.1 F1800.0
M108 R3.569
M103
G1 X4.29 Y-22.18 Z1.1 F3000.0
M108 R30.0
M101
G1 X3.49 Y-22.18 Z1.1 F3000.0
M108 R3.569
G1 X3.93 Y-22.61 Z1.1 F1800.0
G1 X4.36 Y-22.18 Z1.1 F1800.0
G1 X4.8 Y-22.61 Z1.1 F1800.0
G1 X5.34 Y-22.78 Z1.1 F1800.0
G1 X5.34 Y-23.04 Z1.1 F1800.0
G1 X3.39 Y-24.96 Z1.1 F1800.0
G1 X3.27 Y-47.03 Z1.1 F1800.0
G1 X4.8 Y-47.79 Z1.1 F1800.0
G1 X0.87 Y-47.79 Z1.1 F1800.0
G1 X1.21 Y-44.6 Z1.1 F1800.0
G1 X3.16 Y-42.67 Z1.1 F1800.0
G1 X3.16 Y-42.42 Z1.1 F1800.0
G1 X1.21 Y-40.49 Z1.1 F1800.0
G1 X1.21 Y-40.23 Z1.1 F1800.0
G1 X3.16 Y-38.31 Z1.1 F1800.0
G1 X3.16 Y-38.05 Z1.1 F1800.0
G1 X1.21 Y-36.13 Z1.1 F1800.0
G1 X1.21 Y-35.87 Z1.1 F1800.0
G1 X3.16 Y-33.94 Z1.1 F1800.0
G1 X3.16 Y-33.69 Z1.1 F1800.0
G1 X1.21 Y-31.76 Z1.1 F1800.0
G1 X1.21 Y-31.51 Z1.1 F1800.0
G1 X3.16 Y-29.58 Z1.1 F1800.0
G1 X3.16 Y-29.33 Z1.1 F1800.0
G1 X1.21 Y-27.4 Z1.1 F1800.0
G1 X1.21 Y-27.14 Z1.1 F1800.0
G1 X3.16 Y-25.22 Z1.1 F1800.0
G1 X3.16 Y-24.96 Z1.1 F1800.0
G1 X1.21 Y-23.04 Z1.1 F1800.0
G1 X1.25 Y-22.62 Z1.1 F1800.0
M108 R30.0
M102
G1 X1.31 Y-22.18 Z1.1 F1800.0
M108 R3.569
M103
G1 X-0.07 Y-22.18 Z1.1 F3000.0
M108 R30.0
M101
G1 X-0.87 Y-22.18 Z1.1 F3000.0
M108 R3.569
G1 X-0.44 Y-22.61 Z1.1 F1800.0
G1 X-0.0 Y-22.18 Z1.1 F1800.0
G1 X0.44 Y-22.61 Z1.1 F1800.0
G1 X0.98 Y-22.78 Z1.1 F1800.0
G1 X0.98 Y-23.04 Z1.1 F1800.0
G1 X-0.98 Y-24.96 Z1.1 F1800.0
G1 X-0.98 Y-25.22 Z1.1 F1800.0
G1 X0.98 Y-27.14 Z1.1 F1800.0
G1 X0.98 Y-27.4 Z1.1 F1800.0
G1 X-0.98 Y-29.33 Z1.1 F1800.0
G1 X-0.98 Y-29.58 Z1.1 F1800.0
G1 X0.98 Y-31.51 Z1.1 F1800.0
G1 X0.98 Y-31.76 Z1.1 F1800.0
G1 X-0.98 Y-33.69 Z1.1 F1800.0
G1 X-0.98 Y-33.94 Z1.1 F1800.0
G1 X0.98 Y-35.87 Z1.1 F1800.0
G1 X0.98 Y-36.13 Z1.1 F1800.0
G1 X-0.98 Y-38.05 Z1.1 F1800.0
G1 X-0.98 Y-38.31 Z1.1 F1800.0
G1 X0.98 Y-40.23 Z1.1 F1800.0
G1 X0.98 Y-40.49 Z1.1 F1800.0
G1 X-0.98 Y-42.42 Z1.1 F1800.0
G1 X-0.98 Y-42.67 Z1.1 F1800.0
G1 X0.98 Y-44.6 Z1.1 F1800.0
G1 X0.98 Y-44.85 Z1.1 F1800.0
G1 X-1.09 Y-46.78 Z1.1 F1800.0
G1 X-1.09 Y-47.03 Z1.1 F1800.0
G1 X0.44 Y-47.79 Z1.1 F1800.0
G1 X-3.05 Y-47.79 Z1.1 F1800.0
G1 X-3.16 Y-44.6 Z1.1 F1800.0
G1 X-1.21 Y-42.67 Z1.1 F1800.0
G1 X-1.21 Y-42.42 Z1.1 F1800.0
G1 X-3.16 Y-40.49 Z1.1 F1800.0
G1 X-3.16 Y-40.23 Z1.1 F1800.0
G1 X-1.21 Y-38.31 Z1.1 F1800.0
G1 X-1.21 Y-38.05 Z1.1 F1800.0
G1 X-3.16 Y-36.13 Z1.1 F1800.0
G1 X-3.16 Y-35.87 Z1.1 F1800.0
G1 X-1.21 Y-33.94 Z1.1 F1800.0
G1 X-1.21 Y-33.69 Z1.1 F1800.0
G1 X-3.16 Y-31.76 Z1.1 F1800.0
G1 X-3.16 Y-31.51 Z1.1 F1800.0
G1 X-1.21 Y-29.58 Z1.1 F1800.0
G1 X-1.21 Y-29.33 Z1.1 F1800.0
G1 X-3.16 Y-27.4 Z1.1 F1800.0
G1 X-3.16 Y-27.14 Z1.1 F1800.0
G1 X-1.21 Y-25.22 Z1.1 F1800.0
G1 X-1.21 Y-24.96 Z1.1 F1800.0
G1 X-3.16 Y-23.04 Z1.1 F1800.0
G1 X-3.16 Y-22.78 Z1.1 F1800.0
G1 X-3.05 Y-22.18 Z1.1 F1800.0
M103
G1 X-3.93 Y-22.18 Z1.1 F3000.0
M101
G1 X-3.49 Y-22.61 Z1.1 F1800.0
G1 X-3.39 Y-22.78 Z1.1 F1800.0
G1 X-3.49 Y-47.79 Z1.1 F1800.0
G1 X-3.93 Y-47.79 Z1.1 F1800.0
M103
(</surroundingLoop>)
(</layer>)
(<layer> 1.42 )
(<surroundingLoop>)
(<boundaryPerimeter>)
(<boundaryPoint> X45.78 Y-21.332 Z1.42 </boundaryPoint>)
(<boundaryPoint> X-4.9 Y-21.332 Z1.42 </boundaryPoint>)
(<boundaryPoint> X-4.9 Y-48.632 Z1.42 </boundaryPoint>)
(<boundaryPoint> X45.78 Y-48.632 Z1.42 </boundaryPoint>)
(<loop> outer )
G1 X-3.95 Y-48.04 Z1.42 F3000.0
M101
G1 X-3.93 Y-48.04 Z1.42 F1800.0
G1 X45.19 Y-48.04 Z1.42 F1800.0
G1 X45.19 Y-21.92 Z1.42 F1800.0
G1 X-4.31 Y-21.92 Z1.42 F1800.0
G1 X-4.31 Y-48.04 Z1.42 F1800.0
G1 X-3.95 Y-48.04 Z1.42 F1800.0
M103
(</loop>)
(<perimeter> outer )
G1 X-3.93 Y-48.44 Z1.42 F3000.0
M101
G1 X45.58 Y-48.44 Z1.42 F1800.0
G1 X45.58 Y-21.53 Z1.42 F1800.0
G1 X-4.7 Y-21.53 Z1.42 F1800.0
G1 X-4.7 Y-48.44 Z1.42 F1800.0
G1 X-3.93 Y-48.44 Z1.42 F1800.0
M103
(</perimeter>)
(</boundaryPerimeter>)
G1 X-4.06 Y-47.56 Z1.42 F3000.0
M101
G1 X-3.62 Y-47.12 Z1.42 F1800.0
G1 X42.67 Y-47.02 Z1.42 F1800.0
G1 X44.94 Y-45.82 Z1.42 F1800.0
G1 X44.94 Y-47.11 Z1.42 F1800.0
M108 R30.0
M102
G1 X44.94 Y-47.56 Z1.42 F1800.0
M108 R3.569
M103
G1 X-3.26 Y-43.27 Z1.42 F3000.0
M108 R30.0
M101
G1 X-4.06 Y-43.2 Z1.42 F3000.0
M108 R3.569
G1 X-3.91 Y-43.22 Z1.42 F1800.0
G1 X-3.78 Y-43.73 Z1.42 F1800.0
G1 X-4.06 Y-44.51 Z1.42 F1800.0
G1 X-3.15 Y-44.61 Z1.42 F1800.0
G1 X-1.22 Y-42.66 Z1.42 F1800.0
G1 X-0.96 Y-42.66 Z1.42 F1800.0
G1 X0.96 Y-44.61 Z1.42 F1800.0
G1 X1.22 Y-44.61 Z1.42 F1800.0
G1 X3.15 Y-42.66 Z1.42 F1800.0
G1 X3.4 Y-42.66 Z1.42 F1800.0
G1 X5.33 Y-44.61 Z1.42 F1800.0
G1 X5.58 Y-44.61 Z1.42 F1800.0
G1 X7.51 Y-42.66 Z1.42 F1800.0
G1 X7.76 Y-42.66 Z1.42 F1800.0
G1 X9.69 Y-44.61 Z1.42 F1800.0
G1 X9.95 Y-44.61 Z1.42 F1800.0
G1 X11.87 Y-42.66 Z1.42 F1800.0
G1 X12.13 Y-42.66 Z1.42 F1800.0
G1 X14.05 Y-44.61 Z1.42 F1800.0
G1 X14.31 Y-44.61 Z1.42 F1800.0
G1 X16.24 Y-42.66 Z1.42 F1800.0
G1 X16.49 Y-42.66 Z1.42 F1800.0
G1 X18.42 Y-44.61 Z1.42 F1800.0
G1 X18.67 Y-44.61 Z1.42 F1800.0
G1 X20.6 Y-42.66 Z1.42 F1800.0
G1 X20.85 Y-42.66 Z1.42 F1800.0
G1 X22.78 Y-44.61 Z1.42 F1800.0
G1 X23.04 Y-44.61 Z1.42 F1800.0
G1 X24.96 Y-42.66 Z1.42 F1800.0
G1 X25.22 Y-42.66 Z1.42 F1800.0
G1 X27.14 Y-44.61 Z1.42 F1800.0
G1 X27.4 Y-44.61 Z1.42 F1800.0
G1 X29.33 Y-42.66 Z1.42 F1800.0
G1 X29.58 Y-42.66 Z1.42 F1800.0
G1 X31.51 Y-44.61 Z1.42 F1800.0
G1 X31.76 Y-44.61 Z1.42 F1800.0
G1 X33.69 Y-42.66 Z1.42 F1800.0
G1 X33.94 Y-42.66 Z1.42 F1800.0
G1 X35.87 Y-44.61 Z1.42 F1800.0
G1 X36.13 Y-44.61 Z1.42 F1800.0
G1 X38.05 Y-42.66 Z1.42 F1800.0
G1 X38.31 Y-42.66 Z1.42 F1800.0
G1 X40.23 Y-44.61 Z1.42 F1800.0
G1 X40.49 Y-44.61 Z1.42 F1800.0
G1 X42.42 Y-42.66 Z1.42 F1800.0
G1 X42.67 Y-42.66 Z1.42 F1800.0
G1 X44.94 Y-41.45 Z1.42 F1800.0
G1 X44.94 Y-45.38 Z1.42 F1800.0
G1 X42.67 Y-46.79 Z1.42 F1800.0
G1 X42.42 Y-46.79 Z1.42 F1800.0
G1 X40.49 Y-44.84 Z1.42 F1800.0
G1 X40.23 Y-44.84 Z1.42 F1800.0
G1 X38.31 Y-46.79 Z1.42 F1800.0
G1 X38.05 Y-46.79 Z1.42 F1800.0
G1 X36.13 Y-44.84 Z1.42 F1800.0
G1 X35.87 Y-44.84 Z1.42 F1800.0
G1 X33.94 Y-46.79 Z1.42 F1800.0
G1 X33.69 Y-46.79 Z1.42 F1800.0
G1 X31.76 Y-44.84 Z1.42 F1800.0
G1 X31.51 Y-44.84 Z1.42 F1800.0
G1 X29.58 Y-46.79 Z1.42 F1800.0
G1 X29.33 Y-46.79 Z1.42 F1800.0
G1 X27.4 Y-44.84 Z1.42 F1800.0
G1 X27.14 Y-44.84 Z1.42 F1800.0
G1 X25.22 Y-46.79 Z1.42 F1800.0
G1 X24.96 Y-46.79 Z1.42 F1800.0
G1 X23.04 Y-44.84 Z1.42 F1800.0
G1 X22.78 Y-44.84 Z1.42 F1800.0
G1 X20.85 Y-46.79 Z1.42 F1800.0
G1 X20.6 Y-46.79 Z1.42 F1800.0
G1 X18.67 Y-44.84 Z1.42 F1800.0
G1 X18.42 Y-44.84 Z1.42 F1800.0
G1 X16.49 Y-46.79 Z1.42 F1800.0
G1 X16.24 Y-46.79 Z1.42 F1800.0
G1 X14.31 Y-44.84 Z1.42 F1800.0
G1 X14.05 Y-44.84 Z1.42 F1800.0
G1 X12.13 Y-46.79 Z1.42 F1800.0
G1 X11.87 Y-46.79 Z1.42 F1800.0
G1 X9.95 Y-44.84 Z1.42 F1800.0
G1 X9.69 Y-44.84 Z1.42 F1800.0
G1 X7.76 Y-46.79 Z1.42 F1800.0
G1 X7.51 Y-46.79 Z1.42 F1800.0
G1 X5.58 Y-44.84 Z1.42 F1800.0
G1 X5.33 Y-44.84 Z1.42 F1800.0
G1 X3.4 Y-46.79 Z1.42 F1800.0
G1 X3.15 Y-46.79 Z1.42 F1800.0
G1 X1.22 Y-44.84 Z1.42 F1800.0
G1 X0.96 Y-44.84 Z1.42 F1800.0
G1 X-0.96 Y-46.79 Z1.42 F1800.0
G1 X-1.22 Y-46.79 Z1.42 F1800.0
G1 X-3.15 Y-44.84 Z1.42 F1800.0
G1 X-3.4 Y-44.84 Z1.42 F1800.0
G1 X-3.62 Y-44.94 Z1.42 F1800.0
G1 X-3.74 Y-45.06 Z1.42 F1800.0
M108 R30.0
M102
G1 X-4.06 Y-45.38 Z1.42 F1800.0
M108 R3.569
M103
G1 X-4.06 Y-39.63 Z1.42 F3000.0
M108 R30.0
M101
G1 X-4.06 Y-38.83 Z1.42 F3000.0
M108 R3.569
G1 X-3.91 Y-38.86 Z1.42 F1800.0
G1 X-3.78 Y-39.37 Z1.42 F1800.0
G1 X-4.06 Y-40.14 Z1.42 F1800.0
G1 X-3.15 Y-40.25 Z1.42 F1800.0
G1 X-1.22 Y-38.29 Z1.42 F1800.0
G1 X-0.96 Y-38.29 Z1.42 F1800.0
G1 X0.96 Y-40.25 Z1.42 F1800.0
G1 X1.22 Y-40.25 Z1.42 F1800.0
G1 X3.15 Y-38.29 Z1.42 F1800.0
G1 X3.4 Y-38.29 Z1.42 F1800.0
G1 X5.33 Y-40.25 Z1.42 F1800.0
G1 X5.58 Y-40.25 Z1.42 F1800.0
G1 X7.51 Y-38.29 Z1.42 F1800.0
G1 X7.76 Y-38.29 Z1.42 F1800.0
G1 X9.69 Y-40.25 Z1.42 F1800.0
G1 X9.95 Y-40.25 Z1.42 F1800.0
G1 X11.87 Y-38.29 Z1.42 F1800.0
G1 X12.13 Y-38.29 Z1.42 F1800.0
G1 X14.05 Y-40.25 Z1.42 F1800.0
G1 X14.31 Y-40.25 Z1.42 F1800.0
G1 X16.24 Y-38.29 Z1.42 F1800.0
G1 X16.49 Y-38.29 Z1.42 F1800.0
G1 X18.42 Y-40.25 Z1.42 F1800.0
G1 X18.67 Y-40.25 Z1.42 F1800.0
G1 X20.6 Y-38.29 Z1.42 F1800.0
G1 X20.85 Y-38.29 Z1.42 F1800.0
G1 X22.78 Y-40.25 Z1.42 F1800.0
G1 X23.04 Y-40.25 Z1.42 F1800.0
G1 X24.96 Y-38.29 Z1.42 F1800.0
G1 X25.22 Y-38.29 Z1.42 F1800.0
G1 X27.14 Y-40.25 Z1.42 F1800.0
G1 X27.4 Y-40.25 Z1.42 F1800.0
G1 X29.33 Y-38.29 Z1.42 F1800.0
G1 X29.58 Y-38.29 Z1.42 F1800.0
G1 X31.51 Y-40.25 Z1.42 F1800.0
G1 X31.76 Y-40.25 Z1.42 F1800.0
G1 X33.69 Y-38.29 Z1.42 F1800.0
G1 X33.94 Y-38.29 Z1.42 F1800.0
G1 X35.87 Y-40.25 Z1.42 F1800.0
G1 X36.13 Y-40.25 Z1.42 F1800.0
G1 X38.05 Y-38.29 Z1.42 F1800.0
G1 X38.31 Y-38.29 Z1.42 F1800.0
G1 X40.23 Y-40.25 Z1.42 F1800.0
G1 X40.49 Y-40.25 Z1.42 F1800.0
G1 X42.42 Y-38.29 Z1.42 F1800.0
G1 X42.67 Y-38.29 Z1.42 F1800.0
G1 X44.94 Y-37.53 Z1.42 F1800.0
G1 X44.94 Y-41.02 Z1.42 F1800.0
G1 X42.67 Y-42.43 Z1.42 F1800.0
G1 X42.42 Y-42.43 Z1.42 F1800.0
G1 X40.49 Y-40.48 Z1.42 F1800.0
G1 X40.23 Y-40.48 Z1.42 F1800.0
G1 X38.31 Y-42.43 Z1.42 F1800.0
G1 X38.05 Y-42.43 Z1.42 F1800.0
G1 X36.13 Y-40.48 Z1.42 F1800.0
G1 X35.87 Y-40.48 Z1.42 F1800.0
G1 X33.94 Y-42.43 Z1.42 F1800.0
G1 X33.69 Y-42.43 Z1.42 F1800.0
G1 X31.76 Y-40.48 Z1.42 F1800.0
G1 X31.51 Y-40.48 Z1.42 F1800.0
G1 X29.58 Y-42.43 Z1.42 F1800.0
G1 X29.33 Y-42.43 Z1.42 F1800.0
G1 X27.4 Y-40.48 Z1.42 F1800.0
G1 X27.14 Y-40.48 Z1.42 F1800.0
G1 X25.22 Y-42.43 Z1.42 F1800.0
G1 X24.96 Y-42.43 Z1.42 F1800.0
G1 X23.04 Y-40.48 Z1.42 F1800.0
G1 X22.78 Y-40.48 Z1.42 F1800.0
G1 X20.85 Y-42.43 Z1.42 F1800.0
G1 X20.6 Y-42.43 Z1.42 F1800.0
G1 X18.67 Y-40.48 Z1.42 F1800.0
G1 X18.42 Y-40.48 Z1.42 F1800.0
G1 X16.49 Y-42.43 Z1.42 F1800.0
G1 X16.24 Y-42.43 Z1.42 F1800.0
G1 X14.31 Y-40.48 Z1.42 F1800.0
G1 X14.05 Y-40.48 Z1.42 F1800.0
G1 X12.13 Y-42.43 Z1.42 F1800.0
G1 X11.87 Y-42.43 Z1.42 F1800.0
G1 X9.95 Y-40.48 Z1.42 F1800.0
G1 X9.69 Y-40.48 Z1.42 F1800.0
G1 X7.76 Y-42.43 Z1.42 F1800.0
G1 X7.51 Y-42.43 Z1.42 F1800.0
G1 X5.58 Y-40.48 Z1.42 F1800.0
G1 X5.33 Y-40.48 Z1.42 F1800.0
G1 X3.4 Y-42.43 Z1.42 F1800.0
G1 X3.15 Y-42.43 Z1.42 F1800.0
G1 X1.22 Y-40.48 Z1.42 F1800.0
G1 X0.96 Y-40.48 Z1.42 F1800.0
G1 X-0.96 Y-42.43 Z1.42 F1800.0
G1 X-1.22 Y-42.43 Z1.42 F1800.0
G1 X-3.15 Y-40.48 Z1.42 F1800.0
G1 X-3.4 Y-40.48 Z1.42 F1800.0
G1 X-3.62 Y-40.58 Z1.42 F1800.0
G1 X-3.74 Y-40.7 Z1.42 F1800.0
M108 R30.0
M102
G1 X-4.06 Y-41.02 Z1.42 F1800.0
M108 R3.569
M103
G1 X-4.06 Y-35.27 Z1.42 F3000.0
M108 R30.0
M101
G1 X-4.06 Y-34.47 Z1.42 F3000.0
M108 R3.569
G1 X-3.91 Y-34.5 Z1.42 F1800.0
G1 X-3.78 Y-35.01 Z1.42 F1800.0
G1 X-4.06 Y-35.78 Z1.42 F1800.0
G1 X-3.15 Y-35.88 Z1.42 F1800.0
G1 X-1.22 Y-33.93 Z1.42 F1800.0
G1 X-0.96 Y-33.93 Z1.42 F1800.0
G1 X0.96 Y-35.88 Z1.42 F1800.0
G1 X1.22 Y-35.88 Z1.42 F1800.0
G1 X3.15 Y-33.93 Z1.42 F1800.0
G1 X3.4 Y-33.93 Z1.42 F1800.0
G1 X5.33 Y-35.88 Z1.42 F1800.0
G1 X5.58 Y-35.88 Z1.42 F1800.0
G1 X7.51 Y-33.93 Z1.42 F1800.0
G1 X7.76 Y-33.93 Z1.42 F1800.0
G1 X9.69 Y-35.88 Z1.42 F1800.0
G1 X9.95 Y-35.88 Z1.42 F1800.0
G1 X11.87 Y-33.93 Z1.42 F1800.0
G1 X12.13 Y-33.93 Z1.42 F1800.0
G1 X14.05 Y-35.88 Z1.42 F1800.0
G1 X14.31 Y-35.88 Z1.42 F1800.0
G1 X16.24 Y-33.93 Z1.42 F1800.0
G1 X16.49 Y-33.93 Z1.42 F1800.0
G1 X18.42 Y-35.88 Z1.42 F1800.0
G1 X18.67 Y-35.88 Z1.42 F1800.0
G1 X20.6 Y-33.93 Z1.42 F1800.0
G1 X20.85 Y-33.93 Z1.42 F1800.0
G1 X22.78 Y-35.88 Z1.42 F1800.0
G1 X23.04 Y-35.88 Z1.42 F1800.0
G1 X24.96 Y-33.93 Z1.42 F1800.0
G1 X25.22 Y-33.93 Z1.42 F1800.0
G1 X27.14 Y-35.88 Z1.42 F1800.0
G1 X27.4 Y-35.88 Z1.42 F1800.0
G1 X29.33 Y-33.93 Z1.42 F1800.0
G1 X29.58 Y-33.93 Z1.42 F1800.0
G1 X31.51 Y-35.88 Z1.42 F1800.0
G1 X31.76 Y-35.88 Z1.42 F1800.0
G1 X33.69 Y-33.93 Z1.42 F1800.0
G1 X33.94 Y-33.93 Z1.42 F1800.0
G1 X35.87 Y-35.88 Z1.42 F1800.0
G1 X36.13 Y-35.88 Z1.42 F1800.0
G1 X38.05 Y-33.93 Z1.42 F1800.0
G1 X38.31 Y-33.93 Z1.42 F1800.0
G1 X40.23 Y-35.88 Z1.42 F1800.0
G1 X40.49 Y-35.88 Z1.42 F1800.0
G1 X42.42 Y-33.93 Z1.42 F1800.0
G1 X42.67 Y-33.93 Z1.42 F1800.0
G1 X44.94 Y-32.73 Z1.42 F1800.0
G1 X44.94 Y-37.09 Z1.42 F1800.0
G1 X42.67 Y-38.06 Z1.42 F1800.0
G1 X42.42 Y-38.06 Z1.42 F1800.0
G1 X40.49 Y-36.11 Z1.42 F1800.0
G1 X40.23 Y-36.11 Z1.42 F1800.0
G1 X38.31 Y-38.06 Z1.42 F1800.0
G1 X38.05 Y-38.06 Z1.42 F1800.0
G1 X36.13 Y-36.11 Z1.42 F1800.0
G1 X35.87 Y-36.11 Z1.42 F1800.0
G1 X33.94 Y-38.06 Z1.42 F1800.0
G1 X33.69 Y-38.06 Z1.42 F1800.0
G1 X31.76 Y-36.11 Z1.42 F1800.0
G1 X31.51 Y-36.11 Z1.42 F1800.0
G1 X29.58 Y-38.06 Z1.42 F1800.0
G1 X29.33 Y-38.06 Z1.42 F1800.0
G1 X27.4 Y-36.11 Z1.42 F1800.0
G1 X27.14 Y-36.11 Z1.42 F1800.0
G1 X25.22 Y-38.06 Z1.42 F1800.0
G1 X24.96 Y-38.06 Z1.42 F1800.0
G1 X23.04 Y-36.11 Z1.42 F1800.0
G1 X22.78 Y-36.11 Z1.42 F1800.0
G1 X20.85 Y-38.06 Z1.42 F1800.0
G1 X20.6 Y-38.06 Z1.42 F1800.0
G1 X18.67 Y-36.11 Z1.42 F1800.0
G1 X18.42 Y-36.11 Z1.42 F1800.0
G1 X16.49 Y-38.06 Z1.42 F1800.0
G1 X16.24 Y-38.06 Z1.42 F1800.0
G1 X14.31 Y-36.11 Z1.42 F1800.0
G1 X14.05 Y-36.11 Z1.42 F1800.0
G1 X12.13 Y-38.06 Z1.42 F1800.0
G1 X11.87 Y-38.06 Z1.42 F1800.0
G1 X9.95 Y-36.11 Z1.42 F1800.0
G1 X9.69 Y-36.11 Z1.42 F1800.0
G1 X7.76 Y-38.06 Z1.42 F1800.0
G1 X7.51 Y-38.06 Z1.42 F1800.0
G1 X5.58 Y-36.11 Z1.42 F1800.0
G1 X5.33 Y-36.11 Z1.42 F1800.0
G1 X3.4 Y-38.06 Z1.42 F1800.0
G1 X3.15 Y-38.06 Z1.42 F1800.0
G1 X1.22 Y-36.11 Z1.42 F1800.0
G1 X0.96 Y-36.11 Z1.42 F1800.0
G1 X-0.96 Y-38.06 Z1.42 F1800.0
G1 X-1.22 Y-38.06 Z1.42 F1800.0
G1 X-3.15 Y-36.11 Z1.42 F1800.0
G1 X-3.4 Y-36.11 Z1.42 F1800.0
G1 X-3.62 Y-36.22 Z1.42 F1800.0
G1 X-3.74 Y-36.33 Z1.42 F1800.0
M108 R30.0
M102
G1 X-4.06 Y-36.65 Z1.42 F1800.0
M108 R3.569
M103
G1 X-4.06 Y-30.91 Z1.42 F3000.0
M108 R30.0
M101
G1 X-4.06 Y-30.11 Z1.42 F3000.0
M108 R3.569
G1 X-3.91 Y-30.13 Z1.42 F1800.0
G1 X-3.78 Y-30.64 Z1.42 F1800.0
G1 X-4.06 Y-31.42 Z1.42 F1800.0
G1 X-3.15 Y-31.52 Z1.42 F1800.0
G1 X-1.22 Y-29.57 Z1.42 F1800.0
G1 X-0.96 Y-29.57 Z1.42 F1800.0
G1 X0.96 Y-31.52 Z1.42 F1800.0
G1 X1.22 Y-31.52 Z1.42 F1800.0
G1 X3.15 Y-29.57 Z1.42 F1800.0
G1 X3.4 Y-29.57 Z1.42 F1800.0
G1 X5.33 Y-31.52 Z1.42 F1800.0
G1 X5.58 Y-31.52 Z1.42 F1800.0
G1 X7.51 Y-29.57 Z1.42 F1800.0
G1 X7.76 Y-29.57 Z1.42 F1800.0
G1 X9.69 Y-31.52 Z1.42 F1800.0
G1 X9.95 Y-31.52 Z1.42 F1800.0
G1 X11.87 Y-29.57 Z1.42 F1800.0
G1 X12.13 Y-29.57 Z1.42 F1800.0
G1 X14.05 Y-31.52 Z1.42 F1800.0
G1 X14.31 Y-31.52 Z1.42 F1800.0
G1 X16.24 Y-29.57 Z1.42 F1800.0
G1 X16.49 Y-29.57 Z1.42 F1800.0
G1 X18.42 Y-31.52 Z1.42 F1800.0
G1 X18.67 Y-31.52 Z1.42 F1800.0
G1 X20.6 Y-29.57 Z1.42 F1800.0
G1 X20.85 Y-29.57 Z1.42 F1800.0
G1 X22.78 Y-31.52 Z1.42 F1800.0
G1 X23.04 Y-31.52 Z1.42 F1800.0
G1 X24.96 Y-29.57 Z1.42 F1800.0
G1 X25.22 Y-29.57 Z1.42 F1800.0
G1 X27.14 Y-31.52 Z1.42 F1800.0
G1 X27.4 Y-31.52 Z1.42 F1800.0
G1 X29.33 Y-29.57 Z1.42 F1800.0
G1 X29.58 Y-29.57 Z1.42 F1800.0
G1 X31.51 Y-31.52 Z1.42 F1800.0
G1 X31.76 Y-31.52 Z1.42 F1800.0
G1 X33.69 Y-29.57 Z1.42 F1800.0
G1 X33.94 Y-29.57 Z1.42 F1800.0
G1 X35.87 Y-31.52 Z1.42 F1800.0
G1 X36.13 Y-31.52 Z1.42 F1800.0
G1 X38.05 Y-29.57 Z1.42 F1800.0
G1 X38.31 Y-29.57 Z1.42 F1800.0
G1 X40.23 Y-31.52 Z1.42 F1800.0
G1 X40.49 Y-31.52 Z1.42 F1800.0
G1 X42.42 Y-29.57 Z1.42 F1800.0
G1 X42.67 Y-29.57 Z1.42 F1800.0
G1 X44.94 Y-28.36 Z1.42 F1800.0
G1 X44.94 Y-32.29 Z1.42 F1800.0
G1 X42.67 Y-33.7 Z1.42 F1800.0
G1 X42.42 Y-33.7 Z1.42 F1800.0
G1 X40.49 Y-31.75 Z1.42 F1800.0
G1 X40.23 Y-31.75 Z1.42 F1800.0
G1 X38.31 Y-33.7 Z1.42 F1800.0
G1 X38.05 Y-33.7 Z1.42 F1800.0
G1 X36.13 Y-31.75 Z1.42 F1800.0
G1 X35.87 Y-31.75 Z1.42 F1800.0
G1 X33.94 Y-33.7 Z1.42 F1800.0
G1 X33.69 Y-33.7 Z1.42 F1800.0
G1 X31.76 Y-31.75 Z1.42 F1800.0
G1 X31.51 Y-31.75 Z1.42 F1800.0
G1 X29.58 Y-33.7 Z1.42 F1800.0
G1 X29.33 Y-33.7 Z1.42 F1800.0
G1 X27.4 Y-31.75 Z1.42 F1800.0
G1 X27.14 Y-31.75 Z1.42 F1800.0
G1 X25.22 Y-33.7 Z1.42 F1800.0
G1 X24.96 Y-33.7 Z1.42 F1800.0
G1 X23.04 Y-31.75 Z1.42 F1800.0
G1 X22.78 Y-31.75 Z1.42 F1800.0
G1 X20.85 Y-33.7 Z1.42 F1800.0
G1 X20.6 Y-33.7 Z1.42 F1800.0
G1 X18.67 Y-31.75 Z1.42 F1800.0
G1 X18.42 Y-31.75 Z1.42 F1800.0
G1 X16.49 Y-33.7 Z1.42 F1800.0
G1 X16.24 Y-33.7 Z1.42 F1800.0
G1 X14.31 Y-31.75 Z1.42 F1800.0
G1 X14.05 Y-31.75 Z1.42 F1800.0
G1 X12.13 Y-33.7 Z1.42 F1800.0
G1 X11.87 Y-33.7 Z1.42 F1800.0
G1 X9.95 Y-31.75 Z1.42 F1800.0
G1 X9.69 Y-31.75 Z1.42 F1800.0
G1 X7.76 Y-33.7 Z1.42 F1800.0
G1 X7.51 Y-33.7 Z1.42 F1800.0
G1 X5.58 Y-31.75 Z1.42 F1800.0
G1 X5.33 Y-31.75 Z1.42 F1800.0
G1 X3.4 Y-33.7 Z1.42 F1800.0
G1 X3.15 Y-33.7 Z1.42 F1800.0
G1 X1.22 Y-31.75 Z1.42 F1800.0
G1 X0.96 Y-31.75 Z1.42 F1800.0
G1 X-0.96 Y-33.7 Z1.42 F1800.0
G1 X-1.22 Y-33.7 Z1.42 F1800.0
G1 X-3.15 Y-31.75 Z1.42 F1800.0
G1 X-3.4 Y-31.75 Z1.42 F1800.0
G1 X-3.62 Y-31.85 Z1.42 F1800.0
G1 X-3.74 Y-31.97 Z1.42 F1800.0
M108 R30.0
M102
G1 X-4.06 Y-32.29 Z1.42 F1800.0
M108 R3.569
M103
G1 X-4.06 Y-26.54 Z1.42 F3000.0
M108 R30.0
M101
G1 X-4.06 Y-25.74 Z1.42 F3000.0
M108 R3.569
G1 X-3.91 Y-25.77 Z1.42 F1800.0
G1 X-3.78 Y-26.28 Z1.42 F1800.0
G1 X-3.99 Y-26.62 Z1.42 F1800.0
G1 X-3.4 Y-27.16 Z1.42 F1800.0
G1 X-3.15 Y-27.16 Z1.42 F1800.0
G1 X-1.22 Y-25.2 Z1.42 F1800.0
G1 X-0.96 Y-25.2 Z1.42 F1800.0
G1 X0.96 Y-27.16 Z1.42 F1800.0
G1 X1.22 Y-27.16 Z1.42 F1800.0
G1 X3.15 Y-25.2 Z1.42 F1800.0
G1 X3.4 Y-25.2 Z1.42 F1800.0
G1 X5.33 Y-27.16 Z1.42 F1800.0
G1 X5.58 Y-27.16 Z1.42 F1800.0
G1 X7.51 Y-25.2 Z1.42 F1800.0
G1 X7.76 Y-25.2 Z1.42 F1800.0
G1 X9.69 Y-27.16 Z1.42 F1800.0
G1 X9.95 Y-27.16 Z1.42 F1800.0
G1 X11.87 Y-25.2 Z1.42 F1800.0
G1 X12.13 Y-25.2 Z1.42 F1800.0
G1 X14.05 Y-27.16 Z1.42 F1800.0
G1 X14.31 Y-27.16 Z1.42 F1800.0
G1 X16.24 Y-25.2 Z1.42 F1800.0
G1 X16.49 Y-25.2 Z1.42 F1800.0
G1 X18.42 Y-27.16 Z1.42 F1800.0
G1 X18.67 Y-27.16 Z1.42 F1800.0
G1 X20.6 Y-25.2 Z1.42 F1800.0
G1 X20.85 Y-25.2 Z1.42 F1800.0
G1 X22.78 Y-27.16 Z1.42 F1800.0
G1 X23.04 Y-27.16 Z1.42 F1800.0
G1 X24.96 Y-25.2 Z1.42 F1800.0
G1 X25.22 Y-25.2 Z1.42 F1800.0
G1 X27.14 Y-27.16 Z1.42 F1800.0
G1 X27.4 Y-27.16 Z1.42 F1800.0
G1 X29.33 Y-25.2 Z1.42 F1800.0
G1 X29.58 Y-25.2 Z1.42 F1800.0
G1 X31.51 Y-27.16 Z1.42 F1800.0
G1 X31.76 Y-27.16 Z1.42 F1800.0
G1 X33.69 Y-25.2 Z1.42 F1800.0
G1 X33.94 Y-25.2 Z1.42 F1800.0
G1 X35.87 Y-27.16 Z1.42 F1800.0
G1 X36.13 Y-27.16 Z1.42 F1800.0
G1 X38.05 Y-25.2 Z1.42 F1800.0
G1 X38.31 Y-25.2 Z1.42 F1800.0
G1 X40.23 Y-27.16 Z1.42 F1800.0
G1 X40.49 Y-27.16 Z1.42 F1800.0
G1 X42.42 Y-25.2 Z1.42 F1800.0
G1 X42.67 Y-25.2 Z1.42 F1800.0
G1 X44.94 Y-24.44 Z1.42 F1800.0
G1 X44.94 Y-27.93 Z1.42 F1800.0
G1 X42.67 Y-29.34 Z1.42 F1800.0
G1 X42.42 Y-29.34 Z1.42 F1800.0
G1 X40.49 Y-27.39 Z1.42 F1800.0
G1 X40.23 Y-27.39 Z1.42 F1800.0
G1 X38.31 Y-29.34 Z1.42 F1800.0
G1 X38.05 Y-29.34 Z1.42 F1800.0
G1 X36.13 Y-27.39 Z1.42 F1800.0
G1 X35.87 Y-27.39 Z1.42 F1800.0
G1 X33.94 Y-29.34 Z1.42 F1800.0
G1 X33.69 Y-29.34 Z1.42 F1800.0
G1 X31.76 Y-27.39 Z1.42 F1800.0
G1 X31.51 Y-27.39 Z1.42 F1800.0
G1 X29.58 Y-29.34 Z1.42 F1800.0
G1 X29.33 Y-29.34 Z1.42 F1800.0
G1 X27.4 Y-27.39 Z1.42 F1800.0
G1 X27.14 Y-27.39 Z1.42 F1800.0
G1 X25.22 Y-29.34 Z1.42 F1800.0
G1 X24.96 Y-29.34 Z1.42 F1800.0
G1 X23.04 Y-27.39 Z1.42 F1800.0
G1 X22.78 Y-27.39 Z1.42 F1800.0
G1 X20.85 Y-29.34 Z1.42 F1800.0
G1 X20.6 Y-29.34 Z1.42 F1800.0
G1 X18.67 Y-27.39 Z1.42 F1800.0
G1 X18.42 Y-27.39 Z1.42 F1800.0
G1 X16.49 Y-29.34 Z1.42 F1800.0
G1 X16.24 Y-29.34 Z1.42 F1800.0
G1 X14.31 Y-27.39 Z1.42 F1800.0
G1 X14.05 Y-27.39 Z1.42 F1800.0
G1 X12.13 Y-29.34 Z1.42 F1800.0
G1 X11.87 Y-29.34 Z1.42 F1800.0
G1 X9.95 Y-27.39 Z1.42 F1800.0
G1 X9.69 Y-27.39 Z1.42 F1800.0
G1 X7.76 Y-29.34 Z1.42 F1800.0
G1 X7.51 Y-29.34 Z1.42 F1800.0
G1 X5.58 Y-27.39 Z1.42 F1800.0
G1 X5.33 Y-27.39 Z1.42 F1800.0
G1 X3.4 Y-29.34 Z1.42 F1800.0
G1 X3.15 Y-29.34 Z1.42 F1800.0
G1 X1.22 Y-27.39 Z1.42 F1800.0
G1 X0.96 Y-27.39 Z1.42 F1800.0
G1 X-0.96 Y-29.34 Z1.42 F1800.0
G1 X-1.22 Y-29.34 Z1.42 F1800.0
G1 X-3.15 Y-27.39 Z1.42 F1800.0
G1 X-3.4 Y-27.39 Z1.42 F1800.0
G1 X-3.62 Y-27.49 Z1.42 F1800.0
G1 X-3.74 Y-27.61 Z1.42 F1800.0
M108 R30.0
M102
G1 X-4.06 Y-27.93 Z1.42 F1800.0
M108 R3.569
M103
G1 X-4.06 Y-23.05 Z1.42 F3000.0
M108 R30.0
M101
G1 X-4.06 Y-22.25 Z1.42 F3000.0
M108 R3.569
G1 X-3.62 Y-22.69 Z1.42 F1800.0
G1 X-3.4 Y-22.79 Z1.42 F1800.0
G1 X40.49 Y-22.79 Z1.42 F1800.0
G1 X44.94 Y-22.25 Z1.42 F1800.0
G1 X44.94 Y-24.0 Z1.42 F1800.0
G1 X42.67 Y-24.97 Z1.42 F1800.0
G1 X42.42 Y-24.97 Z1.42 F1800.0
G1 X40.49 Y-23.02 Z1.42 F1800.0
G1 X40.23 Y-23.02 Z1.42 F1800.0
G1 X38.31 Y-24.97 Z1.42 F1800.0
G1 X38.05 Y-24.97 Z1.42 F1800.0
G1 X36.13 Y-23.02 Z1.42 F1800.0
G1 X35.87 Y-23.02 Z1.42 F1800.0
G1 X33.94 Y-24.97 Z1.42 F1800.0
G1 X33.69 Y-24.97 Z1.42 F1800.0
G1 X31.76 Y-23.02 Z1.42 F1800.0
G1 X31.51 Y-23.02 Z1.42 F1800.0
G1 X29.58 Y-24.97 Z1.42 F1800.0
G1 X29.33 Y-24.97 Z1.42 F1800.0
G1 X27.4 Y-23.02 Z1.42 F1800.0
G1 X27.14 Y-23.02 Z1.42 F1800.0
G1 X25.22 Y-24.97 Z1.42 F1800.0
G1 X24.96 Y-24.97 Z1.42 F1800.0
G1 X23.04 Y-23.02 Z1.42 F1800.0
G1 X22.78 Y-23.02 Z1.42 F1800.0
G1 X20.85 Y-24.97 Z1.42 F1800.0
G1 X20.6 Y-24.97 Z1.42 F1800.0
G1 X18.67 Y-23.02 Z1.42 F1800.0
G1 X18.42 Y-23.02 Z1.42 F1800.0
G1 X16.49 Y-24.97 Z1.42 F1800.0
G1 X16.24 Y-24.97 Z1.42 F1800.0
G1 X14.31 Y-23.02 Z1.42 F1800.0
G1 X14.05 Y-23.02 Z1.42 F1800.0
G1 X12.13 Y-24.97 Z1.42 F1800.0
G1 X11.87 Y-24.97 Z1.42 F1800.0
G1 X9.95 Y-23.02 Z1.42 F1800.0
G1 X9.69 Y-23.02 Z1.42 F1800.0
G1 X7.76 Y-24.97 Z1.42 F1800.0
G1 X7.51 Y-24.97 Z1.42 F1800.0
G1 X5.58 Y-23.02 Z1.42 F1800.0
G1 X5.33 Y-23.02 Z1.42 F1800.0
G1 X3.4 Y-24.97 Z1.42 F1800.0
G1 X3.15 Y-24.97 Z1.42 F1800.0
G1 X1.22 Y-23.02 Z1.42 F1800.0
G1 X0.96 Y-23.02 Z1.42 F1800.0
G1 X-0.96 Y-24.97 Z1.42 F1800.0
G1 X-1.22 Y-24.97 Z1.42 F1800.0
G1 X-3.15 Y-23.02 Z1.42 F1800.0
G1 X-3.4 Y-23.02 Z1.42 F1800.0
G1 X-3.62 Y-23.13 Z1.42 F1800.0
G1 X-3.74 Y-23.24 Z1.42 F1800.0
M108 R30.0
M102
G1 X-4.06 Y-23.56 Z1.42 F1800.0
M108 R3.569
M103
(</surroundingLoop>)
(<surroundingLoop>)
(<boundaryPerimeter>)
(<boundaryPoint> X45.78 Y20.968 Z1.42 </boundaryPoint>)
(<boundaryPoint> X-4.9 Y20.968 Z1.42 </boundaryPoint>)
(<boundaryPoint> X-4.9 Y-6.332 Z1.42 </boundaryPoint>)
(<boundaryPoint> X45.78 Y-6.332 Z1.42 </boundaryPoint>)
(<loop> outer )
G1 X-4.08 Y-6.54 Z1.42 F3000.0
M108 R30.0
M101
G1 X-4.08 Y-5.74 Z1.42 F3000.0
M108 R3.569
G1 X-4.06 Y-5.74 Z1.42 F1800.0
G1 X45.19 Y-5.74 Z1.42 F1800.0
G1 X45.19 Y20.38 Z1.42 F1800.0
G1 X-4.31 Y20.38 Z1.42 F1800.0
G1 X-4.31 Y-5.74 Z1.42 F1800.0
G1 X-4.08 Y-5.74 Z1.42 F1800.0
M103
(</loop>)
(<perimeter> outer )
G1 X-4.06 Y-6.14 Z1.42 F3000.0
M101
G1 X45.58 Y-6.14 Z1.42 F1800.0
G1 X45.58 Y20.77 Z1.42 F1800.0
G1 X-4.7 Y20.77 Z1.42 F1800.0
G1 X-4.7 Y-6.14 Z1.42 F1800.0
G1 X-4.51 Y-6.14 Z1.42 F1800.0
M108 R30.0
M102
G1 X-4.06 Y-6.14 Z1.42 F1800.0
M108 R3.569
M103
(</perimeter>)
(</boundaryPerimeter>)
G1 X-4.06 Y-4.73 Z1.42 F3000.0
M108 R30.0
M101
G1 X-4.06 Y-3.93 Z1.42 F3000.0
M108 R3.569
G1 X-3.62 Y-3.49 Z1.42 F1800.0
G1 X42.67 Y-3.39 Z1.42 F1800.0
G1 X44.94 Y-2.18 Z1.42 F1800.0
G1 X44.94 Y-5.24 Z1.42 F1800.0
G1 X-3.61 Y-5.24 Z1.42 F1800.0
M108 R30.0
M102
G1 X-4.06 Y-5.24 Z1.42 F1800.0
M108 R3.569
M103
G1 X-4.06 Y-0.36 Z1.42 F3000.0
M108 R30.0
M101
G1 X-4.06 Y0.44 Z1.42 F3000.0
M108 R3.569
G1 X-3.91 Y0.41 Z1.42 F1800.0
G1 X-3.78 Y-0.1 Z1.42 F1800.0
G1 X-4.06 Y-0.87 Z1.42 F1800.0
G1 X-3.15 Y-0.98 Z1.42 F1800.0
G1 X-1.22 Y0.98 Z1.42 F1800.0
G1 X-0.96 Y0.98 Z1.42 F1800.0
G1 X0.96 Y-0.98 Z1.42 F1800.0
G1 X1.22 Y-0.98 Z1.42 F1800.0
G1 X3.15 Y0.98 Z1.42 F1800.0
G1 X3.4 Y0.98 Z1.42 F1800.0
G1 X5.33 Y-0.98 Z1.42 F1800.0
G1 X5.58 Y-0.98 Z1.42 F1800.0
G1 X7.51 Y0.98 Z1.42 F1800.0
G1 X7.76 Y0.98 Z1.42 F1800.0
G1 X9.69 Y-0.98 Z1.42 F1800.0
G1 X9.95 Y-0.98 Z1.42 F1800.0
G1 X11.87 Y0.98 Z1.42 F1800.0
G1 X12.13 Y0.98 Z1.42 F1800.0
G1 X14.05 Y-0.98 Z1.42 F1800.0
G1 X14.31 Y-0.98 Z1.42 F1800.0
G1 X16.24 Y0.98 Z1.42 F1800.0
G1 X16.49 Y0.98 Z1.42 F1800.0
G1 X18.42 Y-0.98 Z1.42 F1800.0
G1 X18.67 Y-0.98 Z1.42 F1800.0
G1 X20.6 Y0.98 Z1.42 F1800.0
G1 X20.85 Y0.98 Z1.42 F1800.0
G1 X22.78 Y-0.98 Z1.42 F1800.0
G1 X23.04 Y-0.98 Z1.42 F1800.0
G1 X24.96 Y0.98 Z1.42 F1800.0
G1 X25.22 Y0.98 Z1.42 F1800.0
G1 X27.14 Y-0.98 Z1.42 F1800.0
G1 X27.4 Y-0.98 Z1.42 F1800.0
G1 X29.33 Y0.98 Z1.42 F1800.0
G1 X29.58 Y0.98 Z1.42 F1800.0
G1 X31.51 Y-0.98 Z1.42 F1800.0
G1 X31.76 Y-0.98 Z1.42 F1800.0
G1 X33.69 Y0.98 Z1.42 F1800.0
G1 X33.94 Y0.98 Z1.42 F1800.0
G1 X35.87 Y-0.98 Z1.42 F1800.0
G1 X36.13 Y-0.98 Z1.42 F1800.0
G1 X38.05 Y0.98 Z1.42 F1800.0
G1 X38.31 Y0.98 Z1.42 F1800.0
G1 X40.23 Y-0.98 Z1.42 F1800.0
G1 X40.49 Y-0.98 Z1.42 F1800.0
G1 X42.42 Y0.98 Z1.42 F1800.0
G1 X42.67 Y0.98 Z1.42 F1800.0
G1 X44.94 Y1.75 Z1.42 F1800.0
G1 X44.94 Y-1.75 Z1.42 F1800.0
G1 X42.67 Y-3.16 Z1.42 F1800.0
G1 X42.42 Y-3.16 Z1.42 F1800.0
G1 X40.49 Y-1.21 Z1.42 F1800.0
G1 X40.23 Y-1.21 Z1.42 F1800.0
G1 X38.31 Y-3.16 Z1.42 F1800.0
G1 X38.05 Y-3.16 Z1.42 F1800.0
G1 X36.13 Y-1.21 Z1.42 F1800.0
G1 X35.87 Y-1.21 Z1.42 F1800.0
G1 X33.94 Y-3.16 Z1.42 F1800.0
G1 X33.69 Y-3.16 Z1.42 F1800.0
G1 X31.76 Y-1.21 Z1.42 F1800.0
G1 X31.51 Y-1.21 Z1.42 F1800.0
G1 X29.58 Y-3.16 Z1.42 F1800.0
G1 X29.33 Y-3.16 Z1.42 F1800.0
G1 X27.4 Y-1.21 Z1.42 F1800.0
G1 X27.14 Y-1.21 Z1.42 F1800.0
G1 X25.22 Y-3.16 Z1.42 F1800.0
G1 X24.96 Y-3.16 Z1.42 F1800.0
G1 X23.04 Y-1.21 Z1.42 F1800.0
G1 X22.78 Y-1.21 Z1.42 F1800.0
G1 X20.85 Y-3.16 Z1.42 F1800.0
G1 X20.6 Y-3.16 Z1.42 F1800.0
G1 X18.67 Y-1.21 Z1.42 F1800.0
G1 X18.42 Y-1.21 Z1.42 F1800.0
G1 X16.49 Y-3.16 Z1.42 F1800.0
G1 X16.24 Y-3.16 Z1.42 F1800.0
G1 X14.31 Y-1.21 Z1.42 F1800.0
G1 X14.05 Y-1.21 Z1.42 F1800.0
G1 X12.13 Y-3.16 Z1.42 F1800.0
G1 X11.87 Y-3.16 Z1.42 F1800.0
G1 X9.95 Y-1.21 Z1.42 F1800.0
G1 X9.69 Y-1.21 Z1.42 F1800.0
G1 X7.76 Y-3.16 Z1.42 F1800.0
G1 X7.51 Y-3.16 Z1.42 F1800.0
G1 X5.58 Y-1.21 Z1.42 F1800.0
G1 X5.33 Y-1.21 Z1.42 F1800.0
G1 X3.4 Y-3.16 Z1.42 F1800.0
G1 X3.15 Y-3.16 Z1.42 F1800.0
G1 X1.22 Y-1.21 Z1.42 F1800.0
G1 X0.96 Y-1.21 Z1.42 F1800.0
G1 X-0.96 Y-3.16 Z1.42 F1800.0
G1 X-1.22 Y-3.16 Z1.42 F1800.0
G1 X-3.15 Y-1.21 Z1.42 F1800.0
G1 X-3.4 Y-1.21 Z1.42 F1800.0
G1 X-3.62 Y-1.31 Z1.42 F1800.0
G1 X-3.74 Y-1.43 Z1.42 F1800.0
M108 R30.0
M102
G1 X-4.06 Y-1.75 Z1.42 F1800.0
M108 R3.569
M103
G1 X-4.06 Y4.0 Z1.42 F3000.0
M108 R30.0
M101
G1 X-4.06 Y4.8 Z1.42 F3000.0
M108 R3.569
G1 X-3.91 Y4.77 Z1.42 F1800.0
G1 X-3.78 Y4.26 Z1.42 F1800.0
G1 X-4.06 Y3.49 Z1.42 F1800.0
G1 X-3.15 Y3.39 Z1.42 F1800.0
G1 X-1.22 Y5.34 Z1.42 F1800.0
G1 X-0.96 Y5.34 Z1.42 F1800.0
G1 X0.96 Y3.39 Z1.42 F1800.0
G1 X1.22 Y3.39 Z1.42 F1800.0
G1 X3.15 Y5.34 Z1.42 F1800.0
G1 X3.4 Y5.34 Z1.42 F1800.0
G1 X5.33 Y3.39 Z1.42 F1800.0
G1 X5.58 Y3.39 Z1.42 F1800.0
G1 X7.51 Y5.34 Z1.42 F1800.0
G1 X7.76 Y5.34 Z1.42 F1800.0
G1 X9.69 Y3.39 Z1.42 F1800.0
G1 X9.95 Y3.39 Z1.42 F1800.0
G1 X11.87 Y5.34 Z1.42 F1800.0
G1 X12.13 Y5.34 Z1.42 F1800.0
G1 X14.05 Y3.39 Z1.42 F1800.0
G1 X14.31 Y3.39 Z1.42 F1800.0
G1 X16.24 Y5.34 Z1.42 F1800.0
G1 X16.49 Y5.34 Z1.42 F1800.0
G1 X18.42 Y3.39 Z1.42 F1800.0
G1 X18.67 Y3.39 Z1.42 F1800.0
G1 X20.6 Y5.34 Z1.42 F1800.0
G1 X20.85 Y5.34 Z1.42 F1800.0
G1 X22.78 Y3.39 Z1.42 F1800.0
G1 X23.04 Y3.39 Z1.42 F1800.0
G1 X24.96 Y5.34 Z1.42 F1800.0
G1 X25.22 Y5.34 Z1.42 F1800.0
G1 X27.14 Y3.39 Z1.42 F1800.0
G1 X27.4 Y3.39 Z1.42 F1800.0
G1 X29.33 Y5.34 Z1.42 F1800.0
G1 X29.58 Y5.34 Z1.42 F1800.0
G1 X31.51 Y3.39 Z1.42 F1800.0
G1 X31.76 Y3.39 Z1.42 F1800.0
G1 X33.69 Y5.34 Z1.42 F1800.0
G1 X33.94 Y5.34 Z1.42 F1800.0
G1 X35.87 Y3.39 Z1.42 F1800.0
G1 X36.13 Y3.39 Z1.42 F1800.0
G1 X38.05 Y5.34 Z1.42 F1800.0
G1 X38.31 Y5.34 Z1.42 F1800.0
G1 X40.23 Y3.39 Z1.42 F1800.0
G1 X40.49 Y3.39 Z1.42 F1800.0
G1 X42.42 Y5.34 Z1.42 F1800.0
G1 X42.67 Y5.34 Z1.42 F1800.0
G1 X44.94 Y6.55 Z1.42 F1800.0
G1 X44.94 Y2.18 Z1.42 F1800.0
G1 X42.67 Y1.21 Z1.42 F1800.0
G1 X42.42 Y1.21 Z1.42 F1800.0
G1 X40.49 Y3.16 Z1.42 F1800.0
G1 X40.23 Y3.16 Z1.42 F1800.0
G1 X38.31 Y1.21 Z1.42 F1800.0
G1 X38.05 Y1.21 Z1.42 F1800.0
G1 X36.13 Y3.16 Z1.42 F1800.0
G1 X35.87 Y3.16 Z1.42 F1800.0
G1 X33.94 Y1.21 Z1.42 F1800.0
G1 X33.69 Y1.21 Z1.42 F1800.0
G1 X31.76 Y3.16 Z1.42 F1800.0
G1 X31.51 Y3.16 Z1.42 F1800.0
G1 X29.58 Y1.21 Z1.42 F1800.0
G1 X29.33 Y1.21 Z1.42 F1800.0
G1 X27.4 Y3.16 Z1.42 F1800.0
G1 X27.14 Y3.16 Z1.42 F1800.0
G1 X25.22 Y1.21 Z1.42 F1800.0
G1 X24.96 Y1.21 Z1.42 F1800.0
G1 X23.04 Y3.16 Z1.42 F1800.0
G1 X22.78 Y3.16 Z1.42 F1800.0
G1 X20.85 Y1.21 Z1.42 F1800.0
G1 X20.6 Y1.21 Z1.42 F1800.0
G1 X18.67 Y3.16 Z1.42 F1800.0
G1 X18.42 Y3.16 Z1.42 F1800.0
G1 X16.49 Y1.21 Z1.42 F1800.0
G1 X16.24 Y1.21 Z1.42 F1800.0
G1 X14.31 Y3.16 Z1.42 F1800.0
G1 X14.05 Y3.16 Z1.42 F1800.0
G1 X12.13 Y1.21 Z1.42 F1800.0
G1 X11.87 Y1.21 Z1.42 F1800.0
G1 X9.95 Y3.16 Z1.42 F1800.0
G1 X9.69 Y3.16 Z1.42 F1800.0
G1 X7.76 Y1.21 Z1.42 F1800.0
G1 X7.51 Y1.21 Z1.42 F1800.0
G1 X5.58 Y3.16 Z1.42 F1800.0
G1 X5.33 Y3.16 Z1.42 F1800.0
G1 X3.4 Y1.21 Z1.42 F1800.0
G1 X3.15 Y1.21 Z1.42 F1800.0
G1 X1.22 Y3.16 Z1.42 F1800.0
G1 X0.96 Y3.16 Z1.42 F1800.0
G1 X-0.96 Y1.21 Z1.42 F1800.0
G1 X-1.22 Y1.21 Z1.42 F1800.0
G1 X-3.15 Y3.16 Z1.42 F1800.0
G1 X-3.4 Y3.16 Z1.42 F1800.0
G1 X-3.62 Y3.05 Z1.42 F1800.0
G1 X-3.74 Y2.94 Z1.42 F1800.0
M108 R30.0
M102
G1 X-4.06 Y2.62 Z1.42 F1800.0
M108 R3.569
M103
G1 X-4.06 Y8.36 Z1.42 F3000.0
M108 R30.0
M101
G1 X-4.06 Y9.16 Z1.42 F3000.0
M108 R3.569
G1 X-3.91 Y9.14 Z1.42 F1800.0
G1 X-3.78 Y8.63 Z1.42 F1800.0
G1 X-4.06 Y7.85 Z1.42 F1800.0
G1 X-3.15 Y7.75 Z1.42 F1800.0
G1 X-1.22 Y9.7 Z1.42 F1800.0
G1 X-0.96 Y9.7 Z1.42 F1800.0
G1 X0.96 Y7.75 Z1.42 F1800.0
G1 X1.22 Y7.75 Z1.42 F1800.0
G1 X3.15 Y9.7 Z1.42 F1800.0
G1 X3.4 Y9.7 Z1.42 F1800.0
G1 X5.33 Y7.75 Z1.42 F1800.0
G1 X5.58 Y7.75 Z1.42 F1800.0
G1 X7.51 Y9.7 Z1.42 F1800.0
G1 X7.76 Y9.7 Z1.42 F1800.0
G1 X9.69 Y7.75 Z1.42 F1800.0
G1 X9.95 Y7.75 Z1.42 F1800.0
G1 X11.87 Y9.7 Z1.42 F1800.0
G1 X12.13 Y9.7 Z1.42 F1800.0
G1 X14.05 Y7.75 Z1.42 F1800.0
G1 X14.31 Y7.75 Z1.42 F1800.0
G1 X16.24 Y9.7 Z1.42 F1800.0
G1 X16.49 Y9.7 Z1.42 F1800.0
G1 X18.42 Y7.75 Z1.42 F1800.0
G1 X18.67 Y7.75 Z1.42 F1800.0
G1 X20.6 Y9.7 Z1.42 F1800.0
G1 X20.85 Y9.7 Z1.42 F1800.0
G1 X22.78 Y7.75 Z1.42 F1800.0
G1 X23.04 Y7.75 Z1.42 F1800.0
G1 X24.96 Y9.7 Z1.42 F1800.0
G1 X25.22 Y9.7 Z1.42 F1800.0
G1 X27.14 Y7.75 Z1.42 F1800.0
G1 X27.4 Y7.75 Z1.42 F1800.0
G1 X29.33 Y9.7 Z1.42 F1800.0
G1 X29.58 Y9.7 Z1.42 F1800.0
G1 X31.51 Y7.75 Z1.42 F1800.0
G1 X31.76 Y7.75 Z1.42 F1800.0
G1 X33.69 Y9.7 Z1.42 F1800.0
G1 X33.94 Y9.7 Z1.42 F1800.0
G1 X35.87 Y7.75 Z1.42 F1800.0
G1 X36.13 Y7.75 Z1.42 F1800.0
G1 X38.05 Y9.7 Z1.42 F1800.0
G1 X38.31 Y9.7 Z1.42 F1800.0
G1 X40.23 Y7.75 Z1.42 F1800.0
G1 X40.49 Y7.75 Z1.42 F1800.0
G1 X42.42 Y9.7 Z1.42 F1800.0
G1 X42.67 Y9.7 Z1.42 F1800.0
G1 X44.94 Y10.47 Z1.42 F1800.0
G1 X44.94 Y6.98 Z1.42 F1800.0
G1 X42.67 Y5.57 Z1.42 F1800.0
G1 X42.42 Y5.57 Z1.42 F1800.0
G1 X40.49 Y7.52 Z1.42 F1800.0
G1 X40.23 Y7.52 Z1.42 F1800.0
G1 X38.31 Y5.57 Z1.42 F1800.0
G1 X38.05 Y5.57 Z1.42 F1800.0
G1 X36.13 Y7.52 Z1.42 F1800.0
G1 X35.87 Y7.52 Z1.42 F1800.0
G1 X33.94 Y5.57 Z1.42 F1800.0
G1 X33.69 Y5.57 Z1.42 F1800.0
G1 X31.76 Y7.52 Z1.42 F1800.0
G1 X31.51 Y7.52 Z1.42 F1800.0
G1 X29.58 Y5.57 Z1.42 F1800.0
G1 X29.33 Y5.57 Z1.42 F1800.0
G1 X27.4 Y7.52 Z1.42 F1800.0
G1 X27.14 Y7.52 Z1.42 F1800.0
G1 X25.22 Y5.57 Z1.42 F1800.0
G1 X24.96 Y5.57 Z1.42 F1800.0
G1 X23.04 Y7.52 Z1.42 F1800.0
G1 X22.78 Y7.52 Z1.42 F1800.0
G1 X20.85 Y5.57 Z1.42 F1800.0
G1 X20.6 Y5.57 Z1.42 F1800.0
G1 X18.67 Y7.52 Z1.42 F1800.0
G1 X18.42 Y7.52 Z1.42 F1800.0
G1 X16.49 Y5.57 Z1.42 F1800.0
G1 X16.24 Y5.57 Z1.42 F1800.0
G1 X14.31 Y7.52 Z1.42 F1800.0
G1 X14.05 Y7.52 Z1.42 F1800.0
G1 X12.13 Y5.57 Z1.42 F1800.0
G1 X11.87 Y5.57 Z1.42 F1800.0
G1 X9.95 Y7.52 Z1.42 F1800.0
G1 X9.69 Y7.52 Z1.42 F1800.0
G1 X7.76 Y5.57 Z1.42 F1800.0
G1 X7.51 Y5.57 Z1.42 F1800.0
G1 X5.58 Y7.52 Z1.42 F1800.0
G1 X5.33 Y7.52 Z1.42 F1800.0
G1 X3.4 Y5.57 Z1.42 F1800.0
G1 X3.15 Y5.57 Z1.42 F1800.0
G1 X1.22 Y7.52 Z1.42 F1800.0
G1 X0.96 Y7.52 Z1.42 F1800.0
G1 X-0.96 Y5.57 Z1.42 F1800.0
G1 X-1.22 Y5.57 Z1.42 F1800.0
G1 X-3.15 Y7.52 Z1.42 F1800.0
G1 X-3.4 Y7.52 Z1.42 F1800.0
G1 X-3.62 Y7.42 Z1.42 F1800.0
G1 X-3.74 Y7.3 Z1.42 F1800.0
M108 R30.0
M102
G1 X-4.06 Y6.98 Z1.42 F1800.0
M108 R3.569
M103
G1 X-4.06 Y12.73 Z1.42 F3000.0
M108 R30.0
M101
G1 X-4.06 Y13.53 Z1.42 F3000.0
M108 R3.569
G1 X-3.91 Y13.5 Z1.42 F1800.0
G1 X-3.78 Y12.99 Z1.42 F1800.0
G1 X-3.99 Y12.65 Z1.42 F1800.0
G1 X-3.4 Y12.11 Z1.42 F1800.0
G1 X-3.15 Y12.11 Z1.42 F1800.0
G1 X-1.22 Y14.07 Z1.42 F1800.0
G1 X-0.96 Y14.07 Z1.42 F1800.0
G1 X0.96 Y12.11 Z1.42 F1800.0
G1 X1.22 Y12.11 Z1.42 F1800.0
G1 X3.15 Y14.07 Z1.42 F1800.0
G1 X3.4 Y14.07 Z1.42 F1800.0
G1 X5.33 Y12.11 Z1.42 F1800.0
G1 X5.58 Y12.11 Z1.42 F1800.0
G1 X7.51 Y14.07 Z1.42 F1800.0
G1 X7.76 Y14.07 Z1.42 F1800.0
G1 X9.69 Y12.11 Z1.42 F1800.0
G1 X9.95 Y12.11 Z1.42 F1800.0
G1 X11.87 Y14.07 Z1.42 F1800.0
G1 X12.13 Y14.07 Z1.42 F1800.0
G1 X14.05 Y12.11 Z1.42 F1800.0
G1 X14.31 Y12.11 Z1.42 F1800.0
G1 X16.24 Y14.07 Z1.42 F1800.0
G1 X16.49 Y14.07 Z1.42 F1800.0
G1 X18.42 Y12.11 Z1.42 F1800.0
G1 X18.67 Y12.11 Z1.42 F1800.0
G1 X20.6 Y14.07 Z1.42 F1800.0
G1 X20.85 Y14.07 Z1.42 F1800.0
G1 X22.78 Y12.11 Z1.42 F1800.0
G1 X23.04 Y12.11 Z1.42 F1800.0
G1 X24.96 Y14.07 Z1.42 F1800.0
G1 X25.22 Y14.07 Z1.42 F1800.0
G1 X27.14 Y12.11 Z1.42 F1800.0
G1 X27.4 Y12.11 Z1.42 F1800.0
G1 X29.33 Y14.07 Z1.42 F1800.0
G1 X29.58 Y14.07 Z1.42 F1800.0
G1 X31.51 Y12.11 Z1.42 F1800.0
G1 X31.76 Y12.11 Z1.42 F1800.0
G1 X33.69 Y14.07 Z1.42 F1800.0
G1 X33.94 Y14.07 Z1.42 F1800.0
G1 X35.87 Y12.11 Z1.42 F1800.0
G1 X36.13 Y12.11 Z1.42 F1800.0
G1 X38.05 Y14.07 Z1.42 F1800.0
G1 X38.31 Y14.07 Z1.42 F1800.0
G1 X40.23 Y12.11 Z1.42 F1800.0
G1 X40.49 Y12.11 Z1.42 F1800.0
G1 X42.42 Y14.07 Z1.42 F1800.0
G1 X42.67 Y14.07 Z1.42 F1800.0
G1 X44.94 Y14.84 Z1.42 F1800.0
G1 X44.94 Y10.91 Z1.42 F1800.0
G1 X42.67 Y9.93 Z1.42 F1800.0
G1 X42.42 Y9.93 Z1.42 F1800.0
G1 X40.49 Y11.88 Z1.42 F1800.0
G1 X40.23 Y11.88 Z1.42 F1800.0
G1 X38.31 Y9.93 Z1.42 F1800.0
G1 X38.05 Y9.93 Z1.42 F1800.0
G1 X36.13 Y11.88 Z1.42 F1800.0
G1 X35.87 Y11.88 Z1.42 F1800.0
G1 X33.94 Y9.93 Z1.42 F1800.0
G1 X33.69 Y9.93 Z1.42 F1800.0
G1 X31.76 Y11.88 Z1.42 F1800.0
G1 X31.51 Y11.88 Z1.42 F1800.0
G1 X29.58 Y9.93 Z1.42 F1800.0
G1 X29.33 Y9.93 Z1.42 F1800.0
G1 X27.4 Y11.88 Z1.42 F1800.0
G1 X27.14 Y11.88 Z1.42 F1800.0
G1 X25.22 Y9.93 Z1.42 F1800.0
G1 X24.96 Y9.93 Z1.42 F1800.0
G1 X23.04 Y11.88 Z1.42 F1800.0
G1 X22.78 Y11.88 Z1.42 F1800.0
G1 X20.85 Y9.93 Z1.42 F1800.0
G1 X20.6 Y9.93 Z1.42 F1800.0
G1 X18.67 Y11.88 Z1.42 F1800.0
G1 X18.42 Y11.88 Z1.42 F1800.0
G1 X16.49 Y9.93 Z1.42 F1800.0
G1 X16.24 Y9.93 Z1.42 F1800.0
G1 X14.31 Y11.88 Z1.42 F1800.0
G1 X14.05 Y11.88 Z1.42 F1800.0
G1 X12.13 Y9.93 Z1.42 F1800.0
G1 X11.87 Y9.93 Z1.42 F1800.0
G1 X9.95 Y11.88 Z1.42 F1800.0
G1 X9.69 Y11.88 Z1.42 F1800.0
G1 X7.76 Y9.93 Z1.42 F1800.0
G1 X7.51 Y9.93 Z1.42 F1800.0
G1 X5.58 Y11.88 Z1.42 F1800.0
G1 X5.33 Y11.88 Z1.42 F1800.0
G1 X3.4 Y9.93 Z1.42 F1800.0
G1 X3.15 Y9.93 Z1.42 F1800.0
G1 X1.22 Y11.88 Z1.42 F1800.0
G1 X0.96 Y11.88 Z1.42 F1800.0
G1 X-0.96 Y9.93 Z1.42 F1800.0
G1 X-1.22 Y9.93 Z1.42 F1800.0
G1 X-3.15 Y11.88 Z1.42 F1800.0
G1 X-3.4 Y11.88 Z1.42 F1800.0
G1 X-3.62 Y11.78 Z1.42 F1800.0
G1 X-3.74 Y11.66 Z1.42 F1800.0
M108 R30.0
M102
G1 X-4.06 Y11.35 Z1.42 F1800.0
M108 R3.569
M103
G1 X-4.06 Y17.09 Z1.42 F3000.0
M108 R30.0
M101
G1 X-4.06 Y17.89 Z1.42 F3000.0
M108 R3.569
G1 X-3.91 Y17.86 Z1.42 F1800.0
G1 X-3.78 Y17.35 Z1.42 F1800.0
G1 X-4.06 Y16.58 Z1.42 F1800.0
G1 X-3.15 Y16.48 Z1.42 F1800.0
G1 X-1.22 Y18.43 Z1.42 F1800.0
G1 X-0.96 Y18.43 Z1.42 F1800.0
G1 X0.96 Y16.48 Z1.42 F1800.0
G1 X1.22 Y16.48 Z1.42 F1800.0
G1 X3.15 Y18.43 Z1.42 F1800.0
G1 X3.4 Y18.43 Z1.42 F1800.0
G1 X5.33 Y16.48 Z1.42 F1800.0
G1 X5.58 Y16.48 Z1.42 F1800.0
G1 X7.51 Y18.43 Z1.42 F1800.0
G1 X7.76 Y18.43 Z1.42 F1800.0
G1 X9.69 Y16.48 Z1.42 F1800.0
G1 X9.95 Y16.48 Z1.42 F1800.0
G1 X11.87 Y18.43 Z1.42 F1800.0
G1 X12.13 Y18.43 Z1.42 F1800.0
G1 X14.05 Y16.48 Z1.42 F1800.0
G1 X14.31 Y16.48 Z1.42 F1800.0
G1 X16.24 Y18.43 Z1.42 F1800.0
G1 X16.49 Y18.43 Z1.42 F1800.0
G1 X18.42 Y16.48 Z1.42 F1800.0
G1 X18.67 Y16.48 Z1.42 F1800.0
G1 X20.6 Y18.43 Z1.42 F1800.0
G1 X20.85 Y18.43 Z1.42 F1800.0
G1 X22.78 Y16.48 Z1.42 F1800.0
G1 X23.04 Y16.48 Z1.42 F1800.0
G1 X24.96 Y18.43 Z1.42 F1800.0
G1 X25.22 Y18.43 Z1.42 F1800.0
G1 X27.14 Y16.48 Z1.42 F1800.0
G1 X27.4 Y16.48 Z1.42 F1800.0
G1 X29.33 Y18.43 Z1.42 F1800.0
G1 X29.58 Y18.43 Z1.42 F1800.0
G1 X31.51 Y16.48 Z1.42 F1800.0
G1 X31.76 Y16.48 Z1.42 F1800.0
G1 X33.69 Y18.43 Z1.42 F1800.0
G1 X33.94 Y18.43 Z1.42 F1800.0
G1 X35.87 Y16.48 Z1.42 F1800.0
G1 X36.13 Y16.48 Z1.42 F1800.0
G1 X38.05 Y18.43 Z1.42 F1800.0
G1 X38.31 Y18.43 Z1.42 F1800.0
G1 X40.23 Y16.48 Z1.42 F1800.0
G1 X40.49 Y16.48 Z1.42 F1800.0
G1 X42.42 Y18.43 Z1.42 F1800.0
G1 X42.67 Y18.43 Z1.42 F1800.0
G1 X44.94 Y19.64 Z1.42 F1800.0
G1 X44.94 Y15.27 Z1.42 F1800.0
G1 X42.67 Y14.3 Z1.42 F1800.0
G1 X42.42 Y14.3 Z1.42 F1800.0
G1 X40.49 Y16.25 Z1.42 F1800.0
G1 X40.23 Y16.25 Z1.42 F1800.0
G1 X38.31 Y14.3 Z1.42 F1800.0
G1 X38.05 Y14.3 Z1.42 F1800.0
G1 X36.13 Y16.25 Z1.42 F1800.0
G1 X35.87 Y16.25 Z1.42 F1800.0
G1 X33.94 Y14.3 Z1.42 F1800.0
G1 X33.69 Y14.3 Z1.42 F1800.0
G1 X31.76 Y16.25 Z1.42 F1800.0
G1 X31.51 Y16.25 Z1.42 F1800.0
G1 X29.58 Y14.3 Z1.42 F1800.0
G1 X29.33 Y14.3 Z1.42 F1800.0
G1 X27.4 Y16.25 Z1.42 F1800.0
G1 X27.14 Y16.25 Z1.42 F1800.0
G1 X25.22 Y14.3 Z1.42 F1800.0
G1 X24.96 Y14.3 Z1.42 F1800.0
G1 X23.04 Y16.25 Z1.42 F1800.0
G1 X22.78 Y16.25 Z1.42 F1800.0
G1 X20.85 Y14.3 Z1.42 F1800.0
G1 X20.6 Y14.3 Z1.42 F1800.0
G1 X18.67 Y16.25 Z1.42 F1800.0
G1 X18.42 Y16.25 Z1.42 F1800.0
G1 X16.49 Y14.3 Z1.42 F1800.0
G1 X16.24 Y14.3 Z1.42 F1800.0
G1 X14.31 Y16.25 Z1.42 F1800.0
G1 X14.05 Y16.25 Z1.42 F1800.0
G1 X12.13 Y14.3 Z1.42 F1800.0
G1 X11.87 Y14.3 Z1.42 F1800.0
G1 X9.95 Y16.25 Z1.42 F1800.0
G1 X9.69 Y16.25 Z1.42 F1800.0
G1 X7.76 Y14.3 Z1.42 F1800.0
G1 X7.51 Y14.3 Z1.42 F1800.0
G1 X5.58 Y16.25 Z1.42 F1800.0
G1 X5.33 Y16.25 Z1.42 F1800.0
G1 X3.4 Y14.3 Z1.42 F1800.0
G1 X3.15 Y14.3 Z1.42 F1800.0
G1 X1.22 Y16.25 Z1.42 F1800.0
G1 X0.96 Y16.25 Z1.42 F1800.0
G1 X-0.96 Y14.3 Z1.42 F1800.0
G1 X-1.22 Y14.3 Z1.42 F1800.0
G1 X-3.15 Y16.25 Z1.42 F1800.0
G1 X-3.4 Y16.25 Z1.42 F1800.0
G1 X-3.62 Y16.14 Z1.42 F1800.0
G1 X-3.74 Y16.03 Z1.42 F1800.0
M108 R30.0
M102
G1 X-4.06 Y15.71 Z1.42 F1800.0
M108 R3.569
M103
G1 X44.14 Y20.0 Z1.42 F3000.0
M108 R30.0
M101
G1 X44.94 Y20.07 Z1.42 F3000.0
M108 R3.569
G1 X42.67 Y18.66 Z1.42 F1800.0
G1 X-4.06 Y18.76 Z1.42 F1800.0
G1 X-3.62 Y19.2 Z1.42 F1800.0
G1 X-3.62 Y19.64 Z1.42 F1800.0
G1 X-4.06 Y20.07 Z1.42 F1800.0
M103
(</surroundingLoop>)
(</layer>)
(<layer> 1.74 )
(<surroundingLoop>)
(<boundaryPerimeter>)
(<boundaryPoint> X45.78 Y20.968 Z1.74 </boundaryPoint>)
(<boundaryPoint> X-4.9 Y20.968 Z1.74 </boundaryPoint>)
(<boundaryPoint> X-4.9 Y-6.332 Z1.74 </boundaryPoint>)
(<boundaryPoint> X45.78 Y-6.332 Z1.74 </boundaryPoint>)
(<loop> outer )
G1 X-4.3 Y20.38 Z1.74 F3000.0
M101
G1 X-4.31 Y20.38 Z1.74 F1800.0
G1 X-4.31 Y20.07 Z1.74 F1800.0
G1 X-4.31 Y-5.74 Z1.74 F1800.0
