(** This GCode was generated by ReplicatorG 0034 **)
(*  using Skeinforge (35)  *)
(*  for a Single headed Thing-O-Matic  *)
(*  on 2012/04/21 22:47:01 (-0400) *)
(<alteration>)
(**** beginning of start.gcode ****)
(This file is for a MakerBot Thing-O-Matic)
(**** begin initialization commands ****)
G21 (set units to mm)
G90 (set positioning to absolute)
M108 R5.0 (set extruder speed)
M103 (Make sure extruder is off)
M104 S225 T0 (set extruder temperature)
M109 S120 T0 (set heated-build-platform temperature)
(**** end initialization commands ****)
(**** begin homing ****)
G162 Z F1000 (home Z axis maximum)
G92 Z10 (set Z to 0)
G1 Z0.0 (move z down 10)
G162 Z F150 (home Z axis maximum)
G161 X Y F2500 (home XY axes minimum)
M132 X Y Z A B (Recall stored home offsets for XYZAB axis)
(**** end homing ****)
(**** begin pre-wipe commands ****)
( Some people have had problems with the nozzle hitting )
( bolts or wipers during this pre-extrusion warmup.     )
( If this happens to you, you can change the values for )
( the X and Y positions in the following code.          )
( The goal is to have the toolhead wipe its initial     )
( extrusion near the edge of the platform, [anchor it]  )
( so as not to have it interfere with the print.        )
( This file can be found in:                            )
( replicatorg/skein_engines/skeinforge-##/skeinforge_application/ )
( prefs/<profile name [e.g. Thingomatic-ABP-Mk7]>/alterations )
G1 X25.0 Y-60.0 Z10.0 F3300.0 (move to waiting position)
M6 T0 (wait for toolhead parts, nozzle, HBP, etc., to reach temperature)
G0 X25 Y-57 (Position Nozzle)
G0 Z0.6     (Position Height)
M108 R4.0   (Set Extruder Speed)
M101        (Start Extruder)
G4 P1500    (Create Anchor)
(**** end pre-wipe commands ****)
(**** end of start.gcode ****)
(</alteration>)
(<creation> skeinforge </creation>)
(<version> 10.11.05 </version>)
(<extruderInitialization>)
(<craftTypeName> extrusion </craftTypeName>)
M105
(<bridgeWidthMultiplier> 1.0 </bridgeWidthMultiplier>)
(<decimalPlacesCarried> 3 </decimalPlacesCarried>)
(<layerThickness> 0.32 </layerThickness>)
(<threadSequenceString> loops perimeter infill </threadSequenceString>)
(<operatingFeedRatePerSecond> 30.0 </operatingFeedRatePerSecond>)
(<operatingFlowRate> 3.56914845556 </operatingFlowRate>)
(<orbitalFeedRatePerSecond> 15.0 </orbitalFeedRatePerSecond>)
(<travelFeedRatePerSecond> 50.0 </travelFeedRatePerSecond>)
(<perimeterWidth> 0.393 </perimeterWidth>)
(<profileName> ABS </profileName>)
(<procedureDone> carve,bottom </procedureDone>)
(<procedureDone> preface </procedureDone>)
(<procedureDone> inset </procedureDone>)
(<procedureDone> fill </procedureDone>)
(<procedureDone> speed </procedureDone>)
(<procedureDone> raft </procedureDone>)
(<procedureDone> jitter </procedureDone>)
(<procedureDone> comb </procedureDone>)
(<procedureDone> cool </procedureDone>)
(<procedureDone> outline </procedureDone>)
(<procedureDone> reversal </procedureDone>)
(<procedureDone> export </procedureDone>)
(</extruderInitialization>)
(<extrusion>)
;M113 S1.0
M108 R3.569
(<layer> 0.46 )
(<surroundingLoop>)
(<boundaryPerimeter>)
(<boundaryPoint> X-23.993 Y25.993 Z0.46 </boundaryPoint>)
(<boundaryPoint> X-23.993 Y1.091 Z0.46 </boundaryPoint>)
(<boundaryPoint> X-31.193 Y1.091 Z0.46 </boundaryPoint>)
(<boundaryPoint> X-31.193 Y-3.889 Z0.46 </boundaryPoint>)
(<boundaryPoint> X-23.993 Y-3.889 Z0.46 </boundaryPoint>)
(<boundaryPoint> X-23.993 Y-25.993 Z0.46 </boundaryPoint>)
(<boundaryPoint> X31.193 Y-25.993 Z0.46 </boundaryPoint>)
(<boundaryPoint> X31.193 Y-4.152 Z0.46 </boundaryPoint>)
(<boundaryPoint> X23.723 Y-4.152 Z0.46 </boundaryPoint>)
(<boundaryPoint> X23.723 Y1.091 Z0.46 </boundaryPoint>)
(<boundaryPoint> X31.193 Y1.091 Z0.46 </boundaryPoint>)
(<boundaryPoint> X31.193 Y25.993 Z0.46 </boundaryPoint>)
(<loop> inner )
M108 R2.141
G1 X33.0 Y-27.8 Z0.46 F1080.0
M101
G1 X-33.0 Y-27.8 Z0.46 F1080.0
G1 X-33.0 Y27.8 Z0.46 F1080.0
G1 X33.0 Y27.8 Z0.46 F1080.0
G1 X33.0 Y-27.53 Z0.46 F1080.0
M108 R30.0
M102
G1 X33.0 Y-27.8 Z0.46 F1080.0
M108 R2.141
M103
G1 X0.58 Y14.49 Z0.46 F3000.0
M108 R30.0
M101
G1 X0.09 Y15.13 Z0.46 F3000.0
M108 R2.141
G1 X20.75 Y15.13 Z0.46 F1080.0
G1 X20.75 Y-19.02 Z0.46 F1080.0
G1 X-18.64 Y-19.02 Z0.46 F1080.0
G1 X-18.64 Y15.13 Z0.46 F1080.0
G1 X-0.18 Y15.13 Z0.46 F1080.0
M108 R30.0
M102
G1 X0.0 Y15.13 Z0.46 F1080.0
G1 X0.09 Y15.13 Z0.46 F1080.0
M108 R2.141
M103
(</loop>)
(<loop> outer )
G1 X0.01 Y24.6 Z0.46 F3000.0
M108 R30.0
M101
G1 X0.0 Y25.4 Z0.46 F3000.0
M108 R2.141
G1 X-23.4 Y25.4 Z0.46 F1080.0
G1 X-23.4 Y0.5 Z0.46 F1080.0
G1 X-30.6 Y0.5 Z0.46 F1080.0
G1 X-30.6 Y-3.3 Z0.46 F1080.0
G1 X-23.4 Y-3.3 Z0.46 F1080.0
G1 X-23.4 Y-25.4 Z0.46 F1080.0
G1 X30.6 Y-25.4 Z0.46 F1080.0
G1 X30.6 Y-4.74 Z0.46 F1080.0
G1 X23.13 Y-4.74 Z0.46 F1080.0
G1 X23.13 Y1.68 Z0.46 F1080.0
G1 X30.6 Y1.68 Z0.46 F1080.0
G1 X30.6 Y25.4 Z0.46 F1080.0
G1 X0.0 Y25.4 Z0.46 F1080.0
M103
(</loop>)
(<perimeter> outer )
G1 X0.0 Y25.8 Z0.46 F3000.0
M101
G1 X-23.8 Y25.8 Z0.46 F1080.0
G1 X-23.8 Y0.9 Z0.46 F1080.0
G1 X-31.0 Y0.9 Z0.46 F1080.0
G1 X-31.0 Y-3.69 Z0.46 F1080.0
G1 X-23.8 Y-3.69 Z0.46 F1080.0
G1 X-23.8 Y-25.8 Z0.46 F1080.0
G1 X31.0 Y-25.8 Z0.46 F1080.0
G1 X31.0 Y-4.35 Z0.46 F1080.0
G1 X23.53 Y-4.35 Z0.46 F1080.0
G1 X23.53 Y1.29 Z0.46 F1080.0
G1 X31.0 Y1.29 Z0.46 F1080.0
G1 X31.0 Y25.8 Z0.46 F1080.0
G1 X0.27 Y25.8 Z0.46 F1080.0
M108 R30.0
M102
G1 X0.0 Y25.8 Z0.46 F1080.0
M108 R2.141
M103
(</perimeter>)
(</boundaryPerimeter>)
(<surroundingLoop>)
(<boundaryPerimeter>)
(<boundaryPoint> X-18.05 Y14.538 Z0.46 </boundaryPoint>)
(<boundaryPoint> X20.156 Y14.538 Z0.46 </boundaryPoint>)
(<boundaryPoint> X20.156 Y-18.428 Z0.46 </boundaryPoint>)
(<boundaryPoint> X-18.05 Y-18.428 Z0.46 </boundaryPoint>)
(<perimeter> inner )
G1 X0.0 Y15.54 Z0.46 F3000.0
M108 R30.0
M101
G1 X0.0 Y14.74 Z0.46 F3000.0
M108 R2.141
G1 X20.35 Y14.74 Z0.46 F1080.0
G1 X20.35 Y-18.63 Z0.46 F1080.0
G1 X-18.25 Y-18.63 Z0.46 F1080.0
G1 X-18.25 Y14.74 Z0.46 F1080.0
G1 X0.0 Y14.74 Z0.46 F1080.0
M103
(</perimeter>)
(</boundaryPerimeter>)
(</surroundingLoop>)
G1 X0.0 Y15.38 Z0.46 F1800.0
M101
G1 X0.0 Y25.15 Z0.46 F1080.0
M103
G1 X-0.39 Y25.15 Z0.46 F1800.0
M101
G1 X-0.39 Y15.38 Z0.46 F1080.0
M103
G1 X-0.79 Y15.38 Z0.46 F1800.0
M101
G1 X-0.79 Y25.15 Z0.46 F1080.0
M103
G1 X-1.18 Y25.15 Z0.46 F1800.0
M101
G1 X-1.18 Y15.38 Z0.46 F1080.0
M103
G1 X-1.57 Y15.38 Z0.46 F1800.0
M101
G1 X-1.57 Y25.15 Z0.46 F1080.0
M103
G1 X-1.96 Y25.15 Z0.46 F1800.0
M101
G1 X-1.96 Y15.38 Z0.46 F1080.0
M103
G1 X-2.36 Y15.38 Z0.46 F1800.0
M101
G1 X-2.36 Y25.15 Z0.46 F1080.0
M103
G1 X-2.75 Y25.15 Z0.46 F1800.0
M101
G1 X-2.75 Y15.38 Z0.46 F1080.0
M103
G1 X-3.14 Y15.38 Z0.46 F1800.0
M101
G1 X-3.14 Y25.15 Z0.46 F1080.0
M103
G1 X-3.53 Y25.15 Z0.46 F1800.0
M101
G1 X-3.53 Y15.38 Z0.46 F1080.0
M103
G1 X-3.93 Y15.38 Z0.46 F1800.0
M101
G1 X-3.93 Y25.15 Z0.46 F1080.0
M103
G1 X-4.32 Y25.15 Z0.46 F1800.0
M101
G1 X-4.32 Y15.38 Z0.46 F1080.0
M103
G1 X-4.71 Y15.38 Z0.46 F1800.0
M101
G1 X-4.71 Y25.15 Z0.46 F1080.0
M103
G1 X-5.11 Y25.15 Z0.46 F1800.0
M101
G1 X-5.11 Y15.38 Z0.46 F1080.0
M103
G1 X-5.5 Y15.38 Z0.46 F1800.0
M101
G1 X-5.5 Y25.15 Z0.46 F1080.0
M103
G1 X-5.89 Y25.15 Z0.46 F1800.0
M101
G1 X-5.89 Y15.38 Z0.46 F1080.0
M103
G1 X-6.28 Y15.38 Z0.46 F1800.0
M101
G1 X-6.28 Y25.15 Z0.46 F1080.0
M103
G1 X-6.68 Y25.15 Z0.46 F1800.0
M101
G1 X-6.68 Y15.38 Z0.46 F1080.0
M103
G1 X-7.07 Y15.38 Z0.46 F1800.0
M101
G1 X-7.07 Y25.15 Z0.46 F1080.0
M103
G1 X-7.46 Y25.15 Z0.46 F1800.0
M101
G1 X-7.46 Y15.38 Z0.46 F1080.0
M103
G1 X-7.85 Y15.38 Z0.46 F1800.0
M101
G1 X-7.85 Y25.15 Z0.46 F1080.0
M103
G1 X-8.25 Y25.15 Z0.46 F1800.0
M101
G1 X-8.25 Y15.38 Z0.46 F1080.0
M103
G1 X-8.64 Y15.38 Z0.46 F1800.0
M101
G1 X-8.64 Y25.15 Z0.46 F1080.0
M103
G1 X-9.03 Y25.15 Z0.46 F1800.0
M101
G1 X-9.03 Y15.38 Z0.46 F1080.0
M103
G1 X-9.43 Y15.38 Z0.46 F1800.0
M101
G1 X-9.43 Y25.15 Z0.46 F1080.0
M103
G1 X-9.82 Y25.15 Z0.46 F1800.0
M101
G1 X-9.82 Y15.38 Z0.46 F1080.0
M103
G1 X-10.21 Y15.38 Z0.46 F1800.0
M101
G1 X-10.21 Y25.15 Z0.46 F1080.0
M103
G1 X-10.6 Y25.15 Z0.46 F1800.0
M101
G1 X-10.6 Y15.38 Z0.46 F1080.0
M103
G1 X-11.0 Y15.38 Z0.46 F1800.0
M101
G1 X-11.0 Y25.15 Z0.46 F1080.0
M103
G1 X-11.39 Y25.15 Z0.46 F1800.0
M101
G1 X-11.39 Y15.38 Z0.46 F1080.0
M103
G1 X-11.78 Y15.38 Z0.46 F1800.0
M101
G1 X-11.78 Y25.15 Z0.46 F1080.0
M103
G1 X-12.17 Y25.15 Z0.46 F1800.0
M101
G1 X-12.17 Y15.38 Z0.46 F1080.0
M103
G1 X-12.57 Y15.38 Z0.46 F1800.0
M101
G1 X-12.57 Y25.15 Z0.46 F1080.0
M103
G1 X-12.96 Y25.15 Z0.46 F1800.0
M101
G1 X-12.96 Y15.38 Z0.46 F1080.0
M103
G1 X-13.35 Y15.38 Z0.46 F1800.0
M101
G1 X-13.35 Y25.15 Z0.46 F1080.0
M103
G1 X-13.74 Y25.15 Z0.46 F1800.0
M101
G1 X-13.74 Y15.38 Z0.46 F1080.0
M103
G1 X-14.14 Y15.38 Z0.46 F1800.0
M101
G1 X-14.14 Y25.15 Z0.46 F1080.0
M103
G1 X-14.53 Y25.15 Z0.46 F1800.0
M101
G1 X-14.53 Y15.38 Z0.46 F1080.0
M103
G1 X-14.92 Y15.38 Z0.46 F1800.0
M101
G1 X-14.92 Y25.15 Z0.46 F1080.0
M103
G1 X-15.32 Y25.15 Z0.46 F1800.0
M101
G1 X-15.32 Y15.38 Z0.46 F1080.0
M103
G1 X-15.71 Y15.38 Z0.46 F1800.0
M101
G1 X-15.71 Y25.15 Z0.46 F1080.0
M103
G1 X-16.1 Y25.15 Z0.46 F1800.0
M101
G1 X-16.1 Y15.38 Z0.46 F1080.0
M103
G1 X-16.49 Y15.38 Z0.46 F1800.0
M101
G1 X-16.49 Y25.15 Z0.46 F1080.0
M103
G1 X-16.89 Y25.15 Z0.46 F1800.0
M101
G1 X-16.89 Y15.38 Z0.46 F1080.0
M103
G1 X-17.28 Y15.38 Z0.46 F1800.0
M101
G1 X-17.28 Y25.15 Z0.46 F1080.0
M103
G1 X-17.67 Y25.15 Z0.46 F1800.0
M101
G1 X-17.67 Y15.38 Z0.46 F1080.0
M103
G1 X-18.06 Y15.38 Z0.46 F1800.0
M101
G1 X-18.06 Y25.15 Z0.46 F1080.0
M103
G1 X-18.46 Y25.15 Z0.46 F1800.0
M101
G1 X-18.46 Y15.38 Z0.46 F1080.0
M103
G1 X-18.85 Y15.38 Z0.46 F1800.0
M101
G1 X-18.85 Y24.88 Z0.46 F1080.0
M108 R30.0
M102
G1 X-18.85 Y25.15 Z0.46 F1080.0
M108 R2.141
M103
G1 X-19.24 Y-24.67 Z0.46 F1800.0
M108 R30.0
M101
G1 X-19.24 Y-25.15 Z0.46 F1800.0
M108 R2.141
G1 X-19.24 Y25.15 Z0.46 F1080.0
M103
G1 X-19.64 Y25.15 Z0.46 F1800.0
M101
G1 X-19.64 Y-25.15 Z0.46 F1080.0
M103
G1 X-20.03 Y-25.15 Z0.46 F1800.0
M101
G1 X-20.03 Y25.15 Z0.46 F1080.0
M103
G1 X-20.42 Y25.15 Z0.46 F1800.0
M101
G1 X-20.42 Y-25.15 Z0.46 F1080.0
M103
G1 X-20.81 Y-25.15 Z0.46 F1800.0
M101
G1 X-20.81 Y25.15 Z0.46 F1080.0
M103
G1 X-21.21 Y25.15 Z0.46 F1800.0
M101
G1 X-21.21 Y-25.15 Z0.46 F1080.0
M103
G1 X-21.6 Y-25.15 Z0.46 F1800.0
M101
G1 X-21.6 Y25.15 Z0.46 F1080.0
M103
G1 X-21.99 Y25.15 Z0.46 F1800.0
M101
G1 X-21.99 Y-25.15 Z0.46 F1080.0
M103
G1 X-22.38 Y-25.15 Z0.46 F1800.0
M101
G1 X-22.38 Y25.15 Z0.46 F1080.0
M103
G1 X-22.78 Y25.15 Z0.46 F1800.0
M101
G1 X-22.78 Y-24.88 Z0.46 F1080.0
M108 R30.0
M102
G1 X-22.78 Y-25.15 Z0.46 F1080.0
M108 R2.141
M103
G1 X-18.94 Y-25.15 Z0.46 F1800.0
M108 R30.0
M101
G1 X-18.46 Y-25.15 Z0.46 F1800.0
M108 R2.141
G1 X-18.46 Y-19.27 Z0.46 F1080.0
G1 X-18.85 Y-19.27 Z0.46 F1080.0
G1 X-18.85 Y-24.88 Z0.46 F1080.0
M108 R30.0
M102
G1 X-18.85 Y-25.15 Z0.46 F1080.0
M108 R2.141
M103
G1 X-18.15 Y-25.15 Z0.46 F1800.0
M108 R30.0
M101
G1 X-17.67 Y-25.15 Z0.46 F1800.0
M108 R2.141
G1 X-17.67 Y-19.27 Z0.46 F1080.0
G1 X-18.06 Y-19.27 Z0.46 F1080.0
G1 X-18.06 Y-24.88 Z0.46 F1080.0
M108 R30.0
M102
G1 X-18.06 Y-25.15 Z0.46 F1080.0
M108 R2.141
M103
G1 X-17.37 Y-25.15 Z0.46 F1800.0
M108 R30.0
M101
G1 X-16.89 Y-25.15 Z0.46 F1800.0
M108 R2.141
G1 X-16.89 Y-19.27 Z0.46 F1080.0
G1 X-17.28 Y-19.27 Z0.46 F1080.0
G1 X-17.28 Y-24.88 Z0.46 F1080.0
M108 R30.0
M102
G1 X-17.28 Y-25.15 Z0.46 F1080.0
M108 R2.141
M103
G1 X-16.58 Y-25.15 Z0.46 F1800.0
M108 R30.0
M101
G1 X-16.1 Y-25.15 Z0.46 F1800.0
M108 R2.141
G1 X-16.1 Y-19.27 Z0.46 F1080.0
G1 X-16.49 Y-19.27 Z0.46 F1080.0
G1 X-16.49 Y-24.88 Z0.46 F1080.0
M108 R30.0
M102
G1 X-16.49 Y-25.15 Z0.46 F1080.0
M108 R2.141
M103
G1 X-15.8 Y-25.15 Z0.46 F1800.0
M108 R30.0
M101
G1 X-15.32 Y-25.15 Z0.46 F1800.0
M108 R2.141
G1 X-15.32 Y-19.27 Z0.46 F1080.0
G1 X-15.71 Y-19.27 Z0.46 F1080.0
G1 X-15.71 Y-24.88 Z0.46 F1080.0
M108 R30.0
M102
G1 X-15.71 Y-25.15 Z0.46 F1080.0
M108 R2.141
M103
G1 X-15.01 Y-25.15 Z0.46 F1800.0
M108 R30.0
M101
G1 X-14.53 Y-25.15 Z0.46 F1800.0
M108 R2.141
G1 X-14.53 Y-19.27 Z0.46 F1080.0
G1 X-14.92 Y-19.27 Z0.46 F1080.0
G1 X-14.92 Y-24.88 Z0.46 F1080.0
M108 R30.0
M102
G1 X-14.92 Y-25.15 Z0.46 F1080.0
M108 R2.141
M103
G1 X-14.22 Y-25.15 Z0.46 F1800.0
M108 R30.0
M101
G1 X-13.74 Y-25.15 Z0.46 F1800.0
M108 R2.141
G1 X-13.74 Y-19.27 Z0.46 F1080.0
G1 X-14.14 Y-19.27 Z0.46 F1080.0
G1 X-14.14 Y-24.88 Z0.46 F1080.0
M108 R30.0
M102
G1 X-14.14 Y-25.15 Z0.46 F1080.0
M108 R2.141
M103
G1 X-13.44 Y-25.15 Z0.46 F1800.0
M108 R30.0
M101
G1 X-12.96 Y-25.15 Z0.46 F1800.0
M108 R2.141
G1 X-12.96 Y-19.27 Z0.46 F1080.0
G1 X-13.35 Y-19.27 Z0.46 F1080.0
G1 X-13.35 Y-24.88 Z0.46 F1080.0
M108 R30.0
M102
G1 X-13.35 Y-25.15 Z0.46 F1080.0
M108 R2.141
M103
G1 X-12.65 Y-25.15 Z0.46 F1800.0
M108 R30.0
M101
G1 X-12.17 Y-25.15 Z0.46 F1800.0
M108 R2.141
G1 X-12.17 Y-19.27 Z0.46 F1080.0
G1 X-12.57 Y-19.27 Z0.46 F1080.0
G1 X-12.57 Y-24.88 Z0.46 F1080.0
M108 R30.0
M102
G1 X-12.57 Y-25.15 Z0.46 F1080.0
M108 R2.141
M103
G1 X-11.87 Y-25.15 Z0.46 F1800.0
M108 R30.0
M101
G1 X-11.39 Y-25.15 Z0.46 F1800.0
M108 R2.141
G1 X-11.39 Y-19.27 Z0.46 F1080.0
G1 X-11.78 Y-19.27 Z0.46 F1080.0
G1 X-11.78 Y-24.88 Z0.46 F1080.0
M108 R30.0
M102
G1 X-11.78 Y-25.15 Z0.46 F1080.0
M108 R2.141
M103
G1 X-11.08 Y-25.15 Z0.46 F1800.0
M108 R30.0
M101
G1 X-10.6 Y-25.15 Z0.46 F1800.0
M108 R2.141
G1 X-10.6 Y-19.27 Z0.46 F1080.0
G1 X-11.0 Y-19.27 Z0.46 F1080.0
G1 X-11.0 Y-24.88 Z0.46 F1080.0
M108 R30.0
M102
G1 X-11.0 Y-25.15 Z0.46 F1080.0
M108 R2.141
M103
G1 X-10.3 Y-25.15 Z0.46 F1800.0
M108 R30.0
M101
G1 X-9.82 Y-25.15 Z0.46 F1800.0
M108 R2.141
G1 X-9.82 Y-19.27 Z0.46 F1080.0
G1 X-10.21 Y-19.27 Z0.46 F1080.0
G1 X-10.21 Y-24.88 Z0.46 F1080.0
M108 R30.0
M102
G1 X-10.21 Y-25.15 Z0.46 F1080.0
M108 R2.141
M103
G1 X-9.51 Y-25.15 Z0.46 F1800.0
M108 R30.0
M101
G1 X-9.03 Y-25.15 Z0.46 F1800.0
M108 R2.141
G1 X-9.03 Y-19.27 Z0.46 F1080.0
G1 X-9.43 Y-19.27 Z0.46 F1080.0
G1 X-9.43 Y-24.88 Z0.46 F1080.0
M108 R30.0
M102
G1 X-9.43 Y-25.15 Z0.46 F1080.0
M108 R2.141
M103
G1 X-8.73 Y-25.15 Z0.46 F1800.0
M108 R30.0
M101
G1 X-8.25 Y-25.15 Z0.46 F1800.0
M108 R2.141
G1 X-8.25 Y-19.27 Z0.46 F1080.0
G1 X-8.64 Y-19.27 Z0.46 F1080.0
G1 X-8.64 Y-24.88 Z0.46 F1080.0
M108 R30.0
M102
G1 X-8.64 Y-25.15 Z0.46 F1080.0
M108 R2.141
M103
G1 X-7.94 Y-25.15 Z0.46 F1800.0
M108 R30.0
M101
G1 X-7.46 Y-25.15 Z0.46 F1800.0
M108 R2.141
G1 X-7.46 Y-19.27 Z0.46 F1080.0
G1 X-7.85 Y-19.27 Z0.46 F1080.0
G1 X-7.85 Y-24.88 Z0.46 F1080.0
M108 R30.0
M102
G1 X-7.85 Y-25.15 Z0.46 F1080.0
M108 R2.141
M103
G1 X-7.16 Y-25.15 Z0.46 F1800.0
M108 R30.0
M101
G1 X-6.68 Y-25.15 Z0.46 F1800.0
M108 R2.141
G1 X-6.68 Y-19.27 Z0.46 F1080.0
G1 X-7.07 Y-19.27 Z0.46 F1080.0
G1 X-7.07 Y-24.88 Z0.46 F1080.0
M108 R30.0
M102
G1 X-7.07 Y-25.15 Z0.46 F1080.0
M108 R2.141
M103
G1 X-6.37 Y-25.15 Z0.46 F1800.0
M108 R30.0
M101
G1 X-5.89 Y-25.15 Z0.46 F1800.0
M108 R2.141
G1 X-5.89 Y-19.27 Z0.46 F1080.0
G1 X-6.28 Y-19.27 Z0.46 F1080.0
G1 X-6.28 Y-24.88 Z0.46 F1080.0
M108 R30.0
M102
G1 X-6.28 Y-25.15 Z0.46 F1080.0
M108 R2.141
M103
G1 X-5.59 Y-25.15 Z0.46 F1800.0
M108 R30.0
M101
G1 X-5.11 Y-25.15 Z0.46 F1800.0
M108 R2.141
G1 X-5.11 Y-19.27 Z0.46 F1080.0
G1 X-5.5 Y-19.27 Z0.46 F1080.0
G1 X-5.5 Y-24.88 Z0.46 F1080.0
M108 R30.0
M102
G1 X-5.5 Y-25.15 Z0.46 F1080.0
M108 R2.141
M103
G1 X-4.8 Y-25.15 Z0.46 F1800.0
M108 R30.0
M101
G1 X-4.32 Y-25.15 Z0.46 F1800.0
M108 R2.141
G1 X-4.32 Y-19.27 Z0.46 F1080.0
G1 X-4.71 Y-19.27 Z0.46 F1080.0
G1 X-4.71 Y-24.88 Z0.46 F1080.0
M108 R30.0
M102
G1 X-4.71 Y-25.15 Z0.46 F1080.0
M108 R2.141
M103
G1 X-4.01 Y-25.15 Z0.46 F1800.0
M108 R30.0
M101
G1 X-3.53 Y-25.15 Z0.46 F1800.0
M108 R2.141
G1 X-3.53 Y-19.27 Z0.46 F1080.0
G1 X-3.93 Y-19.27 Z0.46 F1080.0
G1 X-3.93 Y-24.88 Z0.46 F1080.0
M108 R30.0
M102
G1 X-3.93 Y-25.15 Z0.46 F1080.0
M108 R2.141
M103
G1 X-3.23 Y-25.15 Z0.46 F1800.0
M108 R30.0
M101
G1 X-2.75 Y-25.15 Z0.46 F1800.0
M108 R2.141
G1 X-2.75 Y-19.27 Z0.46 F1080.0
G1 X-3.14 Y-19.27 Z0.46 F1080.0
G1 X-3.14 Y-24.88 Z0.46 F1080.0
M108 R30.0
M102
G1 X-3.14 Y-25.15 Z0.46 F1080.0
M108 R2.141
M103
G1 X-2.44 Y-25.15 Z0.46 F1800.0
M108 R30.0
M101
G1 X-1.96 Y-25.15 Z0.46 F1800.0
M108 R2.141
G1 X-1.96 Y-19.27 Z0.46 F1080.0
G1 X-2.36 Y-19.27 Z0.46 F1080.0
G1 X-2.36 Y-24.88 Z0.46 F1080.0
M108 R30.0
M102
G1 X-2.36 Y-25.15 Z0.46 F1080.0
M108 R2.141
M103
G1 X-1.66 Y-25.15 Z0.46 F1800.0
M108 R30.0
M101
G1 X-1.18 Y-25.15 Z0.46 F1800.0
M108 R2.141
G1 X-1.18 Y-19.27 Z0.46 F1080.0
G1 X-1.57 Y-19.27 Z0.46 F1080.0
G1 X-1.57 Y-24.88 Z0.46 F1080.0
M108 R30.0
M102
G1 X-1.57 Y-25.15 Z0.46 F1080.0
M108 R2.141
M103
G1 X-0.87 Y-25.15 Z0.46 F1800.0
M108 R30.0
M101
G1 X-0.39 Y-25.15 Z0.46 F1800.0
M108 R2.141
G1 X-0.39 Y-19.27 Z0.46 F1080.0
G1 X-0.79 Y-19.27 Z0.46 F1080.0
G1 X-0.79 Y-24.88 Z0.46 F1080.0
M108 R30.0
M102
G1 X-0.79 Y-25.15 Z0.46 F1080.0
M108 R2.141
M103
G1 X-0.09 Y-25.15 Z0.46 F1800.0
M108 R30.0
M101
G1 X0.39 Y-25.15 Z0.46 F1800.0
M108 R2.141
G1 X0.39 Y-19.27 Z0.46 F1080.0
G1 X-0.0 Y-19.27 Z0.46 F1080.0
G1 X0.0 Y-24.88 Z0.46 F1080.0
M108 R30.0
M102
G1 X-0.0 Y-25.15 Z0.46 F1080.0
M108 R2.141
M103
G1 X0.7 Y-25.15 Z0.46 F1800.0
M108 R30.0
M101
G1 X1.18 Y-25.15 Z0.46 F1800.0
M108 R2.141
G1 X1.18 Y-19.27 Z0.46 F1080.0
G1 X0.79 Y-19.27 Z0.46 F1080.0
G1 X0.79 Y-24.88 Z0.46 F1080.0
M108 R30.0
M102
G1 X0.79 Y-25.15 Z0.46 F1080.0
M108 R2.141
M103
G1 X1.48 Y-25.15 Z0.46 F1800.0
M108 R30.0
M101
G1 X1.96 Y-25.15 Z0.46 F1800.0
M108 R2.141
G1 X1.96 Y-19.27 Z0.46 F1080.0
G1 X1.57 Y-19.27 Z0.46 F1080.0
G1 X1.57 Y-24.88 Z0.46 F1080.0
M108 R30.0
M102
G1 X1.57 Y-25.15 Z0.46 F1080.0
M108 R2.141
M103
G1 X2.27 Y-25.15 Z0.46 F1800.0
M108 R30.0
M101
G1 X2.75 Y-25.15 Z0.46 F1800.0
M108 R2.141
G1 X2.75 Y-19.27 Z0.46 F1080.0
G1 X2.36 Y-19.27 Z0.46 F1080.0
G1 X2.36 Y-24.88 Z0.46 F1080.0
M108 R30.0
M102
G1 X2.36 Y-25.15 Z0.46 F1080.0
M108 R2.141
M103
G1 X3.05 Y-25.15 Z0.46 F1800.0
M108 R30.0
M101
G1 X3.53 Y-25.15 Z0.46 F1800.0
M108 R2.141
G1 X3.53 Y-19.27 Z0.46 F1080.0
G1 X3.14 Y-19.27 Z0.46 F1080.0
G1 X3.14 Y-24.88 Z0.46 F1080.0
M108 R30.0
M102
G1 X3.14 Y-25.15 Z0.46 F1080.0
M108 R2.141
M103
G1 X3.84 Y-25.15 Z0.46 F1800.0
M108 R30.0
M101
G1 X4.32 Y-25.15 Z0.46 F1800.0
M108 R2.141
G1 X4.32 Y-19.27 Z0.46 F1080.0
G1 X3.93 Y-19.27 Z0.46 F1080.0
G1 X3.93 Y-24.88 Z0.46 F1080.0
M108 R30.0
M102
G1 X3.93 Y-25.15 Z0.46 F1080.0
M108 R2.141
M103
G1 X4.63 Y-25.15 Z0.46 F1800.0
M108 R30.0
M101
G1 X5.11 Y-25.15 Z0.46 F1800.0
M108 R2.141
G1 X5.11 Y-19.27 Z0.46 F1080.0
G1 X4.71 Y-19.27 Z0.46 F1080.0
G1 X4.71 Y-24.88 Z0.46 F1080.0
M108 R30.0
M102
G1 X4.71 Y-25.15 Z0.46 F1080.0
M108 R2.141
M103
G1 X5.41 Y-25.15 Z0.46 F1800.0
M108 R30.0
M101
G1 X5.89 Y-25.15 Z0.46 F1800.0
M108 R2.141
G1 X5.89 Y-19.27 Z0.46 F1080.0
G1 X5.5 Y-19.27 Z0.46 F1080.0
G1 X5.5 Y-24.88 Z0.46 F1080.0
M108 R30.0
M102
G1 X5.5 Y-25.15 Z0.46 F1080.0
M108 R2.141
M103
G1 X6.2 Y-25.15 Z0.46 F1800.0
M108 R30.0
M101
G1 X6.68 Y-25.15 Z0.46 F1800.0
M108 R2.141
G1 X6.68 Y-19.27 Z0.46 F1080.0
G1 X6.28 Y-19.27 Z0.46 F1080.0
G1 X6.28 Y-24.88 Z0.46 F1080.0
M108 R30.0
M102
G1 X6.28 Y-25.15 Z0.46 F1080.0
M108 R2.141
M103
G1 X6.98 Y-25.15 Z0.46 F1800.0
M108 R30.0
M101
G1 X7.46 Y-25.15 Z0.46 F1800.0
M108 R2.141
G1 X7.46 Y-19.27 Z0.46 F1080.0
G1 X7.07 Y-19.27 Z0.46 F1080.0
G1 X7.07 Y-24.88 Z0.46 F1080.0
M108 R30.0
M102
G1 X7.07 Y-25.15 Z0.46 F1080.0
M108 R2.141
M103
G1 X7.77 Y-25.15 Z0.46 F1800.0
M108 R30.0
M101
G1 X8.25 Y-25.15 Z0.46 F1800.0
M108 R2.141
G1 X8.25 Y-19.27 Z0.46 F1080.0
G1 X7.85 Y-19.27 Z0.46 F1080.0
G1 X7.85 Y-24.88 Z0.46 F1080.0
M108 R30.0
M102
G1 X7.85 Y-25.15 Z0.46 F1080.0
M108 R2.141
M103
G1 X8.55 Y-25.15 Z0.46 F1800.0
M108 R30.0
M101
G1 X9.03 Y-25.15 Z0.46 F1800.0
M108 R2.141
G1 X9.03 Y-19.27 Z0.46 F1080.0
G1 X8.64 Y-19.27 Z0.46 F1080.0
G1 X8.64 Y-24.88 Z0.46 F1080.0
M108 R30.0
M102
G1 X8.64 Y-25.15 Z0.46 F1080.0
M108 R2.141
M103
G1 X9.34 Y-25.15 Z0.46 F1800.0
M108 R30.0
M101
G1 X9.82 Y-25.15 Z0.46 F1800.0
M108 R2.141
G1 X9.82 Y-19.27 Z0.46 F1080.0
G1 X9.43 Y-19.27 Z0.46 F1080.0
G1 X9.43 Y-24.88 Z0.46 F1080.0
M108 R30.0
M102
G1 X9.43 Y-25.15 Z0.46 F1080.0
M108 R2.141
M103
G1 X10.12 Y-25.15 Z0.46 F1800.0
M108 R30.0
M101
G1 X10.6 Y-25.15 Z0.46 F1800.0
M108 R2.141
G1 X10.6 Y-19.27 Z0.46 F1080.0
G1 X10.21 Y-19.27 Z0.46 F1080.0
G1 X10.21 Y-24.88 Z0.46 F1080.0
M108 R30.0
M102
G1 X10.21 Y-25.15 Z0.46 F1080.0
M108 R2.141
M103
G1 X10.91 Y-25.15 Z0.46 F1800.0
M108 R30.0
M101
G1 X11.39 Y-25.15 Z0.46 F1800.0
M108 R2.141
G1 X11.39 Y-19.27 Z0.46 F1080.0
G1 X11.0 Y-19.27 Z0.46 F1080.0
G1 X11.0 Y-24.88 Z0.46 F1080.0
M108 R30.0
M102
G1 X11.0 Y-25.15 Z0.46 F1080.0
M108 R2.141
M103
G1 X11.69 Y-25.15 Z0.46 F1800.0
M108 R30.0
M101
G1 X12.17 Y-25.15 Z0.46 F1800.0
M108 R2.141
G1 X12.17 Y-19.27 Z0.46 F1080.0
G1 X11.78 Y-19.27 Z0.46 F1080.0
G1 X11.78 Y-24.88 Z0.46 F1080.0
M108 R30.0
M102
G1 X11.78 Y-25.15 Z0.46 F1080.0
M108 R2.141
M103
G1 X12.48 Y-25.15 Z0.46 F1800.0
M108 R30.0
M101
G1 X12.96 Y-25.15 Z0.46 F1800.0
M108 R2.141
G1 X12.96 Y-19.27 Z0.46 F1080.0
G1 X12.57 Y-19.27 Z0.46 F1080.0
G1 X12.57 Y-24.88 Z0.46 F1080.0
M108 R30.0
M102
G1 X12.57 Y-25.15 Z0.46 F1080.0
M108 R2.141
M103
G1 X13.26 Y-25.15 Z0.46 F1800.0
M108 R30.0
M101
G1 X13.74 Y-25.15 Z0.46 F1800.0
M108 R2.141
G1 X13.74 Y-19.27 Z0.46 F1080.0
G1 X13.35 Y-19.27 Z0.46 F1080.0
G1 X13.35 Y-24.88 Z0.46 F1080.0
M108 R30.0
M102
G1 X13.35 Y-25.15 Z0.46 F1080.0
M108 R2.141
M103
G1 X14.05 Y-25.15 Z0.46 F1800.0
M108 R30.0
M101
G1 X14.53 Y-25.15 Z0.46 F1800.0
M108 R2.141
G1 X14.53 Y-19.27 Z0.46 F1080.0
G1 X14.14 Y-19.27 Z0.46 F1080.0
G1 X14.14 Y-24.88 Z0.46 F1080.0
M108 R30.0
M102
G1 X14.14 Y-25.15 Z0.46 F1080.0
M108 R2.141
M103
G1 X14.84 Y-25.15 Z0.46 F1800.0
M108 R30.0
M101
G1 X15.32 Y-25.15 Z0.46 F1800.0
M108 R2.141
G1 X15.32 Y-19.27 Z0.46 F1080.0
G1 X14.92 Y-19.27 Z0.46 F1080.0
G1 X14.92 Y-24.88 Z0.46 F1080.0
M108 R30.0
M102
G1 X14.92 Y-25.15 Z0.46 F1080.0
M108 R2.141
M103
G1 X15.62 Y-25.15 Z0.46 F1800.0
M108 R30.0
M101
G1 X16.1 Y-25.15 Z0.46 F1800.0
M108 R2.141
G1 X16.1 Y-19.27 Z0.46 F1080.0
G1 X15.71 Y-19.27 Z0.46 F1080.0
G1 X15.71 Y-24.88 Z0.46 F1080.0
M108 R30.0
M102
G1 X15.71 Y-25.15 Z0.46 F1080.0
M108 R2.141
M103
G1 X16.41 Y-25.15 Z0.46 F1800.0
M108 R30.0
M101
G1 X16.89 Y-25.15 Z0.46 F1800.0
M108 R2.141
G1 X16.89 Y-19.27 Z0.46 F1080.0
G1 X16.49 Y-19.27 Z0.46 F1080.0
G1 X16.49 Y-24.88 Z0.46 F1080.0
M108 R30.0
M102
G1 X16.49 Y-25.15 Z0.46 F1080.0
M108 R2.141
M103
G1 X17.19 Y-25.15 Z0.46 F1800.0
M108 R30.0
M101
G1 X17.67 Y-25.15 Z0.46 F1800.0
M108 R2.141
G1 X17.67 Y-19.27 Z0.46 F1080.0
G1 X17.28 Y-19.27 Z0.46 F1080.0
G1 X17.28 Y-24.88 Z0.46 F1080.0
M108 R30.0
M102
G1 X17.28 Y-25.15 Z0.46 F1080.0
M108 R2.141
M103
G1 X17.98 Y-25.15 Z0.46 F1800.0
M108 R30.0
M101
G1 X18.46 Y-25.15 Z0.46 F1800.0
M108 R2.141
G1 X18.46 Y-19.27 Z0.46 F1080.0
G1 X18.06 Y-19.27 Z0.46 F1080.0
G1 X18.06 Y-24.88 Z0.46 F1080.0
M108 R30.0
M102
G1 X18.06 Y-25.15 Z0.46 F1080.0
M108 R2.141
M103
G1 X18.76 Y-25.15 Z0.46 F1800.0
M108 R30.0
M101
G1 X19.24 Y-25.15 Z0.46 F1800.0
M108 R2.141
G1 X19.24 Y-19.27 Z0.46 F1080.0
G1 X18.85 Y-19.27 Z0.46 F1080.0
G1 X18.85 Y-24.88 Z0.46 F1080.0
M108 R30.0
M102
G1 X18.85 Y-25.15 Z0.46 F1080.0
M108 R2.141
M103
G1 X19.55 Y-25.15 Z0.46 F1800.0
M108 R30.0
M101
G1 X20.03 Y-25.15 Z0.46 F1800.0
M108 R2.141
G1 X20.03 Y-19.27 Z0.46 F1080.0
G1 X19.64 Y-19.27 Z0.46 F1080.0
G1 X19.64 Y-24.88 Z0.46 F1080.0
M108 R30.0
M102
G1 X19.64 Y-25.15 Z0.46 F1080.0
M108 R2.141
M103
G1 X20.33 Y-25.15 Z0.46 F1800.0
M108 R30.0
M101
G1 X20.81 Y-25.15 Z0.46 F1800.0
M108 R2.141
G1 X20.81 Y-19.27 Z0.46 F1080.0
G1 X20.42 Y-19.27 Z0.46 F1080.0
G1 X20.42 Y-24.88 Z0.46 F1080.0
M108 R30.0
M102
G1 X20.42 Y-25.15 Z0.46 F1080.0
M108 R2.141
M103
G1 X21.2 Y24.67 Z0.46 F1800.0
M108 R30.0
M101
G1 X21.21 Y25.15 Z0.46 F1800.0
M108 R2.141
G1 X21.21 Y-25.15 Z0.46 F1080.0
M103
G1 X21.6 Y-25.15 Z0.46 F1800.0
M101
G1 X21.6 Y25.15 Z0.46 F1080.0
M103
G1 X21.99 Y25.15 Z0.46 F1800.0
M101
G1 X21.99 Y-25.15 Z0.46 F1080.0
M103
G1 X22.38 Y-25.15 Z0.46 F1800.0
M101
G1 X22.38 Y25.15 Z0.46 F1080.0
M103
G1 X22.78 Y25.15 Z0.46 F1800.0
M101
G1 X22.78 Y-25.15 Z0.46 F1080.0
M103
G1 X23.17 Y-25.15 Z0.46 F1800.0
M101
G1 X23.17 Y-5.0 Z0.46 F1080.0
M103
G1 X23.56 Y-5.0 Z0.46 F1800.0
M101
G1 X23.56 Y-25.15 Z0.46 F1080.0
M103
G1 X23.96 Y-25.15 Z0.46 F1800.0
M101
G1 X23.96 Y-5.0 Z0.46 F1080.0
M103
G1 X24.35 Y-5.0 Z0.46 F1800.0
M101
G1 X24.35 Y-25.15 Z0.46 F1080.0
M103
G1 X24.74 Y-25.15 Z0.46 F1800.0
M101
G1 X24.74 Y-5.0 Z0.46 F1080.0
M103
G1 X25.13 Y-5.0 Z0.46 F1800.0
M101
G1 X25.13 Y-25.15 Z0.46 F1080.0
M103
G1 X25.53 Y-25.15 Z0.46 F1800.0
M101
G1 X25.53 Y-5.0 Z0.46 F1080.0
M103
G1 X25.92 Y-5.0 Z0.46 F1800.0
M101
G1 X25.92 Y-25.15 Z0.46 F1080.0
M103
G1 X26.31 Y-25.15 Z0.46 F1800.0
M101
G1 X26.31 Y-5.0 Z0.46 F1080.0
M103
G1 X26.7 Y-5.0 Z0.46 F1800.0
M101
G1 X26.7 Y-25.15 Z0.46 F1080.0
M103
G1 X27.1 Y-25.15 Z0.46 F1800.0
M101
G1 X27.1 Y-5.0 Z0.46 F1080.0
M103
G1 X27.49 Y-5.0 Z0.46 F1800.0
M101
G1 X27.49 Y-25.15 Z0.46 F1080.0
M103
G1 X27.88 Y-25.15 Z0.46 F1800.0
M101
G1 X27.88 Y-5.0 Z0.46 F1080.0
M103
G1 X28.27 Y-5.0 Z0.46 F1800.0
M101
G1 X28.27 Y-25.15 Z0.46 F1080.0
M103
G1 X28.67 Y-25.15 Z0.46 F1800.0
M101
G1 X28.67 Y-5.0 Z0.46 F1080.0
M103
G1 X29.06 Y-5.0 Z0.46 F1800.0
M101
G1 X29.06 Y-25.15 Z0.46 F1080.0
M103
G1 X29.45 Y-25.15 Z0.46 F1800.0
M101
G1 X29.45 Y-5.0 Z0.46 F1080.0
M103
G1 X29.85 Y-5.0 Z0.46 F1800.0
M101
G1 X29.85 Y-25.15 Z0.46 F1080.0
M103
G1 X30.24 Y-25.15 Z0.46 F1800.0
M101
G1 X30.24 Y-5.27 Z0.46 F1080.0
M108 R30.0
M102
G1 X30.24 Y-5.0 Z0.46 F1080.0
M108 R2.141
M103
G1 X30.24 Y-4.43 Z0.46 F3000.0
G1 X23.59 Y-4.29 Z0.46 F3000.0
G1 X23.59 Y1.23 Z0.46 F3000.0
G1 X30.01 Y1.36 Z0.46 F3000.0
M108 R30.0
M101
G1 X30.24 Y1.37 Z0.46 F3000.0
G1 X30.24 Y1.94 Z0.46 F3000.0
M108 R2.141
G1 X30.24 Y25.15 Z0.46 F1080.0
M103
G1 X29.85 Y25.15 Z0.46 F1800.0
M101
G1 X29.85 Y1.94 Z0.46 F1080.0
M103
G1 X29.45 Y1.94 Z0.46 F1800.0
M101
G1 X29.45 Y25.15 Z0.46 F1080.0
M103
G1 X29.06 Y25.15 Z0.46 F1800.0
M101
G1 X29.06 Y1.94 Z0.46 F1080.0
M103
G1 X28.67 Y1.94 Z0.46 F1800.0
M101
G1 X28.67 Y25.15 Z0.46 F1080.0
M103
G1 X28.27 Y25.15 Z0.46 F1800.0
M101
G1 X28.27 Y1.94 Z0.46 F1080.0
M103
G1 X27.88 Y1.94 Z0.46 F1800.0
M101
G1 X27.88 Y25.15 Z0.46 F1080.0
M103
G1 X27.49 Y25.15 Z0.46 F1800.0
M101
G1 X27.49 Y1.94 Z0.46 F1080.0
M103
G1 X27.1 Y1.94 Z0.46 F1800.0
M101
G1 X27.1 Y25.15 Z0.46 F1080.0
M103
G1 X26.7 Y25.15 Z0.46 F1800.0
M101
G1 X26.7 Y1.94 Z0.46 F1080.0
M103
G1 X26.31 Y1.94 Z0.46 F1800.0
M101
G1 X26.31 Y25.15 Z0.46 F1080.0
M103
G1 X25.92 Y25.15 Z0.46 F1800.0
M101
G1 X25.92 Y1.94 Z0.46 F1080.0
M103
G1 X25.53 Y1.94 Z0.46 F1800.0
M101
G1 X25.53 Y25.15 Z0.46 F1080.0
M103
G1 X25.13 Y25.15 Z0.46 F1800.0
M101
G1 X25.13 Y1.94 Z0.46 F1080.0
M103
G1 X24.74 Y1.94 Z0.46 F1800.0
M101
G1 X24.74 Y25.15 Z0.46 F1080.0
M103
G1 X24.35 Y25.15 Z0.46 F1800.0
M101
G1 X24.35 Y1.94 Z0.46 F1080.0
M103
G1 X23.96 Y1.94 Z0.46 F1800.0
M101
G1 X23.96 Y25.15 Z0.46 F1080.0
M103
G1 X23.56 Y25.15 Z0.46 F1800.0
M101
G1 X23.56 Y1.94 Z0.46 F1080.0
M103
G1 X23.17 Y1.94 Z0.46 F1800.0
M101
G1 X23.17 Y24.88 Z0.46 F1080.0
M108 R30.0
M102
G1 X23.17 Y25.15 Z0.46 F1080.0
M108 R2.141
M103
G1 X21.29 Y25.15 Z0.46 F1800.0
M108 R30.0
M101
G1 X20.81 Y25.15 Z0.46 F1800.0
M108 R2.141
G1 X20.81 Y15.38 Z0.46 F1080.0
M103
G1 X20.42 Y15.38 Z0.46 F1800.0
M101
G1 X20.42 Y25.15 Z0.46 F1080.0
M103
G1 X20.03 Y25.15 Z0.46 F1800.0
M101
G1 X20.03 Y15.38 Z0.46 F1080.0
M103
G1 X19.64 Y15.38 Z0.46 F1800.0
M101
G1 X19.64 Y25.15 Z0.46 F1080.0
M103
G1 X19.24 Y25.15 Z0.46 F1800.0
M101
G1 X19.24 Y15.38 Z0.46 F1080.0
M103
G1 X18.85 Y15.38 Z0.46 F1800.0
M101
G1 X18.85 Y25.15 Z0.46 F1080.0
M103
G1 X18.46 Y25.15 Z0.46 F1800.0
M101
G1 X18.46 Y15.38 Z0.46 F1080.0
M103
G1 X18.06 Y15.38 Z0.46 F1800.0
M101
G1 X18.06 Y25.15 Z0.46 F1080.0
M103
G1 X17.67 Y25.15 Z0.46 F1800.0
M101
G1 X17.67 Y15.38 Z0.46 F1080.0
M103
G1 X17.28 Y15.38 Z0.46 F1800.0
M101
G1 X17.28 Y25.15 Z0.46 F1080.0
M103
G1 X16.89 Y25.15 Z0.46 F1800.0
M101
G1 X16.89 Y15.38 Z0.46 F1080.0
M103
G1 X16.49 Y15.38 Z0.46 F1800.0
M101
G1 X16.49 Y25.15 Z0.46 F1080.0
M103
G1 X16.1 Y25.15 Z0.46 F1800.0
M101
G1 X16.1 Y15.38 Z0.46 F1080.0
M103
G1 X15.71 Y15.38 Z0.46 F1800.0
M101
G1 X15.71 Y25.15 Z0.46 F1080.0
M103
G1 X15.32 Y25.15 Z0.46 F1800.0
M101
G1 X15.32 Y15.38 Z0.46 F1080.0
M103
G1 X14.92 Y15.38 Z0.46 F1800.0
M101
G1 X14.92 Y25.15 Z0.46 F1080.0
M103
G1 X14.53 Y25.15 Z0.46 F1800.0
M101
G1 X14.53 Y15.38 Z0.46 F1080.0
M103
G1 X14.14 Y15.38 Z0.46 F1800.0
M101
G1 X14.14 Y25.15 Z0.46 F1080.0
M103
G1 X13.74 Y25.15 Z0.46 F1800.0
M101
G1 X13.74 Y15.38 Z0.46 F1080.0
M103
G1 X13.35 Y15.38 Z0.46 F1800.0
M101
G1 X13.35 Y25.15 Z0.46 F1080.0
M103
G1 X12.96 Y25.15 Z0.46 F1800.0
M101
G1 X12.96 Y15.38 Z0.46 F1080.0
M103
G1 X12.57 Y15.38 Z0.46 F1800.0
M101
G1 X12.57 Y25.15 Z0.46 F1080.0
M103
G1 X12.17 Y25.15 Z0.46 F1800.0
M101
G1 X12.17 Y15.38 Z0.46 F1080.0
M103
G1 X11.78 Y15.38 Z0.46 F1800.0
M101
G1 X11.78 Y25.15 Z0.46 F1080.0
M103
G1 X11.39 Y25.15 Z0.46 F1800.0
M101
G1 X11.39 Y15.38 Z0.46 F1080.0
M103
G1 X11.0 Y15.38 Z0.46 F1800.0
M101
G1 X11.0 Y25.15 Z0.46 F1080.0
M103
G1 X10.6 Y25.15 Z0.46 F1800.0
M101
G1 X10.6 Y15.38 Z0.46 F1080.0
M103
G1 X10.21 Y15.38 Z0.46 F1800.0
M101
G1 X10.21 Y25.15 Z0.46 F1080.0
M103
G1 X9.82 Y25.15 Z0.46 F1800.0
M101
G1 X9.82 Y15.38 Z0.46 F1080.0
M103
G1 X9.43 Y15.38 Z0.46 F1800.0
M101
G1 X9.43 Y25.15 Z0.46 F1080.0
M103
G1 X9.03 Y25.15 Z0.46 F1800.0
M101
G1 X9.03 Y15.38 Z0.46 F1080.0
M103
G1 X8.64 Y15.38 Z0.46 F1800.0
M101
G1 X8.64 Y25.15 Z0.46 F1080.0
M103
G1 X8.25 Y25.15 Z0.46 F1800.0
M101
G1 X8.25 Y15.38 Z0.46 F1080.0
M103
G1 X7.85 Y15.38 Z0.46 F1800.0
M101
G1 X7.85 Y25.15 Z0.46 F1080.0
M103
G1 X7.46 Y25.15 Z0.46 F1800.0
M101
G1 X7.46 Y15.38 Z0.46 F1080.0
M103
G1 X7.07 Y15.38 Z0.46 F1800.0
M101
G1 X7.07 Y25.15 Z0.46 F1080.0
M103
G1 X6.68 Y25.15 Z0.46 F1800.0
M101
G1 X6.68 Y15.38 Z0.46 F1080.0
M103
G1 X6.28 Y15.38 Z0.46 F1800.0
M101
G1 X6.28 Y25.15 Z0.46 F1080.0
M103
G1 X5.89 Y25.15 Z0.46 F1800.0
M101
G1 X5.89 Y15.38 Z0.46 F1080.0
M103
G1 X5.5 Y15.38 Z0.46 F1800.0
M101
G1 X5.5 Y25.15 Z0.46 F1080.0
M103
G1 X5.11 Y25.15 Z0.46 F1800.0
M101
G1 X5.11 Y15.38 Z0.46 F1080.0
M103
G1 X4.71 Y15.38 Z0.46 F1800.0
M101
G1 X4.71 Y25.15 Z0.46 F1080.0
M103
G1 X4.32 Y25.15 Z0.46 F1800.0
M101
G1 X4.32 Y15.38 Z0.46 F1080.0
M103
G1 X3.93 Y15.38 Z0.46 F1800.0
M101
G1 X3.93 Y25.15 Z0.46 F1080.0
M103
G1 X3.53 Y25.15 Z0.46 F1800.0
M101
G1 X3.53 Y15.38 Z0.46 F1080.0
M103
G1 X3.14 Y15.38 Z0.46 F1800.0
M101
G1 X3.14 Y25.15 Z0.46 F1080.0
M103
G1 X2.75 Y25.15 Z0.46 F1800.0
M101
G1 X2.75 Y15.38 Z0.46 F1080.0
M103
G1 X2.36 Y15.38 Z0.46 F1800.0
M101
G1 X2.36 Y25.15 Z0.46 F1080.0
M103
G1 X1.96 Y25.15 Z0.46 F1800.0
M101
G1 X1.96 Y15.38 Z0.46 F1080.0
M103
G1 X1.57 Y15.38 Z0.46 F1800.0
M101
G1 X1.57 Y25.15 Z0.46 F1080.0
M103
G1 X1.18 Y25.15 Z0.46 F1800.0
M101
G1 X1.18 Y15.38 Z0.46 F1080.0
M103
G1 X0.79 Y15.38 Z0.46 F1800.0
M101
G1 X0.79 Y25.15 Z0.46 F1080.0
M103
G1 X0.39 Y25.15 Z0.46 F1800.0
M101
G1 X0.39 Y15.65 Z0.46 F1080.0
M108 R30.0
M102
G1 X0.39 Y15.38 Z0.46 F1080.0
M108 R2.141
M103
G1 X-0.69 Y14.81 Z0.46 F3000.0
G1 X-18.19 Y14.68 Z0.46 F3000.0
G1 X-18.33 Y0.96 Z0.46 F3000.0
G1 X-22.8 Y-2.74 Z0.46 F1800.0
M108 R30.0
M101
G1 X-23.17 Y-3.04 Z0.46 F1800.0
M108 R2.141
G1 X-23.17 Y0.25 Z0.46 F1080.0
G1 X-23.56 Y0.25 Z0.46 F1080.0
G1 X-23.56 Y-3.04 Z0.46 F1080.0
M103
G1 X-23.96 Y-3.04 Z0.46 F1800.0
M101
G1 X-23.96 Y0.25 Z0.46 F1080.0
G1 X-24.35 Y0.25 Z0.46 F1080.0
G1 X-24.35 Y-3.04 Z0.46 F1080.0
M103
G1 X-24.74 Y-3.04 Z0.46 F1800.0
M101
G1 X-24.74 Y0.25 Z0.46 F1080.0
G1 X-25.13 Y0.25 Z0.46 F1080.0
G1 X-25.13 Y-3.04 Z0.46 F1080.0
M103
G1 X-25.53 Y-3.04 Z0.46 F1800.0
M101
G1 X-25.53 Y0.25 Z0.46 F1080.0
G1 X-25.92 Y0.25 Z0.46 F1080.0
G1 X-25.92 Y-3.04 Z0.46 F1080.0
M103
G1 X-26.31 Y-3.04 Z0.46 F1800.0
M101
G1 X-26.31 Y0.25 Z0.46 F1080.0
G1 X-26.7 Y0.25 Z0.46 F1080.0
G1 X-26.7 Y-3.04 Z0.46 F1080.0
M103
G1 X-27.1 Y-3.04 Z0.46 F1800.0
M101
G1 X-27.1 Y0.25 Z0.46 F1080.0
G1 X-27.49 Y0.25 Z0.46 F1080.0
G1 X-27.49 Y-3.04 Z0.46 F1080.0
M103
G1 X-27.88 Y-3.04 Z0.46 F1800.0
M101
G1 X-27.88 Y0.25 Z0.46 F1080.0
G1 X-28.27 Y0.25 Z0.46 F1080.0
G1 X-28.27 Y-3.04 Z0.46 F1080.0
M103
G1 X-28.67 Y-3.04 Z0.46 F1800.0
M101
G1 X-28.67 Y0.25 Z0.46 F1080.0
G1 X-29.06 Y0.25 Z0.46 F1080.0
G1 X-29.06 Y-3.04 Z0.46 F1080.0
M103
G1 X-29.45 Y-3.04 Z0.46 F1800.0
M101
G1 X-29.45 Y0.25 Z0.46 F1080.0
G1 X-29.85 Y0.25 Z0.46 F1080.0
G1 X-29.85 Y-3.04 Z0.46 F1080.0
M103
G1 X-30.24 Y-3.04 Z0.46 F1800.0
M101
G1 X-30.24 Y-0.02 Z0.46 F1080.0
M108 R30.0
M102
G1 X-30.24 Y0.25 Z0.46 F1080.0
M108 R2.141
M103
(</surroundingLoop>)
(</layer>)
(<layer> 0.78 )
(<surroundingLoop>)
(<boundaryPerimeter>)
(<boundaryPoint> X-23.993 Y25.993 Z0.78 </boundaryPoint>)
(<boundaryPoint> X-23.993 Y1.091 Z0.78 </boundaryPoint>)
(<boundaryPoint> X-31.193 Y1.091 Z0.78 </boundaryPoint>)
(<boundaryPoint> X-31.193 Y-3.889 Z0.78 </boundaryPoint>)
(<boundaryPoint> X-23.993 Y-3.889 Z0.78 </boundaryPoint>)
(<boundaryPoint> X-23.993 Y-25.993 Z0.78 </boundaryPoint>)
(<boundaryPoint> X31.193 Y-25.993 Z0.78 </boundaryPoint>)
(<boundaryPoint> X31.193 Y-4.152 Z0.78 </boundaryPoint>)
(<boundaryPoint> X23.723 Y-4.152 Z0.78 </boundaryPoint>)
(<boundaryPoint> X23.723 Y1.091 Z0.78 </boundaryPoint>)
(<boundaryPoint> X31.193 Y1.091 Z0.78 </boundaryPoint>)
(<boundaryPoint> X31.193 Y25.993 Z0.78 </boundaryPoint>)
(<loop> inner )
M108 R3.569
G1 X-19.44 Y0.05 Z0.76 F3000.0
M108 R30.0
M101
G1 X-18.64 Y0.04 Z0.78 F3000.0
M108 R3.569
G1 X-18.64 Y0.25 Z0.78 F1800.0
G1 X-18.64 Y15.13 Z0.78 F1800.0
G1 X20.75 Y15.13 Z0.78 F1800.0
G1 X20.75 Y-19.02 Z0.78 F1800.0
G1 X-18.64 Y-19.02 Z0.78 F1800.0
G1 X-18.64 Y-0.41 Z0.78 F1800.0
M108 R30.0
M102
G1 X-18.64 Y0.04 Z0.78 F1800.0
M108 R3.569
M103
(</loop>)
(<loop> outer )
G1 X-22.61 Y0.43 Z0.78 F3000.0
M108 R30.0
M101
G1 X-23.4 Y0.5 Z0.78 F3000.0
M108 R3.569
G1 X-30.6 Y0.5 Z0.78 F1800.0
G1 X-30.6 Y-3.3 Z0.78 F1800.0
G1 X-23.4 Y-3.3 Z0.78 F1800.0
G1 X-23.4 Y-25.4 Z0.78 F1800.0
G1 X30.6 Y-25.4 Z0.78 F1800.0
G1 X30.6 Y-4.74 Z0.78 F1800.0
G1 X23.13 Y-4.74 Z0.78 F1800.0
G1 X23.13 Y1.68 Z0.78 F1800.0
G1 X30.6 Y1.68 Z0.78 F1800.0
G1 X30.6 Y25.4 Z0.78 F1800.0
G1 X-23.4 Y25.4 Z0.78 F1800.0
G1 X-23.4 Y0.5 Z0.78 F1800.0
M103
(</loop>)
(<perimeter> outer )
G1 X-23.8 Y0.9 Z0.78 F3000.0
M101
G1 X-31.0 Y0.9 Z0.78 F1800.0
G1 X-31.0 Y-3.69 Z0.78 F1800.0
G1 X-23.8 Y-3.69 Z0.78 F1800.0
G1 X-23.8 Y-25.8 Z0.78 F1800.0
G1 X31.0 Y-25.8 Z0.78 F1800.0
G1 X31.0 Y-4.35 Z0.78 F1800.0
G1 X23.53 Y-4.35 Z0.78 F1800.0
G1 X23.53 Y1.29 Z0.78 F1800.0
G1 X31.0 Y1.29 Z0.78 F1800.0
G1 X31.0 Y25.8 Z0.78 F1800.0
G1 X-23.8 Y25.8 Z0.78 F1800.0
G1 X-23.8 Y1.35 Z0.78 F1800.0
M108 R30.0
M102
G1 X-23.8 Y0.9 Z0.78 F1800.0
M108 R3.569
M103
(</perimeter>)
(</boundaryPerimeter>)
(<surroundingLoop>)
(<boundaryPerimeter>)
(<boundaryPoint> X-18.05 Y14.538 Z0.78 </boundaryPoint>)
(<boundaryPoint> X20.156 Y14.538 Z0.78 </boundaryPoint>)
(<boundaryPoint> X20.156 Y-18.428 Z0.78 </boundaryPoint>)
(<boundaryPoint> X-18.05 Y-18.428 Z0.78 </boundaryPoint>)
(<perimeter> inner )
G1 X-19.05 Y0.9 Z0.78 F3000.0
M108 R30.0
M101
G1 X-18.25 Y0.9 Z0.78 F3000.0
M108 R3.569
G1 X-18.25 Y14.74 Z0.78 F1800.0
G1 X20.35 Y14.74 Z0.78 F1800.0
G1 X20.35 Y-18.63 Z0.78 F1800.0
G1 X-18.25 Y-18.63 Z0.78 F1800.0
G1 X-18.25 Y0.45 Z0.78 F1800.0
M108 R30.0
M102
G1 X-18.25 Y0.9 Z0.78 F1800.0
M108 R3.569
M103
(</perimeter>)
(</boundaryPerimeter>)
(</surroundingLoop>)
G1 X-18.33 Y0.96 Z0.78 F3000.0
G1 X-18.19 Y14.68 Z0.78 F3000.0
G1 X20.29 Y14.68 Z0.78 F3000.0
G1 X20.43 Y12.6 Z0.78 F3000.0
G1 X29.59 Y15.47 Z0.78 F3000.0
M108 R30.0
M101
G1 X30.35 Y15.71 Z0.78 F3000.0
M108 R3.569
G1 X-23.15 Y15.71 Z0.78 F1800.0
G1 X-23.15 Y15.32 Z0.78 F1800.0
G1 X-18.9 Y15.32 Z0.78 F1800.0
G1 X-18.9 Y14.92 Z0.78 F1800.0
G1 X-23.15 Y14.92 Z0.78 F1800.0
G1 X-23.15 Y14.53 Z0.78 F1800.0
G1 X-18.9 Y14.53 Z0.78 F1800.0
G1 X-18.9 Y14.14 Z0.78 F1800.0
G1 X-23.15 Y14.14 Z0.78 F1800.0
G1 X-23.15 Y13.74 Z0.78 F1800.0
G1 X-18.9 Y13.74 Z0.78 F1800.0
G1 X-18.9 Y13.35 Z0.78 F1800.0
G1 X-23.15 Y13.35 Z0.78 F1800.0
G1 X-23.15 Y12.96 Z0.78 F1800.0
G1 X-18.9 Y12.96 Z0.78 F1800.0
G1 X-18.9 Y12.57 Z0.78 F1800.0
G1 X-23.15 Y12.57 Z0.78 F1800.0
G1 X-23.15 Y12.17 Z0.78 F1800.0
G1 X-18.9 Y12.17 Z0.78 F1800.0
G1 X-18.9 Y11.78 Z0.78 F1800.0
G1 X-23.15 Y11.78 Z0.78 F1800.0
G1 X-23.15 Y11.39 Z0.78 F1800.0
G1 X-18.9 Y11.39 Z0.78 F1800.0
G1 X-18.9 Y11.0 Z0.78 F1800.0
G1 X-23.15 Y11.0 Z0.78 F1800.0
G1 X-23.15 Y10.6 Z0.78 F1800.0
G1 X-18.9 Y10.6 Z0.78 F1800.0
G1 X-18.9 Y10.21 Z0.78 F1800.0
G1 X-23.15 Y10.21 Z0.78 F1800.0
G1 X-23.15 Y9.82 Z0.78 F1800.0
G1 X-18.9 Y9.82 Z0.78 F1800.0
G1 X-18.9 Y9.43 Z0.78 F1800.0
G1 X-23.15 Y9.43 Z0.78 F1800.0
G1 X-23.15 Y9.03 Z0.78 F1800.0
G1 X-18.9 Y9.03 Z0.78 F1800.0
G1 X-18.9 Y8.64 Z0.78 F1800.0
G1 X-23.15 Y8.64 Z0.78 F1800.0
G1 X-23.15 Y8.25 Z0.78 F1800.0
G1 X-18.9 Y8.25 Z0.78 F1800.0
G1 X-18.9 Y7.85 Z0.78 F1800.0
G1 X-23.15 Y7.85 Z0.78 F1800.0
G1 X-23.15 Y7.46 Z0.78 F1800.0
G1 X-18.9 Y7.46 Z0.78 F1800.0
G1 X-18.9 Y7.07 Z0.78 F1800.0
G1 X-23.15 Y7.07 Z0.78 F1800.0
G1 X-23.15 Y6.68 Z0.78 F1800.0
G1 X-18.9 Y6.68 Z0.78 F1800.0
G1 X-18.9 Y6.28 Z0.78 F1800.0
G1 X-23.15 Y6.28 Z0.78 F1800.0
G1 X-23.15 Y5.89 Z0.78 F1800.0
G1 X-18.9 Y5.89 Z0.78 F1800.0
G1 X-18.9 Y5.5 Z0.78 F1800.0
G1 X-23.15 Y5.5 Z0.78 F1800.0
G1 X-23.15 Y5.11 Z0.78 F1800.0
G1 X-18.9 Y5.11 Z0.78 F1800.0
G1 X-18.9 Y4.71 Z0.78 F1800.0
G1 X-23.15 Y4.71 Z0.78 F1800.0
G1 X-23.15 Y4.32 Z0.78 F1800.0
G1 X-18.9 Y4.32 Z0.78 F1800.0
G1 X-18.9 Y3.93 Z0.78 F1800.0
G1 X-23.15 Y3.93 Z0.78 F1800.0
G1 X-23.15 Y3.53 Z0.78 F1800.0
G1 X-18.9 Y3.53 Z0.78 F1800.0
G1 X-18.9 Y3.14 Z0.78 F1800.0
G1 X-23.15 Y3.14 Z0.78 F1800.0
G1 X-23.15 Y2.75 Z0.78 F1800.0
G1 X-18.9 Y2.75 Z0.78 F1800.0
G1 X-18.9 Y2.36 Z0.78 F1800.0
G1 X-23.15 Y2.36 Z0.78 F1800.0
G1 X-23.15 Y1.96 Z0.78 F1800.0
G1 X-18.9 Y1.96 Z0.78 F1800.0
G1 X-18.9 Y1.57 Z0.78 F1800.0
G1 X-23.15 Y1.57 Z0.78 F1800.0
G1 X-23.15 Y1.18 Z0.78 F1800.0
G1 X-18.9 Y1.18 Z0.78 F1800.0
G1 X-18.9 Y0.79 Z0.78 F1800.0
G1 X-23.15 Y0.79 Z0.78 F1800.0
G1 X-23.15 Y0.39 Z0.78 F1800.0
G1 X-18.9 Y0.39 Z0.78 F1800.0
G1 X-18.9 Y0.0 Z0.78 F1800.0
G1 X-30.35 Y0.0 Z0.78 F1800.0
M103
G1 X-30.35 Y-0.39 Z0.78 F3000.0
M101
G1 X-18.9 Y-0.39 Z0.78 F1800.0
G1 X-18.9 Y-0.79 Z0.78 F1800.0
G1 X-30.35 Y-0.79 Z0.78 F1800.0
M103
G1 X-30.35 Y-1.18 Z0.78 F3000.0
M101
G1 X-18.9 Y-1.18 Z0.78 F1800.0
G1 X-18.9 Y-1.57 Z0.78 F1800.0
G1 X-30.35 Y-1.57 Z0.78 F1800.0
M103
G1 X-30.35 Y-1.96 Z0.78 F3000.0
M101
G1 X-18.9 Y-1.96 Z0.78 F1800.0
G1 X-18.9 Y-2.36 Z0.78 F1800.0
G1 X-30.35 Y-2.36 Z0.78 F1800.0
M103
G1 X-30.35 Y-2.75 Z0.78 F3000.0
M101
G1 X-18.9 Y-2.75 Z0.78 F1800.0
G1 X-18.9 Y-3.14 Z0.78 F1800.0
G1 X-23.15 Y-3.14 Z0.78 F1800.0
G1 X-23.15 Y-3.53 Z0.78 F1800.0
G1 X-18.9 Y-3.53 Z0.78 F1800.0
G1 X-18.9 Y-3.93 Z0.78 F1800.0
G1 X-23.15 Y-3.93 Z0.78 F1800.0
G1 X-23.15 Y-4.32 Z0.78 F1800.0
G1 X-18.9 Y-4.32 Z0.78 F1800.0
G1 X-18.9 Y-4.71 Z0.78 F1800.0
G1 X-23.15 Y-4.71 Z0.78 F1800.0
G1 X-23.15 Y-5.11 Z0.78 F1800.0
G1 X-18.9 Y-5.11 Z0.78 F1800.0
G1 X-18.9 Y-5.5 Z0.78 F1800.0
G1 X-23.15 Y-5.5 Z0.78 F1800.0
G1 X-23.15 Y-5.89 Z0.78 F1800.0
G1 X-18.9 Y-5.89 Z0.78 F1800.0
G1 X-18.9 Y-6.28 Z0.78 F1800.0
G1 X-23.15 Y-6.28 Z0.78 F1800.0
G1 X-23.15 Y-6.68 Z0.78 F1800.0
G1 X-18.9 Y-6.68 Z0.78 F1800.0
G1 X-18.9 Y-7.07 Z0.78 F1800.0
G1 X-23.15 Y-7.07 Z0.78 F1800.0
G1 X-23.15 Y-7.46 Z0.78 F1800.0
G1 X-18.9 Y-7.46 Z0.78 F1800.0
G1 X-18.9 Y-7.85 Z0.78 F1800.0
G1 X-23.15 Y-7.85 Z0.78 F1800.0
G1 X-23.15 Y-8.25 Z0.78 F1800.0
G1 X-18.9 Y-8.25 Z0.78 F1800.0
G1 X-18.9 Y-8.64 Z0.78 F1800.0
G1 X-23.15 Y-8.64 Z0.78 F1800.0
G1 X-23.15 Y-9.03 Z0.78 F1800.0
G1 X-18.9 Y-9.03 Z0.78 F1800.0
G1 X-18.9 Y-9.43 Z0.78 F1800.0
G1 X-23.15 Y-9.43 Z0.78 F1800.0
G1 X-23.15 Y-9.82 Z0.78 F1800.0
G1 X-18.9 Y-9.82 Z0.78 F1800.0
G1 X-18.9 Y-10.21 Z0.78 F1800.0
G1 X-23.15 Y-10.21 Z0.78 F1800.0
G1 X-23.15 Y-10.6 Z0.78 F1800.0
G1 X-18.9 Y-10.6 Z0.78 F1800.0
G1 X-18.9 Y-11.0 Z0.78 F1800.0
G1 X-23.15 Y-11.0 Z0.78 F1800.0
G1 X-23.15 Y-11.39 Z0.78 F1800.0
G1 X-18.9 Y-11.39 Z0.78 F1800.0
G1 X-18.9 Y-11.78 Z0.78 F1800.0
G1 X-23.15 Y-11.78 Z0.78 F1800.0
G1 X-23.15 Y-12.17 Z0.78 F1800.0
G1 X-18.9 Y-12.17 Z0.78 F1800.0
G1 X-18.9 Y-12.57 Z0.78 F1800.0
G1 X-23.15 Y-12.57 Z0.78 F1800.0
G1 X-23.15 Y-12.96 Z0.78 F1800.0
G1 X-18.9 Y-12.96 Z0.78 F1800.0
G1 X-18.9 Y-13.35 Z0.78 F1800.0
G1 X-23.15 Y-13.35 Z0.78 F1800.0
G1 X-23.15 Y-13.74 Z0.78 F1800.0
G1 X-18.9 Y-13.74 Z0.78 F1800.0
G1 X-18.9 Y-14.14 Z0.78 F1800.0
G1 X-23.15 Y-14.14 Z0.78 F1800.0
G1 X-23.15 Y-14.53 Z0.78 F1800.0
G1 X-18.9 Y-14.53 Z0.78 F1800.0
G1 X-18.9 Y-14.92 Z0.78 F1800.0
G1 X-23.15 Y-14.92 Z0.78 F1800.0
G1 X-23.15 Y-15.32 Z0.78 F1800.0
G1 X-18.9 Y-15.32 Z0.78 F1800.0
G1 X-18.9 Y-15.71 Z0.78 F1800.0
G1 X-23.15 Y-15.71 Z0.78 F1800.0
G1 X-23.15 Y-16.1 Z0.78 F1800.0
G1 X-18.9 Y-16.1 Z0.78 F1800.0
G1 X-18.9 Y-16.49 Z0.78 F1800.0
G1 X-23.15 Y-16.49 Z0.78 F1800.0
G1 X-23.15 Y-16.89 Z0.78 F1800.0
G1 X-18.9 Y-16.89 Z0.78 F1800.0
G1 X-18.9 Y-17.28 Z0.78 F1800.0
G1 X-23.15 Y-17.28 Z0.78 F1800.0
G1 X-23.15 Y-17.67 Z0.78 F1800.0
G1 X-18.9 Y-17.67 Z0.78 F1800.0
G1 X-18.9 Y-18.06 Z0.78 F1800.0
G1 X-23.15 Y-18.06 Z0.78 F1800.0
G1 X-23.15 Y-18.46 Z0.78 F1800.0
G1 X-18.9 Y-18.46 Z0.78 F1800.0
G1 X-18.9 Y-18.85 Z0.78 F1800.0
G1 X-23.15 Y-18.85 Z0.78 F1800.0
G1 X-23.15 Y-19.24 Z0.78 F1800.0
G1 X29.9 Y-19.24 Z0.78 F1800.0
M108 R30.0
M102
G1 X30.35 Y-19.24 Z0.78 F1800.0
M108 R3.569
M103
G1 X21.8 Y-18.88 Z0.78 F3000.0
M108 R30.0
M101
G1 X21.0 Y-18.85 Z0.78 F3000.0
M108 R3.569
G1 X30.35 Y-18.85 Z0.78 F1800.0
M103
G1 X30.35 Y-18.46 Z0.78 F3000.0
M101
G1 X21.0 Y-18.46 Z0.78 F1800.0
M103
G1 X21.0 Y-18.06 Z0.78 F3000.0
M101
G1 X30.35 Y-18.06 Z0.78 F1800.0
M103
G1 X30.35 Y-17.67 Z0.78 F3000.0
M101
G1 X21.0 Y-17.67 Z0.78 F1800.0
M103
G1 X21.0 Y-17.28 Z0.78 F3000.0
M101
G1 X30.35 Y-17.28 Z0.78 F1800.0
M103
G1 X30.35 Y-16.89 Z0.78 F3000.0
M101
G1 X21.0 Y-16.89 Z0.78 F1800.0
M103
G1 X21.0 Y-16.49 Z0.78 F3000.0
M101
G1 X30.35 Y-16.49 Z0.78 F1800.0
M103
G1 X30.35 Y-16.1 Z0.78 F3000.0
M101
G1 X21.0 Y-16.1 Z0.78 F1800.0
M103
G1 X21.0 Y-15.71 Z0.78 F3000.0
M101
G1 X30.35 Y-15.71 Z0.78 F1800.0
M103
G1 X30.35 Y-15.32 Z0.78 F3000.0
M101
G1 X21.0 Y-15.32 Z0.78 F1800.0
M103
G1 X21.0 Y-14.92 Z0.78 F3000.0
M101
G1 X30.35 Y-14.92 Z0.78 F1800.0
M103
G1 X30.35 Y-14.53 Z0.78 F3000.0
M101
G1 X21.0 Y-14.53 Z0.78 F1800.0
M103
G1 X21.0 Y-14.14 Z0.78 F3000.0
M101
G1 X30.35 Y-14.14 Z0.78 F1800.0
M103
G1 X30.35 Y-13.74 Z0.78 F3000.0
M101
G1 X21.0 Y-13.74 Z0.78 F1800.0
M103
G1 X21.0 Y-13.35 Z0.78 F3000.0
M101
G1 X30.35 Y-13.35 Z0.78 F1800.0
M103
G1 X30.35 Y-12.96 Z0.78 F3000.0
M101
G1 X21.0 Y-12.96 Z0.78 F1800.0
M103
G1 X21.0 Y-12.57 Z0.78 F3000.0
M101
G1 X30.35 Y-12.57 Z0.78 F1800.0
M103
G1 X30.35 Y-12.17 Z0.78 F3000.0
M101
G1 X21.0 Y-12.17 Z0.78 F1800.0
M103
G1 X21.0 Y-11.78 Z0.78 F3000.0
M101
G1 X30.35 Y-11.78 Z0.78 F1800.0
M103
G1 X30.35 Y-11.39 Z0.78 F3000.0
M101
G1 X21.0 Y-11.39 Z0.78 F1800.0
M103
G1 X21.0 Y-11.0 Z0.78 F3000.0
M101
G1 X30.35 Y-11.0 Z0.78 F1800.0
M103
G1 X30.35 Y-10.6 Z0.78 F3000.0
M101
G1 X21.0 Y-10.6 Z0.78 F1800.0
M103
G1 X21.0 Y-10.21 Z0.78 F3000.0
M101
G1 X30.35 Y-10.21 Z0.78 F1800.0
M103
G1 X30.35 Y-9.82 Z0.78 F3000.0
M101
G1 X21.0 Y-9.82 Z0.78 F1800.0
M103
G1 X21.0 Y-9.43 Z0.78 F3000.0
M101
G1 X30.35 Y-9.43 Z0.78 F1800.0
M103
G1 X30.35 Y-9.03 Z0.78 F3000.0
M101
G1 X21.0 Y-9.03 Z0.78 F1800.0
M103
G1 X21.0 Y-8.64 Z0.78 F3000.0
M101
G1 X30.35 Y-8.64 Z0.78 F1800.0
M103
G1 X30.35 Y-8.25 Z0.78 F3000.0
M101
G1 X21.0 Y-8.25 Z0.78 F1800.0
M103
G1 X21.0 Y-7.85 Z0.78 F3000.0
M101
G1 X30.35 Y-7.85 Z0.78 F1800.0
M103
G1 X30.35 Y-7.46 Z0.78 F3000.0
M101
G1 X21.0 Y-7.46 Z0.78 F1800.0
M103
G1 X21.0 Y-7.07 Z0.78 F3000.0
M101
G1 X30.35 Y-7.07 Z0.78 F1800.0
M103
G1 X30.35 Y-6.68 Z0.78 F3000.0
M101
G1 X21.0 Y-6.68 Z0.78 F1800.0
M103
G1 X21.0 Y-6.28 Z0.78 F3000.0
M101
G1 X30.35 Y-6.28 Z0.78 F1800.0
M103
G1 X30.35 Y-5.89 Z0.78 F3000.0
M101
G1 X21.0 Y-5.89 Z0.78 F1800.0
M103
G1 X21.0 Y-5.5 Z0.78 F3000.0
M101
G1 X30.35 Y-5.5 Z0.78 F1800.0
M103
G1 X30.35 Y-5.11 Z0.78 F3000.0
M101
G1 X21.0 Y-5.11 Z0.78 F1800.0
M103
G1 X21.0 Y-4.71 Z0.78 F3000.0
M101
G1 X22.88 Y-4.71 Z0.78 F1800.0
M103
G1 X22.88 Y-4.32 Z0.78 F3000.0
M101
G1 X21.0 Y-4.32 Z0.78 F1800.0
M103
G1 X21.0 Y-3.93 Z0.78 F3000.0
M101
G1 X22.88 Y-3.93 Z0.78 F1800.0
M103
G1 X22.88 Y-3.53 Z0.78 F3000.0
M101
G1 X21.0 Y-3.53 Z0.78 F1800.0
M103
G1 X21.0 Y-3.14 Z0.78 F3000.0
M101
G1 X22.88 Y-3.14 Z0.78 F1800.0
M103
G1 X22.88 Y-2.75 Z0.78 F3000.0
M101
G1 X21.0 Y-2.75 Z0.78 F1800.0
M103
G1 X21.0 Y-2.36 Z0.78 F3000.0
M101
G1 X22.88 Y-2.36 Z0.78 F1800.0
M103
G1 X22.88 Y-1.96 Z0.78 F3000.0
M101
G1 X21.0 Y-1.96 Z0.78 F1800.0
M103
G1 X21.0 Y-1.57 Z0.78 F3000.0
M101
G1 X22.88 Y-1.57 Z0.78 F1800.0
M103
G1 X22.88 Y-1.18 Z0.78 F3000.0
M101
G1 X21.0 Y-1.18 Z0.78 F1800.0
M103
G1 X21.0 Y-0.79 Z0.78 F3000.0
M101
G1 X22.88 Y-0.79 Z0.78 F1800.0
M103
G1 X22.88 Y-0.39 Z0.78 F3000.0
M101
G1 X21.0 Y-0.39 Z0.78 F1800.0
M103
G1 X21.0 Y-0.0 Z0.78 F3000.0
M101
G1 X22.88 Y-0.0 Z0.78 F1800.0
M103
G1 X22.88 Y0.39 Z0.78 F3000.0
M101
G1 X21.0 Y0.39 Z0.78 F1800.0
M103
G1 X21.0 Y0.79 Z0.78 F3000.0
M101
G1 X22.88 Y0.79 Z0.78 F1800.0
M103
G1 X22.88 Y1.18 Z0.78 F3000.0
M101
G1 X21.0 Y1.18 Z0.78 F1800.0
M103
G1 X21.0 Y1.57 Z0.78 F3000.0
M101
G1 X22.43 Y1.57 Z0.78 F1800.0
M108 R30.0
M102
G1 X22.88 Y1.57 Z0.78 F1800.0
M108 R3.569
M103
G1 X21.78 Y1.8 Z0.78 F3000.0
M108 R30.0
M101
G1 X21.0 Y1.96 Z0.78 F3000.0
M108 R3.569
G1 X30.35 Y1.96 Z0.78 F1800.0
M103
G1 X30.35 Y2.36 Z0.78 F3000.0
M101
G1 X21.0 Y2.36 Z0.78 F1800.0
M103
G1 X21.0 Y2.75 Z0.78 F3000.0
M101
G1 X30.35 Y2.75 Z0.78 F1800.0
M103
G1 X30.35 Y3.14 Z0.78 F3000.0
M101
G1 X21.0 Y3.14 Z0.78 F1800.0
M103
G1 X21.0 Y3.53 Z0.78 F3000.0
M101
G1 X30.35 Y3.53 Z0.78 F1800.0
M103
G1 X30.35 Y3.93 Z0.78 F3000.0
M101
G1 X21.0 Y3.93 Z0.78 F1800.0
M103
G1 X21.0 Y4.32 Z0.78 F3000.0
M101
G1 X30.35 Y4.32 Z0.78 F1800.0
M103
G1 X30.35 Y4.71 Z0.78 F3000.0
M101
G1 X21.0 Y4.71 Z0.78 F1800.0
M103
G1 X21.0 Y5.11 Z0.78 F3000.0
M101
G1 X30.35 Y5.11 Z0.78 F1800.0
M103
G1 X30.35 Y5.5 Z0.78 F3000.0
M101
G1 X21.0 Y5.5 Z0.78 F1800.0
M103
G1 X21.0 Y5.89 Z0.78 F3000.0
M101
G1 X30.35 Y5.89 Z0.78 F1800.0
M103
G1 X30.35 Y6.28 Z0.78 F3000.0
M101
G1 X21.0 Y6.28 Z0.78 F1800.0
M103
G1 X21.0 Y6.68 Z0.78 F3000.0
M101
G1 X30.35 Y6.68 Z0.78 F1800.0
M103
G1 X30.35 Y7.07 Z0.78 F3000.0
M101
G1 X21.0 Y7.07 Z0.78 F1800.0
M103
G1 X21.0 Y7.46 Z0.78 F3000.0
M101
G1 X30.35 Y7.46 Z0.78 F1800.0
M103
G1 X30.35 Y7.85 Z0.78 F3000.0
M101
G1 X21.0 Y7.85 Z0.78 F1800.0
M103
G1 X21.0 Y8.25 Z0.78 F3000.0
M101
G1 X30.35 Y8.25 Z0.78 F1800.0
M103
G1 X30.35 Y8.64 Z0.78 F3000.0
M101
G1 X21.0 Y8.64 Z0.78 F1800.0
M103
G1 X21.0 Y9.03 Z0.78 F3000.0
M101
G1 X30.35 Y9.03 Z0.78 F1800.0
M103
G1 X30.35 Y9.43 Z0.78 F3000.0
M101
G1 X21.0 Y9.43 Z0.78 F1800.0
M103
G1 X21.0 Y9.82 Z0.78 F3000.0
M101
G1 X30.35 Y9.82 Z0.78 F1800.0
M103
G1 X30.35 Y10.21 Z0.78 F3000.0
M101
G1 X21.0 Y10.21 Z0.78 F1800.0
M103
G1 X21.0 Y10.6 Z0.78 F3000.0
M101
G1 X30.35 Y10.6 Z0.78 F1800.0
M103
G1 X30.35 Y11.0 Z0.78 F3000.0
M101
G1 X21.0 Y11.0 Z0.78 F1800.0
M103
G1 X21.0 Y11.39 Z0.78 F3000.0
M101
G1 X30.35 Y11.39 Z0.78 F1800.0
M103
G1 X30.35 Y11.78 Z0.78 F3000.0
M101
G1 X21.0 Y11.78 Z0.78 F1800.0
M103
G1 X21.0 Y12.17 Z0.78 F3000.0
M101
G1 X30.35 Y12.17 Z0.78 F1800.0
M103
G1 X30.35 Y12.57 Z0.78 F3000.0
M101
G1 X21.0 Y12.57 Z0.78 F1800.0
M103
G1 X21.0 Y12.96 Z0.78 F3000.0
M101
G1 X30.35 Y12.96 Z0.78 F1800.0
M103
G1 X30.35 Y13.35 Z0.78 F3000.0
M101
G1 X21.0 Y13.35 Z0.78 F1800.0
M103
G1 X21.0 Y13.74 Z0.78 F3000.0
M101
G1 X30.35 Y13.74 Z0.78 F1800.0
M103
G1 X30.35 Y14.14 Z0.78 F3000.0
M101
G1 X21.0 Y14.14 Z0.78 F1800.0
M103
G1 X21.0 Y14.53 Z0.78 F3000.0
M101
G1 X30.35 Y14.53 Z0.78 F1800.0
M103
G1 X30.35 Y14.92 Z0.78 F3000.0
M101
G1 X21.0 Y14.92 Z0.78 F1800.0
M103
G1 X21.0 Y15.32 Z0.78 F3000.0
M101
G1 X29.9 Y15.32 Z0.78 F1800.0
M108 R30.0
M102
G1 X30.35 Y15.32 Z0.78 F1800.0
M108 R3.569
M103
G1 X30.35 Y15.69 Z0.78 F3000.0
M108 R30.0
M101
G1 X30.35 Y16.49 Z0.78 F3000.0
M108 R3.569
G1 X-23.15 Y16.49 Z0.78 F1800.0
G1 X-23.15 Y16.1 Z0.78 F1800.0
G1 X29.9 Y16.1 Z0.78 F1800.0
M108 R30.0
M102
G1 X30.35 Y16.1 Z0.78 F1800.0
M108 R3.569
M103
G1 X30.35 Y16.48 Z0.78 F3000.0
M108 R30.0
M101
G1 X30.35 Y17.28 Z0.78 F3000.0
M108 R3.569
G1 X-23.15 Y17.28 Z0.78 F1800.0
G1 X-23.15 Y16.89 Z0.78 F1800.0
G1 X29.9 Y16.89 Z0.78 F1800.0
M108 R30.0
M102
G1 X30.35 Y16.89 Z0.78 F1800.0
M108 R3.569
M103
G1 X30.35 Y17.26 Z0.78 F3000.0
M108 R30.0
M101
G1 X30.35 Y18.06 Z0.78 F3000.0
M108 R3.569
G1 X-23.15 Y18.06 Z0.78 F1800.0
G1 X-23.15 Y17.67 Z0.78 F1800.0
G1 X29.9 Y17.67 Z0.78 F1800.0
M108 R30.0
M102
G1 X30.35 Y17.67 Z0.78 F1800.0
M108 R3.569
M103
G1 X30.35 Y18.05 Z0.78 F3000.0
M108 R30.0
M101
G1 X30.35 Y18.85 Z0.78 F3000.0
M108 R3.569
G1 X-23.15 Y18.85 Z0.78 F1800.0
G1 X-23.15 Y18.46 Z0.78 F1800.0
G1 X29.9 Y18.46 Z0.78 F1800.0
M108 R30.0
M102
G1 X30.35 Y18.46 Z0.78 F1800.0
M108 R3.569
M103
G1 X30.35 Y18.84 Z0.78 F3000.0
M108 R30.0
M101
G1 X30.35 Y19.64 Z0.78 F3000.0
M108 R3.569
G1 X-23.15 Y19.64 Z0.78 F1800.0
G1 X-23.15 Y19.24 Z0.78 F1800.0
G1 X29.9 Y19.24 Z0.78 F1800.0
M108 R30.0
M102
G1 X30.35 Y19.24 Z0.78 F1800.0
M108 R3.569
M103
G1 X30.35 Y19.62 Z0.78 F3000.0
M108 R30.0
M101
G1 X30.35 Y20.42 Z0.78 F3000.0
M108 R3.569
G1 X-23.15 Y20.42 Z0.78 F1800.0
G1 X-23.15 Y20.03 Z0.78 F1800.0
G1 X29.9 Y20.03 Z0.78 F1800.0
M108 R30.0
M102
G1 X30.35 Y20.03 Z0.78 F1800.0
M108 R3.569
M103
G1 X30.35 Y20.41 Z0.78 F3000.0
M108 R30.0
M101
G1 X30.35 Y21.21 Z0.78 F3000.0
M108 R3.569
G1 X-23.15 Y21.21 Z0.78 F1800.0
G1 X-23.15 Y20.81 Z0.78 F1800.0
G1 X29.9 Y20.81 Z0.78 F1800.0
M108 R30.0
M102
G1 X30.35 Y20.81 Z0.78 F1800.0
M108 R3.569
M103
G1 X30.35 Y21.19 Z0.78 F3000.0
M108 R30.0
M101
G1 X30.35 Y21.99 Z0.78 F3000.0
M108 R3.569
G1 X-23.15 Y21.99 Z0.78 F1800.0
G1 X-23.15 Y21.6 Z0.78 F1800.0
G1 X29.9 Y21.6 Z0.78 F1800.0
M108 R30.0
M102
G1 X30.35 Y21.6 Z0.78 F1800.0
M108 R3.569
M103
G1 X30.35 Y21.98 Z0.78 F3000.0
M108 R30.0
M101
G1 X30.35 Y22.78 Z0.78 F3000.0
M108 R3.569
G1 X-23.15 Y22.78 Z0.78 F1800.0
G1 X-23.15 Y22.38 Z0.78 F1800.0
G1 X29.9 Y22.38 Z0.78 F1800.0
M108 R30.0
M102
G1 X30.35 Y22.38 Z0.78 F1800.0
M108 R3.569
M103
G1 X30.35 Y22.76 Z0.78 F3000.0
M108 R30.0
M101
G1 X30.35 Y23.56 Z0.78 F3000.0
M108 R3.569
G1 X-23.15 Y23.56 Z0.78 F1800.0
G1 X-23.15 Y23.17 Z0.78 F1800.0
G1 X29.9 Y23.17 Z0.78 F1800.0
M108 R30.0
M102
G1 X30.35 Y23.17 Z0.78 F1800.0
M108 R3.569
M103
G1 X30.35 Y23.55 Z0.78 F3000.0
M108 R30.0
M101
G1 X30.35 Y24.35 Z0.78 F3000.0
M108 R3.569
G1 X-23.15 Y24.35 Z0.78 F1800.0
G1 X-23.15 Y23.96 Z0.78 F1800.0
G1 X29.9 Y23.96 Z0.78 F1800.0
M108 R30.0
M102
G1 X30.35 Y23.96 Z0.78 F1800.0
M108 R3.569
M103
G1 X30.35 Y24.33 Z0.78 F3000.0
M108 R30.0
M101
G1 X30.35 Y25.13 Z0.78 F3000.0
M108 R3.569
G1 X-23.15 Y25.13 Z0.78 F1800.0
G1 X-23.15 Y24.74 Z0.78 F1800.0
G1 X29.9 Y24.74 Z0.78 F1800.0
M108 R30.0
M102
G1 X30.35 Y24.74 Z0.78 F1800.0
M108 R3.569
M103
G1 X18.05 Y14.81 Z0.78 F3000.0
G1 X-18.19 Y14.68 Z0.78 F3000.0
G1 X-18.33 Y-15.41 Z0.78 F3000.0
G1 X-22.55 Y-19.11 Z0.78 F3000.0
M108 R30.0
M101
G1 X-23.15 Y-19.64 Z0.78 F3000.0
M108 R3.569
G1 X30.35 Y-19.64 Z0.78 F1800.0
M103
G1 X30.35 Y-20.03 Z0.78 F3000.0
M101
G1 X-23.15 Y-20.03 Z0.78 F1800.0
G1 X-23.15 Y-20.42 Z0.78 F1800.0
G1 X30.35 Y-20.42 Z0.78 F1800.0
M103
G1 X30.35 Y-20.81 Z0.78 F3000.0
M101
G1 X-23.15 Y-20.81 Z0.78 F1800.0
G1 X-23.15 Y-21.21 Z0.78 F1800.0
G1 X30.35 Y-21.21 Z0.78 F1800.0
M103
G1 X30.35 Y-21.6 Z0.78 F3000.0
M101
G1 X-23.15 Y-21.6 Z0.78 F1800.0
G1 X-23.15 Y-21.99 Z0.78 F1800.0
G1 X30.35 Y-21.99 Z0.78 F1800.0
M103
G1 X30.35 Y-22.38 Z0.78 F3000.0
M101
G1 X-23.15 Y-22.38 Z0.78 F1800.0
G1 X-23.15 Y-22.78 Z0.78 F1800.0
G1 X30.35 Y-22.78 Z0.78 F1800.0
M103
G1 X30.35 Y-23.17 Z0.78 F3000.0
M101
G1 X-23.15 Y-23.17 Z0.78 F1800.0
G1 X-23.15 Y-23.56 Z0.78 F1800.0
G1 X30.35 Y-23.56 Z0.78 F1800.0
M103
G1 X30.35 Y-23.96 Z0.78 F3000.0
M101
G1 X-23.15 Y-23.96 Z0.78 F1800.0
G1 X-23.15 Y-24.35 Z0.78 F1800.0
G1 X30.35 Y-24.35 Z0.78 F1800.0
M103
G1 X30.35 Y-24.74 Z0.78 F3000.0
M101
G1 X-23.15 Y-24.74 Z0.78 F1800.0
G1 X-23.15 Y-25.13 Z0.78 F1800.0
G1 X29.9 Y-25.13 Z0.78 F1800.0
M108 R30.0
M102
G1 X30.35 Y-25.13 Z0.78 F1800.0
M108 R3.569
M103
(</surroundingLoop>)
(</layer>)
(<operatingLayerEnd> </operatingLayerEnd>)
(<layer> 1.1 )
(<surroundingLoop>)
(<boundaryPerimeter>)
(<boundaryPoint> X-23.993 Y25.993 Z1.1 </boundaryPoint>)
(<boundaryPoint> X-23.993 Y1.091 Z1.1 </boundaryPoint>)
(<boundaryPoint> X-31.193 Y1.091 Z1.1 </boundaryPoint>)
(<boundaryPoint> X-31.193 Y-3.889 Z1.1 </boundaryPoint>)
(<boundaryPoint> X-23.993 Y-3.889 Z1.1 </boundaryPoint>)
(<boundaryPoint> X-23.993 Y-25.993 Z1.1 </boundaryPoint>)
(<boundaryPoint> X31.193 Y-25.993 Z1.1 </boundaryPoint>)
(<boundaryPoint> X31.193 Y-4.152 Z1.1 </boundaryPoint>)
(<boundaryPoint> X23.723 Y-4.152 Z1.1 </boundaryPoint>)
(<boundaryPoint> X23.723 Y1.091 Z1.1 </boundaryPoint>)
(<boundaryPoint> X31.193 Y1.091 Z1.1 </boundaryPoint>)
(<boundaryPoint> X31.193 Y25.993 Z1.1 </boundaryPoint>)
(<loop> inner )
G1 X21.15 Y-19.44 Z1.08 F3000.0
M108 R30.0
M101
G1 X20.47 Y-19.02 Z1.1 F3000.0
M108 R3.569
G1 X-18.64 Y-19.02 Z1.1 F1800.0
G1 X-18.64 Y15.13 Z1.1 F1800.0
G1 X20.75 Y15.13 Z1.1 F1800.0
G1 X20.75 Y-18.85 Z1.1 F1800.0
M108 R30.0
M102
G1 X20.75 Y-19.02 Z1.1 F1800.0
G1 X20.47 Y-19.02 Z1.1 F1800.0
M108 R3.569
M103
(</loop>)
(<loop> outer )
G1 X20.47 Y-24.6 Z1.1 F3000.0
M108 R30.0
M101
G1 X20.47 Y-25.4 Z1.1 F3000.0
M108 R3.569
G1 X20.75 Y-25.4 Z1.1 F1800.0
G1 X30.6 Y-25.4 Z1.1 F1800.0
G1 X30.6 Y-4.74 Z1.1 F1800.0
G1 X23.13 Y-4.74 Z1.1 F1800.0
G1 X23.13 Y1.68 Z1.1 F1800.0
G1 X30.6 Y1.68 Z1.1 F1800.0
G1 X30.6 Y25.4 Z1.1 F1800.0
G1 X-23.4 Y25.4 Z1.1 F1800.0
G1 X-23.4 Y0.5 Z1.1 F1800.0
G1 X-30.6 Y0.5 Z1.1 F1800.0
G1 X-30.6 Y-3.3 Z1.1 F1800.0
G1 X-23.4 Y-3.3 Z1.1 F1800.0
G1 X-23.4 Y-25.4 Z1.1 F1800.0
G1 X20.47 Y-25.4 Z1.1 F1800.0
M103
(</loop>)
(<perimeter> outer )
G1 X20.47 Y-25.8 Z1.1 F3000.0
M101
G1 X20.75 Y-25.8 Z1.1 F1800.0
G1 X31.0 Y-25.8 Z1.1 F1800.0
G1 X31.0 Y-4.35 Z1.1 F1800.0
G1 X23.53 Y-4.35 Z1.1 F1800.0
G1 X23.53 Y1.29 Z1.1 F1800.0
G1 X31.0 Y1.29 Z1.1 F1800.0
G1 X31.0 Y25.8 Z1.1 F1800.0
G1 X-23.8 Y25.8 Z1.1 F1800.0
G1 X-23.8 Y0.9 Z1.1 F1800.0
G1 X-31.0 Y0.9 Z1.1 F1800.0
G1 X-31.0 Y-3.69 Z1.1 F1800.0
G1 X-23.8 Y-3.69 Z1.1 F1800.0
G1 X-23.8 Y-25.8 Z1.1 F1800.0
G1 X20.02 Y-25.8 Z1.1 F1800.0
M108 R30.0
M102
G1 X20.47 Y-25.8 Z1.1 F1800.0
M108 R3.569
M103
(</perimeter>)
(</boundaryPerimeter>)
(<surroundingLoop>)
(<boundaryPerimeter>)
(<boundaryPoint> X-18.05 Y14.538 Z1.1 </boundaryPoint>)
(<boundaryPoint> X20.156 Y14.538 Z1.1 </boundaryPoint>)
(<boundaryPoint> X20.156 Y-18.428 Z1.1 </boundaryPoint>)
(<boundaryPoint> X-18.05 Y-18.428 Z1.1 </boundaryPoint>)
(<perimeter> inner )
G1 X20.37 Y-19.43 Z1.1 F3000.0
M108 R30.0
M101
G1 X20.35 Y-18.63 Z1.1 F3000.0
M108 R3.569
G1 X-18.25 Y-18.63 Z1.1 F1800.0
G1 X-18.25 Y14.74 Z1.1 F1800.0
G1 X20.35 Y14.74 Z1.1 F1800.0
G1 X20.35 Y-18.18 Z1.1 F1800.0
M108 R30.0
M102
G1 X20.35 Y-18.63 Z1.1 F1800.0
M108 R3.569
M103
(</perimeter>)
(</boundaryPerimeter>)
(</surroundingLoop>)
G1 X19.34 Y-24.36 Z1.1 F3000.0
M108 R30.0
M101
G1 X19.2 Y-25.15 Z1.1 F3000.0
M108 R3.569
G1 X18.76 Y-24.71 Z1.1 F1800.0
G1 X18.66 Y-22.78 Z1.1 F1800.0
G1 X20.61 Y-20.85 Z1.1 F1800.0
G1 X20.61 Y-20.6 Z1.1 F1800.0
G1 X20.94 Y-19.27 Z1.1 F1800.0
G1 X19.21 Y-19.27 Z1.1 F1800.0
M108 R30.0
M102
G1 X18.76 Y-19.27 Z1.1 F1800.0
M108 R3.569
M103
G1 X15.28 Y-24.48 Z1.1 F3000.0
M108 R30.0
M101
G1 X14.84 Y-25.15 Z1.1 F3000.0
M108 R3.569
G1 X14.4 Y-24.71 Z1.1 F1800.0
G1 X14.3 Y-22.78 Z1.1 F1800.0
G1 X16.25 Y-20.85 Z1.1 F1800.0
G1 X16.25 Y-20.6 Z1.1 F1800.0
G1 X14.4 Y-19.27 Z1.1 F1800.0
G1 X18.33 Y-19.27 Z1.1 F1800.0
G1 X16.48 Y-20.6 Z1.1 F1800.0
G1 X16.48 Y-20.85 Z1.1 F1800.0
G1 X18.43 Y-22.78 Z1.1 F1800.0
G1 X18.33 Y-24.71 Z1.1 F1800.0
G1 X17.89 Y-25.15 Z1.1 F1800.0
G1 X17.45 Y-24.71 Z1.1 F1800.0
G1 X17.34 Y-24.83 Z1.1 F1800.0
M108 R30.0
M102
G1 X17.02 Y-25.15 Z1.1 F1800.0
M108 R3.569
M103
G1 X20.58 Y-25.15 Z1.1 F3000.0
M108 R30.0
M101
G1 X21.38 Y-25.15 Z1.1 F3000.0
M108 R3.569
G1 X21.82 Y-24.71 Z1.1 F1800.0
G1 X22.25 Y-25.15 Z1.1 F1800.0
G1 X22.69 Y-24.71 Z1.1 F1800.0
G1 X22.79 Y-22.78 Z1.1 F1800.0
G1 X20.84 Y-20.85 Z1.1 F1800.0
G1 X20.84 Y-20.6 Z1.1 F1800.0
G1 X22.79 Y-18.67 Z1.1 F1800.0
G1 X22.79 Y16.49 Z1.1 F1800.0
G1 X20.84 Y18.42 Z1.1 F1800.0
G1 X20.84 Y18.67 Z1.1 F1800.0
G1 X22.79 Y20.6 Z1.1 F1800.0
G1 X22.79 Y20.85 Z1.1 F1800.0
G1 X20.84 Y22.78 Z1.1 F1800.0
G1 X20.94 Y24.71 Z1.1 F1800.0
G1 X21.06 Y24.83 Z1.1 F1800.0
M108 R30.0
M102
G1 X21.38 Y25.15 Z1.1 F1800.0
M108 R3.569
M103
G1 X23.49 Y2.73 Z1.1 F3000.0
M108 R30.0
M101
G1 X23.56 Y1.94 Z1.1 F3000.0
M108 R3.569
G1 X23.13 Y2.37 Z1.1 F1800.0
G1 X23.02 Y3.4 Z1.1 F1800.0
G1 X24.97 Y5.33 Z1.1 F1800.0
G1 X24.97 Y5.58 Z1.1 F1800.0
G1 X23.02 Y7.51 Z1.1 F1800.0
G1 X23.02 Y7.76 Z1.1 F1800.0
G1 X24.97 Y9.69 Z1.1 F1800.0
G1 X24.97 Y9.95 Z1.1 F1800.0
G1 X23.02 Y11.87 Z1.1 F1800.0
G1 X23.02 Y12.13 Z1.1 F1800.0
G1 X24.97 Y14.05 Z1.1 F1800.0
G1 X24.97 Y14.31 Z1.1 F1800.0
G1 X23.02 Y16.24 Z1.1 F1800.0
G1 X23.02 Y16.49 Z1.1 F1800.0
G1 X24.97 Y18.42 Z1.1 F1800.0
G1 X24.97 Y18.67 Z1.1 F1800.0
G1 X23.02 Y20.6 Z1.1 F1800.0
G1 X23.02 Y20.85 Z1.1 F1800.0
G1 X24.97 Y22.78 Z1.1 F1800.0
G1 X24.87 Y24.71 Z1.1 F1800.0
G1 X24.44 Y25.15 Z1.1 F1800.0
G1 X24.0 Y24.71 Z1.1 F1800.0
G1 X23.88 Y24.83 Z1.1 F1800.0
M108 R30.0
M102
G1 X23.56 Y25.15 Z1.1 F1800.0
M108 R3.569
M103
G1 X24.94 Y25.15 Z1.1 F3000.0
M108 R30.0
M101
G1 X25.74 Y25.15 Z1.1 F3000.0
M108 R3.569
G1 X25.31 Y24.71 Z1.1 F1800.0
G1 X25.2 Y22.78 Z1.1 F1800.0
G1 X27.16 Y20.85 Z1.1 F1800.0
G1 X27.16 Y20.6 Z1.1 F1800.0
G1 X25.2 Y18.67 Z1.1 F1800.0
G1 X25.2 Y18.42 Z1.1 F1800.0
G1 X27.16 Y16.49 Z1.1 F1800.0
G1 X27.16 Y16.24 Z1.1 F1800.0
G1 X25.2 Y14.31 Z1.1 F1800.0
G1 X25.2 Y14.05 Z1.1 F1800.0
G1 X27.16 Y12.13 Z1.1 F1800.0
G1 X27.16 Y11.87 Z1.1 F1800.0
G1 X25.2 Y9.95 Z1.1 F1800.0
G1 X25.2 Y9.69 Z1.1 F1800.0
G1 X27.16 Y7.76 Z1.1 F1800.0
G1 X27.16 Y7.51 Z1.1 F1800.0
G1 X25.2 Y5.58 Z1.1 F1800.0
G1 X25.2 Y5.33 Z1.1 F1800.0
G1 X27.16 Y3.4 Z1.1 F1800.0
G1 X27.05 Y2.37 Z1.1 F1800.0
G1 X26.62 Y1.94 Z1.1 F1800.0
G1 X26.18 Y2.37 Z1.1 F1800.0
G1 X26.06 Y2.25 Z1.1 F1800.0
M108 R30.0
M102
G1 X25.74 Y1.94 Z1.1 F1800.0
M108 R3.569
M103
G1 X27.13 Y1.94 Z1.1 F3000.0
M108 R30.0
M101
G1 X27.93 Y1.94 Z1.1 F3000.0
M108 R3.569
G1 X27.49 Y2.37 Z1.1 F1800.0
G1 X27.39 Y3.15 Z1.1 F1800.0
G1 X27.39 Y20.85 Z1.1 F1800.0
G1 X26.62 Y25.15 Z1.1 F1800.0
G1 X27.05 Y24.71 Z1.1 F1800.0
G1 X27.49 Y24.71 Z1.1 F1800.0
G1 X27.61 Y24.83 Z1.1 F1800.0
M108 R30.0
M102
G1 X27.93 Y25.15 Z1.1 F1800.0
M108 R3.569
M103
G1 X29.31 Y25.15 Z1.1 F3000.0
M108 R30.0
M101
G1 X30.11 Y25.15 Z1.1 F3000.0
M108 R3.569
G1 X30.11 Y2.39 Z1.1 F1800.0
M108 R30.0
M102
G1 X30.11 Y1.94 Z1.1 F1800.0
M108 R3.569
M103
G1 X30.11 Y1.37 Z1.1 F3000.0
G1 X23.59 Y1.23 Z1.1 F3000.0
G1 X23.59 Y-4.29 Z1.1 F3000.0
G1 X30.11 Y-4.43 Z1.1 F3000.0
G1 X30.11 Y-24.35 Z1.1 F3000.0
M108 R30.0
M101
G1 X30.11 Y-25.15 Z1.1 F3000.0
M108 R3.569
G1 X30.11 Y-5.45 Z1.1 F1800.0
M108 R30.0
M102
G1 X30.11 Y-5.0 Z1.1 F1800.0
M108 R3.569
M103
G1 X28.73 Y-5.0 Z1.1 F3000.0
M108 R30.0
M101
G1 X27.93 Y-5.0 Z1.1 F3000.0
M108 R3.569
G1 X27.91 Y-5.13 Z1.1 F1800.0
G1 X27.39 Y-5.33 Z1.1 F1800.0
G1 X27.49 Y-24.71 Z1.1 F1800.0
G1 X27.61 Y-24.83 Z1.1 F1800.0
M108 R30.0
M102
G1 X27.93 Y-25.15 Z1.1 F1800.0
M108 R3.569
M103
G1 X26.54 Y-25.15 Z1.1 F3000.0
M108 R30.0
M101
G1 X25.74 Y-25.15 Z1.1 F3000.0
M108 R3.569
G1 X26.18 Y-24.71 Z1.1 F1800.0
G1 X26.62 Y-25.15 Z1.1 F1800.0
G1 X27.05 Y-24.71 Z1.1 F1800.0
G1 X27.16 Y-22.78 Z1.1 F1800.0
G1 X25.2 Y-20.85 Z1.1 F1800.0
G1 X25.2 Y-20.6 Z1.1 F1800.0
G1 X27.16 Y-18.67 Z1.1 F1800.0
G1 X27.16 Y-18.42 Z1.1 F1800.0
G1 X25.2 Y-16.49 Z1.1 F1800.0
G1 X25.2 Y-16.24 Z1.1 F1800.0
G1 X27.16 Y-14.31 Z1.1 F1800.0
G1 X27.16 Y-14.05 Z1.1 F1800.0
G1 X25.2 Y-12.13 Z1.1 F1800.0
G1 X25.2 Y-11.87 Z1.1 F1800.0
G1 X27.16 Y-9.95 Z1.1 F1800.0
G1 X27.16 Y-9.69 Z1.1 F1800.0
G1 X25.2 Y-7.76 Z1.1 F1800.0
G1 X25.2 Y-7.51 Z1.1 F1800.0
G1 X27.16 Y-5.58 Z1.1 F1800.0
G1 X27.16 Y-5.33 Z1.1 F1800.0
G1 X27.05 Y-5.0 Z1.1 F1800.0
G1 X26.64 Y-5.13 Z1.1 F1800.0
G1 X26.62 Y-5.0 Z1.1 F1800.0
G1 X26.18 Y-5.43 Z1.1 F1800.0
G1 X26.06 Y-5.32 Z1.1 F1800.0
M108 R30.0
M102
G1 X25.74 Y-5.0 Z1.1 F1800.0
M108 R3.569
M103
G1 X24.36 Y-5.0 Z1.1 F3000.0
M108 R30.0
M101
G1 X23.56 Y-5.0 Z1.1 F3000.0
M108 R3.569
G1 X23.54 Y-5.13 Z1.1 F1800.0
G1 X23.02 Y-5.33 Z1.1 F1800.0
G1 X23.02 Y-5.58 Z1.1 F1800.0
G1 X24.97 Y-7.51 Z1.1 F1800.0
G1 X24.97 Y-7.76 Z1.1 F1800.0
G1 X23.02 Y-9.69 Z1.1 F1800.0
G1 X23.02 Y-9.95 Z1.1 F1800.0
G1 X24.97 Y-11.87 Z1.1 F1800.0
G1 X24.97 Y-12.13 Z1.1 F1800.0
G1 X23.02 Y-14.05 Z1.1 F1800.0
G1 X23.02 Y-14.31 Z1.1 F1800.0
G1 X24.97 Y-16.24 Z1.1 F1800.0
G1 X24.97 Y-16.49 Z1.1 F1800.0
G1 X23.02 Y-18.42 Z1.1 F1800.0
G1 X23.02 Y-18.67 Z1.1 F1800.0
G1 X24.97 Y-20.6 Z1.1 F1800.0
G1 X24.97 Y-20.85 Z1.1 F1800.0
G1 X23.02 Y-22.78 Z1.1 F1800.0
G1 X23.13 Y-24.71 Z1.1 F1800.0
G1 X23.24 Y-24.83 Z1.1 F1800.0
M108 R30.0
M102
G1 X23.56 Y-25.15 Z1.1 F1800.0
M108 R3.569
M103
G1 X11.27 Y-25.15 Z1.1 F3000.0
M108 R30.0
M101
G1 X10.47 Y-25.15 Z1.1 F3000.0
M108 R3.569
G1 X10.04 Y-24.71 Z1.1 F1800.0
G1 X9.93 Y-22.78 Z1.1 F1800.0
G1 X11.88 Y-20.85 Z1.1 F1800.0
G1 X11.88 Y-20.6 Z1.1 F1800.0
G1 X10.04 Y-19.27 Z1.1 F1800.0
G1 X13.96 Y-19.27 Z1.1 F1800.0
G1 X12.11 Y-20.6 Z1.1 F1800.0
G1 X12.11 Y-20.85 Z1.1 F1800.0
G1 X14.07 Y-22.78 Z1.1 F1800.0
G1 X13.96 Y-24.71 Z1.1 F1800.0
G1 X13.53 Y-25.15 Z1.1 F1800.0
G1 X13.09 Y-24.71 Z1.1 F1800.0
G1 X12.97 Y-24.83 Z1.1 F1800.0
M108 R30.0
M102
G1 X12.65 Y-25.15 Z1.1 F1800.0
M108 R3.569
M103
G1 X6.91 Y-25.15 Z1.1 F3000.0
M108 R30.0
M101
G1 X6.11 Y-25.15 Z1.1 F3000.0
M108 R3.569
G1 X5.67 Y-24.71 Z1.1 F1800.0
G1 X5.57 Y-22.78 Z1.1 F1800.0
G1 X7.52 Y-20.85 Z1.1 F1800.0
G1 X7.52 Y-20.6 Z1.1 F1800.0
G1 X6.11 Y-19.27 Z1.1 F1800.0
G1 X9.6 Y-19.27 Z1.1 F1800.0
G1 X7.75 Y-20.6 Z1.1 F1800.0
G1 X7.75 Y-20.85 Z1.1 F1800.0
G1 X9.7 Y-22.78 Z1.1 F1800.0
G1 X9.6 Y-24.71 Z1.1 F1800.0
G1 X9.16 Y-25.15 Z1.1 F1800.0
G1 X8.73 Y-24.71 Z1.1 F1800.0
G1 X8.61 Y-24.83 Z1.1 F1800.0
M108 R30.0
M102
G1 X8.29 Y-25.15 Z1.1 F1800.0
M108 R3.569
M103
G1 X2.55 Y-25.15 Z1.1 F3000.0
M108 R30.0
M101
G1 X1.75 Y-25.15 Z1.1 F3000.0
M108 R3.569
G1 X1.31 Y-24.71 Z1.1 F1800.0
G1 X1.21 Y-22.78 Z1.1 F1800.0
G1 X3.16 Y-20.85 Z1.1 F1800.0
G1 X3.16 Y-20.6 Z1.1 F1800.0
G1 X1.31 Y-19.27 Z1.1 F1800.0
G1 X5.67 Y-19.27 Z1.1 F1800.0
G1 X3.39 Y-20.6 Z1.1 F1800.0
G1 X3.39 Y-20.85 Z1.1 F1800.0
G1 X5.34 Y-22.78 Z1.1 F1800.0
G1 X5.24 Y-24.71 Z1.1 F1800.0
G1 X4.8 Y-25.15 Z1.1 F1800.0
G1 X4.36 Y-24.71 Z1.1 F1800.0
G1 X4.25 Y-24.83 Z1.1 F1800.0
M108 R30.0
M102
G1 X3.93 Y-25.15 Z1.1 F1800.0
M108 R3.569
M103
G1 X-1.82 Y-25.15 Z1.1 F3000.0
M108 R30.0
M101
G1 X-2.62 Y-25.15 Z1.1 F3000.0
M108 R3.569
G1 X-3.05 Y-24.71 Z1.1 F1800.0
G1 X-3.16 Y-22.78 Z1.1 F1800.0
G1 X-1.21 Y-20.85 Z1.1 F1800.0
G1 X-1.21 Y-20.6 Z1.1 F1800.0
G1 X-3.05 Y-19.27 Z1.1 F1800.0
G1 X0.87 Y-19.27 Z1.1 F1800.0
G1 X-0.98 Y-20.6 Z1.1 F1800.0
G1 X-0.98 Y-20.85 Z1.1 F1800.0
G1 X0.98 Y-22.78 Z1.1 F1800.0
G1 X0.87 Y-24.71 Z1.1 F1800.0
G1 X0.44 Y-25.15 Z1.1 F1800.0
G1 X-0.0 Y-24.71 Z1.1 F1800.0
G1 X-0.12 Y-24.83 Z1.1 F1800.0
M108 R30.0
M102
G1 X-0.44 Y-25.15 Z1.1 F1800.0
M108 R3.569
M103
G1 X-6.18 Y-25.15 Z1.1 F3000.0
M108 R30.0
M101
G1 X-6.98 Y-25.15 Z1.1 F3000.0
M108 R3.569
G1 X-7.42 Y-24.71 Z1.1 F1800.0
G1 X-7.52 Y-22.78 Z1.1 F1800.0
G1 X-5.57 Y-20.85 Z1.1 F1800.0
G1 X-5.57 Y-20.6 Z1.1 F1800.0
G1 X-6.98 Y-19.27 Z1.1 F1800.0
G1 X-3.49 Y-19.27 Z1.1 F1800.0
G1 X-5.34 Y-20.6 Z1.1 F1800.0
G1 X-5.34 Y-20.85 Z1.1 F1800.0
G1 X-3.39 Y-22.78 Z1.1 F1800.0
G1 X-3.49 Y-24.71 Z1.1 F1800.0
G1 X-3.93 Y-25.15 Z1.1 F1800.0
G1 X-4.36 Y-24.71 Z1.1 F1800.0
G1 X-4.48 Y-24.83 Z1.1 F1800.0
M108 R30.0
M102
G1 X-4.8 Y-25.15 Z1.1 F1800.0
M108 R3.569
M103
G1 X-10.55 Y-25.15 Z1.1 F3000.0
M108 R30.0
M101
G1 X-11.35 Y-25.15 Z1.1 F3000.0
M108 R3.569
G1 X-11.78 Y-24.71 Z1.1 F1800.0
G1 X-11.88 Y-22.78 Z1.1 F1800.0
G1 X-9.93 Y-20.85 Z1.1 F1800.0
G1 X-9.93 Y-20.6 Z1.1 F1800.0
G1 X-11.35 Y-19.27 Z1.1 F1800.0
G1 X-7.42 Y-19.27 Z1.1 F1800.0
G1 X-9.7 Y-20.6 Z1.1 F1800.0
G1 X-9.7 Y-20.85 Z1.1 F1800.0
G1 X-7.75 Y-22.78 Z1.1 F1800.0
G1 X-7.85 Y-24.71 Z1.1 F1800.0
G1 X-8.29 Y-25.15 Z1.1 F1800.0
G1 X-8.73 Y-24.71 Z1.1 F1800.0
G1 X-8.85 Y-24.83 Z1.1 F1800.0
M108 R30.0
M102
G1 X-9.16 Y-25.15 Z1.1 F1800.0
M108 R3.569
M103
G1 X-14.91 Y-25.15 Z1.1 F3000.0
M108 R30.0
M101
G1 X-15.71 Y-25.15 Z1.1 F3000.0
M108 R3.569
G1 X-16.14 Y-24.71 Z1.1 F1800.0
G1 X-16.25 Y-22.78 Z1.1 F1800.0
G1 X-14.3 Y-20.85 Z1.1 F1800.0
G1 X-14.3 Y-20.6 Z1.1 F1800.0
G1 X-15.71 Y-19.27 Z1.1 F1800.0
G1 X-11.78 Y-19.27 Z1.1 F1800.0
G1 X-14.07 Y-20.6 Z1.1 F1800.0
G1 X-14.07 Y-20.85 Z1.1 F1800.0
G1 X-12.11 Y-22.78 Z1.1 F1800.0
G1 X-12.22 Y-24.71 Z1.1 F1800.0
G1 X-12.65 Y-25.15 Z1.1 F1800.0
G1 X-13.09 Y-24.71 Z1.1 F1800.0
G1 X-13.21 Y-24.83 Z1.1 F1800.0
M108 R30.0
M102
G1 X-13.53 Y-25.15 Z1.1 F1800.0
M108 R3.569
M103
G1 X-15.82 Y-20.0 Z1.1 F3000.0
M108 R30.0
M101
G1 X-16.14 Y-19.27 Z1.1 F3000.0
M108 R3.569
G1 X-18.76 Y-19.27 Z1.1 F1800.0
G1 X-18.43 Y-20.6 Z1.1 F1800.0
G1 X-18.43 Y-20.85 Z1.1 F1800.0
G1 X-16.48 Y-22.78 Z1.1 F1800.0
G1 X-16.58 Y-24.71 Z1.1 F1800.0
G1 X-17.02 Y-25.15 Z1.1 F1800.0
G1 X-17.45 Y-24.71 Z1.1 F1800.0
G1 X-17.57 Y-24.83 Z1.1 F1800.0
M108 R30.0
M102
G1 X-17.89 Y-25.15 Z1.1 F1800.0
M108 R3.569
M103
G1 X-20.04 Y24.35 Z1.1 F3000.0
M108 R30.0
M101
G1 X-20.07 Y25.15 Z1.1 F3000.0
M108 R3.569
G1 X-19.64 Y24.71 Z1.1 F1800.0
G1 X-19.2 Y25.15 Z1.1 F1800.0
G1 X-18.76 Y24.71 Z1.1 F1800.0
G1 X-18.66 Y22.78 Z1.1 F1800.0
G1 X-20.61 Y20.85 Z1.1 F1800.0
G1 X-20.61 Y20.6 Z1.1 F1800.0
G1 X-18.66 Y18.67 Z1.1 F1800.0
G1 X-18.66 Y18.42 Z1.1 F1800.0
G1 X-20.61 Y16.49 Z1.1 F1800.0
G1 X-20.61 Y-18.67 Z1.1 F1800.0
G1 X-18.66 Y-20.6 Z1.1 F1800.0
G1 X-18.66 Y-20.85 Z1.1 F1800.0
G1 X-20.61 Y-22.78 Z1.1 F1800.0
G1 X-20.51 Y-24.71 Z1.1 F1800.0
G1 X-20.39 Y-24.83 Z1.1 F1800.0
M108 R30.0
M102
G1 X-20.07 Y-25.15 Z1.1 F1800.0
M108 R3.569
M103
G1 X-21.45 Y-25.15 Z1.1 F3000.0
M108 R30.0
M101
G1 X-22.25 Y-25.15 Z1.1 F3000.0
M108 R3.569
G1 X-21.82 Y-24.71 Z1.1 F1800.0
G1 X-21.38 Y-25.15 Z1.1 F1800.0
G1 X-20.94 Y-24.71 Z1.1 F1800.0
G1 X-20.84 Y-22.78 Z1.1 F1800.0
G1 X-22.91 Y-20.85 Z1.1 F1800.0
G1 X-22.91 Y-20.6 Z1.1 F1800.0
G1 X-20.84 Y-18.67 Z1.1 F1800.0
G1 X-20.84 Y-18.42 Z1.1 F1800.0
G1 X-22.91 Y-16.49 Z1.1 F1800.0
G1 X-22.91 Y-16.24 Z1.1 F1800.0
G1 X-20.84 Y-14.31 Z1.1 F1800.0
G1 X-20.84 Y-14.05 Z1.1 F1800.0
G1 X-22.91 Y-12.13 Z1.1 F1800.0
G1 X-22.91 Y-11.87 Z1.1 F1800.0
G1 X-20.84 Y-9.95 Z1.1 F1800.0
G1 X-20.84 Y-9.69 Z1.1 F1800.0
G1 X-22.91 Y-7.76 Z1.1 F1800.0
G1 X-22.91 Y-7.51 Z1.1 F1800.0
G1 X-20.84 Y-5.58 Z1.1 F1800.0
G1 X-20.84 Y-5.33 Z1.1 F1800.0
G1 X-22.91 Y-3.4 Z1.1 F1800.0
G1 X-22.91 Y-3.15 Z1.1 F1800.0
G1 X-20.84 Y-1.22 Z1.1 F1800.0
G1 X-20.84 Y-0.96 Z1.1 F1800.0
G1 X-22.91 Y0.96 Z1.1 F1800.0
G1 X-22.91 Y1.22 Z1.1 F1800.0
G1 X-20.84 Y3.15 Z1.1 F1800.0
G1 X-20.84 Y3.4 Z1.1 F1800.0
G1 X-22.91 Y5.33 Z1.1 F1800.0
G1 X-22.91 Y5.58 Z1.1 F1800.0
G1 X-20.84 Y7.51 Z1.1 F1800.0
G1 X-20.84 Y7.76 Z1.1 F1800.0
G1 X-22.91 Y9.69 Z1.1 F1800.0
G1 X-22.91 Y9.95 Z1.1 F1800.0
G1 X-20.84 Y11.87 Z1.1 F1800.0
G1 X-20.84 Y12.13 Z1.1 F1800.0
G1 X-22.91 Y14.05 Z1.1 F1800.0
G1 X-22.91 Y14.31 Z1.1 F1800.0
G1 X-20.84 Y16.24 Z1.1 F1800.0
G1 X-20.84 Y16.49 Z1.1 F1800.0
G1 X-22.91 Y18.42 Z1.1 F1800.0
G1 X-22.91 Y18.67 Z1.1 F1800.0
G1 X-20.84 Y20.6 Z1.1 F1800.0
G1 X-20.84 Y20.85 Z1.1 F1800.0
G1 X-22.91 Y22.78 Z1.1 F1800.0
G1 X-23.13 Y24.71 Z1.1 F1800.0
G1 X-22.69 Y24.71 Z1.1 F1800.0
G1 X-22.57 Y24.83 Z1.1 F1800.0
M108 R30.0
M102
G1 X-22.25 Y25.15 Z1.1 F1800.0
M108 R3.569
M103
G1 X-18.22 Y16.11 Z1.1 F3000.0
M108 R30.0
M101
G1 X-17.89 Y15.38 Z1.1 F3000.0
M108 R3.569
G1 X-17.45 Y15.82 Z1.1 F1800.0
G1 X-17.02 Y15.38 Z1.1 F1800.0
G1 X-16.58 Y15.82 Z1.1 F1800.0
G1 X-16.48 Y16.24 Z1.1 F1800.0
G1 X-16.48 Y16.49 Z1.1 F1800.0
G1 X-18.43 Y18.42 Z1.1 F1800.0
G1 X-18.43 Y18.67 Z1.1 F1800.0
G1 X-16.48 Y20.6 Z1.1 F1800.0
G1 X-16.48 Y20.85 Z1.1 F1800.0
G1 X-18.43 Y22.78 Z1.1 F1800.0
G1 X-18.33 Y24.71 Z1.1 F1800.0
G1 X-18.21 Y24.83 Z1.1 F1800.0
M108 R30.0
M102
G1 X-17.89 Y25.15 Z1.1 F1800.0
M108 R3.569
M103
G1 X-16.51 Y25.15 Z1.1 F3000.0
M108 R30.0
M101
G1 X-15.71 Y25.15 Z1.1 F3000.0
M108 R3.569
G1 X-15.27 Y24.71 Z1.1 F1800.0
G1 X-14.84 Y25.15 Z1.1 F1800.0
G1 X-14.4 Y24.71 Z1.1 F1800.0
G1 X-14.3 Y22.78 Z1.1 F1800.0
G1 X-16.25 Y20.85 Z1.1 F1800.0
G1 X-16.25 Y20.6 Z1.1 F1800.0
G1 X-14.3 Y18.67 Z1.1 F1800.0
G1 X-14.3 Y18.42 Z1.1 F1800.0
G1 X-16.25 Y16.49 Z1.1 F1800.0
G1 X-16.25 Y16.24 Z1.1 F1800.0
G1 X-16.14 Y15.82 Z1.1 F1800.0
G1 X-16.03 Y15.7 Z1.1 F1800.0
M108 R30.0
M102
G1 X-15.71 Y15.38 Z1.1 F1800.0
M108 R3.569
M103
G1 X-14.33 Y15.38 Z1.1 F3000.0
M108 R30.0
M101
G1 X-13.53 Y15.38 Z1.1 F3000.0
M108 R3.569
G1 X-13.09 Y15.82 Z1.1 F1800.0
G1 X-12.65 Y15.82 Z1.1 F1800.0
G1 X-12.22 Y15.38 Z1.1 F1800.0
G1 X-11.78 Y15.82 Z1.1 F1800.0
G1 X-12.11 Y16.24 Z1.1 F1800.0
G1 X-12.11 Y16.49 Z1.1 F1800.0
G1 X-14.07 Y18.42 Z1.1 F1800.0
G1 X-14.07 Y18.67 Z1.1 F1800.0
G1 X-12.11 Y20.6 Z1.1 F1800.0
G1 X-12.11 Y20.85 Z1.1 F1800.0
G1 X-14.07 Y22.78 Z1.1 F1800.0
G1 X-13.96 Y24.71 Z1.1 F1800.0
G1 X-13.85 Y24.83 Z1.1 F1800.0
M108 R30.0
M102
G1 X-13.53 Y25.15 Z1.1 F1800.0
M108 R3.569
M103
G1 X-12.15 Y25.15 Z1.1 F3000.0
M108 R30.0
M101
G1 X-11.35 Y25.15 Z1.1 F3000.0
M108 R3.569
G1 X-10.91 Y24.71 Z1.1 F1800.0
G1 X-10.47 Y25.15 Z1.1 F1800.0
G1 X-10.04 Y24.71 Z1.1 F1800.0
G1 X-9.93 Y22.78 Z1.1 F1800.0
G1 X-11.88 Y20.85 Z1.1 F1800.0
G1 X-11.88 Y20.6 Z1.1 F1800.0
G1 X-9.93 Y18.67 Z1.1 F1800.0
G1 X-9.93 Y18.42 Z1.1 F1800.0
G1 X-11.88 Y16.49 Z1.1 F1800.0
G1 X-11.88 Y16.24 Z1.1 F1800.0
G1 X-11.59 Y15.76 Z1.1 F1800.0
M108 R30.0
M102
G1 X-11.35 Y15.38 Z1.1 F1800.0
M108 R3.569
M103
G1 X-9.96 Y15.38 Z1.1 F3000.0
M108 R30.0
M101
G1 X-9.16 Y15.38 Z1.1 F3000.0
M108 R3.569
G1 X-8.73 Y15.82 Z1.1 F1800.0
G1 X-8.29 Y15.38 Z1.1 F1800.0
G1 X-7.85 Y15.82 Z1.1 F1800.0
G1 X-7.75 Y16.24 Z1.1 F1800.0
G1 X-7.75 Y16.49 Z1.1 F1800.0
G1 X-9.7 Y18.42 Z1.1 F1800.0
G1 X-9.7 Y18.67 Z1.1 F1800.0
G1 X-7.75 Y20.6 Z1.1 F1800.0
G1 X-7.75 Y20.85 Z1.1 F1800.0
G1 X-9.7 Y22.78 Z1.1 F1800.0
G1 X-9.6 Y24.71 Z1.1 F1800.0
G1 X-9.48 Y24.83 Z1.1 F1800.0
M108 R30.0
M102
G1 X-9.16 Y25.15 Z1.1 F1800.0
M108 R3.569
M103
G1 X-7.78 Y25.15 Z1.1 F3000.0
M108 R30.0
M101
G1 X-6.98 Y25.15 Z1.1 F3000.0
M108 R3.569
G1 X-6.55 Y24.71 Z1.1 F1800.0
G1 X-6.11 Y25.15 Z1.1 F1800.0
G1 X-5.67 Y24.71 Z1.1 F1800.0
G1 X-5.57 Y22.78 Z1.1 F1800.0
G1 X-7.52 Y20.85 Z1.1 F1800.0
G1 X-7.52 Y20.6 Z1.1 F1800.0
G1 X-5.57 Y18.67 Z1.1 F1800.0
G1 X-5.57 Y18.42 Z1.1 F1800.0
G1 X-7.52 Y16.49 Z1.1 F1800.0
G1 X-7.52 Y16.24 Z1.1 F1800.0
G1 X-7.42 Y15.82 Z1.1 F1800.0
G1 X-7.3 Y15.7 Z1.1 F1800.0
M108 R30.0
M102
G1 X-6.98 Y15.38 Z1.1 F1800.0
M108 R3.569
M103
G1 X-5.6 Y15.38 Z1.1 F3000.0
M108 R30.0
M101
G1 X-4.8 Y15.38 Z1.1 F3000.0
M108 R3.569
G1 X-4.36 Y15.82 Z1.1 F1800.0
G1 X-3.93 Y15.38 Z1.1 F1800.0
G1 X-3.49 Y15.82 Z1.1 F1800.0
G1 X-3.39 Y16.24 Z1.1 F1800.0
G1 X-3.39 Y16.49 Z1.1 F1800.0
G1 X-5.34 Y18.42 Z1.1 F1800.0
G1 X-5.34 Y18.67 Z1.1 F1800.0
G1 X-3.39 Y20.6 Z1.1 F1800.0
G1 X-3.39 Y20.85 Z1.1 F1800.0
G1 X-5.34 Y22.78 Z1.1 F1800.0
G1 X-5.24 Y24.71 Z1.1 F1800.0
G1 X-5.12 Y24.83 Z1.1 F1800.0
M108 R30.0
M102
G1 X-4.8 Y25.15 Z1.1 F1800.0
M108 R3.569
M103
G1 X-3.42 Y25.15 Z1.1 F3000.0
M108 R30.0
M101
G1 X-2.62 Y25.15 Z1.1 F3000.0
M108 R3.569
G1 X-2.18 Y24.71 Z1.1 F1800.0
G1 X-1.75 Y25.15 Z1.1 F1800.0
G1 X-1.31 Y24.71 Z1.1 F1800.0
G1 X-1.21 Y22.78 Z1.1 F1800.0
G1 X-3.16 Y20.85 Z1.1 F1800.0
G1 X-3.16 Y20.6 Z1.1 F1800.0
G1 X-1.21 Y18.67 Z1.1 F1800.0
G1 X-1.21 Y18.42 Z1.1 F1800.0
G1 X-3.16 Y16.49 Z1.1 F1800.0
G1 X-3.16 Y16.24 Z1.1 F1800.0
G1 X-3.05 Y15.82 Z1.1 F1800.0
G1 X-2.94 Y15.7 Z1.1 F1800.0
M108 R30.0
M102
G1 X-2.62 Y15.38 Z1.1 F1800.0
M108 R3.569
M103
G1 X-1.24 Y15.38 Z1.1 F3000.0
M108 R30.0
M101
G1 X-0.44 Y15.38 Z1.1 F3000.0
M108 R3.569
G1 X0.0 Y15.82 Z1.1 F1800.0
G1 X0.44 Y15.38 Z1.1 F1800.0
G1 X0.87 Y15.82 Z1.1 F1800.0
G1 X0.98 Y16.24 Z1.1 F1800.0
G1 X0.98 Y16.49 Z1.1 F1800.0
G1 X-0.98 Y18.42 Z1.1 F1800.0
G1 X-0.98 Y18.67 Z1.1 F1800.0
G1 X0.98 Y20.6 Z1.1 F1800.0
G1 X0.98 Y20.85 Z1.1 F1800.0
G1 X-0.98 Y22.78 Z1.1 F1800.0
G1 X-0.87 Y24.71 Z1.1 F1800.0
G1 X-0.76 Y24.83 Z1.1 F1800.0
M108 R30.0
M102
G1 X-0.44 Y25.15 Z1.1 F1800.0
M108 R3.569
M103
G1 X0.95 Y25.15 Z1.1 F3000.0
M108 R30.0
M101
G1 X1.75 Y25.15 Z1.1 F3000.0
M108 R3.569
G1 X2.18 Y24.71 Z1.1 F1800.0
G1 X2.62 Y25.15 Z1.1 F1800.0
G1 X3.05 Y24.71 Z1.1 F1800.0
G1 X3.16 Y22.78 Z1.1 F1800.0
G1 X1.21 Y20.85 Z1.1 F1800.0
G1 X1.21 Y20.6 Z1.1 F1800.0
G1 X3.16 Y18.67 Z1.1 F1800.0
G1 X3.16 Y18.42 Z1.1 F1800.0
G1 X1.21 Y16.49 Z1.1 F1800.0
G1 X1.21 Y16.24 Z1.1 F1800.0
G1 X1.31 Y15.82 Z1.1 F1800.0
G1 X1.43 Y15.7 Z1.1 F1800.0
M108 R30.0
M102
G1 X1.75 Y15.38 Z1.1 F1800.0
M108 R3.569
M103
G1 X3.13 Y15.38 Z1.1 F3000.0
M108 R30.0
M101
G1 X3.93 Y15.38 Z1.1 F3000.0
M108 R3.569
G1 X4.36 Y15.82 Z1.1 F1800.0
G1 X4.8 Y15.38 Z1.1 F1800.0
G1 X5.24 Y15.82 Z1.1 F1800.0
G1 X5.34 Y16.24 Z1.1 F1800.0
G1 X5.34 Y16.49 Z1.1 F1800.0
G1 X3.39 Y18.42 Z1.1 F1800.0
G1 X3.39 Y18.67 Z1.1 F1800.0
G1 X5.34 Y20.6 Z1.1 F1800.0
G1 X5.34 Y20.85 Z1.1 F1800.0
G1 X3.39 Y22.78 Z1.1 F1800.0
G1 X3.49 Y24.71 Z1.1 F1800.0
G1 X3.61 Y24.83 Z1.1 F1800.0
M108 R30.0
M102
G1 X3.93 Y25.15 Z1.1 F1800.0
M108 R3.569
M103
G1 X5.31 Y25.15 Z1.1 F3000.0
M108 R30.0
M101
G1 X6.11 Y25.15 Z1.1 F3000.0
M108 R3.569
G1 X6.55 Y24.71 Z1.1 F1800.0
G1 X6.98 Y25.15 Z1.1 F1800.0
G1 X7.42 Y24.71 Z1.1 F1800.0
G1 X7.52 Y22.78 Z1.1 F1800.0
G1 X5.57 Y20.85 Z1.1 F1800.0
G1 X5.57 Y20.6 Z1.1 F1800.0
G1 X7.52 Y18.67 Z1.1 F1800.0
G1 X7.52 Y18.42 Z1.1 F1800.0
G1 X5.57 Y16.49 Z1.1 F1800.0
G1 X5.57 Y16.24 Z1.1 F1800.0
G1 X5.67 Y15.82 Z1.1 F1800.0
G1 X5.79 Y15.7 Z1.1 F1800.0
M108 R30.0
M102
G1 X6.11 Y15.38 Z1.1 F1800.0
M108 R3.569
M103
G1 X7.49 Y15.38 Z1.1 F3000.0
M108 R30.0
M101
G1 X8.29 Y15.38 Z1.1 F3000.0
M108 R3.569
G1 X8.73 Y15.82 Z1.1 F1800.0
G1 X9.16 Y15.82 Z1.1 F1800.0
G1 X9.6 Y15.38 Z1.1 F1800.0
G1 X9.7 Y16.49 Z1.1 F1800.0
G1 X7.75 Y18.42 Z1.1 F1800.0
G1 X7.75 Y18.67 Z1.1 F1800.0
G1 X9.7 Y20.6 Z1.1 F1800.0
G1 X9.7 Y20.85 Z1.1 F1800.0
G1 X7.75 Y22.78 Z1.1 F1800.0
G1 X7.85 Y24.71 Z1.1 F1800.0
G1 X7.97 Y24.83 Z1.1 F1800.0
M108 R30.0
M102
G1 X8.29 Y25.15 Z1.1 F1800.0
M108 R3.569
M103
G1 X9.67 Y25.15 Z1.1 F3000.0
M108 R30.0
M101
G1 X10.47 Y25.15 Z1.1 F3000.0
M108 R3.569
G1 X10.91 Y24.71 Z1.1 F1800.0
G1 X11.35 Y25.15 Z1.1 F1800.0
G1 X11.78 Y24.71 Z1.1 F1800.0
G1 X11.88 Y22.78 Z1.1 F1800.0
G1 X9.93 Y20.85 Z1.1 F1800.0
G1 X9.93 Y20.6 Z1.1 F1800.0
G1 X11.88 Y18.67 Z1.1 F1800.0
G1 X11.88 Y18.42 Z1.1 F1800.0
G1 X9.93 Y16.49 Z1.1 F1800.0
G1 X9.93 Y16.24 Z1.1 F1800.0
G1 X10.04 Y15.82 Z1.1 F1800.0
G1 X10.15 Y15.7 Z1.1 F1800.0
M108 R30.0
M102
G1 X10.47 Y15.38 Z1.1 F1800.0
M108 R3.569
M103
G1 X11.85 Y15.38 Z1.1 F3000.0
M108 R30.0
M101
G1 X12.65 Y15.38 Z1.1 F3000.0
M108 R3.569
G1 X13.09 Y15.82 Z1.1 F1800.0
G1 X13.53 Y15.38 Z1.1 F1800.0
G1 X13.96 Y15.82 Z1.1 F1800.0
G1 X14.07 Y16.24 Z1.1 F1800.0
G1 X14.07 Y16.49 Z1.1 F1800.0
G1 X12.11 Y18.42 Z1.1 F1800.0
G1 X12.11 Y18.67 Z1.1 F1800.0
G1 X14.07 Y20.6 Z1.1 F1800.0
G1 X14.07 Y20.85 Z1.1 F1800.0
G1 X12.11 Y22.78 Z1.1 F1800.0
G1 X12.22 Y24.71 Z1.1 F1800.0
G1 X12.34 Y24.83 Z1.1 F1800.0
M108 R30.0
M102
G1 X12.65 Y25.15 Z1.1 F1800.0
M108 R3.569
M103
G1 X14.04 Y25.15 Z1.1 F3000.0
M108 R30.0
M101
G1 X14.84 Y25.15 Z1.1 F3000.0
M108 R3.569
G1 X15.27 Y24.71 Z1.1 F1800.0
G1 X15.71 Y25.15 Z1.1 F1800.0
G1 X16.14 Y24.71 Z1.1 F1800.0
G1 X16.25 Y22.78 Z1.1 F1800.0
G1 X14.3 Y20.85 Z1.1 F1800.0
G1 X14.3 Y20.6 Z1.1 F1800.0
G1 X16.25 Y18.67 Z1.1 F1800.0
G1 X16.25 Y18.42 Z1.1 F1800.0
G1 X14.3 Y16.49 Z1.1 F1800.0
G1 X14.3 Y16.24 Z1.1 F1800.0
G1 X14.4 Y15.82 Z1.1 F1800.0
G1 X14.52 Y15.7 Z1.1 F1800.0
M108 R30.0
M102
G1 X14.84 Y15.38 Z1.1 F1800.0
M108 R3.569
M103
G1 X16.22 Y15.38 Z1.1 F3000.0
M108 R30.0
M101
G1 X17.02 Y15.38 Z1.1 F3000.0
M108 R3.569
G1 X17.45 Y15.82 Z1.1 F1800.0
G1 X17.89 Y15.82 Z1.1 F1800.0
G1 X18.33 Y15.38 Z1.1 F1800.0
G1 X18.43 Y16.49 Z1.1 F1800.0
G1 X16.48 Y18.42 Z1.1 F1800.0
G1 X16.48 Y18.67 Z1.1 F1800.0
G1 X18.43 Y20.6 Z1.1 F1800.0
G1 X18.43 Y20.85 Z1.1 F1800.0
G1 X16.48 Y22.78 Z1.1 F1800.0
G1 X16.58 Y24.71 Z1.1 F1800.0
G1 X16.7 Y24.83 Z1.1 F1800.0
M108 R30.0
M102
G1 X17.02 Y25.15 Z1.1 F1800.0
M108 R3.569
M103
G1 X18.4 Y25.15 Z1.1 F3000.0
M108 R30.0
M101
G1 X19.2 Y25.15 Z1.1 F3000.0
M108 R3.569
G1 X19.64 Y24.71 Z1.1 F1800.0
G1 X20.07 Y25.15 Z1.1 F1800.0
G1 X20.51 Y24.71 Z1.1 F1800.0
G1 X20.61 Y22.78 Z1.1 F1800.0
G1 X18.66 Y20.85 Z1.1 F1800.0
G1 X18.66 Y20.6 Z1.1 F1800.0
G1 X20.61 Y18.67 Z1.1 F1800.0
G1 X20.61 Y18.42 Z1.1 F1800.0
G1 X18.66 Y16.49 Z1.1 F1800.0
G1 X18.66 Y16.24 Z1.1 F1800.0
G1 X18.76 Y15.82 Z1.1 F1800.0
G1 X18.88 Y15.7 Z1.1 F1800.0
M108 R30.0
M102
G1 X19.2 Y15.38 Z1.1 F1800.0
M108 R3.569
M103
G1 X16.74 Y14.81 Z1.1 F3000.0
G1 X-18.19 Y14.68 Z1.1 F3000.0
G1 X-18.33 Y2.59 Z1.1 F3000.0
G1 X-24.12 Y0.52 Z1.1 F3000.0
M108 R30.0
M101
G1 X-24.87 Y0.25 Z1.1 F3000.0
M108 R3.569
G1 X-23.56 Y0.25 Z1.1 F1800.0
G1 X-24.0 Y-2.61 Z1.1 F1800.0
G1 X-24.44 Y-3.04 Z1.1 F1800.0
G1 X-24.87 Y-2.61 Z1.1 F1800.0
G1 X-25.31 Y-2.61 Z1.1 F1800.0
G1 X-25.2 Y-1.22 Z1.1 F1800.0
G1 X-25.31 Y0.25 Z1.1 F1800.0
G1 X-27.05 Y0.25 Z1.1 F1800.0
G1 X-26.18 Y-2.61 Z1.1 F1800.0
G1 X-26.62 Y-3.04 Z1.1 F1800.0
G1 X-27.05 Y-2.61 Z1.1 F1800.0
G1 X-27.49 Y0.25 Z1.1 F1800.0
G1 X-28.8 Y0.25 Z1.1 F1800.0
G1 X-29.34 Y-0.96 Z1.1 F1800.0
G1 X-29.23 Y-2.61 Z1.1 F1800.0
G1 X-29.12 Y-2.73 Z1.1 F1800.0
M108 R30.0
M102
G1 X-28.8 Y-3.04 Z1.1 F1800.0
M108 R3.569
M103
G1 X-29.31 Y-3.04 Z1.1 F3000.0
M108 R30.0
M101
G1 X-30.11 Y-3.04 Z1.1 F3000.0
M108 R3.569
G1 X-29.67 Y-2.61 Z1.1 F1800.0
G1 X-29.57 Y-0.96 Z1.1 F1800.0
G1 X-29.23 Y0.25 Z1.1 F1800.0
G1 X-29.66 Y0.25 Z1.1 F1800.0
M108 R30.0
M102
G1 X-30.11 Y0.25 Z1.1 F1800.0
M108 R3.569
M103
(</surroundingLoop>)
(</layer>)
(<layer> 1.42 )
(<surroundingLoop>)
(<boundaryPerimeter>)
(<boundaryPoint> X-23.993 Y25.993 Z1.42 </boundaryPoint>)
(<boundaryPoint> X-23.993 Y1.091 Z1.42 </boundaryPoint>)
(<boundaryPoint> X-31.193 Y1.091 Z1.42 </boundaryPoint>)
(<boundaryPoint> X-31.193 Y-3.889 Z1.42 </boundaryPoint>)
(<boundaryPoint> X-23.993 Y-3.889 Z1.42 </boundaryPoint>)
(<boundaryPoint> X-23.993 Y-25.993 Z1.42 </boundaryPoint>)
(<boundaryPoint> X31.193 Y-25.993 Z1.42 </boundaryPoint>)
(<boundaryPoint> X31.193 Y-4.152 Z1.42 </boundaryPoint>)
(<boundaryPoint> X23.723 Y-4.152 Z1.42 </boundaryPoint>)
(<boundaryPoint> X23.723 Y1.091 Z1.42 </boundaryPoint>)
(<boundaryPoint> X31.193 Y1.091 Z1.42 </boundaryPoint>)
(<boundaryPoint> X31.193 Y25.993 Z1.42 </boundaryPoint>)
(<loop> inner )
G1 X-19.44 Y0.23 Z1.4 F3000.0
M108 R30.0
M101
G1 X-18.64 Y0.22 Z1.42 F3000.0
M108 R3.569
G1 X-18.64 Y0.25 Z1.42 F1800.0
G1 X-18.64 Y15.13 Z1.42 F1800.0
G1 X20.75 Y15.13 Z1.42 F1800.0
G1 X20.75 Y-19.02 Z1.42 F1800.0
G1 X-18.64 Y-19.02 Z1.42 F1800.0
G1 X-18.64 Y-0.23 Z1.42 F1800.0
M108 R30.0
M102
G1 X-18.64 Y0.22 Z1.42 F1800.0
M108 R3.569
M103
(</loop>)
(<loop> outer )
G1 X-22.61 Y0.46 Z1.42 F3000.0
M108 R30.0
M101
G1 X-23.4 Y0.5 Z1.42 F3000.0
M108 R3.569
G1 X-30.6 Y0.5 Z1.42 F1800.0
G1 X-30.6 Y-3.3 Z1.42 F1800.0
G1 X-23.4 Y-3.3 Z1.42 F1800.0
G1 X-23.4 Y-25.4 Z1.42 F1800.0
G1 X30.6 Y-25.4 Z1.42 F1800.0
G1 X30.6 Y-4.74 Z1.42 F1800.0
G1 X23.13 Y-4.74 Z1.42 F1800.0
G1 X23.13 Y1.68 Z1.42 F1800.0
G1 X30.6 Y1.68 Z1.42 F1800.0
G1 X30.6 Y25.4 Z1.42 F1800.0
G1 X-23.4 Y25.4 Z1.42 F1800.0
G1 X-23.4 Y0.5 Z1.42 F1800.0
M103
(</loop>)
(<perimeter> outer )
G1 X-23.8 Y0.9 Z1.42 F3000.0
M101
G1 X-31.0 Y0.9 Z1.42 F1800.0
G1 X-31.0 Y-3.69 Z1.42 F1800.0
G1 X-23.8 Y-3.69 Z1.42 F1800.0
G1 X-23.8 Y-25.8 Z1.42 F1800.0
G1 X31.0 Y-25.8 Z1.42 F1800.0
G1 X31.0 Y-4.35 Z1.42 F1800.0
G1 X23.53 Y-4.35 Z1.42 F1800.0
G1 X23.53 Y1.29 Z1.42 F1800.0
G1 X31.0 Y1.29 Z1.42 F1800.0
G1 X31.0 Y25.8 Z1.42 F1800.0
G1 X-23.8 Y25.8 Z1.42 F1800.0
G1 X-23.8 Y1.35 Z1.42 F1800.0
M108 R30.0
M102
G1 X-23.8 Y0.9 Z1.42 F1800.0
M108 R3.569
M103
(</perimeter>)
(</boundaryPerimeter>)
(<surroundingLoop>)
(<boundaryPerimeter>)
(<boundaryPoint> X-18.05 Y14.538 Z1.42 </boundaryPoint>)
(<boundaryPoint> X20.156 Y14.538 Z1.42 </boundaryPoint>)
(<boundaryPoint> X20.156 Y-18.428 Z1.42 </boundaryPoint>)
(<boundaryPoint> X-18.05 Y-18.428 Z1.42 </boundaryPoint>)
(<perimeter> inner )
G1 X-19.05 Y0.9 Z1.42 F3000.0
M108 R30.0
M101
G1 X-18.25 Y0.9 Z1.42 F3000.0
M108 R3.569
G1 X-18.25 Y14.74 Z1.42 F1800.0
G1 X20.35 Y14.74 Z1.42 F1800.0
G1 X20.35 Y-18.63 Z1.42 F1800.0
G1 X-18.25 Y-18.63 Z1.42 F1800.0
G1 X-18.25 Y0.45 Z1.42 F1800.0
M108 R30.0
M102
G1 X-18.25 Y0.9 Z1.42 F1800.0
M108 R3.569
M103
(</perimeter>)
(</boundaryPerimeter>)
(</surroundingLoop>)
G1 X-22.58 Y-3.37 Z1.42 F3000.0
M108 R30.0
M101
G1 X-23.15 Y-3.93 Z1.42 F3000.0
M108 R3.569
G1 X-23.15 Y-3.49 Z1.42 F1800.0
G1 X-23.04 Y-3.39 Z1.42 F1800.0
G1 X-22.78 Y-3.39 Z1.42 F1800.0
G1 X-20.85 Y-5.34 Z1.42 F1800.0
G1 X-20.6 Y-5.34 Z1.42 F1800.0
G1 X-18.9 Y-2.18 Z1.42 F1800.0
G1 X-18.9 Y-6.11 Z1.42 F1800.0
G1 X-20.6 Y-5.57 Z1.42 F1800.0
G1 X-20.85 Y-5.57 Z1.42 F1800.0
G1 X-23.15 Y-4.36 Z1.42 F1800.0
G1 X-23.15 Y-7.85 Z1.42 F1800.0
G1 X-22.91 Y-7.64 Z1.42 F1800.0
G1 X-22.78 Y-7.64 Z1.42 F1800.0
G1 X-23.15 Y-8.29 Z1.42 F1800.0
G1 X-20.85 Y-9.7 Z1.42 F1800.0
G1 X-20.6 Y-9.7 Z1.42 F1800.0
G1 X-18.9 Y-6.55 Z1.42 F1800.0
G1 X-18.9 Y-10.47 Z1.42 F1800.0
G1 X-20.6 Y-9.93 Z1.42 F1800.0
G1 X-20.85 Y-9.93 Z1.42 F1800.0
G1 X-23.15 Y-8.73 Z1.42 F1800.0
G1 X-23.15 Y-12.22 Z1.42 F1800.0
G1 X-22.91 Y-12.0 Z1.42 F1800.0
G1 X-22.78 Y-12.0 Z1.42 F1800.0
G1 X-23.15 Y-12.65 Z1.42 F1800.0
G1 X-20.85 Y-14.07 Z1.42 F1800.0
G1 X-20.6 Y-14.07 Z1.42 F1800.0
G1 X-18.9 Y-10.91 Z1.42 F1800.0
G1 X-18.9 Y-14.84 Z1.42 F1800.0
G1 X-20.6 Y-14.3 Z1.42 F1800.0
G1 X-20.85 Y-14.3 Z1.42 F1800.0
G1 X-23.15 Y-13.09 Z1.42 F1800.0
G1 X-23.15 Y-16.58 Z1.42 F1800.0
G1 X-22.91 Y-16.36 Z1.42 F1800.0
G1 X-22.78 Y-16.36 Z1.42 F1800.0
G1 X-23.15 Y-17.02 Z1.42 F1800.0
G1 X-20.85 Y-18.43 Z1.42 F1800.0
G1 X-20.6 Y-18.43 Z1.42 F1800.0
G1 X-18.9 Y-15.27 Z1.42 F1800.0
G1 X-18.9 Y-19.2 Z1.42 F1800.0
G1 X-20.6 Y-18.66 Z1.42 F1800.0
G1 X-20.85 Y-18.66 Z1.42 F1800.0
G1 X-23.15 Y-17.45 Z1.42 F1800.0
G1 X-23.15 Y-20.94 Z1.42 F1800.0
G1 X-22.91 Y-20.73 Z1.42 F1800.0
G1 X-22.78 Y-20.73 Z1.42 F1800.0
G1 X-23.15 Y-21.38 Z1.42 F1800.0
G1 X-20.85 Y-22.79 Z1.42 F1800.0
G1 X-20.6 Y-22.79 Z1.42 F1800.0
G1 X-18.67 Y-20.73 Z1.42 F1800.0
G1 X-18.42 Y-20.73 Z1.42 F1800.0
G1 X-16.49 Y-22.79 Z1.42 F1800.0
G1 X-16.24 Y-22.79 Z1.42 F1800.0
G1 X-14.31 Y-20.73 Z1.42 F1800.0
G1 X-14.05 Y-20.73 Z1.42 F1800.0
G1 X-12.13 Y-22.79 Z1.42 F1800.0
G1 X-11.87 Y-22.79 Z1.42 F1800.0
G1 X-9.95 Y-20.73 Z1.42 F1800.0
G1 X-9.69 Y-20.73 Z1.42 F1800.0
G1 X-7.76 Y-22.79 Z1.42 F1800.0
G1 X-7.51 Y-22.79 Z1.42 F1800.0
G1 X-5.58 Y-20.73 Z1.42 F1800.0
G1 X-5.33 Y-20.73 Z1.42 F1800.0
G1 X-3.4 Y-22.79 Z1.42 F1800.0
G1 X-3.15 Y-22.79 Z1.42 F1800.0
G1 X-1.22 Y-20.73 Z1.42 F1800.0
G1 X-0.96 Y-20.73 Z1.42 F1800.0
G1 X0.96 Y-22.79 Z1.42 F1800.0
G1 X1.22 Y-22.79 Z1.42 F1800.0
G1 X3.15 Y-20.73 Z1.42 F1800.0
G1 X3.4 Y-20.73 Z1.42 F1800.0
G1 X5.33 Y-22.79 Z1.42 F1800.0
G1 X5.58 Y-22.79 Z1.42 F1800.0
G1 X7.51 Y-20.73 Z1.42 F1800.0
G1 X7.76 Y-20.73 Z1.42 F1800.0
G1 X9.69 Y-22.79 Z1.42 F1800.0
G1 X9.95 Y-22.79 Z1.42 F1800.0
G1 X11.87 Y-20.73 Z1.42 F1800.0
G1 X12.13 Y-20.73 Z1.42 F1800.0
G1 X14.05 Y-22.79 Z1.42 F1800.0
G1 X14.31 Y-22.79 Z1.42 F1800.0
G1 X16.24 Y-20.73 Z1.42 F1800.0
G1 X16.49 Y-20.73 Z1.42 F1800.0
G1 X18.42 Y-22.79 Z1.42 F1800.0
G1 X18.67 Y-22.79 Z1.42 F1800.0
G1 X20.6 Y-20.73 Z1.42 F1800.0
G1 X20.85 Y-20.73 Z1.42 F1800.0
G1 X22.78 Y-22.79 Z1.42 F1800.0
G1 X23.04 Y-22.79 Z1.42 F1800.0
G1 X24.96 Y-20.84 Z1.42 F1800.0
G1 X25.22 Y-20.84 Z1.42 F1800.0
G1 X27.14 Y-22.79 Z1.42 F1800.0
G1 X29.91 Y-22.69 Z1.42 F1800.0
G1 X30.35 Y-22.25 Z1.42 F1800.0
G1 X29.91 Y-21.82 Z1.42 F1800.0
G1 X29.91 Y-21.38 Z1.42 F1800.0
G1 X30.03 Y-21.26 Z1.42 F1800.0
M108 R30.0
M102
G1 X30.35 Y-20.94 Z1.42 F1800.0
M108 R3.569
M103
G1 X30.35 Y-22.33 Z1.42 F3000.0
M108 R30.0
M101
G1 X30.35 Y-23.13 Z1.42 F3000.0
M108 R3.569
G1 X-20.85 Y-23.02 Z1.42 F1800.0
G1 X-23.15 Y-21.82 Z1.42 F1800.0
G1 X-23.15 Y-24.87 Z1.42 F1800.0
G1 X29.9 Y-24.87 Z1.42 F1800.0
M108 R30.0
M102
G1 X30.35 Y-24.87 Z1.42 F1800.0
M108 R3.569
M103
G1 X30.35 Y-19.56 Z1.42 F3000.0
M108 R30.0
M101
G1 X30.35 Y-18.76 Z1.42 F3000.0
M108 R3.569
G1 X27.14 Y-18.66 Z1.42 F1800.0
G1 X25.22 Y-20.61 Z1.42 F1800.0
G1 X24.96 Y-20.61 Z1.42 F1800.0
G1 X23.04 Y-18.66 Z1.42 F1800.0
G1 X21.45 Y-18.74 Z1.42 F1800.0
M108 R30.0
M102
G1 X21.0 Y-18.76 Z1.42 F1800.0
M108 R3.569
M103
G1 X21.0 Y-17.38 Z1.42 F3000.0
M108 R30.0
M101
G1 X21.0 Y-16.58 Z1.42 F3000.0
M108 R3.569
G1 X21.44 Y-17.02 Z1.42 F1800.0
G1 X21.44 Y-17.45 Z1.42 F1800.0
G1 X21.0 Y-17.89 Z1.42 F1800.0
G1 X22.78 Y-18.43 Z1.42 F1800.0
G1 X23.04 Y-18.43 Z1.42 F1800.0
G1 X24.96 Y-16.48 Z1.42 F1800.0
G1 X25.22 Y-16.48 Z1.42 F1800.0
G1 X27.14 Y-18.43 Z1.42 F1800.0
G1 X27.4 Y-18.43 Z1.42 F1800.0
G1 X30.35 Y-17.89 Z1.42 F1800.0
G1 X29.91 Y-17.45 Z1.42 F1800.0
G1 X29.91 Y-17.02 Z1.42 F1800.0
G1 X30.03 Y-16.9 Z1.42 F1800.0
M108 R30.0
M102
G1 X30.35 Y-16.58 Z1.42 F1800.0
M108 R3.569
M103
G1 X30.35 Y-15.2 Z1.42 F3000.0
M108 R30.0
M101
G1 X30.35 Y-14.4 Z1.42 F3000.0
M108 R3.569
G1 X27.14 Y-14.3 Z1.42 F1800.0
G1 X25.22 Y-16.25 Z1.42 F1800.0
G1 X24.96 Y-16.25 Z1.42 F1800.0
G1 X23.04 Y-14.3 Z1.42 F1800.0
G1 X21.45 Y-14.38 Z1.42 F1800.0
M108 R30.0
M102
G1 X21.0 Y-14.4 Z1.42 F1800.0
M108 R3.569
M103
G1 X21.0 Y-13.02 Z1.42 F3000.0
M108 R30.0
M101
G1 X21.0 Y-12.22 Z1.42 F3000.0
M108 R3.569
G1 X21.44 Y-12.65 Z1.42 F1800.0
G1 X21.44 Y-13.09 Z1.42 F1800.0
G1 X21.0 Y-13.53 Z1.42 F1800.0
G1 X22.78 Y-14.07 Z1.42 F1800.0
G1 X23.04 Y-14.07 Z1.42 F1800.0
G1 X24.96 Y-12.11 Z1.42 F1800.0
G1 X25.22 Y-12.11 Z1.42 F1800.0
G1 X27.14 Y-14.07 Z1.42 F1800.0
G1 X27.4 Y-14.07 Z1.42 F1800.0
G1 X30.35 Y-13.53 Z1.42 F1800.0
G1 X29.91 Y-13.09 Z1.42 F1800.0
G1 X29.91 Y-12.65 Z1.42 F1800.0
G1 X30.03 Y-12.54 Z1.42 F1800.0
M108 R30.0
M102
G1 X30.35 Y-12.22 Z1.42 F1800.0
M108 R3.569
M103
G1 X30.35 Y-10.84 Z1.42 F3000.0
M108 R30.0
M101
G1 X30.35 Y-10.04 Z1.42 F3000.0
M108 R3.569
G1 X27.14 Y-9.93 Z1.42 F1800.0
G1 X25.22 Y-11.88 Z1.42 F1800.0
G1 X24.96 Y-11.88 Z1.42 F1800.0
G1 X23.04 Y-9.93 Z1.42 F1800.0
G1 X21.45 Y-10.01 Z1.42 F1800.0
M108 R30.0
M102
G1 X21.0 Y-10.04 Z1.42 F1800.0
M108 R3.569
M103
G1 X21.0 Y-8.65 Z1.42 F3000.0
M108 R30.0
M101
G1 X21.0 Y-7.85 Z1.42 F3000.0
M108 R3.569
G1 X21.44 Y-8.29 Z1.42 F1800.0
G1 X21.44 Y-8.73 Z1.42 F1800.0
G1 X21.0 Y-9.16 Z1.42 F1800.0
G1 X21.44 Y-9.6 Z1.42 F1800.0
G1 X23.04 Y-9.7 Z1.42 F1800.0
G1 X24.96 Y-7.75 Z1.42 F1800.0
G1 X25.22 Y-7.75 Z1.42 F1800.0
G1 X27.14 Y-9.7 Z1.42 F1800.0
G1 X29.91 Y-9.6 Z1.42 F1800.0
G1 X30.35 Y-9.16 Z1.42 F1800.0
G1 X29.91 Y-8.73 Z1.42 F1800.0
G1 X29.91 Y-8.29 Z1.42 F1800.0
G1 X30.03 Y-8.17 Z1.42 F1800.0
M108 R30.0
M102
G1 X30.35 Y-7.85 Z1.42 F1800.0
M108 R3.569
M103
G1 X30.35 Y-6.47 Z1.42 F3000.0
M108 R30.0
M101
G1 X30.35 Y-5.67 Z1.42 F3000.0
M108 R3.569
G1 X27.14 Y-5.45 Z1.42 F1800.0
G1 X25.22 Y-7.52 Z1.42 F1800.0
G1 X24.96 Y-7.52 Z1.42 F1800.0
G1 X23.04 Y-5.45 Z1.42 F1800.0
G1 X22.78 Y-5.45 Z1.42 F1800.0
G1 X21.44 Y-6.55 Z1.42 F1800.0
G1 X21.44 Y-6.11 Z1.42 F1800.0
G1 X21.0 Y-5.67 Z1.42 F1800.0
G1 X21.44 Y-5.24 Z1.42 F1800.0
G1 X21.0 Y-4.8 Z1.42 F1800.0
G1 X21.44 Y-4.36 Z1.42 F1800.0
G1 X22.44 Y-4.8 Z1.42 F1800.0
G1 X22.88 Y-4.36 Z1.42 F1800.0
G1 X22.57 Y-4.06 Z1.42 F1800.0
G1 X22.88 Y-3.49 Z1.42 F1800.0
G1 X22.44 Y-3.05 Z1.42 F1800.0
G1 X21.44 Y-3.93 Z1.42 F1800.0
G1 X21.0 Y-3.49 Z1.42 F1800.0
G1 X21.44 Y-3.05 Z1.42 F1800.0
G1 X22.44 Y-2.62 Z1.42 F1800.0
G1 X22.88 Y-2.18 Z1.42 F1800.0
G1 X22.57 Y-1.87 Z1.42 F1800.0
G1 X22.88 Y-1.31 Z1.42 F1800.0
G1 X22.44 Y-0.87 Z1.42 F1800.0
G1 X21.44 Y-2.18 Z1.42 F1800.0
G1 X21.0 Y-1.31 Z1.42 F1800.0
G1 X21.44 Y-0.87 Z1.42 F1800.0
G1 X22.44 Y-0.44 Z1.42 F1800.0
G1 X22.88 Y-0.0 Z1.42 F1800.0
G1 X22.57 Y0.31 Z1.42 F1800.0
G1 X22.88 Y0.87 Z1.42 F1800.0
G1 X22.44 Y1.31 Z1.42 F1800.0
G1 X21.44 Y1.31 Z1.42 F1800.0
G1 X21.32 Y1.19 Z1.42 F1800.0
M108 R30.0
M102
G1 X21.0 Y0.87 Z1.42 F1800.0
M108 R3.569
M103
G1 X21.0 Y2.25 Z1.42 F3000.0
M108 R30.0
M101
G1 X21.0 Y3.05 Z1.42 F3000.0
M108 R3.569
G1 X22.78 Y3.16 Z1.42 F1800.0
G1 X29.9 Y3.06 Z1.42 F1800.0
M108 R30.0
M102
G1 X30.35 Y3.05 Z1.42 F1800.0
M108 R3.569
M103
G1 X30.35 Y4.44 Z1.42 F3000.0
M108 R30.0
M101
G1 X30.35 Y5.24 Z1.42 F3000.0
M108 R3.569
G1 X29.91 Y4.8 Z1.42 F1800.0
G1 X29.91 Y4.36 Z1.42 F1800.0
G1 X30.35 Y3.93 Z1.42 F1800.0
G1 X29.91 Y3.49 Z1.42 F1800.0
G1 X27.14 Y3.39 Z1.42 F1800.0
G1 X25.22 Y5.34 Z1.42 F1800.0
G1 X24.96 Y5.34 Z1.42 F1800.0
G1 X23.04 Y3.39 Z1.42 F1800.0
G1 X21.44 Y3.49 Z1.42 F1800.0
G1 X21.0 Y3.93 Z1.42 F1800.0
G1 X21.44 Y4.36 Z1.42 F1800.0
G1 X21.44 Y4.8 Z1.42 F1800.0
G1 X21.32 Y4.92 Z1.42 F1800.0
M108 R30.0
M102
G1 X21.0 Y5.24 Z1.42 F1800.0
M108 R3.569
M103
G1 X21.0 Y6.62 Z1.42 F3000.0
M108 R30.0
M101
G1 X21.0 Y7.42 Z1.42 F3000.0
M108 R3.569
G1 X23.04 Y7.52 Z1.42 F1800.0
G1 X24.96 Y5.57 Z1.42 F1800.0
G1 X25.22 Y5.57 Z1.42 F1800.0
G1 X27.14 Y7.52 Z1.42 F1800.0
G1 X29.9 Y7.43 Z1.42 F1800.0
M108 R30.0
M102
G1 X30.35 Y7.42 Z1.42 F1800.0
M108 R3.569
M103
G1 X30.35 Y8.8 Z1.42 F3000.0
M108 R30.0
M101
G1 X30.35 Y9.6 Z1.42 F3000.0
M108 R3.569
G1 X29.91 Y9.16 Z1.42 F1800.0
G1 X29.91 Y8.73 Z1.42 F1800.0
G1 X30.35 Y8.29 Z1.42 F1800.0
G1 X27.4 Y7.75 Z1.42 F1800.0
G1 X27.14 Y7.75 Z1.42 F1800.0
G1 X25.22 Y9.7 Z1.42 F1800.0
G1 X24.96 Y9.7 Z1.42 F1800.0
G1 X23.04 Y7.75 Z1.42 F1800.0
G1 X22.78 Y7.75 Z1.42 F1800.0
G1 X21.0 Y8.29 Z1.42 F1800.0
G1 X21.44 Y8.73 Z1.42 F1800.0
G1 X21.44 Y9.16 Z1.42 F1800.0
G1 X21.32 Y9.28 Z1.42 F1800.0
M108 R30.0
M102
G1 X21.0 Y9.6 Z1.42 F1800.0
M108 R3.569
M103
G1 X21.0 Y10.98 Z1.42 F3000.0
M108 R30.0
M101
G1 X21.0 Y11.78 Z1.42 F3000.0
M108 R3.569
G1 X23.04 Y11.88 Z1.42 F1800.0
G1 X24.96 Y9.93 Z1.42 F1800.0
G1 X25.22 Y9.93 Z1.42 F1800.0
G1 X27.14 Y11.88 Z1.42 F1800.0
G1 X29.9 Y11.8 Z1.42 F1800.0
M108 R30.0
M102
G1 X30.35 Y11.78 Z1.42 F1800.0
M108 R3.569
M103
G1 X30.35 Y13.16 Z1.42 F3000.0
M108 R30.0
M101
G1 X30.35 Y13.96 Z1.42 F3000.0
M108 R3.569
G1 X29.91 Y13.53 Z1.42 F1800.0
G1 X29.91 Y13.09 Z1.42 F1800.0
G1 X30.35 Y12.65 Z1.42 F1800.0
G1 X27.4 Y12.11 Z1.42 F1800.0
G1 X27.14 Y12.11 Z1.42 F1800.0
G1 X25.22 Y14.07 Z1.42 F1800.0
G1 X24.96 Y14.07 Z1.42 F1800.0
G1 X23.04 Y12.11 Z1.42 F1800.0
G1 X22.78 Y12.11 Z1.42 F1800.0
G1 X21.0 Y12.65 Z1.42 F1800.0
G1 X21.44 Y13.09 Z1.42 F1800.0
G1 X21.44 Y13.53 Z1.42 F1800.0
G1 X21.32 Y13.64 Z1.42 F1800.0
M108 R30.0
M102
G1 X21.0 Y13.96 Z1.42 F1800.0
M108 R3.569
M103
G1 X29.57 Y15.96 Z1.42 F3000.0
M108 R30.0
M101
G1 X30.35 Y16.14 Z1.42 F3000.0
M108 R3.569
G1 X27.14 Y16.25 Z1.42 F1800.0
G1 X25.22 Y14.3 Z1.42 F1800.0
G1 X24.96 Y14.3 Z1.42 F1800.0
G1 X23.04 Y16.25 Z1.42 F1800.0
G1 X-16.49 Y16.25 Z1.42 F1800.0
G1 X-18.68 Y15.65 Z1.42 F1800.0
G1 X-20.6 Y16.25 Z1.42 F1800.0
G1 X-20.85 Y16.25 Z1.42 F1800.0
G1 X-23.15 Y17.45 Z1.42 F1800.0
G1 X-23.15 Y13.96 Z1.42 F1800.0
G1 X-22.91 Y14.18 Z1.42 F1800.0
G1 X-22.78 Y14.18 Z1.42 F1800.0
G1 X-23.15 Y13.53 Z1.42 F1800.0
G1 X-20.85 Y12.11 Z1.42 F1800.0
G1 X-20.6 Y12.11 Z1.42 F1800.0
G1 X-18.9 Y14.84 Z1.42 F1800.0
G1 X-18.9 Y11.35 Z1.42 F1800.0
G1 X-20.6 Y11.88 Z1.42 F1800.0
G1 X-20.85 Y11.88 Z1.42 F1800.0
G1 X-23.15 Y13.09 Z1.42 F1800.0
G1 X-23.15 Y9.6 Z1.42 F1800.0
G1 X-22.91 Y9.82 Z1.42 F1800.0
G1 X-22.78 Y9.82 Z1.42 F1800.0
G1 X-23.15 Y9.16 Z1.42 F1800.0
G1 X-20.85 Y7.75 Z1.42 F1800.0
G1 X-20.6 Y7.75 Z1.42 F1800.0
G1 X-18.9 Y10.91 Z1.42 F1800.0
G1 X-18.9 Y6.98 Z1.42 F1800.0
G1 X-20.6 Y7.52 Z1.42 F1800.0
G1 X-20.85 Y7.52 Z1.42 F1800.0
G1 X-23.15 Y8.73 Z1.42 F1800.0
G1 X-23.15 Y5.24 Z1.42 F1800.0
G1 X-22.91 Y5.45 Z1.42 F1800.0
G1 X-22.78 Y5.45 Z1.42 F1800.0
G1 X-23.15 Y4.8 Z1.42 F1800.0
G1 X-20.85 Y3.39 Z1.42 F1800.0
G1 X-20.6 Y3.39 Z1.42 F1800.0
G1 X-18.9 Y6.55 Z1.42 F1800.0
G1 X-18.9 Y2.62 Z1.42 F1800.0
G1 X-20.6 Y3.16 Z1.42 F1800.0
G1 X-20.85 Y3.16 Z1.42 F1800.0
G1 X-23.15 Y4.36 Z1.42 F1800.0
G1 X-23.15 Y0.87 Z1.42 F1800.0
G1 X-22.91 Y1.09 Z1.42 F1800.0
G1 X-22.78 Y1.09 Z1.42 F1800.0
G1 X-23.15 Y0.44 Z1.42 F1800.0
G1 X-20.85 Y-0.98 Z1.42 F1800.0
G1 X-20.6 Y-0.98 Z1.42 F1800.0
G1 X-18.9 Y2.18 Z1.42 F1800.0
G1 X-18.9 Y-1.75 Z1.42 F1800.0
G1 X-20.6 Y-1.21 Z1.42 F1800.0
G1 X-20.85 Y-1.21 Z1.42 F1800.0
G1 X-22.78 Y-3.16 Z1.42 F1800.0
G1 X-23.04 Y-3.16 Z1.42 F1800.0
G1 X-24.96 Y-1.09 Z1.42 F1800.0
G1 X-29.58 Y-1.09 Z1.42 F1800.0
G1 X-29.92 Y-1.19 Z1.42 F1800.0
M108 R30.0
M102
G1 X-30.35 Y-1.31 Z1.42 F1800.0
M108 R3.569
M103
G1 X-18.33 Y3.11 Z1.42 F3000.0
G1 X-18.19 Y14.68 Z1.42 F3000.0
G1 X13.74 Y14.81 Z1.42 F3000.0
G1 X29.59 Y20.25 Z1.42 F3000.0
M108 R30.0
M101
G1 X30.35 Y20.51 Z1.42 F3000.0
M108 R3.569
G1 X27.14 Y20.61 Z1.42 F1800.0
G1 X25.22 Y18.66 Z1.42 F1800.0
G1 X24.96 Y18.66 Z1.42 F1800.0
G1 X23.04 Y20.61 Z1.42 F1800.0
G1 X22.78 Y20.61 Z1.42 F1800.0
G1 X20.85 Y18.66 Z1.42 F1800.0
G1 X20.6 Y18.66 Z1.42 F1800.0
G1 X18.67 Y20.61 Z1.42 F1800.0
G1 X18.42 Y20.61 Z1.42 F1800.0
G1 X16.49 Y18.66 Z1.42 F1800.0
G1 X16.24 Y18.66 Z1.42 F1800.0
G1 X14.31 Y20.61 Z1.42 F1800.0
G1 X14.05 Y20.61 Z1.42 F1800.0
G1 X12.13 Y18.66 Z1.42 F1800.0
G1 X11.87 Y18.66 Z1.42 F1800.0
G1 X9.95 Y20.61 Z1.42 F1800.0
G1 X9.69 Y20.61 Z1.42 F1800.0
G1 X7.76 Y18.66 Z1.42 F1800.0
G1 X7.51 Y18.66 Z1.42 F1800.0
G1 X5.58 Y20.61 Z1.42 F1800.0
G1 X5.33 Y20.61 Z1.42 F1800.0
G1 X3.4 Y18.66 Z1.42 F1800.0
G1 X3.15 Y18.66 Z1.42 F1800.0
G1 X1.22 Y20.61 Z1.42 F1800.0
G1 X0.96 Y20.61 Z1.42 F1800.0
G1 X-0.96 Y18.66 Z1.42 F1800.0
G1 X-1.22 Y18.66 Z1.42 F1800.0
G1 X-3.15 Y20.61 Z1.42 F1800.0
G1 X-3.4 Y20.61 Z1.42 F1800.0
G1 X-5.33 Y18.66 Z1.42 F1800.0
G1 X-5.58 Y18.66 Z1.42 F1800.0
G1 X-7.51 Y20.61 Z1.42 F1800.0
G1 X-7.76 Y20.61 Z1.42 F1800.0
G1 X-9.69 Y18.66 Z1.42 F1800.0
G1 X-9.95 Y18.66 Z1.42 F1800.0
G1 X-11.87 Y20.61 Z1.42 F1800.0
G1 X-12.13 Y20.61 Z1.42 F1800.0
G1 X-14.05 Y18.66 Z1.42 F1800.0
G1 X-14.31 Y18.66 Z1.42 F1800.0
G1 X-16.24 Y20.61 Z1.42 F1800.0
G1 X-16.49 Y20.61 Z1.42 F1800.0
G1 X-18.42 Y18.66 Z1.42 F1800.0
G1 X-18.67 Y18.66 Z1.42 F1800.0
G1 X-20.6 Y20.61 Z1.42 F1800.0
G1 X-20.85 Y20.61 Z1.42 F1800.0
G1 X-23.15 Y21.82 Z1.42 F1800.0
G1 X-23.15 Y18.33 Z1.42 F1800.0
G1 X-22.91 Y18.54 Z1.42 F1800.0
G1 X-22.78 Y18.54 Z1.42 F1800.0
G1 X-23.15 Y17.89 Z1.42 F1800.0
G1 X-20.85 Y16.48 Z1.42 F1800.0
G1 X-20.6 Y16.48 Z1.42 F1800.0
G1 X-18.67 Y18.43 Z1.42 F1800.0
G1 X-18.42 Y18.43 Z1.42 F1800.0
G1 X-16.49 Y16.48 Z1.42 F1800.0
G1 X-16.24 Y16.48 Z1.42 F1800.0
G1 X-14.31 Y18.43 Z1.42 F1800.0
G1 X-14.05 Y18.43 Z1.42 F1800.0
G1 X-12.13 Y16.48 Z1.42 F1800.0
G1 X-11.87 Y16.48 Z1.42 F1800.0
G1 X-9.95 Y18.43 Z1.42 F1800.0
G1 X-9.69 Y18.43 Z1.42 F1800.0
G1 X-7.76 Y16.48 Z1.42 F1800.0
G1 X-7.51 Y16.48 Z1.42 F1800.0
G1 X-5.58 Y18.43 Z1.42 F1800.0
G1 X-5.33 Y18.43 Z1.42 F1800.0
G1 X-3.4 Y16.48 Z1.42 F1800.0
G1 X-3.15 Y16.48 Z1.42 F1800.0
G1 X-1.22 Y18.43 Z1.42 F1800.0
G1 X-0.96 Y18.43 Z1.42 F1800.0
G1 X0.96 Y16.48 Z1.42 F1800.0
G1 X1.22 Y16.48 Z1.42 F1800.0
G1 X3.15 Y18.43 Z1.42 F1800.0
G1 X3.4 Y18.43 Z1.42 F1800.0
G1 X5.33 Y16.48 Z1.42 F1800.0
G1 X5.58 Y16.48 Z1.42 F1800.0
G1 X7.51 Y18.43 Z1.42 F1800.0
G1 X7.76 Y18.43 Z1.42 F1800.0
G1 X9.69 Y16.48 Z1.42 F1800.0
G1 X9.95 Y16.48 Z1.42 F1800.0
G1 X11.87 Y18.43 Z1.42 F1800.0
G1 X12.13 Y18.43 Z1.42 F1800.0
G1 X14.05 Y16.48 Z1.42 F1800.0
G1 X14.31 Y16.48 Z1.42 F1800.0
G1 X16.24 Y18.43 Z1.42 F1800.0
G1 X16.49 Y18.43 Z1.42 F1800.0
G1 X18.42 Y16.48 Z1.42 F1800.0
G1 X18.67 Y16.48 Z1.42 F1800.0
G1 X20.6 Y18.43 Z1.42 F1800.0
G1 X20.85 Y18.43 Z1.42 F1800.0
G1 X22.78 Y16.48 Z1.42 F1800.0
G1 X23.04 Y16.48 Z1.42 F1800.0
G1 X24.96 Y18.43 Z1.42 F1800.0
G1 X25.22 Y18.43 Z1.42 F1800.0
G1 X27.14 Y16.48 Z1.42 F1800.0
G1 X29.91 Y16.58 Z1.42 F1800.0
G1 X30.35 Y17.02 Z1.42 F1800.0
G1 X29.91 Y17.45 Z1.42 F1800.0
G1 X29.91 Y17.89 Z1.42 F1800.0
G1 X30.03 Y18.01 Z1.42 F1800.0
M108 R30.0
M102
G1 X30.35 Y18.33 Z1.42 F1800.0
M108 R3.569
M103
G1 X30.35 Y24.07 Z1.42 F3000.0
M108 R30.0
M101
G1 X30.35 Y24.87 Z1.42 F3000.0
M108 R3.569
G1 X29.91 Y24.44 Z1.42 F1800.0
G1 X29.91 Y24.0 Z1.42 F1800.0
G1 X25.22 Y23.02 Z1.42 F1800.0
G1 X-18.67 Y23.02 Z1.42 F1800.0
G1 X-23.15 Y24.87 Z1.42 F1800.0
G1 X-23.15 Y22.69 Z1.42 F1800.0
G1 X-22.91 Y22.91 Z1.42 F1800.0
G1 X-22.78 Y22.91 Z1.42 F1800.0
G1 X-23.15 Y22.25 Z1.42 F1800.0
G1 X-20.85 Y20.84 Z1.42 F1800.0
G1 X-20.6 Y20.84 Z1.42 F1800.0
G1 X-18.67 Y22.79 Z1.42 F1800.0
G1 X-18.42 Y22.79 Z1.42 F1800.0
G1 X-16.49 Y20.84 Z1.42 F1800.0
G1 X-16.24 Y20.84 Z1.42 F1800.0
G1 X-14.31 Y22.79 Z1.42 F1800.0
G1 X-14.05 Y22.79 Z1.42 F1800.0
G1 X-12.13 Y20.84 Z1.42 F1800.0
G1 X-11.87 Y20.84 Z1.42 F1800.0
G1 X-9.95 Y22.79 Z1.42 F1800.0
G1 X-9.69 Y22.79 Z1.42 F1800.0
G1 X-7.76 Y20.84 Z1.42 F1800.0
G1 X-7.51 Y20.84 Z1.42 F1800.0
G1 X-5.58 Y22.79 Z1.42 F1800.0
G1 X-5.33 Y22.79 Z1.42 F1800.0
G1 X-3.4 Y20.84 Z1.42 F1800.0
G1 X-3.15 Y20.84 Z1.42 F1800.0
G1 X-1.22 Y22.79 Z1.42 F1800.0
G1 X-0.96 Y22.79 Z1.42 F1800.0
G1 X0.96 Y20.84 Z1.42 F1800.0
G1 X1.22 Y20.84 Z1.42 F1800.0
G1 X3.15 Y22.79 Z1.42 F1800.0
G1 X3.4 Y22.79 Z1.42 F1800.0
G1 X5.33 Y20.84 Z1.42 F1800.0
G1 X5.58 Y20.84 Z1.42 F1800.0
G1 X7.51 Y22.79 Z1.42 F1800.0
G1 X7.76 Y22.79 Z1.42 F1800.0
G1 X9.69 Y20.84 Z1.42 F1800.0
G1 X9.95 Y20.84 Z1.42 F1800.0
G1 X11.87 Y22.79 Z1.42 F1800.0
G1 X12.13 Y22.79 Z1.42 F1800.0
G1 X14.05 Y20.84 Z1.42 F1800.0
G1 X14.31 Y20.84 Z1.42 F1800.0
G1 X16.24 Y22.79 Z1.42 F1800.0
G1 X16.49 Y22.79 Z1.42 F1800.0
G1 X18.42 Y20.84 Z1.42 F1800.0
G1 X18.67 Y20.84 Z1.42 F1800.0
G1 X20.6 Y22.79 Z1.42 F1800.0
G1 X20.85 Y22.79 Z1.42 F1800.0
G1 X22.78 Y20.84 Z1.42 F1800.0
G1 X23.04 Y20.84 Z1.42 F1800.0
G1 X24.96 Y22.79 Z1.42 F1800.0
G1 X25.22 Y22.79 Z1.42 F1800.0
G1 X27.14 Y20.84 Z1.42 F1800.0
G1 X29.91 Y20.94 Z1.42 F1800.0
G1 X30.35 Y21.38 Z1.42 F1800.0
G1 X29.91 Y21.82 Z1.42 F1800.0
G1 X29.91 Y22.25 Z1.42 F1800.0
G1 X30.03 Y22.37 Z1.42 F1800.0
M108 R30.0
M102
G1 X30.35 Y22.69 Z1.42 F1800.0
M108 R3.569
M103
(</surroundingLoop>)
(</layer>)
(<layer> 1.74 )
(<surroundingLoop>)
(<boundaryPerimeter>)
(<boundaryPoint> X-23.993 Y25.993 Z1.74 </boundaryPoint>)
(<boundaryPoint> X-23.993 Y1.091 Z1.74 </boundaryPoint>)
(<boundaryPoint> X-31.193 Y1.091 Z1.74 </boundaryPoint>)
(<boundaryPoint> X-31.193 Y-3.889 Z1.74 </boundaryPoint>)
(<boundaryPoint> X-23.993 Y-3.889 Z1.74 </boundaryPoint>)
(<boundaryPoint> X-23.993 Y-25.993 Z1.74 </boundaryPoint>)
(<boundaryPoint> X31.193 Y-25.993 Z1.74 </boundaryPoint>)
(<boundaryPoint> X31.193 Y-4.152 Z1.74 </boundaryPoint>)
(<boundaryPoint> X23.723 Y-4.152 Z1.74 </boundaryPoint>)
(<boundaryPoint> X23.723 Y1.091 Z1.74 </boundaryPoint>)
(<boundaryPoint> X31.193 Y1.091 Z1.74 </boundaryPoint>)
(<boundaryPoint> X31.193 Y25.993 Z1.74 </boundaryPoint>)
(<loop> inner )
G1 X21.06 Y15.61 Z1.72 F3000.0
M108 R30.0
M101
G1 X20.42 Y15.13 Z1.74 F3000.0
M108 R3.569
G1 X20.75 Y15.13 Z1.74 F1800.0
G1 X20.75 Y-19.02 Z1.74 F1800.0
G1 X-18.64 Y-19.02 Z1.74 F1800.0
G1 X-18.64 Y15.13 Z1.74 F1800.0
G1 X19.97 Y15.13 Z1.74 F1800.0
M108 R30.0
M102
G1 X20.42 Y15.13 Z1.74 F1800.0
M108 R3.569
M103
(</loop>)
(<loop> outer )
G1 X29.8 Y15.13 Z1.74 F3000.0
M108 R30.0
M101
G1 X30.6 Y15.13 Z1.74 F3000.0
M108 R3.569
G1 X30.6 Y25.4 Z1.74 F1800.0
G1 X-23.4 Y25.4 Z1.74 F1800.0
G1 X-23.4 Y0.5 Z1.74 F1800.0
G1 X-30.6 Y0.5 Z1.74 F1800.0
G1 X-30.6 Y-3.3 Z1.74 F1800.0
G1 X-23.4 Y-3.3 Z1.74 F1800.0
G1 X-23.4 Y-25.4 Z1.74 F1800.0
G1 X30.6 Y-25.4 Z1.74 F1800.0
G1 X30.6 Y-4.74 Z1.74 F1800.0
G1 X23.13 Y-4.74 Z1.74 F1800.0
G1 X23.13 Y1.68 Z1.74 F1800.0
G1 X30.6 Y1.68 Z1.74 F1800.0
G1 X30.6 Y15.13 Z1.74 F1800.0
M103
(</loop>)
(<perimeter> outer )
G1 X31.0 Y15.13 Z1.74 F3000.0
M101
G1 X31.0 Y25.8 Z1.74 F1800.0
G1 X-23.8 Y25.8 Z1.74 F1800.0
G1 X-23.8 Y0.9 Z1.74 F1800.0
G1 X-31.0 Y0.9 Z1.74 F1800.0
G1 X-31.0 Y-3.69 Z1.74 F1800.0
G1 X-23.8 Y-3.69 Z1.74 F1800.0
G1 X-23.8 Y-25.8 Z1.74 F1800.0
G1 X31.0 Y-25.8 Z1.74 F1800.0
G1 X31.0 Y-4.35 Z1.74 F1800.0
G1 X23.53 Y-4.35 Z1.74 F1800.0
G1 X23.53 Y1.29 Z1.74 F1800.0
G1 X31.0 Y1.29 Z1.74 F1800.0
G1 X31.0 Y14.68 Z1.74 F1800.0
M108 R30.0
M102
G1 X31.0 Y15.13 Z1.74 F1800.0
M108 R3.569
M103
(</perimeter>)
(</boundaryPerimeter>)
(<surroundingLoop>)
(<boundaryPerimeter>)
(<boundaryPoint> X-18.05 Y14.538 Z1.74 </boundaryPoint>)
(<boundaryPoint> X20.156 Y14.538 Z1.74 </boundaryPoint>)
(<boundaryPoint> X20.156 Y-18.428 Z1.74 </boundaryPoint>)
(<boundaryPoint> X-18.05 Y-18.428 Z1.74 </boundaryPoint>)
(<perimeter> inner )
G1 X21.15 Y14.76 Z1.74 F3000.0
M108 R30.0
M101
G1 X20.35 Y14.74 Z1.74 F3000.0
M108 R3.569
G1 X20.35 Y-18.63 Z1.74 F1800.0
G1 X-18.25 Y-18.63 Z1.74 F1800.0
G1 X-18.25 Y14.74 Z1.74 F1800.0
G1 X19.9 Y14.74 Z1.74 F1800.0
M108 R30.0
M102
G1 X20.35 Y14.74 Z1.74 F1800.0
M108 R3.569
M103
(</perimeter>)
(</boundaryPerimeter>)
(</surroundingLoop>)
G1 X19.29 Y24.35 Z1.74 F3000.0
M108 R30.0
M101
G1 X19.2 Y25.15 Z1.74 F3000.0
M108 R3.569
G1 X19.64 Y24.71 Z1.74 F1800.0
G1 X20.07 Y25.15 Z1.74 F1800.0
G1 X20.51 Y24.71 Z1.74 F1800.0
G1 X20.61 Y22.78 Z1.74 F1800.0
G1 X18.66 Y20.85 Z1.74 F1800.0
G1 X18.66 Y20.6 Z1.74 F1800.0
G1 X20.61 Y18.67 Z1.74 F1800.0
