(** This GCode was generated by ReplicatorG 0034 **)
(*  using Skeinforge (35)  *)
(*  for a Single headed Thing-O-Matic  *)
(*  on 2012/04/22 14:52:28 (-0400) *)
(<alteration>)
(**** beginning of start.gcode ****)
(This file is for a MakerBot Thing-O-Matic)
(**** begin initialization commands ****)
G21 (set units to mm)
G90 (set positioning to absolute)
M108 R5.0 (set extruder speed)
M103 (Make sure extruder is off)
M104 S225 T0 (set extruder temperature)
M109 S120 T0 (set heated-build-platform temperature)
(**** end initialization commands ****)
(**** begin homing ****)
G162 Z F1000 (home Z axis maximum)
G92 Z10 (set Z to 0)
G1 Z0.0 (move z down 10)
G162 Z F150 (home Z axis maximum)
G161 X Y F2500 (home XY axes minimum)
M132 X Y Z A B (Recall stored home offsets for XYZAB axis)
(**** end homing ****)
(**** begin pre-wipe commands ****)
( Some people have had problems with the nozzle hitting )
( bolts or wipers during this pre-extrusion warmup.     )
( If this happens to you, you can change the values for )
( the X and Y positions in the following code.          )
( The goal is to have the toolhead wipe its initial     )
( extrusion near the edge of the platform, [anchor it]  )
( so as not to have it interfere with the print.        )
( This file can be found in:                            )
( replicatorg/skein_engines/skeinforge-##/skeinforge_application/ )
( prefs/<profile name [e.g. Thingomatic-ABP-Mk7]>/alterations )
G1 X25.0 Y-60.0 Z10.0 F3300.0 (move to waiting position)
M6 T0 (wait for toolhead parts, nozzle, HBP, etc., to reach temperature)
G0 X25 Y-57 (Position Nozzle)
G0 Z0.6     (Position Height)
M108 R4.0   (Set Extruder Speed)
M101        (Start Extruder)
G4 P1500    (Create Anchor)
(**** end pre-wipe commands ****)
(**** end of start.gcode ****)
(</alteration>)
(<creation> skeinforge </creation>)
(<version> 10.11.05 </version>)
(<extruderInitialization>)
(<craftTypeName> extrusion </craftTypeName>)
M105
(<bridgeWidthMultiplier> 1.0 </bridgeWidthMultiplier>)
(<decimalPlacesCarried> 3 </decimalPlacesCarried>)
(<layerThickness> 0.32 </layerThickness>)
(<threadSequenceString> loops perimeter infill </threadSequenceString>)
(<operatingFeedRatePerSecond> 30.0 </operatingFeedRatePerSecond>)
(<operatingFlowRate> 3.56914845556 </operatingFlowRate>)
(<orbitalFeedRatePerSecond> 15.0 </orbitalFeedRatePerSecond>)
(<travelFeedRatePerSecond> 50.0 </travelFeedRatePerSecond>)
(<perimeterWidth> 0.393 </perimeterWidth>)
(<profileName> ABS </profileName>)
(<procedureDone> carve,bottom </procedureDone>)
(<procedureDone> preface </procedureDone>)
(<procedureDone> inset </procedureDone>)
(<procedureDone> fill </procedureDone>)
(<procedureDone> speed </procedureDone>)
(<procedureDone> raft </procedureDone>)
(<procedureDone> jitter </procedureDone>)
(<procedureDone> comb </procedureDone>)
(<procedureDone> cool </procedureDone>)
(<procedureDone> outline </procedureDone>)
(<procedureDone> reversal </procedureDone>)
(<procedureDone> export </procedureDone>)
(</extruderInitialization>)
(<extrusion>)
;M113 S1.0
M108 R3.569
(<layer> 0.46 )
(<surroundingLoop>)
(<boundaryPerimeter>)
(<boundaryPoint> X-12.376 Y-12.104 Z0.46 </boundaryPoint>)
(<boundaryPoint> X12.376 Y-12.104 Z0.46 </boundaryPoint>)
(<boundaryPoint> X12.376 Y12.104 Z0.46 </boundaryPoint>)
(<boundaryPoint> X-12.376 Y12.104 Z0.46 </boundaryPoint>)
(<loop> inner )
M108 R2.141
G1 X14.18 Y-13.91 Z0.46 F1080.0
M101
G1 X-14.18 Y-13.91 Z0.46 F1080.0
G1 X-14.18 Y13.91 Z0.46 F1080.0
G1 X14.18 Y13.91 Z0.46 F1080.0
G1 X14.18 Y-13.64 Z0.46 F1080.0
M108 R30.0
M102
G1 X14.18 Y-13.91 Z0.46 F1080.0
M108 R2.141
M103
G1 X1.81 Y-6.19 Z0.46 F3000.0
M108 R30.0
M101
G1 X1.13 Y-5.76 Z0.46 F3000.0
M108 R2.141
G1 X0.62 Y-5.87 Z0.46 F1080.0
G1 X-0.62 Y-5.87 Z0.46 F1080.0
G1 X-1.83 Y-5.62 Z0.46 F1080.0
G1 X-2.95 Y-5.11 Z0.46 F1080.0
G1 X-3.95 Y-4.39 Z0.46 F1080.0
G1 X-4.78 Y-3.47 Z0.46 F1080.0
G1 X-5.39 Y-2.4 Z0.46 F1080.0
G1 X-5.78 Y-1.23 Z0.46 F1080.0
G1 X-5.91 Y-0.0 Z0.46 F1080.0
G1 X-5.78 Y1.23 Z0.46 F1080.0
G1 X-5.39 Y2.4 Z0.46 F1080.0
G1 X-4.78 Y3.47 Z0.46 F1080.0
G1 X-3.95 Y4.39 Z0.46 F1080.0
G1 X-2.95 Y5.11 Z0.46 F1080.0
G1 X-1.83 Y5.62 Z0.46 F1080.0
G1 X-0.62 Y5.87 Z0.46 F1080.0
G1 X0.62 Y5.87 Z0.46 F1080.0
G1 X1.83 Y5.62 Z0.46 F1080.0
G1 X2.95 Y5.11 Z0.46 F1080.0
G1 X3.95 Y4.39 Z0.46 F1080.0
G1 X4.78 Y3.47 Z0.46 F1080.0
G1 X5.39 Y2.4 Z0.46 F1080.0
G1 X5.78 Y1.23 Z0.46 F1080.0
G1 X5.91 Y0.0 Z0.46 F1080.0
G1 X5.78 Y-1.23 Z0.46 F1080.0
G1 X5.39 Y-2.4 Z0.46 F1080.0
G1 X4.78 Y-3.47 Z0.46 F1080.0
G1 X3.95 Y-4.39 Z0.46 F1080.0
G1 X2.95 Y-5.11 Z0.46 F1080.0
G1 X1.83 Y-5.62 Z0.46 F1080.0
G1 X1.39 Y-5.71 Z0.46 F1080.0
M108 R30.0
M102
G1 X1.22 Y-5.74 Z0.46 F1080.0
G1 X1.13 Y-5.76 Z0.46 F1080.0
M108 R2.141
M103
(</loop>)
(<loop> outer )
G1 X1.21 Y-10.72 Z0.46 F3000.0
M108 R30.0
M101
G1 X1.22 Y-11.52 Z0.46 F3000.0
M108 R2.141
G1 X11.79 Y-11.52 Z0.46 F1080.0
G1 X11.79 Y11.52 Z0.46 F1080.0
G1 X-11.79 Y11.52 Z0.46 F1080.0
G1 X-11.79 Y-11.52 Z0.46 F1080.0
G1 X1.22 Y-11.52 Z0.46 F1080.0
M103
(</loop>)
(<perimeter> outer )
G1 X1.22 Y-11.91 Z0.46 F3000.0
M101
G1 X12.18 Y-11.91 Z0.46 F1080.0
G1 X12.18 Y11.91 Z0.46 F1080.0
G1 X-12.18 Y11.91 Z0.46 F1080.0
G1 X-12.18 Y-11.91 Z0.46 F1080.0
G1 X0.95 Y-11.91 Z0.46 F1080.0
M108 R30.0
M102
G1 X1.22 Y-11.91 Z0.46 F1080.0
M108 R2.141
M103
(</perimeter>)
(</boundaryPerimeter>)
(<surroundingLoop>)
(<boundaryPerimeter>)
(<boundaryPoint> X4.298 Y-3.123 Z0.46 </boundaryPoint>)
(<boundaryPoint> X3.555 Y-3.948 Z0.46 </boundaryPoint>)
(<boundaryPoint> X2.656 Y-4.601 Z0.46 </boundaryPoint>)
(<boundaryPoint> X1.642 Y-5.052 Z0.46 </boundaryPoint>)
(<boundaryPoint> X0.555 Y-5.283 Z0.46 </boundaryPoint>)
(<boundaryPoint> X-0.555 Y-5.283 Z0.46 </boundaryPoint>)
(<boundaryPoint> X-1.642 Y-5.052 Z0.46 </boundaryPoint>)
(<boundaryPoint> X-2.656 Y-4.601 Z0.46 </boundaryPoint>)
(<boundaryPoint> X-3.555 Y-3.948 Z0.46 </boundaryPoint>)
(<boundaryPoint> X-4.298 Y-3.123 Z0.46 </boundaryPoint>)
(<boundaryPoint> X-4.853 Y-2.161 Z0.46 </boundaryPoint>)
(<boundaryPoint> X-5.196 Y-1.105 Z0.46 </boundaryPoint>)
(<boundaryPoint> X-5.313 Y-0.0 Z0.46 </boundaryPoint>)
(<boundaryPoint> X-5.196 Y1.105 Z0.46 </boundaryPoint>)
(<boundaryPoint> X-4.853 Y2.161 Z0.46 </boundaryPoint>)
(<boundaryPoint> X-4.298 Y3.123 Z0.46 </boundaryPoint>)
(<boundaryPoint> X-3.555 Y3.948 Z0.46 </boundaryPoint>)
(<boundaryPoint> X-2.656 Y4.601 Z0.46 </boundaryPoint>)
(<boundaryPoint> X-1.642 Y5.052 Z0.46 </boundaryPoint>)
(<boundaryPoint> X-0.555 Y5.283 Z0.46 </boundaryPoint>)
(<boundaryPoint> X0.555 Y5.283 Z0.46 </boundaryPoint>)
(<boundaryPoint> X1.642 Y5.052 Z0.46 </boundaryPoint>)
(<boundaryPoint> X2.656 Y4.601 Z0.46 </boundaryPoint>)
(<boundaryPoint> X3.555 Y3.948 Z0.46 </boundaryPoint>)
(<boundaryPoint> X4.298 Y3.123 Z0.46 </boundaryPoint>)
(<boundaryPoint> X4.853 Y2.161 Z0.46 </boundaryPoint>)
(<boundaryPoint> X5.196 Y1.105 Z0.46 </boundaryPoint>)
(<boundaryPoint> X5.313 Y0.0 Z0.46 </boundaryPoint>)
(<boundaryPoint> X5.196 Y-1.105 Z0.46 </boundaryPoint>)
(<boundaryPoint> X4.853 Y-2.161 Z0.46 </boundaryPoint>)
(<perimeter> inner )
G1 X0.66 Y-6.28 Z0.46 F3000.0
M108 R30.0
M101
G1 X0.58 Y-5.48 Z0.46 F3000.0
M108 R2.141
G1 X-0.58 Y-5.48 Z0.46 F1080.0
G1 X-1.7 Y-5.24 Z0.46 F1080.0
G1 X-2.76 Y-4.77 Z0.46 F1080.0
G1 X-3.69 Y-4.1 Z0.46 F1080.0
G1 X-4.46 Y-3.24 Z0.46 F1080.0
G1 X-5.03 Y-2.24 Z0.46 F1080.0
G1 X-5.39 Y-1.15 Z0.46 F1080.0
G1 X-5.51 Y-0.0 Z0.46 F1080.0
G1 X-5.39 Y1.15 Z0.46 F1080.0
G1 X-5.03 Y2.24 Z0.46 F1080.0
G1 X-4.46 Y3.24 Z0.46 F1080.0
G1 X-3.69 Y4.1 Z0.46 F1080.0
G1 X-2.76 Y4.77 Z0.46 F1080.0
G1 X-1.7 Y5.24 Z0.46 F1080.0
G1 X-0.58 Y5.48 Z0.46 F1080.0
G1 X0.58 Y5.48 Z0.46 F1080.0
G1 X1.7 Y5.24 Z0.46 F1080.0
G1 X2.76 Y4.77 Z0.46 F1080.0
G1 X3.69 Y4.1 Z0.46 F1080.0
G1 X4.46 Y3.24 Z0.46 F1080.0
G1 X5.03 Y2.24 Z0.46 F1080.0
G1 X5.39 Y1.15 Z0.46 F1080.0
G1 X5.51 Y0.0 Z0.46 F1080.0
G1 X5.39 Y-1.15 Z0.46 F1080.0
G1 X5.03 Y-2.24 Z0.46 F1080.0
G1 X4.46 Y-3.24 Z0.46 F1080.0
G1 X3.69 Y-4.1 Z0.46 F1080.0
G1 X2.76 Y-4.77 Z0.46 F1080.0
G1 X1.7 Y-5.24 Z0.46 F1080.0
G1 X0.58 Y-5.48 Z0.46 F1080.0
M103
(</perimeter>)
(</boundaryPerimeter>)
(</surroundingLoop>)
G1 X0.79 Y-6.1 Z0.46 F1800.0
M101
G1 X0.79 Y-11.26 Z0.46 F1080.0
G1 X0.39 Y-11.26 Z0.46 F1080.0
G1 X0.39 Y-6.13 Z0.46 F1080.0
G1 X-0.0 Y-6.13 Z0.46 F1080.0
G1 X-0.0 Y-11.26 Z0.46 F1080.0
G1 X-0.39 Y-11.26 Z0.46 F1080.0
G1 X-0.39 Y-6.13 Z0.46 F1080.0
G1 X-0.79 Y-6.1 Z0.46 F1080.0
G1 X-0.79 Y-11.26 Z0.46 F1080.0
G1 X-1.18 Y-11.26 Z0.46 F1080.0
G1 X-1.18 Y-6.01 Z0.46 F1080.0
M103
G1 X-1.57 Y-5.93 Z0.46 F1800.0
M101
G1 X-1.57 Y-11.26 Z0.46 F1080.0
G1 X-1.96 Y-11.26 Z0.46 F1080.0
G1 X-1.96 Y-5.83 Z0.46 F1080.0
M103
G1 X-2.36 Y-5.66 Z0.46 F1800.0
M101
G1 X-2.36 Y-11.26 Z0.46 F1080.0
G1 X-2.75 Y-11.26 Z0.46 F1080.0
G1 X-2.75 Y-5.48 Z0.46 F1080.0
M103
G1 X-3.14 Y-5.29 Z0.46 F1800.0
M101
G1 X-3.14 Y-11.26 Z0.46 F1080.0
G1 X-3.53 Y-11.26 Z0.46 F1080.0
G1 X-3.53 Y-5.01 Z0.46 F1080.0
G1 X-3.93 Y-4.72 Z0.46 F1080.0
G1 X-3.93 Y-11.26 Z0.46 F1080.0
G1 X-4.32 Y-11.26 Z0.46 F1080.0
G1 X-4.32 Y-4.36 Z0.46 F1080.0
G1 X-4.71 Y-3.93 Z0.46 F1080.0
G1 X-4.71 Y-11.26 Z0.46 F1080.0
G1 X-5.11 Y-11.26 Z0.46 F1080.0
G1 X-5.11 Y-3.41 Z0.46 F1080.0
G1 X-5.5 Y-2.73 Z0.46 F1080.0
G1 X-5.5 Y-11.26 Z0.46 F1080.0
G1 X-5.89 Y-11.26 Z0.46 F1080.0
G1 X-5.89 Y-1.97 Z0.46 F1080.0
M108 R30.0
M102
G1 X-5.89 Y-1.7 Z0.46 F1080.0
M108 R2.141
M103
G1 X-5.89 Y1.22 Z0.46 F1800.0
M108 R30.0
M101
G1 X-5.89 Y1.7 Z0.46 F1800.0
M108 R2.141
G1 X-5.89 Y11.26 Z0.46 F1080.0
G1 X-5.5 Y11.26 Z0.46 F1080.0
G1 X-5.5 Y2.73 Z0.46 F1080.0
G1 X-5.11 Y3.41 Z0.46 F1080.0
G1 X-5.11 Y11.26 Z0.46 F1080.0
G1 X-4.71 Y11.26 Z0.46 F1080.0
G1 X-4.71 Y3.93 Z0.46 F1080.0
G1 X-4.32 Y4.36 Z0.46 F1080.0
G1 X-4.32 Y11.26 Z0.46 F1080.0
G1 X-3.93 Y11.26 Z0.46 F1080.0
G1 X-3.93 Y4.72 Z0.46 F1080.0
G1 X-3.53 Y5.01 Z0.46 F1080.0
G1 X-3.53 Y11.26 Z0.46 F1080.0
G1 X-3.14 Y11.26 Z0.46 F1080.0
G1 X-3.14 Y5.29 Z0.46 F1080.0
M103
G1 X-2.75 Y5.48 Z0.46 F1800.0
M101
G1 X-2.75 Y11.26 Z0.46 F1080.0
G1 X-2.36 Y11.26 Z0.46 F1080.0
G1 X-2.36 Y5.66 Z0.46 F1080.0
M103
G1 X-1.96 Y5.83 Z0.46 F1800.0
M101
G1 X-1.96 Y11.26 Z0.46 F1080.0
G1 X-1.57 Y11.26 Z0.46 F1080.0
G1 X-1.57 Y5.93 Z0.46 F1080.0
M103
G1 X-1.18 Y6.01 Z0.46 F1800.0
M101
G1 X-1.18 Y11.26 Z0.46 F1080.0
G1 X-0.79 Y11.26 Z0.46 F1080.0
G1 X-0.79 Y6.1 Z0.46 F1080.0
G1 X-0.39 Y6.13 Z0.46 F1080.0
G1 X-0.39 Y11.26 Z0.46 F1080.0
G1 X0.0 Y11.26 Z0.46 F1080.0
G1 X0.0 Y6.13 Z0.46 F1080.0
G1 X0.39 Y6.13 Z0.46 F1080.0
G1 X0.39 Y11.26 Z0.46 F1080.0
G1 X0.79 Y11.26 Z0.46 F1080.0
G1 X0.79 Y6.1 Z0.46 F1080.0
M103
G1 X1.18 Y6.01 Z0.46 F1800.0
M101
G1 X1.18 Y11.26 Z0.46 F1080.0
G1 X1.57 Y11.26 Z0.46 F1080.0
G1 X1.57 Y5.93 Z0.46 F1080.0
M103
G1 X1.96 Y5.83 Z0.46 F1800.0
M101
G1 X1.96 Y11.26 Z0.46 F1080.0
G1 X2.36 Y11.26 Z0.46 F1080.0
G1 X2.36 Y5.66 Z0.46 F1080.0
G1 X2.75 Y5.48 Z0.46 F1080.0
G1 X2.75 Y11.26 Z0.46 F1080.0
G1 X3.14 Y11.26 Z0.46 F1080.0
G1 X3.14 Y5.29 Z0.46 F1080.0
G1 X3.53 Y5.01 Z0.46 F1080.0
G1 X3.53 Y11.26 Z0.46 F1080.0
G1 X3.93 Y11.26 Z0.46 F1080.0
G1 X3.93 Y4.72 Z0.46 F1080.0
G1 X4.32 Y4.36 Z0.46 F1080.0
G1 X4.32 Y11.26 Z0.46 F1080.0
G1 X4.71 Y11.26 Z0.46 F1080.0
G1 X4.71 Y3.93 Z0.46 F1080.0
G1 X5.11 Y3.41 Z0.46 F1080.0
G1 X5.11 Y11.26 Z0.46 F1080.0
G1 X5.5 Y11.26 Z0.46 F1080.0
G1 X5.5 Y3.0 Z0.46 F1080.0
M108 R30.0
M102
G1 X5.5 Y2.73 Z0.46 F1080.0
M108 R2.141
M103
G1 X5.72 Y2.15 Z0.46 F1800.0
M108 R30.0
M101
G1 X5.89 Y1.7 Z0.46 F1800.0
M108 R2.141
G1 X5.89 Y10.99 Z0.46 F1080.0
M108 R30.0
M102
G1 X5.89 Y11.26 Z0.46 F1080.0
M108 R2.141
M103
G1 X-5.8 Y11.26 Z0.46 F1800.0
M108 R30.0
M101
G1 X-6.28 Y11.26 Z0.46 F1800.0
M108 R2.141
G1 X-6.28 Y-11.26 Z0.46 F1080.0
G1 X-6.68 Y-11.26 Z0.46 F1080.0
G1 X-6.68 Y11.26 Z0.46 F1080.0
G1 X-7.07 Y11.26 Z0.46 F1080.0
G1 X-7.07 Y-11.26 Z0.46 F1080.0
G1 X-7.46 Y-11.26 Z0.46 F1080.0
G1 X-7.46 Y11.26 Z0.46 F1080.0
G1 X-7.85 Y11.26 Z0.46 F1080.0
G1 X-7.85 Y-11.26 Z0.46 F1080.0
G1 X-8.25 Y-11.26 Z0.46 F1080.0
G1 X-8.25 Y11.26 Z0.46 F1080.0
G1 X-8.64 Y11.26 Z0.46 F1080.0
G1 X-8.64 Y-11.26 Z0.46 F1080.0
G1 X-9.03 Y-11.26 Z0.46 F1080.0
G1 X-9.03 Y11.26 Z0.46 F1080.0
G1 X-9.43 Y11.26 Z0.46 F1080.0
G1 X-9.43 Y-11.26 Z0.46 F1080.0
G1 X-9.82 Y-11.26 Z0.46 F1080.0
G1 X-9.82 Y11.26 Z0.46 F1080.0
G1 X-10.21 Y11.26 Z0.46 F1080.0
G1 X-10.21 Y-11.26 Z0.46 F1080.0
G1 X-10.6 Y-11.26 Z0.46 F1080.0
G1 X-10.6 Y11.26 Z0.46 F1080.0
G1 X-11.0 Y11.26 Z0.46 F1080.0
G1 X-11.0 Y-11.26 Z0.46 F1080.0
G1 X-11.39 Y-11.26 Z0.46 F1080.0
G1 X-11.39 Y10.99 Z0.46 F1080.0
M108 R30.0
M102
G1 X-11.39 Y11.26 Z0.46 F1080.0
M108 R2.141
M103
G1 X-4.52 Y-3.28 Z0.46 F3000.0
G1 X-3.74 Y-4.15 Z0.46 F3000.0
G1 X-2.79 Y-4.84 Z0.46 F3000.0
G1 X-1.73 Y-5.31 Z0.46 F3000.0
G1 X1.1 Y-5.84 Z0.46 F1800.0
M108 R30.0
M101
G1 X1.57 Y-5.93 Z0.46 F1800.0
M108 R2.141
G1 X1.57 Y-11.26 Z0.46 F1080.0
G1 X1.18 Y-11.26 Z0.46 F1080.0
G1 X1.18 Y-6.28 Z0.46 F1080.0
M108 R30.0
M102
G1 X1.18 Y-6.01 Z0.46 F1080.0
M108 R2.141
M103
G1 X5.12 Y-3.02 Z0.46 F1800.0
M108 R30.0
M101
G1 X5.5 Y-2.73 Z0.46 F1800.0
M108 R2.141
G1 X5.5 Y-11.26 Z0.46 F1080.0
G1 X5.11 Y-11.26 Z0.46 F1080.0
G1 X5.11 Y-3.41 Z0.46 F1080.0
G1 X4.71 Y-3.93 Z0.46 F1080.0
G1 X4.71 Y-11.26 Z0.46 F1080.0
G1 X4.32 Y-11.26 Z0.46 F1080.0
G1 X4.32 Y-4.36 Z0.46 F1080.0
G1 X3.93 Y-4.72 Z0.46 F1080.0
G1 X3.93 Y-11.26 Z0.46 F1080.0
G1 X3.53 Y-11.26 Z0.46 F1080.0
G1 X3.53 Y-5.01 Z0.46 F1080.0
G1 X3.14 Y-5.29 Z0.46 F1080.0
G1 X3.14 Y-11.26 Z0.46 F1080.0
G1 X2.75 Y-11.26 Z0.46 F1080.0
G1 X2.75 Y-5.48 Z0.46 F1080.0
G1 X2.36 Y-5.66 Z0.46 F1080.0
G1 X2.36 Y-11.26 Z0.46 F1080.0
G1 X1.96 Y-11.26 Z0.46 F1080.0
G1 X1.96 Y-6.1 Z0.46 F1080.0
M108 R30.0
M102
G1 X1.96 Y-5.83 Z0.46 F1080.0
M108 R2.141
M103
G1 X10.97 Y-11.02 Z0.46 F1800.0
M108 R30.0
M101
G1 X11.39 Y-11.26 Z0.46 F1800.0
M108 R2.141
G1 X11.39 Y11.26 Z0.46 F1080.0
G1 X11.0 Y11.26 Z0.46 F1080.0
G1 X11.0 Y-11.26 Z0.46 F1080.0
G1 X10.6 Y-11.26 Z0.46 F1080.0
G1 X10.6 Y11.26 Z0.46 F1080.0
G1 X10.21 Y11.26 Z0.46 F1080.0
G1 X10.21 Y-11.26 Z0.46 F1080.0
G1 X9.82 Y-11.26 Z0.46 F1080.0
G1 X9.82 Y11.26 Z0.46 F1080.0
G1 X9.43 Y11.26 Z0.46 F1080.0
G1 X9.43 Y-11.26 Z0.46 F1080.0
G1 X9.03 Y-11.26 Z0.46 F1080.0
G1 X9.03 Y11.26 Z0.46 F1080.0
G1 X8.64 Y11.26 Z0.46 F1080.0
G1 X8.64 Y-11.26 Z0.46 F1080.0
G1 X8.25 Y-11.26 Z0.46 F1080.0
G1 X8.25 Y11.26 Z0.46 F1080.0
G1 X7.85 Y11.26 Z0.46 F1080.0
G1 X7.85 Y-11.26 Z0.46 F1080.0
G1 X7.46 Y-11.26 Z0.46 F1080.0
G1 X7.46 Y11.26 Z0.46 F1080.0
G1 X7.07 Y11.26 Z0.46 F1080.0
G1 X7.07 Y-11.26 Z0.46 F1080.0
G1 X6.68 Y-11.26 Z0.46 F1080.0
G1 X6.68 Y11.26 Z0.46 F1080.0
G1 X6.28 Y11.26 Z0.46 F1080.0
G1 X6.28 Y-11.26 Z0.46 F1080.0
G1 X5.89 Y-11.26 Z0.46 F1080.0
G1 X5.89 Y-1.7 Z0.46 F1080.0
M103
(</surroundingLoop>)
(</layer>)
(<layer> 0.78 )
(<surroundingLoop>)
(<boundaryPerimeter>)
(<boundaryPoint> X-12.376 Y-12.104 Z0.78 </boundaryPoint>)
(<boundaryPoint> X12.376 Y-12.104 Z0.78 </boundaryPoint>)
(<boundaryPoint> X12.376 Y12.104 Z0.78 </boundaryPoint>)
(<boundaryPoint> X-12.376 Y12.104 Z0.78 </boundaryPoint>)
(<loop> inner )
M108 R3.569
G1 X5.71 Y-1.43 Z0.78 F3000.0
M101
G1 X5.65 Y-1.62 Z0.78 F1800.0
G1 X5.39 Y-2.4 Z0.78 F1800.0
G1 X4.78 Y-3.47 Z0.78 F1800.0
G1 X3.95 Y-4.39 Z0.78 F1800.0
G1 X2.95 Y-5.11 Z0.78 F1800.0
G1 X1.83 Y-5.62 Z0.78 F1800.0
G1 X0.62 Y-5.87 Z0.78 F1800.0
G1 X-0.62 Y-5.87 Z0.78 F1800.0
G1 X-1.83 Y-5.62 Z0.78 F1800.0
G1 X-2.95 Y-5.11 Z0.78 F1800.0
G1 X-3.95 Y-4.39 Z0.78 F1800.0
G1 X-4.78 Y-3.47 Z0.78 F1800.0
G1 X-5.39 Y-2.4 Z0.78 F1800.0
G1 X-5.78 Y-1.23 Z0.78 F1800.0
G1 X-5.91 Y-0.0 Z0.78 F1800.0
G1 X-5.78 Y1.23 Z0.78 F1800.0
G1 X-5.39 Y2.4 Z0.78 F1800.0
G1 X-4.78 Y3.47 Z0.78 F1800.0
G1 X-3.95 Y4.39 Z0.78 F1800.0
G1 X-2.95 Y5.11 Z0.78 F1800.0
G1 X-1.83 Y5.62 Z0.78 F1800.0
G1 X-0.62 Y5.87 Z0.78 F1800.0
G1 X0.62 Y5.87 Z0.78 F1800.0
G1 X1.83 Y5.62 Z0.78 F1800.0
G1 X2.95 Y5.11 Z0.78 F1800.0
G1 X3.95 Y4.39 Z0.78 F1800.0
G1 X4.78 Y3.47 Z0.78 F1800.0
G1 X5.39 Y2.4 Z0.78 F1800.0
G1 X5.78 Y1.23 Z0.78 F1800.0
G1 X5.91 Y0.0 Z0.78 F1800.0
G1 X5.8 Y-0.99 Z0.78 F1800.0
M108 R30.0
M102
G1 X5.78 Y-1.23 Z0.78 F1800.0
G1 X5.71 Y-1.43 Z0.78 F1800.0
M108 R3.569
M103
(</loop>)
(<loop> outer )
G1 X10.99 Y-1.43 Z0.78 F3000.0
M108 R30.0
M101
G1 X11.79 Y-1.43 Z0.78 F3000.0
M108 R3.569
G1 X11.79 Y11.52 Z0.78 F1800.0
G1 X-11.79 Y11.52 Z0.78 F1800.0
G1 X-11.79 Y-11.52 Z0.78 F1800.0
G1 X11.79 Y-11.52 Z0.78 F1800.0
G1 X11.79 Y-1.62 Z0.78 F1800.0
G1 X11.79 Y-1.43 Z0.78 F1800.0
M103
(</loop>)
(<perimeter> outer )
G1 X12.18 Y-1.43 Z0.78 F3000.0
M101
G1 X12.18 Y11.91 Z0.78 F1800.0
G1 X-12.18 Y11.91 Z0.78 F1800.0
G1 X-12.18 Y-11.91 Z0.78 F1800.0
G1 X12.18 Y-11.91 Z0.78 F1800.0
G1 X12.18 Y-1.88 Z0.78 F1800.0
M108 R30.0
M102
G1 X12.18 Y-1.62 Z0.78 F1800.0
G1 X12.18 Y-1.43 Z0.78 F1800.0
M108 R3.569
M103
(</perimeter>)
(</boundaryPerimeter>)
(<surroundingLoop>)
(<boundaryPerimeter>)
(<boundaryPoint> X4.298 Y-3.123 Z0.78 </boundaryPoint>)
(<boundaryPoint> X3.555 Y-3.948 Z0.78 </boundaryPoint>)
(<boundaryPoint> X2.656 Y-4.601 Z0.78 </boundaryPoint>)
(<boundaryPoint> X1.642 Y-5.052 Z0.78 </boundaryPoint>)
(<boundaryPoint> X0.555 Y-5.283 Z0.78 </boundaryPoint>)
(<boundaryPoint> X-0.555 Y-5.283 Z0.78 </boundaryPoint>)
(<boundaryPoint> X-1.642 Y-5.052 Z0.78 </boundaryPoint>)
(<boundaryPoint> X-2.656 Y-4.601 Z0.78 </boundaryPoint>)
(<boundaryPoint> X-3.555 Y-3.948 Z0.78 </boundaryPoint>)
(<boundaryPoint> X-4.298 Y-3.123 Z0.78 </boundaryPoint>)
(<boundaryPoint> X-4.853 Y-2.161 Z0.78 </boundaryPoint>)
(<boundaryPoint> X-5.196 Y-1.105 Z0.78 </boundaryPoint>)
(<boundaryPoint> X-5.313 Y-0.0 Z0.78 </boundaryPoint>)
(<boundaryPoint> X-5.196 Y1.105 Z0.78 </boundaryPoint>)
(<boundaryPoint> X-4.853 Y2.161 Z0.78 </boundaryPoint>)
(<boundaryPoint> X-4.298 Y3.123 Z0.78 </boundaryPoint>)
(<boundaryPoint> X-3.555 Y3.948 Z0.78 </boundaryPoint>)
(<boundaryPoint> X-2.656 Y4.601 Z0.78 </boundaryPoint>)
(<boundaryPoint> X-1.642 Y5.052 Z0.78 </boundaryPoint>)
(<boundaryPoint> X-0.555 Y5.283 Z0.78 </boundaryPoint>)
(<boundaryPoint> X0.555 Y5.283 Z0.78 </boundaryPoint>)
(<boundaryPoint> X1.642 Y5.052 Z0.78 </boundaryPoint>)
(<boundaryPoint> X2.656 Y4.601 Z0.78 </boundaryPoint>)
(<boundaryPoint> X3.555 Y3.948 Z0.78 </boundaryPoint>)
(<boundaryPoint> X4.298 Y3.123 Z0.78 </boundaryPoint>)
(<boundaryPoint> X4.853 Y2.161 Z0.78 </boundaryPoint>)
(<boundaryPoint> X5.196 Y1.105 Z0.78 </boundaryPoint>)
(<boundaryPoint> X5.313 Y0.0 Z0.78 </boundaryPoint>)
(<boundaryPoint> X5.196 Y-1.105 Z0.78 </boundaryPoint>)
(<boundaryPoint> X4.853 Y-2.161 Z0.78 </boundaryPoint>)
(<perimeter> inner )
G1 X6.21 Y-0.96 Z0.78 F3000.0
M108 R30.0
M101
G1 X5.42 Y-0.9 Z0.78 F3000.0
M108 R3.569
G1 X5.39 Y-1.15 Z0.78 F1800.0
G1 X5.03 Y-2.24 Z0.78 F1800.0
G1 X4.46 Y-3.24 Z0.78 F1800.0
G1 X3.69 Y-4.1 Z0.78 F1800.0
G1 X2.76 Y-4.77 Z0.78 F1800.0
G1 X1.7 Y-5.24 Z0.78 F1800.0
G1 X0.58 Y-5.48 Z0.78 F1800.0
G1 X-0.58 Y-5.48 Z0.78 F1800.0
G1 X-1.7 Y-5.24 Z0.78 F1800.0
G1 X-2.76 Y-4.77 Z0.78 F1800.0
G1 X-3.69 Y-4.1 Z0.78 F1800.0
G1 X-4.46 Y-3.24 Z0.78 F1800.0
G1 X-5.03 Y-2.24 Z0.78 F1800.0
G1 X-5.39 Y-1.15 Z0.78 F1800.0
G1 X-5.51 Y-0.0 Z0.78 F1800.0
G1 X-5.39 Y1.15 Z0.78 F1800.0
G1 X-5.03 Y2.24 Z0.78 F1800.0
G1 X-4.46 Y3.24 Z0.78 F1800.0
G1 X-3.69 Y4.1 Z0.78 F1800.0
G1 X-2.76 Y4.77 Z0.78 F1800.0
G1 X-1.7 Y5.24 Z0.78 F1800.0
G1 X-0.58 Y5.48 Z0.78 F1800.0
G1 X0.58 Y5.48 Z0.78 F1800.0
G1 X1.7 Y5.24 Z0.78 F1800.0
G1 X2.76 Y4.77 Z0.78 F1800.0
G1 X3.69 Y4.1 Z0.78 F1800.0
G1 X4.46 Y3.24 Z0.78 F1800.0
G1 X5.03 Y2.24 Z0.78 F1800.0
G1 X5.39 Y1.15 Z0.78 F1800.0
G1 X5.51 Y0.0 Z0.78 F1800.0
G1 X5.42 Y-0.9 Z0.78 F1800.0
M103
(</perimeter>)
(</boundaryPerimeter>)
(</surroundingLoop>)
G1 X6.04 Y-1.18 Z0.78 F3000.0
M101
G1 X11.53 Y-1.18 Z0.78 F1800.0
G1 X11.53 Y-0.79 Z0.78 F1800.0
G1 X6.08 Y-0.79 Z0.78 F1800.0
G1 X6.12 Y-0.39 Z0.78 F1800.0
G1 X11.53 Y-0.39 Z0.78 F1800.0
G1 X11.53 Y-0.0 Z0.78 F1800.0
G1 X6.16 Y-0.0 Z0.78 F1800.0
M103
G1 X6.12 Y0.39 Z0.78 F3000.0
M101
G1 X11.53 Y0.39 Z0.78 F1800.0
G1 X11.53 Y0.79 Z0.78 F1800.0
G1 X6.08 Y0.79 Z0.78 F1800.0
M103
G1 X6.04 Y1.18 Z0.78 F3000.0
M101
G1 X11.53 Y1.18 Z0.78 F1800.0
G1 X11.53 Y1.57 Z0.78 F1800.0
G1 X5.93 Y1.57 Z0.78 F1800.0
M103
G1 X5.81 Y1.96 Z0.78 F3000.0
M101
G1 X11.53 Y1.96 Z0.78 F1800.0
G1 X11.53 Y2.36 Z0.78 F1800.0
G1 X5.68 Y2.36 Z0.78 F1800.0
M103
G1 X5.49 Y2.75 Z0.78 F3000.0
M101
G1 X11.53 Y2.75 Z0.78 F1800.0
G1 X11.53 Y3.14 Z0.78 F1800.0
G1 X5.26 Y3.14 Z0.78 F1800.0
M103
G1 X5.04 Y3.53 Z0.78 F3000.0
M101
G1 X11.53 Y3.53 Z0.78 F1800.0
G1 X11.53 Y3.93 Z0.78 F1800.0
G1 X4.71 Y3.93 Z0.78 F1800.0
G1 X4.36 Y4.32 Z0.78 F1800.0
G1 X11.53 Y4.32 Z0.78 F1800.0
G1 X11.53 Y4.71 Z0.78 F1800.0
G1 X3.94 Y4.71 Z0.78 F1800.0
G1 X3.4 Y5.11 Z0.78 F1800.0
G1 X11.53 Y5.11 Z0.78 F1800.0
G1 X11.53 Y5.5 Z0.78 F1800.0
G1 X3.17 Y5.5 Z0.78 F1800.0
M108 R30.0
M102
G1 X2.72 Y5.5 Z0.78 F1800.0
M108 R3.569
M103
G1 X2.5 Y5.59 Z0.78 F3000.0
M108 R30.0
M101
G1 X1.76 Y5.89 Z0.78 F3000.0
M108 R3.569
G1 X11.08 Y5.89 Z0.78 F1800.0
M108 R30.0
M102
G1 X11.53 Y5.89 Z0.78 F1800.0
M108 R3.569
M103
G1 X11.53 Y10.2 Z0.78 F3000.0
M108 R30.0
M101
G1 X11.53 Y11.0 Z0.78 F3000.0
M108 R3.569
G1 X-11.53 Y11.0 Z0.78 F1800.0
G1 X-11.53 Y10.6 Z0.78 F1800.0
G1 X11.53 Y10.6 Z0.78 F1800.0
G1 X11.53 Y10.21 Z0.78 F1800.0
G1 X-11.53 Y10.21 Z0.78 F1800.0
G1 X-11.53 Y9.82 Z0.78 F1800.0
G1 X11.53 Y9.82 Z0.78 F1800.0
G1 X11.53 Y9.43 Z0.78 F1800.0
G1 X-11.53 Y9.43 Z0.78 F1800.0
G1 X-11.53 Y9.03 Z0.78 F1800.0
G1 X11.53 Y9.03 Z0.78 F1800.0
G1 X11.53 Y8.64 Z0.78 F1800.0
G1 X-11.53 Y8.64 Z0.78 F1800.0
G1 X-11.53 Y8.25 Z0.78 F1800.0
G1 X11.53 Y8.25 Z0.78 F1800.0
G1 X11.53 Y7.85 Z0.78 F1800.0
G1 X-11.53 Y7.85 Z0.78 F1800.0
G1 X-11.53 Y7.46 Z0.78 F1800.0
G1 X11.53 Y7.46 Z0.78 F1800.0
G1 X11.53 Y7.07 Z0.78 F1800.0
G1 X-11.53 Y7.07 Z0.78 F1800.0
G1 X-11.53 Y6.68 Z0.78 F1800.0
G1 X11.53 Y6.68 Z0.78 F1800.0
G1 X11.53 Y6.28 Z0.78 F1800.0
G1 X-11.53 Y6.28 Z0.78 F1800.0
G1 X-11.53 Y5.89 Z0.78 F1800.0
G1 X-2.21 Y5.89 Z0.78 F1800.0
M108 R30.0
M102
G1 X-1.76 Y5.89 Z0.78 F1800.0
M108 R3.569
M103
G1 X-1.98 Y5.8 Z0.78 F3000.0
M108 R30.0
M101
G1 X-2.72 Y5.5 Z0.78 F3000.0
M108 R3.569
G1 X-11.53 Y5.5 Z0.78 F1800.0
G1 X-11.53 Y5.11 Z0.78 F1800.0
G1 X-3.4 Y5.11 Z0.78 F1800.0
G1 X-3.94 Y4.71 Z0.78 F1800.0
G1 X-11.53 Y4.71 Z0.78 F1800.0
G1 X-11.53 Y4.32 Z0.78 F1800.0
G1 X-4.36 Y4.32 Z0.78 F1800.0
G1 X-4.71 Y3.93 Z0.78 F1800.0
G1 X-11.53 Y3.93 Z0.78 F1800.0
G1 X-11.53 Y3.53 Z0.78 F1800.0
G1 X-5.04 Y3.53 Z0.78 F1800.0
M103
G1 X-5.26 Y3.14 Z0.78 F3000.0
M101
G1 X-11.53 Y3.14 Z0.78 F1800.0
G1 X-11.53 Y2.75 Z0.78 F1800.0
G1 X-5.49 Y2.75 Z0.78 F1800.0
M103
G1 X-5.68 Y2.36 Z0.78 F3000.0
M101
G1 X-11.53 Y2.36 Z0.78 F1800.0
G1 X-11.53 Y1.96 Z0.78 F1800.0
G1 X-5.81 Y1.96 Z0.78 F1800.0
M103
G1 X-5.93 Y1.57 Z0.78 F3000.0
M101
G1 X-11.53 Y1.57 Z0.78 F1800.0
G1 X-11.53 Y1.18 Z0.78 F1800.0
G1 X-6.04 Y1.18 Z0.78 F1800.0
M103
G1 X-6.08 Y0.79 Z0.78 F3000.0
M101
G1 X-11.53 Y0.79 Z0.78 F1800.0
G1 X-11.53 Y0.39 Z0.78 F1800.0
G1 X-6.12 Y0.39 Z0.78 F1800.0
M103
G1 X-6.16 Y0.0 Z0.78 F3000.0
M101
G1 X-11.53 Y0.0 Z0.78 F1800.0
G1 X-11.53 Y-0.39 Z0.78 F1800.0
G1 X-6.12 Y-0.39 Z0.78 F1800.0
G1 X-6.08 Y-0.79 Z0.78 F1800.0
G1 X-11.53 Y-0.79 Z0.78 F1800.0
G1 X-11.53 Y-1.18 Z0.78 F1800.0
G1 X-6.04 Y-1.18 Z0.78 F1800.0
M103
G1 X-5.93 Y-1.57 Z0.78 F3000.0
M101
G1 X-11.53 Y-1.57 Z0.78 F1800.0
G1 X-11.53 Y-1.96 Z0.78 F1800.0
G1 X-5.81 Y-1.96 Z0.78 F1800.0
M103
G1 X-5.68 Y-2.36 Z0.78 F3000.0
M101
G1 X-11.53 Y-2.36 Z0.78 F1800.0
G1 X-11.53 Y-2.75 Z0.78 F1800.0
G1 X-5.49 Y-2.75 Z0.78 F1800.0
G1 X-5.26 Y-3.14 Z0.78 F1800.0
G1 X-11.53 Y-3.14 Z0.78 F1800.0
G1 X-11.53 Y-3.53 Z0.78 F1800.0
G1 X-5.04 Y-3.53 Z0.78 F1800.0
G1 X-4.71 Y-3.93 Z0.78 F1800.0
G1 X-11.53 Y-3.93 Z0.78 F1800.0
G1 X-11.53 Y-4.32 Z0.78 F1800.0
G1 X-4.36 Y-4.32 Z0.78 F1800.0
G1 X-3.94 Y-4.71 Z0.78 F1800.0
G1 X-11.53 Y-4.71 Z0.78 F1800.0
G1 X-11.53 Y-5.11 Z0.78 F1800.0
G1 X-3.4 Y-5.11 Z0.78 F1800.0
M103
G1 X-2.72 Y-5.5 Z0.78 F3000.0
M101
G1 X-11.53 Y-5.5 Z0.78 F1800.0
G1 X-11.53 Y-5.89 Z0.78 F1800.0
G1 X-2.21 Y-5.89 Z0.78 F1800.0
M108 R30.0
M102
G1 X-1.76 Y-5.89 Z0.78 F1800.0
M108 R3.569
M103
G1 X0.96 Y-5.89 Z0.78 F3000.0
M108 R30.0
M101
G1 X1.76 Y-5.89 Z0.78 F3000.0
M108 R3.569
G1 X11.53 Y-5.89 Z0.78 F1800.0
G1 X11.53 Y-5.5 Z0.78 F1800.0
G1 X2.72 Y-5.5 Z0.78 F1800.0
M103
G1 X3.4 Y-5.11 Z0.78 F3000.0
M101
G1 X11.53 Y-5.11 Z0.78 F1800.0
G1 X11.53 Y-4.71 Z0.78 F1800.0
G1 X3.94 Y-4.71 Z0.78 F1800.0
G1 X4.36 Y-4.32 Z0.78 F1800.0
G1 X11.53 Y-4.32 Z0.78 F1800.0
G1 X11.53 Y-3.93 Z0.78 F1800.0
G1 X4.71 Y-3.93 Z0.78 F1800.0
G1 X5.04 Y-3.53 Z0.78 F1800.0
G1 X11.53 Y-3.53 Z0.78 F1800.0
G1 X11.53 Y-3.14 Z0.78 F1800.0
G1 X5.26 Y-3.14 Z0.78 F1800.0
G1 X5.49 Y-2.75 Z0.78 F1800.0
G1 X11.53 Y-2.75 Z0.78 F1800.0
G1 X11.53 Y-2.36 Z0.78 F1800.0
G1 X5.68 Y-2.36 Z0.78 F1800.0
M103
G1 X5.81 Y-1.96 Z0.78 F3000.0
M101
G1 X11.53 Y-1.96 Z0.78 F1800.0
G1 X11.53 Y-1.57 Z0.78 F1800.0
G1 X6.38 Y-1.57 Z0.78 F1800.0
M108 R30.0
M102
G1 X5.93 Y-1.57 Z0.78 F1800.0
M108 R3.569
M103
G1 X10.92 Y-5.77 Z0.78 F3000.0
M108 R30.0
M101
G1 X11.53 Y-6.28 Z0.78 F3000.0
M108 R3.569
G1 X-11.53 Y-6.28 Z0.78 F1800.0
G1 X-11.53 Y-6.68 Z0.78 F1800.0
G1 X11.53 Y-6.68 Z0.78 F1800.0
G1 X11.53 Y-7.07 Z0.78 F1800.0
G1 X-11.53 Y-7.07 Z0.78 F1800.0
G1 X-11.53 Y-7.46 Z0.78 F1800.0
G1 X11.53 Y-7.46 Z0.78 F1800.0
G1 X11.53 Y-7.85 Z0.78 F1800.0
G1 X-11.53 Y-7.85 Z0.78 F1800.0
G1 X-11.53 Y-8.25 Z0.78 F1800.0
G1 X11.53 Y-8.25 Z0.78 F1800.0
G1 X11.53 Y-8.64 Z0.78 F1800.0
G1 X-11.53 Y-8.64 Z0.78 F1800.0
G1 X-11.53 Y-9.03 Z0.78 F1800.0
G1 X11.53 Y-9.03 Z0.78 F1800.0
G1 X11.53 Y-9.43 Z0.78 F1800.0
G1 X-11.53 Y-9.43 Z0.78 F1800.0
G1 X-11.53 Y-9.82 Z0.78 F1800.0
G1 X11.53 Y-9.82 Z0.78 F1800.0
G1 X11.53 Y-10.21 Z0.78 F1800.0
G1 X-11.53 Y-10.21 Z0.78 F1800.0
G1 X-11.53 Y-10.6 Z0.78 F1800.0
G1 X11.53 Y-10.6 Z0.78 F1800.0
G1 X11.53 Y-11.0 Z0.78 F1800.0
G1 X-11.08 Y-11.0 Z0.78 F1800.0
M108 R30.0
M102
G1 X-11.53 Y-11.0 Z0.78 F1800.0
M108 R3.569
M103
(</surroundingLoop>)
(</layer>)
(<operatingLayerEnd> </operatingLayerEnd>)
(<layer> 1.1 )
(<surroundingLoop>)
(<boundaryPerimeter>)
(<boundaryPoint> X-12.376 Y-12.104 Z1.1 </boundaryPoint>)
(<boundaryPoint> X12.376 Y-12.104 Z1.1 </boundaryPoint>)
(<boundaryPoint> X12.376 Y12.104 Z1.1 </boundaryPoint>)
(<boundaryPoint> X-12.376 Y12.104 Z1.1 </boundaryPoint>)
(<loop> inner )
G1 X-4.72 Y-4.72 Z1.08 F3000.0
M108 R30.0
M101
G1 X-4.14 Y-4.18 Z1.1 F3000.0
M108 R3.569
G1 X-4.78 Y-3.47 Z1.1 F1800.0
G1 X-5.39 Y-2.4 Z1.1 F1800.0
G1 X-5.78 Y-1.23 Z1.1 F1800.0
G1 X-5.91 Y-0.0 Z1.1 F1800.0
G1 X-5.78 Y1.23 Z1.1 F1800.0
G1 X-5.39 Y2.4 Z1.1 F1800.0
G1 X-4.78 Y3.47 Z1.1 F1800.0
G1 X-3.95 Y4.39 Z1.1 F1800.0
G1 X-2.95 Y5.11 Z1.1 F1800.0
G1 X-1.83 Y5.62 Z1.1 F1800.0
G1 X-0.62 Y5.87 Z1.1 F1800.0
G1 X0.62 Y5.87 Z1.1 F1800.0
G1 X1.83 Y5.62 Z1.1 F1800.0
G1 X2.95 Y5.11 Z1.1 F1800.0
G1 X3.95 Y4.39 Z1.1 F1800.0
G1 X4.78 Y3.47 Z1.1 F1800.0
G1 X5.39 Y2.4 Z1.1 F1800.0
G1 X5.78 Y1.23 Z1.1 F1800.0
G1 X5.91 Y0.0 Z1.1 F1800.0
G1 X5.78 Y-1.23 Z1.1 F1800.0
G1 X5.39 Y-2.4 Z1.1 F1800.0
G1 X4.78 Y-3.47 Z1.1 F1800.0
G1 X3.95 Y-4.39 Z1.1 F1800.0
G1 X2.95 Y-5.11 Z1.1 F1800.0
G1 X1.83 Y-5.62 Z1.1 F1800.0
G1 X0.62 Y-5.87 Z1.1 F1800.0
G1 X-0.62 Y-5.87 Z1.1 F1800.0
G1 X-1.83 Y-5.62 Z1.1 F1800.0
G1 X-2.95 Y-5.11 Z1.1 F1800.0
G1 X-3.81 Y-4.49 Z1.1 F1800.0
M108 R30.0
M102
G1 X-3.95 Y-4.39 Z1.1 F1800.0
G1 X-4.14 Y-4.18 Z1.1 F1800.0
M108 R3.569
M103
(</loop>)
(<loop> outer )
G1 X-3.97 Y-10.72 Z1.1 F3000.0
M108 R30.0
M101
G1 X-3.95 Y-11.52 Z1.1 F3000.0
M108 R3.569
G1 X11.79 Y-11.52 Z1.1 F1800.0
G1 X11.79 Y11.52 Z1.1 F1800.0
G1 X-11.79 Y11.52 Z1.1 F1800.0
G1 X-11.79 Y-11.52 Z1.1 F1800.0
G1 X-3.95 Y-11.52 Z1.1 F1800.0
M103
(</loop>)
(<perimeter> outer )
G1 X-3.95 Y-11.91 Z1.1 F3000.0
M101
G1 X12.18 Y-11.91 Z1.1 F1800.0
G1 X12.18 Y11.91 Z1.1 F1800.0
G1 X-12.18 Y11.91 Z1.1 F1800.0
G1 X-12.18 Y-11.91 Z1.1 F1800.0
G1 X-4.4 Y-11.91 Z1.1 F1800.0
M108 R30.0
M102
G1 X-3.95 Y-11.91 Z1.1 F1800.0
M108 R3.569
M103
(</perimeter>)
(</boundaryPerimeter>)
(<surroundingLoop>)
(<boundaryPerimeter>)
(<boundaryPoint> X4.298 Y-3.123 Z1.1 </boundaryPoint>)
(<boundaryPoint> X3.555 Y-3.948 Z1.1 </boundaryPoint>)
(<boundaryPoint> X2.656 Y-4.601 Z1.1 </boundaryPoint>)
(<boundaryPoint> X1.642 Y-5.052 Z1.1 </boundaryPoint>)
(<boundaryPoint> X0.555 Y-5.283 Z1.1 </boundaryPoint>)
(<boundaryPoint> X-0.555 Y-5.283 Z1.1 </boundaryPoint>)
(<boundaryPoint> X-1.642 Y-5.052 Z1.1 </boundaryPoint>)
(<boundaryPoint> X-2.656 Y-4.601 Z1.1 </boundaryPoint>)
(<boundaryPoint> X-3.555 Y-3.948 Z1.1 </boundaryPoint>)
(<boundaryPoint> X-4.298 Y-3.123 Z1.1 </boundaryPoint>)
(<boundaryPoint> X-4.853 Y-2.161 Z1.1 </boundaryPoint>)
(<boundaryPoint> X-5.196 Y-1.105 Z1.1 </boundaryPoint>)
(<boundaryPoint> X-5.313 Y-0.0 Z1.1 </boundaryPoint>)
(<boundaryPoint> X-5.196 Y1.105 Z1.1 </boundaryPoint>)
(<boundaryPoint> X-4.853 Y2.161 Z1.1 </boundaryPoint>)
(<boundaryPoint> X-4.298 Y3.123 Z1.1 </boundaryPoint>)
(<boundaryPoint> X-3.555 Y3.948 Z1.1 </boundaryPoint>)
(<boundaryPoint> X-2.656 Y4.601 Z1.1 </boundaryPoint>)
(<boundaryPoint> X-1.642 Y5.052 Z1.1 </boundaryPoint>)
(<boundaryPoint> X-0.555 Y5.283 Z1.1 </boundaryPoint>)
(<boundaryPoint> X0.555 Y5.283 Z1.1 </boundaryPoint>)
(<boundaryPoint> X1.642 Y5.052 Z1.1 </boundaryPoint>)
(<boundaryPoint> X2.656 Y4.601 Z1.1 </boundaryPoint>)
(<boundaryPoint> X3.555 Y3.948 Z1.1 </boundaryPoint>)
(<boundaryPoint> X4.298 Y3.123 Z1.1 </boundaryPoint>)
(<boundaryPoint> X4.853 Y2.161 Z1.1 </boundaryPoint>)
(<boundaryPoint> X5.196 Y1.105 Z1.1 </boundaryPoint>)
(<boundaryPoint> X5.313 Y0.0 Z1.1 </boundaryPoint>)
(<boundaryPoint> X5.196 Y-1.105 Z1.1 </boundaryPoint>)
(<boundaryPoint> X4.853 Y-2.161 Z1.1 </boundaryPoint>)
(<perimeter> inner )
G1 X-1.96 Y-6.0 Z1.1 F3000.0
M108 R30.0
M101
G1 X-1.7 Y-5.24 Z1.1 F3000.0
M108 R3.569
G1 X-2.76 Y-4.77 Z1.1 F1800.0
G1 X-3.69 Y-4.1 Z1.1 F1800.0
G1 X-4.46 Y-3.24 Z1.1 F1800.0
G1 X-5.03 Y-2.24 Z1.1 F1800.0
G1 X-5.39 Y-1.15 Z1.1 F1800.0
G1 X-5.51 Y-0.0 Z1.1 F1800.0
G1 X-5.39 Y1.15 Z1.1 F1800.0
G1 X-5.03 Y2.24 Z1.1 F1800.0
G1 X-4.46 Y3.24 Z1.1 F1800.0
G1 X-3.69 Y4.1 Z1.1 F1800.0
G1 X-2.76 Y4.77 Z1.1 F1800.0
G1 X-1.7 Y5.24 Z1.1 F1800.0
G1 X-0.58 Y5.48 Z1.1 F1800.0
G1 X0.58 Y5.48 Z1.1 F1800.0
G1 X1.7 Y5.24 Z1.1 F1800.0
G1 X2.76 Y4.77 Z1.1 F1800.0
G1 X3.69 Y4.1 Z1.1 F1800.0
G1 X4.46 Y3.24 Z1.1 F1800.0
G1 X5.03 Y2.24 Z1.1 F1800.0
G1 X5.39 Y1.15 Z1.1 F1800.0
G1 X5.51 Y0.0 Z1.1 F1800.0
G1 X5.39 Y-1.15 Z1.1 F1800.0
G1 X5.03 Y-2.24 Z1.1 F1800.0
G1 X4.46 Y-3.24 Z1.1 F1800.0
G1 X3.69 Y-4.1 Z1.1 F1800.0
G1 X2.76 Y-4.77 Z1.1 F1800.0
G1 X1.7 Y-5.24 Z1.1 F1800.0
G1 X0.58 Y-5.48 Z1.1 F1800.0
G1 X-0.58 Y-5.48 Z1.1 F1800.0
G1 X-1.26 Y-5.33 Z1.1 F1800.0
M108 R30.0
M102
G1 X-1.7 Y-5.24 Z1.1 F1800.0
M108 R3.569
M103
(</perimeter>)
(</boundaryPerimeter>)
(</surroundingLoop>)
G1 X-3.61 Y-4.58 Z1.1 F3000.0
M108 R30.0
M101
G1 X-4.36 Y-4.31 Z1.1 F3000.0
M108 R3.569
G1 X-3.93 Y-4.72 Z1.1 F1800.0
G1 X-3.05 Y-5.35 Z1.1 F1800.0
G1 X-2.8 Y-5.94 Z1.1 F1800.0
G1 X-5.34 Y-7.51 Z1.1 F1800.0
G1 X-5.34 Y-7.76 Z1.1 F1800.0
G1 X-3.39 Y-9.69 Z1.1 F1800.0
G1 X-3.39 Y-9.95 Z1.1 F1800.0
G1 X-4.36 Y-11.26 Z1.1 F1800.0
G1 X-0.44 Y-11.26 Z1.1 F1800.0
G1 X-0.44 Y-10.82 Z1.1 F1800.0
G1 X-3.16 Y-9.95 Z1.1 F1800.0
G1 X-3.16 Y-9.69 Z1.1 F1800.0
G1 X-1.21 Y-7.76 Z1.1 F1800.0
G1 X-1.4 Y-6.41 Z1.1 F1800.0
G1 X-1.5 Y-6.27 Z1.1 F1800.0
M108 R30.0
M102
G1 X-1.75 Y-5.89 Z1.1 F1800.0
M108 R3.569
M103
G1 X0.95 Y-5.89 Z1.1 F3000.0
M108 R30.0
M101
G1 X1.75 Y-5.89 Z1.1 F3000.0
M108 R3.569
G1 X0.44 Y-6.13 Z1.1 F1800.0
G1 X-0.87 Y-6.08 Z1.1 F1800.0
G1 X-0.98 Y-7.76 Z1.1 F1800.0
G1 X0.98 Y-9.69 Z1.1 F1800.0
G1 X0.98 Y-9.95 Z1.1 F1800.0
G1 X-0.0 Y-11.26 Z1.1 F1800.0
G1 X4.36 Y-11.26 Z1.1 F1800.0
G1 X3.93 Y-10.82 Z1.1 F1800.0
G1 X1.21 Y-9.95 Z1.1 F1800.0
G1 X1.21 Y-9.69 Z1.1 F1800.0
G1 X3.16 Y-7.76 Z1.1 F1800.0
G1 X3.16 Y-7.51 Z1.1 F1800.0
G1 X2.18 Y-5.74 Z1.1 F1800.0
G1 X2.21 Y-5.73 Z1.1 F1800.0
M108 R30.0
M102
G1 X2.62 Y-5.54 Z1.1 F1800.0
M108 R3.569
M103
G1 X4.17 Y-4.32 Z1.1 F3000.0
M108 R30.0
M101
G1 X4.8 Y-3.83 Z1.1 F3000.0
M108 R3.569
G1 X4.36 Y-4.31 Z1.1 F1800.0
G1 X4.24 Y-5.03 Z1.1 F1800.0
G1 X5.34 Y-5.33 Z1.1 F1800.0
G1 X5.34 Y-5.58 Z1.1 F1800.0
G1 X3.39 Y-7.51 Z1.1 F1800.0
G1 X3.39 Y-7.76 Z1.1 F1800.0
G1 X5.34 Y-9.69 Z1.1 F1800.0
G1 X5.34 Y-9.95 Z1.1 F1800.0
G1 X6.11 Y-11.26 Z1.1 F1800.0
G1 X5.25 Y-11.26 Z1.1 F1800.0
M108 R30.0
M102
G1 X4.8 Y-11.26 Z1.1 F1800.0
M108 R3.569
M103
G1 X10.55 Y-11.26 Z1.1 F3000.0
M108 R30.0
M101
G1 X11.35 Y-11.26 Z1.1 F3000.0
M108 R3.569
G1 X10.47 Y-11.26 Z1.1 F1800.0
G1 X9.93 Y-9.95 Z1.1 F1800.0
G1 X9.93 Y7.76 Z1.1 F1800.0
G1 X11.35 Y11.26 Z1.1 F1800.0
G1 X8.29 Y11.26 Z1.1 F1800.0
G1 X7.75 Y9.95 Z1.1 F1800.0
G1 X7.75 Y9.69 Z1.1 F1800.0
G1 X9.7 Y7.76 Z1.1 F1800.0
G1 X9.7 Y7.51 Z1.1 F1800.0
G1 X7.75 Y5.58 Z1.1 F1800.0
G1 X7.75 Y5.33 Z1.1 F1800.0
G1 X9.7 Y3.4 Z1.1 F1800.0
G1 X9.7 Y3.15 Z1.1 F1800.0
G1 X7.75 Y1.22 Z1.1 F1800.0
G1 X7.75 Y0.96 Z1.1 F1800.0
G1 X9.7 Y-0.96 Z1.1 F1800.0
G1 X9.7 Y-1.22 Z1.1 F1800.0
G1 X7.75 Y-3.15 Z1.1 F1800.0
G1 X7.75 Y-3.4 Z1.1 F1800.0
G1 X9.7 Y-5.33 Z1.1 F1800.0
G1 X9.7 Y-5.58 Z1.1 F1800.0
G1 X7.75 Y-7.51 Z1.1 F1800.0
G1 X7.75 Y-7.76 Z1.1 F1800.0
G1 X9.7 Y-9.69 Z1.1 F1800.0
G1 X9.7 Y-9.95 Z1.1 F1800.0
G1 X10.04 Y-11.26 Z1.1 F1800.0
G1 X6.55 Y-11.26 Z1.1 F1800.0
G1 X5.57 Y-9.95 Z1.1 F1800.0
G1 X5.57 Y-9.69 Z1.1 F1800.0
G1 X7.52 Y-7.76 Z1.1 F1800.0
G1 X7.52 Y-7.51 Z1.1 F1800.0
G1 X5.57 Y-5.58 Z1.1 F1800.0
G1 X5.57 Y-5.33 Z1.1 F1800.0
G1 X7.52 Y-3.4 Z1.1 F1800.0
G1 X7.52 Y-3.15 Z1.1 F1800.0
G1 X6.11 Y0.51 Z1.1 F1800.0
G1 X7.52 Y0.96 Z1.1 F1800.0
G1 X7.52 Y1.22 Z1.1 F1800.0
G1 X5.67 Y2.37 Z1.1 F1800.0
G1 X5.45 Y3.15 Z1.1 F1800.0
G1 X5.24 Y3.19 Z1.1 F1800.0
G1 X7.52 Y5.33 Z1.1 F1800.0
G1 X7.52 Y5.58 Z1.1 F1800.0
G1 X5.57 Y7.51 Z1.1 F1800.0
G1 X5.57 Y7.76 Z1.1 F1800.0
G1 X7.52 Y9.69 Z1.1 F1800.0
G1 X7.52 Y9.95 Z1.1 F1800.0
G1 X7.85 Y11.26 Z1.1 F1800.0
G1 X4.36 Y11.26 Z1.1 F1800.0
G1 X3.39 Y9.95 Z1.1 F1800.0
G1 X3.39 Y9.69 Z1.1 F1800.0
G1 X5.34 Y7.76 Z1.1 F1800.0
G1 X5.34 Y7.51 Z1.1 F1800.0
G1 X3.27 Y5.45 Z1.1 F1800.0
G1 X3.05 Y5.35 Z1.1 F1800.0
G1 X3.49 Y5.04 Z1.1 F1800.0
G1 X3.88 Y5.24 Z1.1 F1800.0
G1 X3.93 Y4.72 Z1.1 F1800.0
G1 X4.36 Y4.76 Z1.1 F1800.0
G1 X4.36 Y4.31 Z1.1 F1800.0
G1 X4.5 Y4.16 Z1.1 F1800.0
M108 R30.0
M102
G1 X4.8 Y3.83 Z1.1 F1800.0
M108 R3.569
M103
G1 X3.25 Y5.05 Z1.1 F3000.0
M108 R30.0
M101
G1 X2.62 Y5.54 Z1.1 F3000.0
M108 R3.569
G1 X2.18 Y5.74 Z1.1 F1800.0
G1 X2.12 Y6.11 Z1.1 F1800.0
G1 X1.45 Y6.4 Z1.1 F1800.0
G1 X1.21 Y7.51 Z1.1 F1800.0
G1 X1.21 Y7.76 Z1.1 F1800.0
G1 X3.16 Y9.69 Z1.1 F1800.0
G1 X3.16 Y9.95 Z1.1 F1800.0
G1 X3.93 Y11.26 Z1.1 F1800.0
G1 X0.0 Y11.26 Z1.1 F1800.0
G1 X-0.98 Y9.95 Z1.1 F1800.0
G1 X-0.98 Y9.69 Z1.1 F1800.0
G1 X0.98 Y7.76 Z1.1 F1800.0
G1 X0.87 Y6.08 Z1.1 F1800.0
G1 X-0.44 Y6.13 Z1.1 F1800.0
G1 X-1.31 Y5.99 Z1.1 F1800.0
M103
G1 X-1.75 Y5.89 Z1.1 F3000.0
M101
G1 X-2.33 Y6.15 Z1.1 F1800.0
G1 X-3.16 Y7.51 Z1.1 F1800.0
G1 X-3.16 Y7.76 Z1.1 F1800.0
G1 X-1.21 Y9.69 Z1.1 F1800.0
G1 X-1.21 Y9.95 Z1.1 F1800.0
G1 X-0.44 Y11.26 Z1.1 F1800.0
G1 X-4.36 Y11.26 Z1.1 F1800.0
G1 X-5.34 Y9.95 Z1.1 F1800.0
G1 X-5.34 Y9.69 Z1.1 F1800.0
G1 X-3.39 Y7.76 Z1.1 F1800.0
G1 X-3.39 Y7.51 Z1.1 F1800.0
G1 X-5.34 Y5.58 Z1.1 F1800.0
G1 X-5.34 Y5.33 Z1.1 F1800.0
G1 X-4.36 Y4.31 Z1.1 F1800.0
G1 X-3.93 Y4.72 Z1.1 F1800.0
G1 X-3.42 Y5.09 Z1.1 F1800.0
M108 R30.0
M102
G1 X-3.05 Y5.35 Z1.1 F1800.0
M108 R3.569
M103
G1 X-5.68 Y1.18 Z1.1 F3000.0
M108 R30.0
M101
G1 X-6.11 Y0.51 Z1.1 F3000.0
M108 R3.569
G1 X-6.1 Y2.47 Z1.1 F1800.0
G1 X-7.52 Y3.15 Z1.1 F1800.0
G1 X-7.52 Y3.4 Z1.1 F1800.0
G1 X-5.24 Y3.19 Z1.1 F1800.0
G1 X-5.16 Y4.07 Z1.1 F1800.0
G1 X-5.57 Y5.33 Z1.1 F1800.0
G1 X-5.57 Y5.58 Z1.1 F1800.0
G1 X-7.52 Y7.51 Z1.1 F1800.0
G1 X-7.52 Y7.76 Z1.1 F1800.0
G1 X-5.57 Y9.69 Z1.1 F1800.0
G1 X-5.57 Y9.95 Z1.1 F1800.0
G1 X-4.8 Y11.26 Z1.1 F1800.0
G1 X-8.73 Y11.26 Z1.1 F1800.0
G1 X-9.7 Y9.95 Z1.1 F1800.0
G1 X-9.7 Y9.69 Z1.1 F1800.0
G1 X-7.75 Y7.76 Z1.1 F1800.0
G1 X-7.75 Y7.51 Z1.1 F1800.0
G1 X-9.7 Y5.58 Z1.1 F1800.0
G1 X-9.7 Y5.33 Z1.1 F1800.0
G1 X-7.75 Y3.4 Z1.1 F1800.0
G1 X-7.75 Y3.15 Z1.1 F1800.0
G1 X-9.7 Y1.22 Z1.1 F1800.0
G1 X-9.7 Y0.96 Z1.1 F1800.0
G1 X-7.75 Y-0.96 Z1.1 F1800.0
G1 X-7.75 Y-1.22 Z1.1 F1800.0
G1 X-9.7 Y-3.15 Z1.1 F1800.0
G1 X-9.7 Y-3.4 Z1.1 F1800.0
G1 X-7.75 Y-5.33 Z1.1 F1800.0
G1 X-7.75 Y-5.58 Z1.1 F1800.0
G1 X-9.7 Y-7.51 Z1.1 F1800.0
G1 X-9.7 Y-7.76 Z1.1 F1800.0
G1 X-7.75 Y-9.69 Z1.1 F1800.0
G1 X-7.75 Y-9.95 Z1.1 F1800.0
G1 X-8.73 Y-11.26 Z1.1 F1800.0
G1 X-4.8 Y-11.26 Z1.1 F1800.0
G1 X-4.8 Y-10.82 Z1.1 F1800.0
G1 X-7.52 Y-9.95 Z1.1 F1800.0
G1 X-7.52 Y-9.69 Z1.1 F1800.0
G1 X-5.57 Y-7.76 Z1.1 F1800.0
G1 X-5.57 Y-7.51 Z1.1 F1800.0
G1 X-7.52 Y-5.58 Z1.1 F1800.0
G1 X-7.52 Y-5.33 Z1.1 F1800.0
G1 X-4.8 Y-3.83 Z1.1 F1800.0
G1 X-5.62 Y-3.39 Z1.1 F1800.0
G1 X-5.67 Y-2.37 Z1.1 F1800.0
G1 X-7.52 Y-1.22 Z1.1 F1800.0
G1 X-7.52 Y-0.96 Z1.1 F1800.0
G1 X-6.54 Y-0.65 Z1.1 F1800.0
M108 R30.0
M102
G1 X-6.11 Y-0.51 Z1.1 F1800.0
M108 R3.569
M103
G1 X-10.17 Y-10.52 Z1.1 F3000.0
M108 R30.0
M101
G1 X-10.47 Y-11.26 Z1.1 F3000.0
M108 R3.569
G1 X-9.16 Y-11.26 Z1.1 F1800.0
G1 X-9.93 Y-7.76 Z1.1 F1800.0
G1 X-9.93 Y9.95 Z1.1 F1800.0
G1 X-9.16 Y11.26 Z1.1 F1800.0
G1 X-11.35 Y11.26 Z1.1 F1800.0
G1 X-11.35 Y-11.25 Z1.1 F1800.0
M108 R30.0
M102
G1 X-11.35 Y-11.26 Z1.1 F1800.0
G1 X-10.91 Y-11.26 Z1.1 F1800.0
M108 R3.569
M103
(</surroundingLoop>)
(</layer>)
(<layer> 1.42 )
(<surroundingLoop>)
(<boundaryPerimeter>)
(<boundaryPoint> X-12.376 Y-12.104 Z1.42 </boundaryPoint>)
(<boundaryPoint> X12.376 Y-12.104 Z1.42 </boundaryPoint>)
(<boundaryPoint> X12.376 Y12.104 Z1.42 </boundaryPoint>)
(<boundaryPoint> X-12.376 Y12.104 Z1.42 </boundaryPoint>)
(<loop> inner )
G1 X-4.5 Y-4.96 Z1.39 F3000.0
M108 R30.0
M101
G1 X-3.93 Y-4.4 Z1.42 F3000.0
M108 R3.569
G1 X-3.95 Y-4.39 Z1.42 F1800.0
G1 X-4.78 Y-3.47 Z1.42 F1800.0
G1 X-5.39 Y-2.4 Z1.42 F1800.0
G1 X-5.78 Y-1.23 Z1.42 F1800.0
G1 X-5.91 Y-0.0 Z1.42 F1800.0
G1 X-5.78 Y1.23 Z1.42 F1800.0
G1 X-5.39 Y2.4 Z1.42 F1800.0
G1 X-4.78 Y3.47 Z1.42 F1800.0
G1 X-3.95 Y4.39 Z1.42 F1800.0
G1 X-2.95 Y5.11 Z1.42 F1800.0
G1 X-1.83 Y5.62 Z1.42 F1800.0
G1 X-0.62 Y5.87 Z1.42 F1800.0
G1 X0.62 Y5.87 Z1.42 F1800.0
G1 X1.83 Y5.62 Z1.42 F1800.0
G1 X2.95 Y5.11 Z1.42 F1800.0
G1 X3.95 Y4.39 Z1.42 F1800.0
G1 X4.78 Y3.47 Z1.42 F1800.0
G1 X5.39 Y2.4 Z1.42 F1800.0
G1 X5.78 Y1.23 Z1.42 F1800.0
G1 X5.91 Y0.0 Z1.42 F1800.0
G1 X5.78 Y-1.23 Z1.42 F1800.0
G1 X5.39 Y-2.4 Z1.42 F1800.0
G1 X4.78 Y-3.47 Z1.42 F1800.0
G1 X3.95 Y-4.39 Z1.42 F1800.0
G1 X2.95 Y-5.11 Z1.42 F1800.0
G1 X1.83 Y-5.62 Z1.42 F1800.0
G1 X0.62 Y-5.87 Z1.42 F1800.0
G1 X-0.62 Y-5.87 Z1.42 F1800.0
G1 X-1.83 Y-5.62 Z1.42 F1800.0
G1 X-2.95 Y-5.11 Z1.42 F1800.0
G1 X-3.57 Y-4.67 Z1.42 F1800.0
M108 R30.0
M102
G1 X-3.93 Y-4.4 Z1.42 F1800.0
M108 R3.569
M103
(</loop>)
(<loop> outer )
G1 X-3.95 Y-10.72 Z1.42 F3000.0
M108 R30.0
M101
G1 X-3.95 Y-11.52 Z1.42 F3000.0
M108 R3.569
G1 X11.79 Y-11.52 Z1.42 F1800.0
G1 X11.79 Y11.52 Z1.42 F1800.0
G1 X-11.79 Y11.52 Z1.42 F1800.0
G1 X-11.79 Y-11.52 Z1.42 F1800.0
G1 X-3.95 Y-11.52 Z1.42 F1800.0
M103
(</loop>)
(<perimeter> outer )
G1 X-3.95 Y-11.91 Z1.42 F3000.0
M101
G1 X12.18 Y-11.91 Z1.42 F1800.0
G1 X12.18 Y11.91 Z1.42 F1800.0
G1 X-12.18 Y11.91 Z1.42 F1800.0
G1 X-12.18 Y-11.91 Z1.42 F1800.0
G1 X-4.4 Y-11.91 Z1.42 F1800.0
M108 R30.0
M102
G1 X-3.95 Y-11.91 Z1.42 F1800.0
M108 R3.569
M103
(</perimeter>)
(</boundaryPerimeter>)
(<surroundingLoop>)
(<boundaryPerimeter>)
(<boundaryPoint> X4.298 Y-3.123 Z1.42 </boundaryPoint>)
(<boundaryPoint> X3.555 Y-3.948 Z1.42 </boundaryPoint>)
(<boundaryPoint> X2.656 Y-4.601 Z1.42 </boundaryPoint>)
(<boundaryPoint> X1.642 Y-5.052 Z1.42 </boundaryPoint>)
(<boundaryPoint> X0.555 Y-5.283 Z1.42 </boundaryPoint>)
(<boundaryPoint> X-0.555 Y-5.283 Z1.42 </boundaryPoint>)
(<boundaryPoint> X-1.642 Y-5.052 Z1.42 </boundaryPoint>)
(<boundaryPoint> X-2.656 Y-4.601 Z1.42 </boundaryPoint>)
(<boundaryPoint> X-3.555 Y-3.948 Z1.42 </boundaryPoint>)
(<boundaryPoint> X-4.298 Y-3.123 Z1.42 </boundaryPoint>)
(<boundaryPoint> X-4.853 Y-2.161 Z1.42 </boundaryPoint>)
(<boundaryPoint> X-5.196 Y-1.105 Z1.42 </boundaryPoint>)
(<boundaryPoint> X-5.313 Y-0.0 Z1.42 </boundaryPoint>)
(<boundaryPoint> X-5.196 Y1.105 Z1.42 </boundaryPoint>)
(<boundaryPoint> X-4.853 Y2.161 Z1.42 </boundaryPoint>)
(<boundaryPoint> X-4.298 Y3.123 Z1.42 </boundaryPoint>)
(<boundaryPoint> X-3.555 Y3.948 Z1.42 </boundaryPoint>)
(<boundaryPoint> X-2.656 Y4.601 Z1.42 </boundaryPoint>)
(<boundaryPoint> X-1.642 Y5.052 Z1.42 </boundaryPoint>)
(<boundaryPoint> X-0.555 Y5.283 Z1.42 </boundaryPoint>)
(<boundaryPoint> X0.555 Y5.283 Z1.42 </boundaryPoint>)
(<boundaryPoint> X1.642 Y5.052 Z1.42 </boundaryPoint>)
(<boundaryPoint> X2.656 Y4.601 Z1.42 </boundaryPoint>)
(<boundaryPoint> X3.555 Y3.948 Z1.42 </boundaryPoint>)
(<boundaryPoint> X4.298 Y3.123 Z1.42 </boundaryPoint>)
(<boundaryPoint> X4.853 Y2.161 Z1.42 </boundaryPoint>)
(<boundaryPoint> X5.196 Y1.105 Z1.42 </boundaryPoint>)
(<boundaryPoint> X5.313 Y0.0 Z1.42 </boundaryPoint>)
(<boundaryPoint> X5.196 Y-1.105 Z1.42 </boundaryPoint>)
(<boundaryPoint> X4.853 Y-2.161 Z1.42 </boundaryPoint>)
(<perimeter> inner )
G1 X-1.96 Y-6.0 Z1.42 F3000.0
M108 R30.0
M101
G1 X-1.7 Y-5.24 Z1.42 F3000.0
M108 R3.569
G1 X-2.76 Y-4.77 Z1.42 F1800.0
G1 X-3.69 Y-4.1 Z1.42 F1800.0
G1 X-4.46 Y-3.24 Z1.42 F1800.0
G1 X-5.03 Y-2.24 Z1.42 F1800.0
G1 X-5.39 Y-1.15 Z1.42 F1800.0
G1 X-5.51 Y-0.0 Z1.42 F1800.0
G1 X-5.39 Y1.15 Z1.42 F1800.0
G1 X-5.03 Y2.24 Z1.42 F1800.0
G1 X-4.46 Y3.24 Z1.42 F1800.0
G1 X-3.69 Y4.1 Z1.42 F1800.0
G1 X-2.76 Y4.77 Z1.42 F1800.0
G1 X-1.7 Y5.24 Z1.42 F1800.0
G1 X-0.58 Y5.48 Z1.42 F1800.0
G1 X0.58 Y5.48 Z1.42 F1800.0
G1 X1.7 Y5.24 Z1.42 F1800.0
G1 X2.76 Y4.77 Z1.42 F1800.0
G1 X3.69 Y4.1 Z1.42 F1800.0
G1 X4.46 Y3.24 Z1.42 F1800.0
G1 X5.03 Y2.24 Z1.42 F1800.0
G1 X5.39 Y1.15 Z1.42 F1800.0
G1 X5.51 Y0.0 Z1.42 F1800.0
G1 X5.39 Y-1.15 Z1.42 F1800.0
G1 X5.03 Y-2.24 Z1.42 F1800.0
G1 X4.46 Y-3.24 Z1.42 F1800.0
G1 X3.69 Y-4.1 Z1.42 F1800.0
G1 X2.76 Y-4.77 Z1.42 F1800.0
G1 X1.7 Y-5.24 Z1.42 F1800.0
G1 X0.58 Y-5.48 Z1.42 F1800.0
G1 X-0.58 Y-5.48 Z1.42 F1800.0
G1 X-1.26 Y-5.33 Z1.42 F1800.0
M108 R30.0
M102
G1 X-1.7 Y-5.24 Z1.42 F1800.0
M108 R3.569
M103
(</perimeter>)
(</boundaryPerimeter>)
(</surroundingLoop>)
G1 X-1.33 Y-5.58 Z1.42 F3000.0
M108 R30.0
M101
G1 X-0.73 Y-6.11 Z1.42 F3000.0
M108 R3.569
G1 X-0.96 Y-7.52 Z1.42 F1800.0
G1 X-1.22 Y-7.52 Z1.42 F1800.0
G1 X-2.33 Y-5.67 Z1.42 F1800.0
G1 X-3.41 Y-5.63 Z1.42 F1800.0
G1 X-3.82 Y-4.8 Z1.42 F1800.0
G1 X-5.33 Y-7.52 Z1.42 F1800.0
G1 X-5.58 Y-7.52 Z1.42 F1800.0
G1 X-7.51 Y-5.57 Z1.42 F1800.0
G1 X-7.76 Y-5.57 Z1.42 F1800.0
G1 X-9.69 Y-7.52 Z1.42 F1800.0
G1 X-9.95 Y-7.52 Z1.42 F1800.0
G1 X-11.53 Y-4.8 Z1.42 F1800.0
G1 X-11.53 Y-8.73 Z1.42 F1800.0
G1 X-9.95 Y-7.75 Z1.42 F1800.0
G1 X-9.69 Y-7.75 Z1.42 F1800.0
G1 X-7.76 Y-9.7 Z1.42 F1800.0
G1 X-7.51 Y-9.7 Z1.42 F1800.0
G1 X-5.58 Y-7.75 Z1.42 F1800.0
G1 X-5.33 Y-7.75 Z1.42 F1800.0
G1 X-3.4 Y-9.7 Z1.42 F1800.0
G1 X-3.15 Y-9.7 Z1.42 F1800.0
G1 X-1.22 Y-7.75 Z1.42 F1800.0
G1 X-0.96 Y-7.75 Z1.42 F1800.0
G1 X0.96 Y-9.7 Z1.42 F1800.0
G1 X1.22 Y-9.7 Z1.42 F1800.0
G1 X3.15 Y-7.75 Z1.42 F1800.0
G1 X3.4 Y-7.75 Z1.42 F1800.0
G1 X5.33 Y-9.7 Z1.42 F1800.0
G1 X5.58 Y-9.7 Z1.42 F1800.0
G1 X7.51 Y-7.75 Z1.42 F1800.0
G1 X7.76 Y-7.75 Z1.42 F1800.0
G1 X9.69 Y-9.7 Z1.42 F1800.0
G1 X9.95 Y-9.7 Z1.42 F1800.0
G1 X11.53 Y-8.73 Z1.42 F1800.0
G1 X11.53 Y-4.8 Z1.42 F1800.0
G1 X9.95 Y-5.57 Z1.42 F1800.0
G1 X9.69 Y-5.57 Z1.42 F1800.0
G1 X7.76 Y-7.52 Z1.42 F1800.0
G1 X7.51 Y-7.52 Z1.42 F1800.0
G1 X5.58 Y-5.57 Z1.42 F1800.0
G1 X5.33 Y-5.57 Z1.42 F1800.0
G1 X3.82 Y-4.8 Z1.42 F1800.0
G1 X3.22 Y-5.24 Z1.42 F1800.0
G1 X3.4 Y-7.52 Z1.42 F1800.0
G1 X3.15 Y-7.52 Z1.42 F1800.0
G1 X2.44 Y-6.09 Z1.42 F1800.0
G1 X1.18 Y-6.11 Z1.42 F1800.0
M108 R30.0
M102
G1 X0.73 Y-6.11 Z1.42 F1800.0
M108 R3.569
M103
G1 X-2.79 Y-4.84 Z1.42 F3000.0
G1 X-3.74 Y-4.15 Z1.42 F3000.0
G1 X-5.35 Y-2.34 Z1.42 F3000.0
M108 R30.0
M101
G1 X-5.88 Y-1.75 Z1.42 F3000.0
M108 R3.569
G1 X-6.43 Y-1.44 Z1.42 F1800.0
G1 X-7.51 Y-1.21 Z1.42 F1800.0
G1 X-7.76 Y-1.21 Z1.42 F1800.0
G1 X-9.69 Y-3.16 Z1.42 F1800.0
G1 X-9.95 Y-3.16 Z1.42 F1800.0
G1 X-11.53 Y-0.44 Z1.42 F1800.0
G1 X-11.53 Y-4.36 Z1.42 F1800.0
G1 X-9.95 Y-3.39 Z1.42 F1800.0
G1 X-9.69 Y-3.39 Z1.42 F1800.0
G1 X-7.76 Y-5.34 Z1.42 F1800.0
G1 X-7.51 Y-5.34 Z1.42 F1800.0
G1 X-5.94 Y-2.84 Z1.42 F1800.0
G1 X-5.31 Y-3.05 Z1.42 F1800.0
G1 X-5.06 Y-3.49 Z1.42 F1800.0
G1 X-4.61 Y-4.02 Z1.42 F1800.0
M108 R30.0
M102
G1 X-4.32 Y-4.36 Z1.42 F1800.0
M108 R3.569
M103
G1 X-5.46 Y-1.16 Z1.42 F3000.0
G1 X-5.59 Y-0.0 Z1.42 F3000.0
G1 X-5.38 Y2.26 Z1.42 F3000.0
M108 R30.0
M101
G1 X-5.31 Y3.05 Z1.42 F3000.0
M108 R3.569
G1 X-5.56 Y2.62 Z1.42 F1800.0
G1 X-6.14 Y2.34 Z1.42 F1800.0
G1 X-6.29 Y1.89 Z1.42 F1800.0
G1 X-7.51 Y3.16 Z1.42 F1800.0
G1 X-7.76 Y3.16 Z1.42 F1800.0
G1 X-9.69 Y1.21 Z1.42 F1800.0
G1 X-9.95 Y1.21 Z1.42 F1800.0
G1 X-11.53 Y3.93 Z1.42 F1800.0
G1 X-11.53 Y0.0 Z1.42 F1800.0
G1 X-9.95 Y0.98 Z1.42 F1800.0
G1 X-9.69 Y0.98 Z1.42 F1800.0
G1 X-7.76 Y-0.98 Z1.42 F1800.0
G1 X-6.07 Y-0.87 Z1.42 F1800.0
G1 X-6.55 Y-0.44 Z1.42 F1800.0
G1 X-6.6 Y0.05 Z1.42 F1800.0
G1 X-6.47 Y0.15 Z1.42 F1800.0
M108 R30.0
M102
G1 X-6.12 Y0.44 Z1.42 F1800.0
M108 R3.569
M103
G1 X-4.52 Y3.28 Z1.42 F3000.0
G1 X-3.74 Y4.15 Z1.42 F3000.0
G1 X-2.79 Y4.84 Z1.42 F3000.0
G1 X10.79 Y10.6 Z1.42 F3000.0
M108 R30.0
M101
G1 X11.53 Y10.91 Z1.42 F3000.0
M108 R3.569
G1 X11.53 Y10.04 Z1.42 F1800.0
G1 X-9.95 Y9.93 Z1.42 F1800.0
G1 X-11.53 Y10.91 Z1.42 F1800.0
G1 X-11.53 Y8.73 Z1.42 F1800.0
G1 X-9.95 Y9.7 Z1.42 F1800.0
G1 X-9.69 Y9.7 Z1.42 F1800.0
G1 X-7.76 Y7.75 Z1.42 F1800.0
G1 X-7.51 Y7.75 Z1.42 F1800.0
G1 X-5.58 Y9.7 Z1.42 F1800.0
G1 X-5.33 Y9.7 Z1.42 F1800.0
G1 X-3.4 Y7.75 Z1.42 F1800.0
G1 X-3.15 Y7.75 Z1.42 F1800.0
G1 X-1.22 Y9.7 Z1.42 F1800.0
G1 X-0.96 Y9.7 Z1.42 F1800.0
G1 X0.96 Y7.75 Z1.42 F1800.0
G1 X1.22 Y7.75 Z1.42 F1800.0
G1 X3.15 Y9.7 Z1.42 F1800.0
G1 X3.4 Y9.7 Z1.42 F1800.0
G1 X5.33 Y7.75 Z1.42 F1800.0
G1 X5.58 Y7.75 Z1.42 F1800.0
G1 X7.51 Y9.7 Z1.42 F1800.0
G1 X7.76 Y9.7 Z1.42 F1800.0
G1 X9.69 Y7.75 Z1.42 F1800.0
G1 X9.95 Y7.75 Z1.42 F1800.0
G1 X11.53 Y9.6 Z1.42 F1800.0
G1 X11.53 Y6.55 Z1.42 F1800.0
G1 X9.95 Y7.52 Z1.42 F1800.0
G1 X9.69 Y7.52 Z1.42 F1800.0
G1 X7.76 Y5.57 Z1.42 F1800.0
G1 X7.51 Y5.57 Z1.42 F1800.0
G1 X5.58 Y7.52 Z1.42 F1800.0
G1 X5.33 Y7.52 Z1.42 F1800.0
G1 X3.22 Y5.24 Z1.42 F1800.0
G1 X3.15 Y5.45 Z1.42 F1800.0
G1 X2.33 Y5.67 Z1.42 F1800.0
G1 X1.22 Y7.52 Z1.42 F1800.0
G1 X0.96 Y7.52 Z1.42 F1800.0
G1 X0.73 Y6.11 Z1.42 F1800.0
G1 X-2.44 Y6.09 Z1.42 F1800.0
G1 X-3.15 Y7.52 Z1.42 F1800.0
G1 X-3.4 Y7.52 Z1.42 F1800.0
G1 X-5.33 Y5.57 Z1.42 F1800.0
G1 X-5.58 Y5.57 Z1.42 F1800.0
G1 X-7.51 Y7.52 Z1.42 F1800.0
G1 X-7.76 Y7.52 Z1.42 F1800.0
G1 X-9.69 Y5.57 Z1.42 F1800.0
G1 X-9.95 Y5.57 Z1.42 F1800.0
G1 X-11.53 Y8.29 Z1.42 F1800.0
G1 X-11.53 Y4.36 Z1.42 F1800.0
G1 X-9.95 Y5.34 Z1.42 F1800.0
G1 X-9.69 Y5.34 Z1.42 F1800.0
G1 X-7.76 Y3.39 Z1.42 F1800.0
G1 X-7.51 Y3.39 Z1.42 F1800.0
G1 X-5.58 Y5.34 Z1.42 F1800.0
G1 X-5.33 Y5.34 Z1.42 F1800.0
G1 X-4.71 Y3.93 Z1.42 F1800.0
G1 X-4.32 Y4.36 Z1.42 F1800.0
G1 X-3.57 Y4.96 Z1.42 F1800.0
M108 R30.0
M102
G1 X-3.22 Y5.24 Z1.42 F1800.0
M108 R3.569
M103
G1 X0.58 Y5.56 Z1.42 F3000.0
G1 X3.04 Y4.98 Z1.42 F3000.0
M108 R30.0
M101
G1 X3.82 Y4.8 Z1.42 F3000.0
M108 R3.569
G1 X4.32 Y4.36 Z1.42 F1800.0
G1 X4.75 Y4.36 Z1.42 F1800.0
G1 X5.27 Y3.87 Z1.42 F1800.0
G1 X5.31 Y3.05 Z1.42 F1800.0
G1 X5.45 Y3.27 Z1.42 F1800.0
G1 X5.58 Y3.27 Z1.42 F1800.0
G1 X7.51 Y5.34 Z1.42 F1800.0
G1 X7.76 Y5.34 Z1.42 F1800.0
G1 X9.69 Y3.39 Z1.42 F1800.0
G1 X9.95 Y3.39 Z1.42 F1800.0
G1 X11.53 Y4.8 Z1.42 F1800.0
G1 X11.53 Y5.66 Z1.42 F1800.0
M108 R30.0
M102
G1 X11.53 Y6.11 Z1.42 F1800.0
M108 R3.569
M103
G1 X6.67 Y1.01 Z1.42 F3000.0
M108 R30.0
M101
G1 X6.12 Y0.44 Z1.42 F3000.0
M108 R3.569
G1 X6.5 Y0.92 Z1.42 F1800.0
G1 X7.76 Y0.98 Z1.42 F1800.0
G1 X9.69 Y-0.98 Z1.42 F1800.0
G1 X9.95 Y-0.98 Z1.42 F1800.0
G1 X11.53 Y-0.0 Z1.42 F1800.0
G1 X11.53 Y4.36 Z1.42 F1800.0
G1 X9.95 Y3.16 Z1.42 F1800.0
G1 X9.69 Y3.16 Z1.42 F1800.0
G1 X7.76 Y1.21 Z1.42 F1800.0
G1 X7.51 Y1.21 Z1.42 F1800.0
G1 X6.43 Y1.45 Z1.42 F1800.0
G1 X5.88 Y1.75 Z1.42 F1800.0
G1 X6.08 Y2.13 Z1.42 F1800.0
G1 X5.73 Y2.18 Z1.42 F1800.0
G1 X5.77 Y2.4 Z1.42 F1800.0
M108 R30.0
M102
G1 X5.8 Y2.61 Z1.42 F1800.0
G1 X5.56 Y2.62 Z1.42 F1800.0
M108 R3.569
M103
G1 X5.35 Y-2.26 Z1.42 F3000.0
M108 R30.0
M101
G1 X5.31 Y-3.05 Z1.42 F3000.0
M108 R3.569
G1 X5.06 Y-3.49 Z1.42 F1800.0
G1 X4.32 Y-4.36 Z1.42 F1800.0
G1 X5.33 Y-5.34 Z1.42 F1800.0
G1 X5.58 Y-5.34 Z1.42 F1800.0
G1 X7.51 Y-3.39 Z1.42 F1800.0
G1 X7.76 Y-3.39 Z1.42 F1800.0
G1 X9.69 Y-5.34 Z1.42 F1800.0
G1 X9.95 Y-5.34 Z1.42 F1800.0
G1 X11.53 Y-4.36 Z1.42 F1800.0
G1 X11.53 Y-0.44 Z1.42 F1800.0
G1 X9.95 Y-1.21 Z1.42 F1800.0
G1 X9.69 Y-1.21 Z1.42 F1800.0
G1 X7.76 Y-3.16 Z1.42 F1800.0
G1 X7.51 Y-3.16 Z1.42 F1800.0
G1 X6.15 Y-2.32 Z1.42 F1800.0
G1 X6.07 Y-2.15 Z1.42 F1800.0
M108 R30.0
M102
G1 X5.88 Y-1.75 Z1.42 F1800.0
M108 R3.569
M103
G1 X11.1 Y-9.8 Z1.42 F3000.0
M108 R30.0
M101
G1 X11.53 Y-10.47 Z1.42 F3000.0
M108 R3.569
G1 X11.53 Y-9.16 Z1.42 F1800.0
G1 X9.95 Y-9.93 Z1.42 F1800.0
G1 X-7.76 Y-9.93 Z1.42 F1800.0
G1 X-11.53 Y-9.16 Z1.42 F1800.0
G1 X-11.53 Y-10.91 Z1.42 F1800.0
G1 X11.08 Y-10.91 Z1.42 F1800.0
M108 R30.0
M102
G1 X11.53 Y-10.91 Z1.42 F1800.0
M108 R3.569
M103
(</surroundingLoop>)
(</layer>)
(<layer> 1.74 )
(<surroundingLoop>)
(<boundaryPerimeter>)
(<boundaryPoint> X-12.376 Y-12.104 Z1.74 </boundaryPoint>)
(<boundaryPoint> X12.376 Y-12.104 Z1.74 </boundaryPoint>)
(<boundaryPoint> X12.376 Y12.104 Z1.74 </boundaryPoint>)
(<boundaryPoint> X-12.376 Y12.104 Z1.74 </boundaryPoint>)
(<loop> inner )
G1 X4.92 Y-4.5 Z1.71 F3000.0
M108 R30.0
M101
G1 X4.34 Y-3.94 Z1.74 F3000.0
M108 R3.569
G1 X4.13 Y-4.19 Z1.74 F1800.0
G1 X3.76 Y-4.53 Z1.74 F1800.0
G1 X2.8 Y-5.18 Z1.74 F1800.0
G1 X1.73 Y-5.64 Z1.74 F1800.0
G1 X0.59 Y-5.87 Z1.74 F1800.0
G1 X-0.59 Y-5.87 Z1.74 F1800.0
G1 X-1.73 Y-5.64 Z1.74 F1800.0
G1 X-2.8 Y-5.18 Z1.74 F1800.0
G1 X-3.76 Y-4.53 Z1.74 F1800.0
G1 X-4.13 Y-4.19 Z1.74 F1800.0
G1 X-4.88 Y-3.3 Z1.74 F1800.0
G1 X-5.44 Y-2.28 Z1.74 F1800.0
G1 X-5.78 Y-1.16 Z1.74 F1800.0
G1 X-5.91 Y-0.0 Z1.74 F1800.0
G1 X-5.78 Y1.16 Z1.74 F1800.0
G1 X-5.44 Y2.28 Z1.74 F1800.0
G1 X-4.88 Y3.3 Z1.74 F1800.0
G1 X-4.13 Y4.19 Z1.74 F1800.0
G1 X-3.76 Y4.53 Z1.74 F1800.0
G1 X-2.8 Y5.18 Z1.74 F1800.0
G1 X-1.73 Y5.64 Z1.74 F1800.0
G1 X-0.59 Y5.87 Z1.74 F1800.0
G1 X0.59 Y5.87 Z1.74 F1800.0
G1 X1.73 Y5.64 Z1.74 F1800.0
G1 X2.8 Y5.18 Z1.74 F1800.0
G1 X3.76 Y4.53 Z1.74 F1800.0
G1 X4.13 Y4.19 Z1.74 F1800.0
G1 X4.88 Y3.3 Z1.74 F1800.0
G1 X5.44 Y2.28 Z1.74 F1800.0
G1 X5.78 Y1.16 Z1.74 F1800.0
G1 X5.91 Y0.0 Z1.74 F1800.0
G1 X5.78 Y-1.16 Z1.74 F1800.0
G1 X5.44 Y-2.28 Z1.74 F1800.0
G1 X4.88 Y-3.3 Z1.74 F1800.0
G1 X4.63 Y-3.6 Z1.74 F1800.0
M108 R30.0
M102
G1 X4.34 Y-3.94 Z1.74 F1800.0
M108 R3.569
M103
(</loop>)
(<loop> outer )
G1 X10.99 Y-3.94 Z1.74 F3000.0
M108 R30.0
M101
G1 X11.79 Y-3.94 Z1.74 F3000.0
M108 R3.569
G1 X11.79 Y11.52 Z1.74 F1800.0
G1 X-11.79 Y11.52 Z1.74 F1800.0
G1 X-11.79 Y-11.52 Z1.74 F1800.0
G1 X4.13 Y-11.52 Z1.74 F1800.0
G1 X11.79 Y-11.52 Z1.74 F1800.0
G1 X11.79 Y-3.94 Z1.74 F1800.0
M103
(</loop>)
(<perimeter> outer )
G1 X12.18 Y-3.94 Z1.74 F3000.0
M101
G1 X12.18 Y11.91 Z1.74 F1800.0
G1 X-12.18 Y11.91 Z1.74 F1800.0
G1 X-12.18 Y-11.91 Z1.74 F1800.0
G1 X4.13 Y-11.91 Z1.74 F1800.0
G1 X12.18 Y-11.91 Z1.74 F1800.0
G1 X12.18 Y-4.39 Z1.74 F1800.0
M108 R30.0
M102
G1 X12.18 Y-3.94 Z1.74 F1800.0
M108 R3.569
M103
(</perimeter>)
(</boundaryPerimeter>)
(<surroundingLoop>)
(<boundaryPerimeter>)
(<boundaryPoint> X3.39 Y-4.068 Z1.74 </boundaryPoint>)
(<boundaryPoint> X2.52 Y-4.661 Z1.74 </boundaryPoint>)
(<boundaryPoint> X1.553 Y-5.071 Z1.74 </boundaryPoint>)
(<boundaryPoint> X0.525 Y-5.283 Z1.74 </boundaryPoint>)
(<boundaryPoint> X-0.525 Y-5.283 Z1.74 </boundaryPoint>)
(<boundaryPoint> X-1.553 Y-5.071 Z1.74 </boundaryPoint>)
(<boundaryPoint> X-2.52 Y-4.661 Z1.74 </boundaryPoint>)
(<boundaryPoint> X-3.39 Y-4.068 Z1.74 </boundaryPoint>)
(<boundaryPoint> X-3.708 Y-3.778 Z1.74 </boundaryPoint>)
(<boundaryPoint> X-4.386 Y-2.969 Z1.74 </boundaryPoint>)
(<boundaryPoint> X-4.89 Y-2.046 Z1.74 </boundaryPoint>)
(<boundaryPoint> X-5.203 Y-1.044 Z1.74 </boundaryPoint>)
(<boundaryPoint> X-5.313 Y0.0 Z1.74 </boundaryPoint>)
(<boundaryPoint> X-5.203 Y1.044 Z1.74 </boundaryPoint>)
(<boundaryPoint> X-4.89 Y2.046 Z1.74 </boundaryPoint>)
(<boundaryPoint> X-4.386 Y2.969 Z1.74 </boundaryPoint>)
(<boundaryPoint> X-3.708 Y3.778 Z1.74 </boundaryPoint>)
(<boundaryPoint> X-3.39 Y4.068 Z1.74 </boundaryPoint>)
(<boundaryPoint> X-2.52 Y4.661 Z1.74 </boundaryPoint>)
(<boundaryPoint> X-1.553 Y5.071 Z1.74 </boundaryPoint>)
(<boundaryPoint> X-0.525 Y5.283 Z1.74 </boundaryPoint>)
(<boundaryPoint> X0.525 Y5.283 Z1.74 </boundaryPoint>)
(<boundaryPoint> X1.553 Y5.071 Z1.74 </boundaryPoint>)
(<boundaryPoint> X2.52 Y4.661 Z1.74 </boundaryPoint>)
(<boundaryPoint> X3.39 Y4.068 Z1.74 </boundaryPoint>)
(<boundaryPoint> X3.708 Y3.778 Z1.74 </boundaryPoint>)
(<boundaryPoint> X4.386 Y2.969 Z1.74 </boundaryPoint>)
(<boundaryPoint> X4.89 Y2.046 Z1.74 </boundaryPoint>)
(<boundaryPoint> X5.203 Y1.044 Z1.74 </boundaryPoint>)
(<boundaryPoint> X5.313 Y0.0 Z1.74 </boundaryPoint>)
(<boundaryPoint> X5.203 Y-1.044 Z1.74 </boundaryPoint>)
(<boundaryPoint> X4.89 Y-2.046 Z1.74 </boundaryPoint>)
(<boundaryPoint> X4.386 Y-2.969 Z1.74 </boundaryPoint>)
(<boundaryPoint> X3.708 Y-3.778 Z1.74 </boundaryPoint>)
(<perimeter> inner )
G1 X5.95 Y-2.0 Z1.74 F3000.0
M108 R30.0
M101
G1 X5.19 Y-1.76 Z1.74 F3000.0
M108 R3.569
G1 X5.07 Y-2.12 Z1.74 F1800.0
G1 X4.55 Y-3.08 Z1.74 F1800.0
G1 X3.85 Y-3.91 Z1.74 F1800.0
G1 X3.51 Y-4.22 Z1.74 F1800.0
G1 X2.62 Y-4.83 Z1.74 F1800.0
G1 X1.61 Y-5.26 Z1.74 F1800.0
G1 X0.55 Y-5.48 Z1.74 F1800.0
G1 X-0.55 Y-5.48 Z1.74 F1800.0
G1 X-1.61 Y-5.26 Z1.74 F1800.0
G1 X-2.62 Y-4.83 Z1.74 F1800.0
G1 X-3.51 Y-4.22 Z1.74 F1800.0
G1 X-3.85 Y-3.91 Z1.74 F1800.0
G1 X-4.55 Y-3.08 Z1.74 F1800.0
G1 X-5.07 Y-2.12 Z1.74 F1800.0
G1 X-5.4 Y-1.08 Z1.74 F1800.0
G1 X-5.51 Y0.0 Z1.74 F1800.0
G1 X-5.4 Y1.08 Z1.74 F1800.0
G1 X-5.07 Y2.12 Z1.74 F1800.0
G1 X-4.55 Y3.08 Z1.74 F1800.0
G1 X-3.85 Y3.91 Z1.74 F1800.0
G1 X-3.51 Y4.22 Z1.74 F1800.0
G1 X-2.62 Y4.83 Z1.74 F1800.0
G1 X-1.61 Y5.26 Z1.74 F1800.0
G1 X-0.55 Y5.48 Z1.74 F1800.0
G1 X0.55 Y5.48 Z1.74 F1800.0
G1 X1.61 Y5.26 Z1.74 F1800.0
G1 X2.62 Y4.83 Z1.74 F1800.0
G1 X3.51 Y4.22 Z1.74 F1800.0
G1 X3.85 Y3.91 Z1.74 F1800.0
G1 X4.55 Y3.08 Z1.74 F1800.0
G1 X5.07 Y2.12 Z1.74 F1800.0
G1 X5.4 Y1.08 Z1.74 F1800.0
G1 X5.51 Y0.0 Z1.74 F1800.0
G1 X5.4 Y-1.08 Z1.74 F1800.0
G1 X5.32 Y-1.33 Z1.74 F1800.0
M108 R30.0
M102
G1 X5.19 Y-1.76 Z1.74 F1800.0
M108 R3.569
M103
(</perimeter>)
(</boundaryPerimeter>)
(</surroundingLoop>)
G1 X4.61 Y-3.12 Z1.74 F3000.0
G1 X3.91 Y-3.97 Z1.74 F3000.0
G1 X3.56 Y-4.28 Z1.74 F3000.0
G1 X1.13 Y-5.72 Z1.74 F3000.0
M108 R30.0
M101
G1 X0.44 Y-6.13 Z1.74 F3000.0
M108 R3.569
G1 X-0.44 Y-6.13 Z1.74 F1800.0
G1 X-0.93 Y-6.51 Z1.74 F1800.0
G1 X-0.98 Y-7.76 Z1.74 F1800.0
G1 X0.98 Y-9.69 Z1.74 F1800.0
G1 X0.98 Y-9.95 Z1.74 F1800.0
G1 X-0.0 Y-11.26 Z1.74 F1800.0
G1 X4.36 Y-11.26 Z1.74 F1800.0
G1 X3.93 Y-10.82 Z1.74 F1800.0
G1 X1.21 Y-9.95 Z1.74 F1800.0
G1 X1.21 Y-9.69 Z1.74 F1800.0
G1 X3.16 Y-7.76 Z1.74 F1800.0
G1 X3.16 Y-7.51 Z1.74 F1800.0
G1 X2.35 Y-6.12 Z1.74 F1800.0
G1 X2.62 Y-5.54 Z1.74 F1800.0
G1 X3.05 Y-5.32 Z1.74 F1800.0
G1 X3.93 Y-4.72 Z1.74 F1800.0
G1 X4.36 Y-4.31 Z1.74 F1800.0
M103
G1 X4.8 Y-3.79 Z1.74 F3000.0
M101
G1 X5.34 Y-5.33 Z1.74 F1800.0
G1 X5.34 Y-5.58 Z1.74 F1800.0
G1 X3.39 Y-7.51 Z1.74 F1800.0
G1 X3.39 Y-7.76 Z1.74 F1800.0
G1 X5.34 Y-9.69 Z1.74 F1800.0
G1 X5.34 Y-9.95 Z1.74 F1800.0
G1 X6.11 Y-11.26 Z1.74 F1800.0
G1 X5.25 Y-11.26 Z1.74 F1800.0
M108 R30.0
M102
G1 X4.8 Y-11.26 Z1.74 F1800.0
M108 R3.569
M103
G1 X10.55 Y-11.26 Z1.74 F3000.0
M108 R30.0
M101
G1 X11.35 Y-11.26 Z1.74 F3000.0
M108 R3.569
G1 X10.47 Y-11.26 Z1.74 F1800.0
G1 X9.93 Y-9.95 Z1.74 F1800.0
G1 X9.93 Y7.76 Z1.74 F1800.0
G1 X11.35 Y11.26 Z1.74 F1800.0
G1 X8.29 Y11.26 Z1.74 F1800.0
G1 X7.75 Y9.95 Z1.74 F1800.0
G1 X7.75 Y9.69 Z1.74 F1800.0
G1 X9.7 Y7.76 Z1.74 F1800.0
G1 X9.7 Y7.51 Z1.74 F1800.0
G1 X7.75 Y5.58 Z1.74 F1800.0
G1 X7.75 Y5.33 Z1.74 F1800.0
G1 X9.7 Y3.4 Z1.74 F1800.0
G1 X9.7 Y3.15 Z1.74 F1800.0
G1 X7.75 Y1.22 Z1.74 F1800.0
G1 X7.75 Y0.96 Z1.74 F1800.0
G1 X9.7 Y-0.96 Z1.74 F1800.0
G1 X9.7 Y-1.22 Z1.74 F1800.0
G1 X7.75 Y-3.15 Z1.74 F1800.0
G1 X7.75 Y-3.4 Z1.74 F1800.0
G1 X9.7 Y-5.33 Z1.74 F1800.0
G1 X9.7 Y-5.58 Z1.74 F1800.0
G1 X7.75 Y-7.51 Z1.74 F1800.0
G1 X7.75 Y-7.76 Z1.74 F1800.0
G1 X9.7 Y-9.69 Z1.74 F1800.0
G1 X9.7 Y-9.95 Z1.74 F1800.0
G1 X10.04 Y-11.26 Z1.74 F1800.0
G1 X6.55 Y-11.26 Z1.74 F1800.0
G1 X5.57 Y-9.95 Z1.74 F1800.0
G1 X5.57 Y-9.69 Z1.74 F1800.0
G1 X7.52 Y-7.76 Z1.74 F1800.0
G1 X7.52 Y-7.51 Z1.74 F1800.0
G1 X5.57 Y-5.58 Z1.74 F1800.0
G1 X5.57 Y-5.33 Z1.74 F1800.0
G1 X7.52 Y-3.4 Z1.74 F1800.0
G1 X7.52 Y-3.15 Z1.74 F1800.0
G1 X6.11 Y0.51 Z1.74 F1800.0
G1 X7.52 Y0.96 Z1.74 F1800.0
G1 X7.52 Y1.22 Z1.74 F1800.0
G1 X5.67 Y2.37 Z1.74 F1800.0
G1 X5.45 Y3.15 Z1.74 F1800.0
G1 X5.24 Y3.18 Z1.74 F1800.0
G1 X7.52 Y5.33 Z1.74 F1800.0
G1 X7.52 Y5.58 Z1.74 F1800.0
G1 X5.57 Y7.51 Z1.74 F1800.0
G1 X5.57 Y7.76 Z1.74 F1800.0
G1 X7.52 Y9.69 Z1.74 F1800.0
G1 X7.52 Y9.95 Z1.74 F1800.0
G1 X7.85 Y11.26 Z1.74 F1800.0
G1 X4.36 Y11.26 Z1.74 F1800.0
G1 X3.39 Y9.95 Z1.74 F1800.0
G1 X3.39 Y9.69 Z1.74 F1800.0
G1 X5.34 Y7.76 Z1.74 F1800.0
G1 X5.34 Y7.51 Z1.74 F1800.0
G1 X3.27 Y5.45 Z1.74 F1800.0
G1 X3.05 Y5.32 Z1.74 F1800.0
G1 X3.49 Y5.02 Z1.74 F1800.0
G1 X3.88 Y5.22 Z1.74 F1800.0
G1 X3.93 Y4.72 Z1.74 F1800.0
G1 X4.36 Y4.76 Z1.74 F1800.0
G1 X4.36 Y4.31 Z1.74 F1800.0
G1 X4.51 Y4.14 Z1.74 F1800.0
M108 R30.0
M102
G1 X4.8 Y3.79 Z1.74 F1800.0
M108 R3.569
M103
G1 X3.24 Y5.04 Z1.74 F3000.0
M108 R30.0
M101
G1 X2.62 Y5.54 Z1.74 F3000.0
M108 R3.569
G1 X2.61 Y5.79 Z1.74 F1800.0
G1 X2.12 Y6.12 Z1.74 F1800.0
G1 X1.45 Y6.4 Z1.74 F1800.0
G1 X1.21 Y7.51 Z1.74 F1800.0
G1 X1.21 Y7.76 Z1.74 F1800.0
G1 X3.16 Y9.69 Z1.74 F1800.0
G1 X3.16 Y9.95 Z1.74 F1800.0
G1 X3.93 Y11.26 Z1.74 F1800.0
G1 X0.0 Y11.26 Z1.74 F1800.0
G1 X-0.98 Y9.95 Z1.74 F1800.0
G1 X-0.98 Y9.69 Z1.74 F1800.0
G1 X0.98 Y7.76 Z1.74 F1800.0
G1 X0.93 Y6.51 Z1.74 F1800.0
G1 X0.44 Y6.13 Z1.74 F1800.0
G1 X0.01 Y6.13 Z1.74 F1800.0
M108 R30.0
M102
G1 X-0.44 Y6.13 Z1.74 F1800.0
M108 R3.569
M103
G1 X-0.96 Y6.04 Z1.74 F3000.0
M108 R30.0
M101
G1 X-1.75 Y5.89 Z1.74 F3000.0
M108 R3.569
G1 X-2.34 Y6.13 Z1.74 F1800.0
G1 X-3.16 Y7.51 Z1.74 F1800.0
G1 X-3.16 Y7.76 Z1.74 F1800.0
G1 X-1.21 Y9.69 Z1.74 F1800.0
G1 X-1.21 Y9.95 Z1.74 F1800.0
G1 X-0.44 Y11.26 Z1.74 F1800.0
G1 X-4.36 Y11.26 Z1.74 F1800.0
G1 X-5.34 Y9.95 Z1.74 F1800.0
G1 X-5.34 Y9.69 Z1.74 F1800.0
G1 X-3.39 Y7.76 Z1.74 F1800.0
G1 X-3.39 Y7.51 Z1.74 F1800.0
G1 X-5.34 Y5.58 Z1.74 F1800.0
G1 X-5.34 Y5.33 Z1.74 F1800.0
G1 X-4.36 Y4.31 Z1.74 F1800.0
G1 X-3.93 Y4.72 Z1.74 F1800.0
G1 X-3.43 Y5.07 Z1.74 F1800.0
M108 R30.0
M102
G1 X-3.05 Y5.32 Z1.74 F1800.0
M108 R3.569
M103
G1 X-5.68 Y1.18 Z1.74 F3000.0
M108 R30.0
M101
G1 X-6.11 Y0.51 Z1.74 F3000.0
M108 R3.569
G1 X-6.1 Y2.47 Z1.74 F1800.0
G1 X-7.52 Y3.15 Z1.74 F1800.0
G1 X-7.52 Y3.4 Z1.74 F1800.0
G1 X-5.24 Y3.18 Z1.74 F1800.0
G1 X-4.8 Y3.79 Z1.74 F1800.0
G1 X-5.57 Y5.33 Z1.74 F1800.0
G1 X-5.57 Y5.58 Z1.74 F1800.0
G1 X-7.52 Y7.51 Z1.74 F1800.0
G1 X-7.52 Y7.76 Z1.74 F1800.0
G1 X-5.57 Y9.69 Z1.74 F1800.0
G1 X-5.57 Y9.95 Z1.74 F1800.0
G1 X-4.8 Y11.26 Z1.74 F1800.0
G1 X-8.73 Y11.26 Z1.74 F1800.0
G1 X-9.7 Y9.95 Z1.74 F1800.0
G1 X-9.7 Y9.69 Z1.74 F1800.0
G1 X-7.75 Y7.76 Z1.74 F1800.0
G1 X-7.75 Y7.51 Z1.74 F1800.0
G1 X-9.7 Y5.58 Z1.74 F1800.0
G1 X-9.7 Y5.33 Z1.74 F1800.0
G1 X-7.75 Y3.4 Z1.74 F1800.0
G1 X-7.75 Y3.15 Z1.74 F1800.0
G1 X-9.7 Y1.22 Z1.74 F1800.0
G1 X-9.7 Y0.96 Z1.74 F1800.0
G1 X-7.75 Y-0.96 Z1.74 F1800.0
G1 X-7.75 Y-1.22 Z1.74 F1800.0
G1 X-9.7 Y-3.15 Z1.74 F1800.0
G1 X-9.7 Y-3.4 Z1.74 F1800.0
G1 X-7.75 Y-5.33 Z1.74 F1800.0
G1 X-7.75 Y-5.58 Z1.74 F1800.0
G1 X-9.7 Y-7.51 Z1.74 F1800.0
G1 X-9.7 Y-7.76 Z1.74 F1800.0
G1 X-7.75 Y-9.69 Z1.74 F1800.0
G1 X-7.75 Y-9.95 Z1.74 F1800.0
G1 X-8.73 Y-11.26 Z1.74 F1800.0
G1 X-4.8 Y-11.26 Z1.74 F1800.0
G1 X-4.8 Y-10.82 Z1.74 F1800.0
G1 X-7.52 Y-9.95 Z1.74 F1800.0
G1 X-7.52 Y-9.69 Z1.74 F1800.0
G1 X-5.57 Y-7.76 Z1.74 F1800.0
G1 X-5.57 Y-7.51 Z1.74 F1800.0
G1 X-7.52 Y-5.58 Z1.74 F1800.0
G1 X-7.52 Y-5.33 Z1.74 F1800.0
G1 X-4.8 Y-3.79 Z1.74 F1800.0
G1 X-5.24 Y-3.18 Z1.74 F1800.0
G1 X-5.67 Y-2.37 Z1.74 F1800.0
G1 X-7.52 Y-1.22 Z1.74 F1800.0
G1 X-7.52 Y-0.96 Z1.74 F1800.0
G1 X-6.54 Y-0.65 Z1.74 F1800.0
M108 R30.0
M102
G1 X-6.11 Y-0.51 Z1.74 F1800.0
M108 R3.569
M103
G1 X-4.7 Y-3.58 Z1.74 F3000.0
M108 R30.0
M101
G1 X-4.36 Y-4.31 Z1.74 F3000.0
M108 R3.569
G1 X-3.93 Y-4.72 Z1.74 F1800.0
G1 X-3.05 Y-5.32 Z1.74 F1800.0
G1 X-2.81 Y-5.93 Z1.74 F1800.0
G1 X-5.34 Y-7.51 Z1.74 F1800.0
G1 X-5.34 Y-7.76 Z1.74 F1800.0
G1 X-3.39 Y-9.69 Z1.74 F1800.0
G1 X-3.39 Y-9.95 Z1.74 F1800.0
G1 X-4.36 Y-11.26 Z1.74 F1800.0
G1 X-0.44 Y-11.26 Z1.74 F1800.0
G1 X-0.44 Y-10.82 Z1.74 F1800.0
G1 X-3.16 Y-9.95 Z1.74 F1800.0
G1 X-3.16 Y-9.69 Z1.74 F1800.0
G1 X-1.21 Y-7.76 Z1.74 F1800.0
G1 X-1.21 Y-7.51 Z1.74 F1800.0
G1 X-1.4 Y-6.41 Z1.74 F1800.0
G1 X-1.49 Y-6.27 Z1.74 F1800.0
M108 R30.0
M102
G1 X-1.75 Y-5.89 Z1.74 F1800.0
M108 R3.569
M103
G1 X-9.79 Y-10.84 Z1.74 F3000.0
M108 R30.0
M101
G1 X-10.47 Y-11.26 Z1.74 F3000.0
M108 R3.569
G1 X-9.16 Y-11.26 Z1.74 F1800.0
G1 X-9.93 Y-7.76 Z1.74 F1800.0
G1 X-9.93 Y9.95 Z1.74 F1800.0
G1 X-9.16 Y11.26 Z1.74 F1800.0
G1 X-11.35 Y11.26 Z1.74 F1800.0
G1 X-11.35 Y-11.25 Z1.74 F1800.0
M108 R30.0
M102
G1 X-11.35 Y-11.26 Z1.74 F1800.0
G1 X-10.91 Y-11.26 Z1.74 F1800.0
M108 R3.569
M103
(</surroundingLoop>)
(</layer>)
(<layer> 2.06 )
(<surroundingLoop>)
(<boundaryPerimeter>)
(<boundaryPoint> X-12.376 Y-12.104 Z2.06 </boundaryPoint>)
(<boundaryPoint> X12.376 Y-12.104 Z2.06 </boundaryPoint>)
(<boundaryPoint> X12.376 Y12.104 Z2.06 </boundaryPoint>)
(<boundaryPoint> X-12.376 Y12.104 Z2.06 </boundaryPoint>)
(<loop> inner )
G1 X-4.78 Y-4.65 Z2.03 F3000.0
M108 R30.0
M101
G1 X-4.24 Y-4.06 Z2.06 F3000.0
M108 R3.569
G1 X-4.88 Y-3.3 Z2.06 F1800.0
G1 X-5.44 Y-2.28 Z2.06 F1800.0
G1 X-5.78 Y-1.16 Z2.06 F1800.0
G1 X-5.91 Y-0.0 Z2.06 F1800.0
G1 X-5.78 Y1.16 Z2.06 F1800.0
G1 X-5.44 Y2.28 Z2.06 F1800.0
G1 X-4.88 Y3.3 Z2.06 F1800.0
G1 X-4.13 Y4.19 Z2.06 F1800.0
G1 X-3.76 Y4.53 Z2.06 F1800.0
G1 X-2.8 Y5.18 Z2.06 F1800.0
G1 X-1.73 Y5.64 Z2.06 F1800.0
G1 X-0.59 Y5.87 Z2.06 F1800.0
G1 X0.59 Y5.87 Z2.06 F1800.0
G1 X1.73 Y5.64 Z2.06 F1800.0
G1 X2.8 Y5.18 Z2.06 F1800.0
G1 X3.76 Y4.53 Z2.06 F1800.0
G1 X4.13 Y4.19 Z2.06 F1800.0
G1 X4.88 Y3.3 Z2.06 F1800.0
G1 X5.44 Y2.28 Z2.06 F1800.0
G1 X5.78 Y1.16 Z2.06 F1800.0
G1 X5.91 Y0.0 Z2.06 F1800.0
G1 X5.78 Y-1.16 Z2.06 F1800.0
G1 X5.44 Y-2.28 Z2.06 F1800.0
G1 X4.88 Y-3.3 Z2.06 F1800.0
G1 X4.13 Y-4.19 Z2.06 F1800.0
G1 X3.76 Y-4.53 Z2.06 F1800.0
G1 X2.8 Y-5.18 Z2.06 F1800.0
G1 X1.73 Y-5.64 Z2.06 F1800.0
G1 X0.59 Y-5.87 Z2.06 F1800.0
G1 X-0.59 Y-5.87 Z2.06 F1800.0
G1 X-1.73 Y-5.64 Z2.06 F1800.0
G1 X-2.8 Y-5.18 Z2.06 F1800.0
G1 X-3.76 Y-4.53 Z2.06 F1800.0
G1 X-3.92 Y-4.38 Z2.06 F1800.0
M108 R30.0
M102
G1 X-4.13 Y-4.19 Z2.06 F1800.0
G1 X-4.24 Y-4.06 Z2.06 F1800.0
M108 R3.569
M103
(</loop>)
(<loop> outer )
G1 X-4.14 Y-10.72 Z2.06 F3000.0
M108 R30.0
M101
G1 X-4.13 Y-11.52 Z2.06 F3000.0
M108 R3.569
G1 X11.79 Y-11.52 Z2.06 F1800.0
G1 X11.79 Y11.52 Z2.06 F1800.0
G1 X-11.79 Y11.52 Z2.06 F1800.0
G1 X-11.79 Y-11.52 Z2.06 F1800.0
G1 X-4.13 Y-11.52 Z2.06 F1800.0
M103
(</loop>)
(<perimeter> outer )
G1 X-4.13 Y-11.91 Z2.06 F3000.0
M101
G1 X12.18 Y-11.91 Z2.06 F1800.0
G1 X12.18 Y11.91 Z2.06 F1800.0
G1 X-12.18 Y11.91 Z2.06 F1800.0
G1 X-12.18 Y-11.91 Z2.06 F1800.0
G1 X-4.58 Y-11.91 Z2.06 F1800.0
M108 R30.0
M102
G1 X-4.13 Y-11.91 Z2.06 F1800.0
M108 R3.569
M103
(</perimeter>)
(</boundaryPerimeter>)
(<surroundingLoop>)
(<boundaryPerimeter>)
(<boundaryPoint> X3.39 Y-4.068 Z2.06 </boundaryPoint>)
(<boundaryPoint> X2.52 Y-4.661 Z2.06 </boundaryPoint>)
(<boundaryPoint> X1.553 Y-5.071 Z2.06 </boundaryPoint>)
(<boundaryPoint> X0.525 Y-5.283 Z2.06 </boundaryPoint>)
(<boundaryPoint> X-0.525 Y-5.283 Z2.06 </boundaryPoint>)
(<boundaryPoint> X-1.553 Y-5.071 Z2.06 </boundaryPoint>)
(<boundaryPoint> X-2.52 Y-4.661 Z2.06 </boundaryPoint>)
(<boundaryPoint> X-3.39 Y-4.068 Z2.06 </boundaryPoint>)
(<boundaryPoint> X-3.708 Y-3.778 Z2.06 </boundaryPoint>)
(<boundaryPoint> X-4.386 Y-2.969 Z2.06 </boundaryPoint>)
(<boundaryPoint> X-4.89 Y-2.046 Z2.06 </boundaryPoint>)
(<boundaryPoint> X-5.203 Y-1.044 Z2.06 </boundaryPoint>)
(<boundaryPoint> X-5.313 Y0.0 Z2.06 </boundaryPoint>)
(<boundaryPoint> X-5.203 Y1.044 Z2.06 </boundaryPoint>)
(<boundaryPoint> X-4.89 Y2.046 Z2.06 </boundaryPoint>)
(<boundaryPoint> X-4.386 Y2.969 Z2.06 </boundaryPoint>)
(<boundaryPoint> X-3.708 Y3.778 Z2.06 </boundaryPoint>)
(<boundaryPoint> X-3.39 Y4.068 Z2.06 </boundaryPoint>)
(<boundaryPoint> X-2.52 Y4.661 Z2.06 </boundaryPoint>)
(<boundaryPoint> X-1.553 Y5.071 Z2.06 </boundaryPoint>)
(<boundaryPoint> X-0.525 Y5.283 Z2.06 </boundaryPoint>)
(<boundaryPoint> X0.525 Y5.283 Z2.06 </boundaryPoint>)
(<boundaryPoint> X1.553 Y5.071 Z2.06 </boundaryPoint>)
(<boundaryPoint> X2.52 Y4.661 Z2.06 </boundaryPoint>)
(<boundaryPoint> X3.39 Y4.068 Z2.06 </boundaryPoint>)
(<boundaryPoint> X3.708 Y3.778 Z2.06 </boundaryPoint>)
(<boundaryPoint> X4.386 Y2.969 Z2.06 </boundaryPoint>)
(<boundaryPoint> X4.89 Y2.046 Z2.06 </boundaryPoint>)
(<boundaryPoint> X5.203 Y1.044 Z2.06 </boundaryPoint>)
(<boundaryPoint> X5.313 Y0.0 Z2.06 </boundaryPoint>)
(<boundaryPoint> X5.203 Y-1.044 Z2.06 </boundaryPoint>)
(<boundaryPoint> X4.89 Y-2.046 Z2.06 </boundaryPoint>)
(<boundaryPoint> X4.386 Y-2.969 Z2.06 </boundaryPoint>)
(<boundaryPoint> X3.708 Y-3.778 Z2.06 </boundaryPoint>)
(<perimeter> inner )
G1 X-1.9 Y-6.01 Z2.06 F3000.0
M108 R30.0
M101
G1 X-1.61 Y-5.26 Z2.06 F3000.0
M108 R3.569
G1 X-2.62 Y-4.83 Z2.06 F1800.0
G1 X-3.51 Y-4.22 Z2.06 F1800.0
G1 X-3.85 Y-3.91 Z2.06 F1800.0
G1 X-4.55 Y-3.08 Z2.06 F1800.0
G1 X-5.07 Y-2.12 Z2.06 F1800.0
G1 X-5.4 Y-1.08 Z2.06 F1800.0
G1 X-5.51 Y0.0 Z2.06 F1800.0
G1 X-5.4 Y1.08 Z2.06 F1800.0
G1 X-5.07 Y2.12 Z2.06 F1800.0
G1 X-4.55 Y3.08 Z2.06 F1800.0
G1 X-3.85 Y3.91 Z2.06 F1800.0
G1 X-3.51 Y4.22 Z2.06 F1800.0
G1 X-2.62 Y4.83 Z2.06 F1800.0
G1 X-1.61 Y5.26 Z2.06 F1800.0
G1 X-0.55 Y5.48 Z2.06 F1800.0
G1 X0.55 Y5.48 Z2.06 F1800.0
G1 X1.61 Y5.26 Z2.06 F1800.0
G1 X2.62 Y4.83 Z2.06 F1800.0
G1 X3.51 Y4.22 Z2.06 F1800.0
G1 X3.85 Y3.91 Z2.06 F1800.0
G1 X4.55 Y3.08 Z2.06 F1800.0
G1 X5.07 Y2.12 Z2.06 F1800.0
G1 X5.4 Y1.08 Z2.06 F1800.0
G1 X5.51 Y0.0 Z2.06 F1800.0
G1 X5.4 Y-1.08 Z2.06 F1800.0
G1 X5.07 Y-2.12 Z2.06 F1800.0
G1 X4.55 Y-3.08 Z2.06 F1800.0
G1 X3.85 Y-3.91 Z2.06 F1800.0
G1 X3.51 Y-4.22 Z2.06 F1800.0
G1 X2.62 Y-4.83 Z2.06 F1800.0
G1 X1.61 Y-5.26 Z2.06 F1800.0
G1 X0.55 Y-5.48 Z2.06 F1800.0
G1 X-0.55 Y-5.48 Z2.06 F1800.0
G1 X-1.17 Y-5.35 Z2.06 F1800.0
M108 R30.0
M102
G1 X-1.61 Y-5.26 Z2.06 F1800.0
M108 R3.569
M103
(</perimeter>)
(</boundaryPerimeter>)
(</surroundingLoop>)
G1 X-1.29 Y-5.56 Z2.06 F3000.0
M108 R30.0
M101
G1 X-0.7 Y-6.11 Z2.06 F3000.0
M108 R3.569
G1 X-0.96 Y-7.52 Z2.06 F1800.0
G1 X-1.22 Y-7.52 Z2.06 F1800.0
G1 X-2.3 Y-5.67 Z2.06 F1800.0
G1 X-3.37 Y-5.63 Z2.06 F1800.0
G1 X-3.82 Y-4.8 Z2.06 F1800.0
G1 X-5.33 Y-7.52 Z2.06 F1800.0
G1 X-5.58 Y-7.52 Z2.06 F1800.0
G1 X-7.64 Y-5.57 Z2.06 F1800.0
G1 X-7.76 Y-5.57 Z2.06 F1800.0
G1 X-9.69 Y-7.52 Z2.06 F1800.0
G1 X-9.95 Y-7.52 Z2.06 F1800.0
G1 X-11.53 Y-4.8 Z2.06 F1800.0
G1 X-11.53 Y-8.73 Z2.06 F1800.0
G1 X-9.95 Y-7.75 Z2.06 F1800.0
G1 X-9.69 Y-7.75 Z2.06 F1800.0
G1 X-7.76 Y-9.7 Z2.06 F1800.0
G1 X-7.51 Y-9.7 Z2.06 F1800.0
G1 X-5.58 Y-7.75 Z2.06 F1800.0
G1 X-5.33 Y-7.75 Z2.06 F1800.0
G1 X-3.4 Y-9.7 Z2.06 F1800.0
G1 X-3.15 Y-9.7 Z2.06 F1800.0
G1 X-1.22 Y-7.75 Z2.06 F1800.0
G1 X-0.96 Y-7.75 Z2.06 F1800.0
G1 X0.96 Y-9.7 Z2.06 F1800.0
G1 X1.22 Y-9.7 Z2.06 F1800.0
G1 X3.15 Y-7.75 Z2.06 F1800.0
G1 X3.4 Y-7.75 Z2.06 F1800.0
G1 X5.33 Y-9.7 Z2.06 F1800.0
G1 X5.58 Y-9.7 Z2.06 F1800.0
G1 X7.51 Y-7.75 Z2.06 F1800.0
G1 X7.76 Y-7.75 Z2.06 F1800.0
G1 X9.69 Y-9.7 Z2.06 F1800.0
G1 X9.95 Y-9.7 Z2.06 F1800.0
G1 X11.53 Y-8.73 Z2.06 F1800.0
G1 X11.53 Y-4.8 Z2.06 F1800.0
G1 X9.95 Y-5.57 Z2.06 F1800.0
G1 X9.69 Y-5.57 Z2.06 F1800.0
G1 X7.76 Y-7.52 Z2.06 F1800.0
G1 X7.51 Y-7.52 Z2.06 F1800.0
G1 X5.58 Y-5.57 Z2.06 F1800.0
G1 X5.33 Y-5.57 Z2.06 F1800.0
G1 X3.82 Y-4.8 Z2.06 F1800.0
G1 X3.18 Y-5.24 Z2.06 F1800.0
G1 X3.4 Y-7.52 Z2.06 F1800.0
G1 X3.15 Y-7.52 Z2.06 F1800.0
G1 X2.41 Y-6.09 Z2.06 F1800.0
G1 X1.15 Y-6.11 Z2.06 F1800.0
M108 R30.0
M102
G1 X0.7 Y-6.11 Z2.06 F1800.0
M108 R3.569
M103
G1 X4.37 Y-3.9 Z2.06 F3000.0
M108 R30.0
M101
G1 X5.05 Y-3.49 Z2.06 F3000.0
M108 R3.569
G1 X4.32 Y-4.36 Z2.06 F1800.0
G1 X5.33 Y-5.34 Z2.06 F1800.0
G1 X5.58 Y-5.34 Z2.06 F1800.0
G1 X7.51 Y-3.39 Z2.06 F1800.0
G1 X7.76 Y-3.39 Z2.06 F1800.0
G1 X9.69 Y-5.34 Z2.06 F1800.0
G1 X9.95 Y-5.34 Z2.06 F1800.0
G1 X11.53 Y-4.36 Z2.06 F1800.0
G1 X11.53 Y-0.44 Z2.06 F1800.0
G1 X9.95 Y-1.21 Z2.06 F1800.0
G1 X9.69 Y-1.21 Z2.06 F1800.0
G1 X7.76 Y-3.16 Z2.06 F1800.0
G1 X7.51 Y-3.16 Z2.06 F1800.0
G1 X5.95 Y-2.77 Z2.06 F1800.0
G1 X6.15 Y-2.31 Z2.06 F1800.0
G1 X6.07 Y-2.15 Z2.06 F1800.0
M108 R30.0
M102
G1 X5.87 Y-1.75 Z2.06 F1800.0
M108 R3.569
M103
G1 X6.03 Y-0.36 Z2.06 F3000.0
M108 R30.0
M101
G1 X6.12 Y0.44 Z2.06 F3000.0
M108 R3.569
G1 X6.5 Y0.92 Z2.06 F1800.0
G1 X7.76 Y0.98 Z2.06 F1800.0
G1 X9.69 Y-0.98 Z2.06 F1800.0
G1 X9.95 Y-0.98 Z2.06 F1800.0
G1 X11.53 Y-0.0 Z2.06 F1800.0
G1 X11.53 Y4.36 Z2.06 F1800.0
G1 X9.95 Y3.16 Z2.06 F1800.0
G1 X9.69 Y3.16 Z2.06 F1800.0
G1 X7.76 Y1.21 Z2.06 F1800.0
G1 X7.51 Y1.21 Z2.06 F1800.0
G1 X6.42 Y1.46 Z2.06 F1800.0
G1 X5.87 Y1.75 Z2.06 F1800.0
G1 X6.07 Y2.13 Z2.06 F1800.0
G1 X5.73 Y2.18 Z2.06 F1800.0
G1 X5.72 Y2.21 Z2.06 F1800.0
M108 R30.0
M102
G1 X5.54 Y2.62 Z2.06 F1800.0
M108 R3.569
M103
G1 X4.31 Y4.17 Z2.06 F3000.0
M108 R30.0
M101
G1 X3.82 Y4.8 Z2.06 F3000.0
M108 R3.569
G1 X4.32 Y4.36 Z2.06 F1800.0
G1 X4.71 Y4.36 Z2.06 F1800.0
G1 X5.22 Y3.89 Z2.06 F1800.0
G1 X5.3 Y3.05 Z2.06 F1800.0
G1 X5.58 Y3.27 Z2.06 F1800.0
G1 X7.51 Y5.34 Z2.06 F1800.0
G1 X7.76 Y5.34 Z2.06 F1800.0
G1 X9.69 Y3.39 Z2.06 F1800.0
G1 X9.95 Y3.39 Z2.06 F1800.0
G1 X11.53 Y4.8 Z2.06 F1800.0
G1 X11.53 Y5.66 Z2.06 F1800.0
M108 R30.0
M102
G1 X11.53 Y6.11 Z2.06 F1800.0
M108 R3.569
M103
G1 X11.53 Y10.11 Z2.06 F3000.0
M108 R30.0
M101
G1 X11.53 Y10.91 Z2.06 F3000.0
M108 R3.569
G1 X11.53 Y10.04 Z2.06 F1800.0
G1 X-9.95 Y9.93 Z2.06 F1800.0
G1 X-11.53 Y10.91 Z2.06 F1800.0
G1 X-11.53 Y8.73 Z2.06 F1800.0
G1 X-9.95 Y9.7 Z2.06 F1800.0
G1 X-9.69 Y9.7 Z2.06 F1800.0
G1 X-7.76 Y7.75 Z2.06 F1800.0
G1 X-7.51 Y7.75 Z2.06 F1800.0
G1 X-5.58 Y9.7 Z2.06 F1800.0
G1 X-5.33 Y9.7 Z2.06 F1800.0
G1 X-3.4 Y7.75 Z2.06 F1800.0
G1 X-3.15 Y7.75 Z2.06 F1800.0
G1 X-1.22 Y9.7 Z2.06 F1800.0
G1 X-0.96 Y9.7 Z2.06 F1800.0
G1 X0.96 Y7.75 Z2.06 F1800.0
G1 X1.22 Y7.75 Z2.06 F1800.0
G1 X3.15 Y9.7 Z2.06 F1800.0
G1 X3.4 Y9.7 Z2.06 F1800.0
G1 X5.33 Y7.75 Z2.06 F1800.0
G1 X5.58 Y7.75 Z2.06 F1800.0
G1 X7.51 Y9.7 Z2.06 F1800.0
G1 X7.76 Y9.7 Z2.06 F1800.0
G1 X9.69 Y7.75 Z2.06 F1800.0
G1 X9.95 Y7.75 Z2.06 F1800.0
G1 X11.53 Y9.6 Z2.06 F1800.0
G1 X11.53 Y6.55 Z2.06 F1800.0
G1 X9.95 Y7.52 Z2.06 F1800.0
G1 X9.69 Y7.52 Z2.06 F1800.0
G1 X7.76 Y5.57 Z2.06 F1800.0
G1 X7.51 Y5.57 Z2.06 F1800.0
G1 X5.58 Y7.52 Z2.06 F1800.0
G1 X5.33 Y7.52 Z2.06 F1800.0
G1 X3.18 Y5.24 Z2.06 F1800.0
G1 X3.15 Y5.45 Z2.06 F1800.0
G1 X2.3 Y5.67 Z2.06 F1800.0
G1 X1.22 Y7.52 Z2.06 F1800.0
G1 X0.96 Y7.52 Z2.06 F1800.0
G1 X0.7 Y6.11 Z2.06 F1800.0
G1 X-2.41 Y6.09 Z2.06 F1800.0
G1 X-3.15 Y7.52 Z2.06 F1800.0
G1 X-3.4 Y7.52 Z2.06 F1800.0
G1 X-5.33 Y5.57 Z2.06 F1800.0
G1 X-5.58 Y5.57 Z2.06 F1800.0
G1 X-7.51 Y7.52 Z2.06 F1800.0
G1 X-7.76 Y7.52 Z2.06 F1800.0
G1 X-9.69 Y5.57 Z2.06 F1800.0
G1 X-9.95 Y5.57 Z2.06 F1800.0
G1 X-11.53 Y8.29 Z2.06 F1800.0
G1 X-11.53 Y4.36 Z2.06 F1800.0
G1 X-9.95 Y5.34 Z2.06 F1800.0
G1 X-9.69 Y5.34 Z2.06 F1800.0
G1 X-7.76 Y3.39 Z2.06 F1800.0
G1 X-7.51 Y3.39 Z2.06 F1800.0
G1 X-5.58 Y5.34 Z2.06 F1800.0
G1 X-5.33 Y5.34 Z2.06 F1800.0
G1 X-3.82 Y4.8 Z2.06 F1800.0
G1 X-3.55 Y4.98 Z2.06 F1800.0
M108 R30.0
M102
G1 X-3.18 Y5.24 Z2.06 F1800.0
M108 R3.569
M103
G1 X-3.68 Y4.85 Z2.06 F3000.0
M108 R30.0
M101
G1 X-4.32 Y4.36 Z2.06 F3000.0
M108 R3.569
G1 X-5.05 Y3.49 Z2.06 F1800.0
G1 X-5.73 Y2.18 Z2.06 F1800.0
G1 X-5.87 Y1.75 Z2.06 F1800.0
G1 X-6.42 Y1.44 Z2.06 F1800.0
G1 X-7.51 Y3.16 Z2.06 F1800.0
G1 X-7.76 Y3.16 Z2.06 F1800.0
G1 X-9.69 Y1.21 Z2.06 F1800.0
G1 X-9.95 Y1.21 Z2.06 F1800.0
G1 X-11.53 Y3.93 Z2.06 F1800.0
G1 X-11.53 Y0.0 Z2.06 F1800.0
G1 X-9.95 Y0.98 Z2.06 F1800.0
G1 X-9.69 Y0.98 Z2.06 F1800.0
G1 X-7.76 Y-0.98 Z2.06 F1800.0
G1 X-6.07 Y-0.87 Z2.06 F1800.0
G1 X-6.55 Y-0.44 Z2.06 F1800.0
G1 X-6.6 Y0.05 Z2.06 F1800.0
G1 X-6.47 Y0.15 Z2.06 F1800.0
M108 R30.0
M102
G1 X-6.12 Y0.44 Z2.06 F1800.0
M108 R3.569
M103
G1 X-5.96 Y-0.95 Z2.06 F3000.0
M108 R30.0
M101
G1 X-5.87 Y-1.75 Z2.06 F3000.0
M108 R3.569
G1 X-6.42 Y-1.44 Z2.06 F1800.0
G1 X-7.51 Y-1.21 Z2.06 F1800.0
G1 X-7.76 Y-1.21 Z2.06 F1800.0
G1 X-9.69 Y-3.16 Z2.06 F1800.0
G1 X-9.95 Y-3.16 Z2.06 F1800.0
G1 X-11.53 Y-0.44 Z2.06 F1800.0
G1 X-11.53 Y-4.36 Z2.06 F1800.0
G1 X-9.95 Y-3.39 Z2.06 F1800.0
G1 X-9.69 Y-3.39 Z2.06 F1800.0
G1 X-7.76 Y-5.34 Z2.06 F1800.0
G1 X-7.51 Y-5.34 Z2.06 F1800.0
G1 X-5.68 Y-3.27 Z2.06 F1800.0
G1 X-5.05 Y-3.49 Z2.06 F1800.0
G1 X-4.61 Y-4.02 Z2.06 F1800.0
M108 R30.0
M102
G1 X-4.32 Y-4.36 Z2.06 F1800.0
M108 R3.569
M103
G1 X10.79 Y-10.18 Z2.06 F3000.0
M108 R30.0
M101
G1 X11.53 Y-10.47 Z2.06 F3000.0
M108 R3.569
G1 X11.53 Y-9.16 Z2.06 F1800.0
G1 X9.95 Y-9.93 Z2.06 F1800.0
G1 X-7.76 Y-9.93 Z2.06 F1800.0
G1 X-11.53 Y-9.16 Z2.06 F1800.0
G1 X-11.53 Y-10.91 Z2.06 F1800.0
G1 X11.08 Y-10.91 Z2.06 F1800.0
M108 R30.0
M102
G1 X11.53 Y-10.91 Z2.06 F1800.0
M108 R3.569
M103
(</surroundingLoop>)
(</layer>)
(<layer> 2.38 )
(<surroundingLoop>)
(<boundaryPerimeter>)
(<boundaryPoint> X-12.376 Y-12.104 Z2.38 </boundaryPoint>)
(<boundaryPoint> X12.376 Y-12.104 Z2.38 </boundaryPoint>)
(<boundaryPoint> X12.376 Y12.104 Z2.38 </boundaryPoint>)
(<boundaryPoint> X-12.376 Y12.104 Z2.38 </boundaryPoint>)
(<loop> inner )
G1 X4.81 Y-4.63 Z2.35 F3000.0
M108 R30.0
M101
G1 X4.22 Y-4.08 Z2.38 F3000.0
M108 R3.569
G1 X4.13 Y-4.19 Z2.38 F1800.0
G1 X3.76 Y-4.53 Z2.38 F1800.0
G1 X2.8 Y-5.18 Z2.38 F1800.0
G1 X1.73 Y-5.64 Z2.38 F1800.0
G1 X0.59 Y-5.87 Z2.38 F1800.0
G1 X-0.59 Y-5.87 Z2.38 F1800.0
G1 X-1.73 Y-5.64 Z2.38 F1800.0
G1 X-2.8 Y-5.18 Z2.38 F1800.0
G1 X-3.76 Y-4.53 Z2.38 F1800.0
G1 X-4.13 Y-4.19 Z2.38 F1800.0
G1 X-4.88 Y-3.3 Z2.38 F1800.0
G1 X-5.44 Y-2.28 Z2.38 F1800.0
G1 X-5.78 Y-1.16 Z2.38 F1800.0
G1 X-5.91 Y-0.0 Z2.38 F1800.0
G1 X-5.78 Y1.16 Z2.38 F1800.0
G1 X-5.44 Y2.28 Z2.38 F1800.0
G1 X-4.88 Y3.3 Z2.38 F1800.0
G1 X-4.13 Y4.19 Z2.38 F1800.0
G1 X-3.76 Y4.53 Z2.38 F1800.0
G1 X-2.8 Y5.18 Z2.38 F1800.0
G1 X-1.73 Y5.64 Z2.38 F1800.0
G1 X-0.59 Y5.87 Z2.38 F1800.0
G1 X0.59 Y5.87 Z2.38 F1800.0
G1 X1.73 Y5.64 Z2.38 F1800.0
G1 X2.8 Y5.18 Z2.38 F1800.0
G1 X3.76 Y4.53 Z2.38 F1800.0
G1 X4.13 Y4.19 Z2.38 F1800.0
G1 X4.88 Y3.3 Z2.38 F1800.0
G1 X5.44 Y2.28 Z2.38 F1800.0
G1 X5.78 Y1.16 Z2.38 F1800.0
G1 X5.91 Y0.0 Z2.38 F1800.0
G1 X5.78 Y-1.16 Z2.38 F1800.0
G1 X5.44 Y-2.28 Z2.38 F1800.0
G1 X4.88 Y-3.3 Z2.38 F1800.0
G1 X4.51 Y-3.74 Z2.38 F1800.0
M108 R30.0
M102
G1 X4.22 Y-4.08 Z2.38 F1800.0
M108 R3.569
M103
(</loop>)
(<loop> outer )
G1 X4.14 Y-10.72 Z2.38 F3000.0
M108 R30.0
M101
G1 X4.13 Y-11.52 Z2.38 F3000.0
M108 R3.569
G1 X11.79 Y-11.52 Z2.38 F1800.0
G1 X11.79 Y11.52 Z2.38 F1800.0
G1 X-11.79 Y11.52 Z2.38 F1800.0
G1 X-11.79 Y-11.52 Z2.38 F1800.0
G1 X4.13 Y-11.52 Z2.38 F1800.0
M103
(</loop>)
(<perimeter> outer )
G1 X4.13 Y-11.91 Z2.38 F3000.0
M101
G1 X12.18 Y-11.91 Z2.38 F1800.0
G1 X12.18 Y11.91 Z2.38 F1800.0
G1 X-12.18 Y11.91 Z2.38 F1800.0
G1 X-12.18 Y-11.91 Z2.38 F1800.0
G1 X3.68 Y-11.91 Z2.38 F1800.0
M108 R30.0
M102
G1 X4.13 Y-11.91 Z2.38 F1800.0
M108 R3.569
M103
(</perimeter>)
(</boundaryPerimeter>)
(<surroundingLoop>)
(<boundaryPerimeter>)
(<boundaryPoint> X3.39 Y-4.068 Z2.38 </boundaryPoint>)
(<boundaryPoint> X2.52 Y-4.661 Z2.38 </boundaryPoint>)
(<boundaryPoint> X1.553 Y-5.071 Z2.38 </boundaryPoint>)
(<boundaryPoint> X0.525 Y-5.283 Z2.38 </boundaryPoint>)
(<boundaryPoint> X-0.525 Y-5.283 Z2.38 </boundaryPoint>)
(<boundaryPoint> X-1.553 Y-5.071 Z2.38 </boundaryPoint>)
(<boundaryPoint> X-2.52 Y-4.661 Z2.38 </boundaryPoint>)
(<boundaryPoint> X-3.39 Y-4.068 Z2.38 </boundaryPoint>)
(<boundaryPoint> X-3.708 Y-3.778 Z2.38 </boundaryPoint>)
(<boundaryPoint> X-4.386 Y-2.969 Z2.38 </boundaryPoint>)
(<boundaryPoint> X-4.89 Y-2.046 Z2.38 </boundaryPoint>)
(<boundaryPoint> X-5.203 Y-1.044 Z2.38 </boundaryPoint>)
(<boundaryPoint> X-5.313 Y0.0 Z2.38 </boundaryPoint>)
(<boundaryPoint> X-5.203 Y1.044 Z2.38 </boundaryPoint>)
(<boundaryPoint> X-4.89 Y2.046 Z2.38 </boundaryPoint>)
(<boundaryPoint> X-4.386 Y2.969 Z2.38 </boundaryPoint>)
(<boundaryPoint> X-3.708 Y3.778 Z2.38 </boundaryPoint>)
(<boundaryPoint> X-3.39 Y4.068 Z2.38 </boundaryPoint>)
(<boundaryPoint> X-2.52 Y4.661 Z2.38 </boundaryPoint>)
(<boundaryPoint> X-1.553 Y5.071 Z2.38 </boundaryPoint>)
(<boundaryPoint> X-0.525 Y5.283 Z2.38 </boundaryPoint>)
(<boundaryPoint> X0.525 Y5.283 Z2.38 </boundaryPoint>)
(<boundaryPoint> X1.553 Y5.071 Z2.38 </boundaryPoint>)
(<boundaryPoint> X2.52 Y4.661 Z2.38 </boundaryPoint>)
(<boundaryPoint> X3.39 Y4.068 Z2.38 </boundaryPoint>)
(<boundaryPoint> X3.708 Y3.778 Z2.38 </boundaryPoint>)
(<boundaryPoint> X4.386 Y2.969 Z2.38 </boundaryPoint>)
(<boundaryPoint> X4.89 Y2.046 Z2.38 </boundaryPoint>)
(<boundaryPoint> X5.203 Y1.044 Z2.38 </boundaryPoint>)
(<boundaryPoint> X5.313 Y0.0 Z2.38 </boundaryPoint>)
(<boundaryPoint> X5.203 Y-1.044 Z2.38 </boundaryPoint>)
(<boundaryPoint> X4.89 Y-2.046 Z2.38 </boundaryPoint>)
(<boundaryPoint> X4.386 Y-2.969 Z2.38 </boundaryPoint>)
(<boundaryPoint> X3.708 Y-3.778 Z2.38 </boundaryPoint>)
(<perimeter> inner )
G1 X1.9 Y-6.01 Z2.38 F3000.0
M108 R30.0
M101
G1 X1.61 Y-5.26 Z2.38 F3000.0
M108 R3.569
G1 X0.55 Y-5.48 Z2.38 F1800.0
G1 X-0.55 Y-5.48 Z2.38 F1800.0
G1 X-1.61 Y-5.26 Z2.38 F1800.0
G1 X-2.62 Y-4.83 Z2.38 F1800.0
G1 X-3.51 Y-4.22 Z2.38 F1800.0
G1 X-3.85 Y-3.91 Z2.38 F1800.0
G1 X-4.55 Y-3.08 Z2.38 F1800.0
G1 X-5.07 Y-2.12 Z2.38 F1800.0
G1 X-5.4 Y-1.08 Z2.38 F1800.0
G1 X-5.51 Y0.0 Z2.38 F1800.0
G1 X-5.4 Y1.08 Z2.38 F1800.0
G1 X-5.07 Y2.12 Z2.38 F1800.0
G1 X-4.55 Y3.08 Z2.38 F1800.0
G1 X-3.85 Y3.91 Z2.38 F1800.0
G1 X-3.51 Y4.22 Z2.38 F1800.0
G1 X-2.62 Y4.83 Z2.38 F1800.0
G1 X-1.61 Y5.26 Z2.38 F1800.0
G1 X-0.55 Y5.48 Z2.38 F1800.0
G1 X0.55 Y5.48 Z2.38 F1800.0
G1 X1.61 Y5.26 Z2.38 F1800.0
G1 X2.62 Y4.83 Z2.38 F1800.0
G1 X3.51 Y4.22 Z2.38 F1800.0
G1 X3.85 Y3.91 Z2.38 F1800.0
G1 X4.55 Y3.08 Z2.38 F1800.0
G1 X5.07 Y2.12 Z2.38 F1800.0
G1 X5.4 Y1.08 Z2.38 F1800.0
G1 X5.51 Y0.0 Z2.38 F1800.0
G1 X5.4 Y-1.08 Z2.38 F1800.0
G1 X5.07 Y-2.12 Z2.38 F1800.0
G1 X4.55 Y-3.08 Z2.38 F1800.0
G1 X3.85 Y-3.91 Z2.38 F1800.0
G1 X3.51 Y-4.22 Z2.38 F1800.0
G1 X2.62 Y-4.83 Z2.38 F1800.0
G1 X2.03 Y-5.08 Z2.38 F1800.0
M108 R30.0
M102
G1 X1.61 Y-5.26 Z2.38 F1800.0
M108 R3.569
M103
(</perimeter>)
(</boundaryPerimeter>)
(</surroundingLoop>)
G1 X1.08 Y-5.65 Z2.38 F3000.0
M108 R30.0
M101
G1 X0.44 Y-6.13 Z2.38 F3000.0
M108 R3.569
G1 X-0.44 Y-6.13 Z2.38 F1800.0
G1 X-0.93 Y-6.51 Z2.38 F1800.0
G1 X-0.98 Y-7.76 Z2.38 F1800.0
G1 X0.98 Y-9.69 Z2.38 F1800.0
G1 X0.98 Y-9.95 Z2.38 F1800.0
G1 X-0.0 Y-11.26 Z2.38 F1800.0
G1 X4.36 Y-11.26 Z2.38 F1800.0
G1 X3.93 Y-10.82 Z2.38 F1800.0
G1 X1.21 Y-9.95 Z2.38 F1800.0
G1 X1.21 Y-9.69 Z2.38 F1800.0
G1 X3.16 Y-7.76 Z2.38 F1800.0
G1 X3.16 Y-7.51 Z2.38 F1800.0
G1 X2.35 Y-6.12 Z2.38 F1800.0
G1 X2.62 Y-5.54 Z2.38 F1800.0
G1 X3.05 Y-5.32 Z2.38 F1800.0
G1 X3.93 Y-4.72 Z2.38 F1800.0
G1 X4.36 Y-4.31 Z2.38 F1800.0
M103
G1 X4.8 Y-3.79 Z2.38 F3000.0
M101
G1 X5.34 Y-5.33 Z2.38 F1800.0
G1 X5.34 Y-5.58 Z2.38 F1800.0
G1 X3.39 Y-7.51 Z2.38 F1800.0
G1 X3.39 Y-7.76 Z2.38 F1800.0
G1 X5.34 Y-9.69 Z2.38 F1800.0
G1 X5.34 Y-9.95 Z2.38 F1800.0
G1 X6.11 Y-11.26 Z2.38 F1800.0
G1 X5.25 Y-11.26 Z2.38 F1800.0
M108 R30.0
M102
G1 X4.8 Y-11.26 Z2.38 F1800.0
M108 R3.569
M103
G1 X10.55 Y-11.26 Z2.38 F3000.0
M108 R30.0
M101
G1 X11.35 Y-11.26 Z2.38 F3000.0
M108 R3.569
G1 X10.47 Y-11.26 Z2.38 F1800.0
G1 X9.93 Y-9.95 Z2.38 F1800.0
G1 X9.93 Y7.76 Z2.38 F1800.0
G1 X11.35 Y11.26 Z2.38 F1800.0
G1 X8.29 Y11.26 Z2.38 F1800.0
G1 X7.75 Y9.95 Z2.38 F1800.0
G1 X7.75 Y9.69 Z2.38 F1800.0
G1 X9.7 Y7.76 Z2.38 F1800.0
G1 X9.7 Y7.51 Z2.38 F1800.0
G1 X7.75 Y5.58 Z2.38 F1800.0
G1 X7.75 Y5.33 Z2.38 F1800.0
G1 X9.7 Y3.4 Z2.38 F1800.0
G1 X9.7 Y3.15 Z2.38 F1800.0
G1 X7.75 Y1.22 Z2.38 F1800.0
G1 X7.75 Y0.96 Z2.38 F1800.0
G1 X9.7 Y-0.96 Z2.38 F1800.0
G1 X9.7 Y-1.22 Z2.38 F1800.0
G1 X7.75 Y-3.15 Z2.38 F1800.0
G1 X7.75 Y-3.4 Z2.38 F1800.0
G1 X9.7 Y-5.33 Z2.38 F1800.0
G1 X9.7 Y-5.58 Z2.38 F1800.0
G1 X7.75 Y-7.51 Z2.38 F1800.0
G1 X7.75 Y-7.76 Z2.38 F1800.0
G1 X9.7 Y-9.69 Z2.38 F1800.0
G1 X9.7 Y-9.95 Z2.38 F1800.0
G1 X10.04 Y-11.26 Z2.38 F1800.0
G1 X6.55 Y-11.26 Z2.38 F1800.0
G1 X5.57 Y-9.95 Z2.38 F1800.0
G1 X5.57 Y-9.69 Z2.38 F1800.0
G1 X7.52 Y-7.76 Z2.38 F1800.0
G1 X7.52 Y-7.51 Z2.38 F1800.0
G1 X5.57 Y-5.58 Z2.38 F1800.0
G1 X5.57 Y-5.33 Z2.38 F1800.0
G1 X7.52 Y-3.4 Z2.38 F1800.0
G1 X7.52 Y-3.15 Z2.38 F1800.0
G1 X6.11 Y0.51 Z2.38 F1800.0
G1 X7.52 Y0.96 Z2.38 F1800.0
G1 X7.52 Y1.22 Z2.38 F1800.0
G1 X5.67 Y2.37 Z2.38 F1800.0
G1 X5.45 Y3.15 Z2.38 F1800.0
G1 X5.24 Y3.18 Z2.38 F1800.0
G1 X7.52 Y5.33 Z2.38 F1800.0
G1 X7.52 Y5.58 Z2.38 F1800.0
G1 X5.57 Y7.51 Z2.38 F1800.0
G1 X5.57 Y7.76 Z2.38 F1800.0
G1 X7.52 Y9.69 Z2.38 F1800.0
G1 X7.52 Y9.95 Z2.38 F1800.0
G1 X7.85 Y11.26 Z2.38 F1800.0
G1 X4.36 Y11.26 Z2.38 F1800.0
G1 X3.39 Y9.95 Z2.38 F1800.0
G1 X3.39 Y9.69 Z2.38 F1800.0
G1 X5.34 Y7.76 Z2.38 F1800.0
G1 X5.34 Y7.51 Z2.38 F1800.0
G1 X3.27 Y5.45 Z2.38 F1800.0
G1 X3.05 Y5.32 Z2.38 F1800.0
G1 X3.49 Y5.02 Z2.38 F1800.0
G1 X3.88 Y5.22 Z2.38 F1800.0
G1 X3.93 Y4.72 Z2.38 F1800.0
G1 X4.36 Y4.76 Z2.38 F1800.0
G1 X4.36 Y4.31 Z2.38 F1800.0
G1 X4.51 Y4.14 Z2.38 F1800.0
M108 R30.0
M102
G1 X4.8 Y3.79 Z2.38 F1800.0
M108 R3.569
M103
G1 X3.24 Y5.04 Z2.38 F3000.0
M108 R30.0
M101
G1 X2.62 Y5.54 Z2.38 F3000.0
M108 R3.569
G1 X2.61 Y5.79 Z2.38 F1800.0
G1 X2.12 Y6.12 Z2.38 F1800.0
G1 X1.45 Y6.4 Z2.38 F1800.0
G1 X1.21 Y7.51 Z2.38 F1800.0
G1 X1.21 Y7.76 Z2.38 F1800.0
G1 X3.16 Y9.69 Z2.38 F1800.0
G1 X3.16 Y9.95 Z2.38 F1800.0
G1 X3.93 Y11.26 Z2.38 F1800.0
G1 X0.0 Y11.26 Z2.38 F1800.0
G1 X-0.98 Y9.95 Z2.38 F1800.0
G1 X-0.98 Y9.69 Z2.38 F1800.0
G1 X0.98 Y7.76 Z2.38 F1800.0
G1 X0.93 Y6.51 Z2.38 F1800.0
G1 X0.44 Y6.13 Z2.38 F1800.0
G1 X0.01 Y6.13 Z2.38 F1800.0
M108 R30.0
M102
G1 X-0.44 Y6.13 Z2.38 F1800.0
M108 R3.569
M103
G1 X-0.96 Y6.04 Z2.38 F3000.0
M108 R30.0
M101
G1 X-1.75 Y5.89 Z2.38 F3000.0
M108 R3.569
G1 X-2.34 Y6.13 Z2.38 F1800.0
G1 X-3.16 Y7.51 Z2.38 F1800.0
G1 X-3.16 Y7.76 Z2.38 F1800.0
G1 X-1.21 Y9.69 Z2.38 F1800.0
G1 X-1.21 Y9.95 Z2.38 F1800.0
G1 X-0.44 Y11.26 Z2.38 F1800.0
G1 X-4.36 Y11.26 Z2.38 F1800.0
G1 X-5.34 Y9.95 Z2.38 F1800.0
G1 X-5.34 Y9.69 Z2.38 F1800.0
G1 X-3.39 Y7.76 Z2.38 F1800.0
G1 X-3.39 Y7.51 Z2.38 F1800.0
G1 X-5.34 Y5.58 Z2.38 F1800.0
G1 X-5.34 Y5.33 Z2.38 F1800.0
G1 X-4.36 Y4.31 Z2.38 F1800.0
G1 X-3.93 Y4.72 Z2.38 F1800.0
G1 X-3.43 Y5.07 Z2.38 F1800.0
M108 R30.0
M102
G1 X-3.05 Y5.32 Z2.38 F1800.0
M108 R3.569
M103
G1 X-5.68 Y1.18 Z2.38 F3000.0
M108 R30.0
M101
G1 X-6.11 Y0.51 Z2.38 F3000.0
M108 R3.569
G1 X-6.1 Y2.47 Z2.38 F1800.0
G1 X-7.52 Y3.15 Z2.38 F1800.0
G1 X-7.52 Y3.4 Z2.38 F1800.0
G1 X-5.24 Y3.18 Z2.38 F1800.0
G1 X-4.8 Y3.79 Z2.38 F1800.0
G1 X-5.57 Y5.33 Z2.38 F1800.0
G1 X-5.57 Y5.58 Z2.38 F1800.0
G1 X-7.52 Y7.51 Z2.38 F1800.0
G1 X-7.52 Y7.76 Z2.38 F1800.0
G1 X-5.57 Y9.69 Z2.38 F1800.0
G1 X-5.57 Y9.95 Z2.38 F1800.0
G1 X-4.8 Y11.26 Z2.38 F1800.0
G1 X-8.73 Y11.26 Z2.38 F1800.0
G1 X-9.7 Y9.95 Z2.38 F1800.0
G1 X-9.7 Y9.69 Z2.38 F1800.0
G1 X-7.75 Y7.76 Z2.38 F1800.0
G1 X-7.75 Y7.51 Z2.38 F1800.0
G1 X-9.7 Y5.58 Z2.38 F1800.0
G1 X-9.7 Y5.33 Z2.38 F1800.0
G1 X-7.75 Y3.4 Z2.38 F1800.0
G1 X-7.75 Y3.15 Z2.38 F1800.0
G1 X-9.7 Y1.22 Z2.38 F1800.0
G1 X-9.7 Y0.96 Z2.38 F1800.0
G1 X-7.75 Y-0.96 Z2.38 F1800.0
G1 X-7.75 Y-1.22 Z2.38 F1800.0
G1 X-9.7 Y-3.15 Z2.38 F1800.0
G1 X-9.7 Y-3.4 Z2.38 F1800.0
G1 X-7.75 Y-5.33 Z2.38 F1800.0
G1 X-7.75 Y-5.58 Z2.38 F1800.0
G1 X-9.7 Y-7.51 Z2.38 F1800.0
G1 X-9.7 Y-7.76 Z2.38 F1800.0
G1 X-7.75 Y-9.69 Z2.38 F1800.0
G1 X-7.75 Y-9.95 Z2.38 F1800.0
G1 X-8.73 Y-11.26 Z2.38 F1800.0
G1 X-4.8 Y-11.26 Z2.38 F1800.0
G1 X-4.8 Y-10.82 Z2.38 F1800.0
G1 X-7.52 Y-9.95 Z2.38 F1800.0
G1 X-7.52 Y-9.69 Z2.38 F1800.0
G1 X-5.57 Y-7.76 Z2.38 F1800.0
G1 X-5.57 Y-7.51 Z2.38 F1800.0
G1 X-7.52 Y-5.58 Z2.38 F1800.0
G1 X-7.52 Y-5.33 Z2.38 F1800.0
G1 X-4.8 Y-3.79 Z2.38 F1800.0
G1 X-5.24 Y-3.18 Z2.38 F1800.0
G1 X-5.67 Y-2.37 Z2.38 F1800.0
G1 X-7.52 Y-1.22 Z2.38 F1800.0
G1 X-7.52 Y-0.96 Z2.38 F1800.0
G1 X-6.54 Y-0.65 Z2.38 F1800.0
M108 R30.0
M102
G1 X-6.11 Y-0.51 Z2.38 F1800.0
M108 R3.569
M103
G1 X-4.7 Y-3.58 Z2.38 F3000.0
M108 R30.0
M101
G1 X-4.36 Y-4.31 Z2.38 F3000.0
M108 R3.569
G1 X-3.93 Y-4.72 Z2.38 F1800.0
G1 X-3.05 Y-5.32 Z2.38 F1800.0
G1 X-2.81 Y-5.93 Z2.38 F1800.0
G1 X-5.34 Y-7.51 Z2.38 F1800.0
G1 X-5.34 Y-7.76 Z2.38 F1800.0
G1 X-3.39 Y-9.69 Z2.38 F1800.0
G1 X-3.39 Y-9.95 Z2.38 F1800.0
G1 X-4.36 Y-11.26 Z2.38 F1800.0
G1 X-0.44 Y-11.26 Z2.38 F1800.0
G1 X-0.44 Y-10.82 Z2.38 F1800.0
G1 X-3.16 Y-9.95 Z2.38 F1800.0
G1 X-3.16 Y-9.69 Z2.38 F1800.0
G1 X-1.21 Y-7.76 Z2.38 F1800.0
G1 X-1.21 Y-7.51 Z2.38 F1800.0
G1 X-1.4 Y-6.41 Z2.38 F1800.0
G1 X-1.49 Y-6.27 Z2.38 F1800.0
M108 R30.0
M102
G1 X-1.75 Y-5.89 Z2.38 F1800.0
M108 R3.569
M103
G1 X-9.79 Y-10.84 Z2.38 F3000.0
M108 R30.0
M101
G1 X-10.47 Y-11.26 Z2.38 F3000.0
M108 R3.569
G1 X-9.16 Y-11.26 Z2.38 F1800.0
G1 X-9.93 Y-7.76 Z2.38 F1800.0
G1 X-9.93 Y9.95 Z2.38 F1800.0
G1 X-9.16 Y11.26 Z2.38 F1800.0
G1 X-11.35 Y11.26 Z2.38 F1800.0
G1 X-11.35 Y-11.25 Z2.38 F1800.0
M108 R30.0
M102
G1 X-11.35 Y-11.26 Z2.38 F1800.0
G1 X-10.91 Y-11.26 Z2.38 F1800.0
M108 R3.569
M103
(</surroundingLoop>)
(</layer>)
(<layer> 2.7 )
(<surroundingLoop>)
(<boundaryPerimeter>)
(<boundaryPoint> X-12.376 Y-12.104 Z2.7 </boundaryPoint>)
(<boundaryPoint> X12.376 Y-12.104 Z2.7 </boundaryPoint>)
(<boundaryPoint> X12.376 Y12.104 Z2.7 </boundaryPoint>)
(<boundaryPoint> X-12.376 Y12.104 Z2.7 </boundaryPoint>)
(<loop> inner )
G1 X-4.89 Y-4.52 Z2.67 F3000.0
M108 R30.0
M101
G1 X-4.36 Y-3.92 Z2.7 F3000.0
M108 R3.569
G1 X-4.88 Y-3.3 Z2.7 F1800.0
G1 X-5.44 Y-2.28 Z2.7 F1800.0
G1 X-5.78 Y-1.16 Z2.7 F1800.0
G1 X-5.91 Y-0.0 Z2.7 F1800.0
G1 X-5.78 Y1.16 Z2.7 F1800.0
G1 X-5.44 Y2.28 Z2.7 F1800.0
G1 X-4.88 Y3.3 Z2.7 F1800.0
G1 X-4.13 Y4.19 Z2.7 F1800.0
G1 X-3.76 Y4.53 Z2.7 F1800.0
G1 X-2.8 Y5.18 Z2.7 F1800.0
G1 X-1.73 Y5.64 Z2.7 F1800.0
G1 X-0.59 Y5.87 Z2.7 F1800.0
G1 X0.59 Y5.87 Z2.7 F1800.0
G1 X1.73 Y5.64 Z2.7 F1800.0
G1 X2.8 Y5.18 Z2.7 F1800.0
G1 X3.76 Y4.53 Z2.7 F1800.0
G1 X4.13 Y4.19 Z2.7 F1800.0
G1 X4.88 Y3.3 Z2.7 F1800.0
G1 X5.44 Y2.28 Z2.7 F1800.0
G1 X5.78 Y1.16 Z2.7 F1800.0
G1 X5.91 Y0.0 Z2.7 F1800.0
G1 X5.78 Y-1.16 Z2.7 F1800.0
G1 X5.44 Y-2.28 Z2.7 F1800.0
G1 X4.88 Y-3.3 Z2.7 F1800.0
G1 X4.13 Y-4.19 Z2.7 F1800.0
G1 X3.76 Y-4.53 Z2.7 F1800.0
G1 X2.8 Y-5.18 Z2.7 F1800.0
G1 X1.73 Y-5.64 Z2.7 F1800.0
G1 X0.59 Y-5.87 Z2.7 F1800.0
G1 X-0.59 Y-5.87 Z2.7 F1800.0
G1 X-1.73 Y-5.64 Z2.7 F1800.0
G1 X-2.8 Y-5.18 Z2.7 F1800.0
G1 X-3.76 Y-4.53 Z2.7 F1800.0
G1 X-4.06 Y-4.26 Z2.7 F1800.0
M108 R30.0
M102
G1 X-4.13 Y-4.19 Z2.7 F1800.0
G1 X-4.36 Y-3.92 Z2.7 F1800.0
M108 R3.569
M103
(</loop>)
(<loop> outer )
G1 X-10.99 Y-3.92 Z2.7 F3000.0
M108 R30.0
M101
G1 X-11.79 Y-3.92 Z2.7 F3000.0
M108 R3.569
G1 X-11.79 Y-11.52 Z2.7 F1800.0
G1 X-4.13 Y-11.52 Z2.7 F1800.0
G1 X11.79 Y-11.52 Z2.7 F1800.0
G1 X11.79 Y11.52 Z2.7 F1800.0
G1 X-11.79 Y11.52 Z2.7 F1800.0
G1 X-11.79 Y-3.92 Z2.7 F1800.0
M103
(</loop>)
(<perimeter> outer )
G1 X-12.18 Y-3.92 Z2.7 F3000.0
M101
G1 X-12.18 Y-11.91 Z2.7 F1800.0
G1 X-4.13 Y-11.91 Z2.7 F1800.0
G1 X12.18 Y-11.91 Z2.7 F1800.0
G1 X12.18 Y11.91 Z2.7 F1800.0
G1 X-12.18 Y11.91 Z2.7 F1800.0
G1 X-12.18 Y-3.47 Z2.7 F1800.0
M108 R30.0
M102
G1 X-12.18 Y-3.92 Z2.7 F1800.0
M108 R3.569
M103
(</perimeter>)
(</boundaryPerimeter>)
(<surroundingLoop>)
(<boundaryPerimeter>)
(<boundaryPoint> X3.39 Y-4.068 Z2.7 </boundaryPoint>)
(<boundaryPoint> X2.52 Y-4.661 Z2.7 </boundaryPoint>)
(<boundaryPoint> X1.553 Y-5.071 Z2.7 </boundaryPoint>)
(<boundaryPoint> X0.525 Y-5.283 Z2.7 </boundaryPoint>)
(<boundaryPoint> X-0.525 Y-5.283 Z2.7 </boundaryPoint>)
(<boundaryPoint> X-1.553 Y-5.071 Z2.7 </boundaryPoint>)
(<boundaryPoint> X-2.52 Y-4.661 Z2.7 </boundaryPoint>)
(<boundaryPoint> X-3.39 Y-4.068 Z2.7 </boundaryPoint>)
(<boundaryPoint> X-3.708 Y-3.778 Z2.7 </boundaryPoint>)
(<boundaryPoint> X-4.386 Y-2.969 Z2.7 </boundaryPoint>)
(<boundaryPoint> X-4.89 Y-2.046 Z2.7 </boundaryPoint>)
(<boundaryPoint> X-5.203 Y-1.044 Z2.7 </boundaryPoint>)
(<boundaryPoint> X-5.313 Y0.0 Z2.7 </boundaryPoint>)
(<boundaryPoint> X-5.203 Y1.044 Z2.7 </boundaryPoint>)
(<boundaryPoint> X-4.89 Y2.046 Z2.7 </boundaryPoint>)
(<boundaryPoint> X-4.386 Y2.969 Z2.7 </boundaryPoint>)
(<boundaryPoint> X-3.708 Y3.778 Z2.7 </boundaryPoint>)
(<boundaryPoint> X-3.39 Y4.068 Z2.7 </boundaryPoint>)
(<boundaryPoint> X-2.52 Y4.661 Z2.7 </boundaryPoint>)
(<boundaryPoint> X-1.553 Y5.071 Z2.7 </boundaryPoint>)
(<boundaryPoint> X-0.525 Y5.283 Z2.7 </boundaryPoint>)
(<boundaryPoint> X0.525 Y5.283 Z2.7 </boundaryPoint>)
(<boundaryPoint> X1.553 Y5.071 Z2.7 </boundaryPoint>)
(<boundaryPoint> X2.52 Y4.661 Z2.7 </boundaryPoint>)
(<boundaryPoint> X3.39 Y4.068 Z2.7 </boundaryPoint>)
(<boundaryPoint> X3.708 Y3.778 Z2.7 </boundaryPoint>)
(<boundaryPoint> X4.386 Y2.969 Z2.7 </boundaryPoint>)
(<boundaryPoint> X4.89 Y2.046 Z2.7 </boundaryPoint>)
(<boundaryPoint> X5.203 Y1.044 Z2.7 </boundaryPoint>)
(<boundaryPoint> X5.313 Y0.0 Z2.7 </boundaryPoint>)
(<boundaryPoint> X5.203 Y-1.044 Z2.7 </boundaryPoint>)
(<boundaryPoint> X4.89 Y-2.046 Z2.7 </boundaryPoint>)
(<boundaryPoint> X4.386 Y-2.969 Z2.7 </boundaryPoint>)
(<boundaryPoint> X3.708 Y-3.778 Z2.7 </boundaryPoint>)
(<perimeter> inner )
G1 X-5.96 Y-1.98 Z2.7 F3000.0
M108 R30.0
M101
G1 X-5.19 Y-1.74 Z2.7 F3000.0
M108 R3.569
G1 X-5.4 Y-1.08 Z2.7 F1800.0
G1 X-5.51 Y0.0 Z2.7 F1800.0
G1 X-5.4 Y1.08 Z2.7 F1800.0
G1 X-5.07 Y2.12 Z2.7 F1800.0
G1 X-4.55 Y3.08 Z2.7 F1800.0
G1 X-3.85 Y3.91 Z2.7 F1800.0
G1 X-3.51 Y4.22 Z2.7 F1800.0
G1 X-2.62 Y4.83 Z2.7 F1800.0
G1 X-1.61 Y5.26 Z2.7 F1800.0
G1 X-0.55 Y5.48 Z2.7 F1800.0
G1 X0.55 Y5.48 Z2.7 F1800.0
G1 X1.61 Y5.26 Z2.7 F1800.0
G1 X2.62 Y4.83 Z2.7 F1800.0
G1 X3.51 Y4.22 Z2.7 F1800.0
G1 X3.85 Y3.91 Z2.7 F1800.0
G1 X4.55 Y3.08 Z2.7 F1800.0
G1 X5.07 Y2.12 Z2.7 F1800.0
G1 X5.4 Y1.08 Z2.7 F1800.0
G1 X5.51 Y0.0 Z2.7 F1800.0
G1 X5.4 Y-1.08 Z2.7 F1800.0
G1 X5.07 Y-2.12 Z2.7 F1800.0
G1 X4.55 Y-3.08 Z2.7 F1800.0
G1 X3.85 Y-3.91 Z2.7 F1800.0
G1 X3.51 Y-4.22 Z2.7 F1800.0
G1 X2.62 Y-4.83 Z2.7 F1800.0
G1 X1.61 Y-5.26 Z2.7 F1800.0
G1 X0.55 Y-5.48 Z2.7 F1800.0
G1 X-0.55 Y-5.48 Z2.7 F1800.0
G1 X-1.61 Y-5.26 Z2.7 F1800.0
G1 X-2.62 Y-4.83 Z2.7 F1800.0
G1 X-3.51 Y-4.22 Z2.7 F1800.0
G1 X-3.85 Y-3.91 Z2.7 F1800.0
G1 X-4.55 Y-3.08 Z2.7 F1800.0
G1 X-5.05 Y-2.17 Z2.7 F1800.0
M108 R30.0
M102
G1 X-5.07 Y-2.12 Z2.7 F1800.0
G1 X-5.19 Y-1.74 Z2.7 F1800.0
M108 R3.569
M103
(</perimeter>)
(</boundaryPerimeter>)
(</surroundingLoop>)
G1 X-4.61 Y-3.12 Z2.7 F3000.0
G1 X-2.84 Y-5.08 Z2.7 F3000.0
M108 R30.0
M101
G1 X-2.3 Y-5.67 Z2.7 F3000.0
M108 R3.569
G1 X-11.53 Y-5.67 Z2.7 F1800.0
G1 X-11.53 Y-5.24 Z2.7 F1800.0
G1 X-3.18 Y-5.24 Z2.7 F1800.0
G1 X-3.82 Y-4.8 Z2.7 F1800.0
G1 X-11.53 Y-4.8 Z2.7 F1800.0
G1 X-11.53 Y-4.36 Z2.7 F1800.0
G1 X-4.32 Y-4.36 Z2.7 F1800.0
G1 X-5.05 Y-3.49 Z2.7 F1800.0
G1 X-5.68 Y-3.27 Z2.7 F1800.0
G1 X-5.54 Y-2.62 Z2.7 F1800.0
G1 X-5.73 Y-2.18 Z2.7 F1800.0
G1 X-9.69 Y-3.39 Z2.7 F1800.0
G1 X-9.95 Y-3.39 Z2.7 F1800.0
G1 X-11.53 Y-3.93 Z2.7 F1800.0
G1 X-11.53 Y-0.44 Z2.7 F1800.0
G1 X-9.95 Y-3.16 Z2.7 F1800.0
G1 X-9.69 Y-3.16 Z2.7 F1800.0
G1 X-7.76 Y-1.21 Z2.7 F1800.0
G1 X-7.51 Y-1.21 Z2.7 F1800.0
G1 X-6.42 Y-1.44 Z2.7 F1800.0
G1 X-6.26 Y-1.53 Z2.7 F1800.0
M108 R30.0
M102
G1 X-5.87 Y-1.75 Z2.7 F1800.0
M108 R3.569
M103
G1 X-6.03 Y-0.36 Z2.7 F3000.0
M108 R30.0
M101
G1 X-6.12 Y0.44 Z2.7 F3000.0
M108 R3.569
G1 X-6.6 Y0.05 Z2.7 F1800.0
G1 X-6.55 Y-0.44 Z2.7 F1800.0
G1 X-6.07 Y-0.87 Z2.7 F1800.0
G1 X-7.76 Y-0.98 Z2.7 F1800.0
G1 X-9.69 Y0.98 Z2.7 F1800.0
G1 X-9.95 Y0.98 Z2.7 F1800.0
G1 X-11.53 Y0.0 Z2.7 F1800.0
G1 X-11.53 Y3.49 Z2.7 F1800.0
G1 X-9.95 Y1.21 Z2.7 F1800.0
G1 X-9.69 Y1.21 Z2.7 F1800.0
G1 X-7.76 Y3.16 Z2.7 F1800.0
G1 X-7.51 Y3.16 Z2.7 F1800.0
G1 X-6.42 Y1.44 Z2.7 F1800.0
G1 X-5.87 Y1.75 Z2.7 F1800.0
G1 X-5.54 Y2.62 Z2.7 F1800.0
G1 X-5.05 Y3.49 Z2.7 F1800.0
G1 X-4.68 Y3.93 Z2.7 F1800.0
G1 X-7.51 Y3.39 Z2.7 F1800.0
G1 X-11.53 Y3.93 Z2.7 F1800.0
G1 X-11.53 Y4.36 Z2.7 F1800.0
G1 X-4.32 Y4.36 Z2.7 F1800.0
G1 X-3.82 Y4.8 Z2.7 F1800.0
G1 X-11.53 Y4.8 Z2.7 F1800.0
G1 X-11.53 Y5.24 Z2.7 F1800.0
G1 X-3.18 Y5.24 Z2.7 F1800.0
M103
G1 X-2.3 Y5.67 Z2.7 F3000.0
M101
G1 X-11.08 Y5.67 Z2.7 F1800.0
M108 R30.0
M102
G1 X-11.53 Y5.67 Z2.7 F1800.0
M108 R3.569
M103
G1 X-11.53 Y-6.18 Z2.7 F3000.0
M108 R30.0
M101
G1 X-11.53 Y-6.98 Z2.7 F3000.0
M108 R3.569
G1 X11.53 Y-6.98 Z2.7 F1800.0
G1 X11.53 Y-7.42 Z2.7 F1800.0
G1 X-11.53 Y-7.42 Z2.7 F1800.0
G1 X-11.53 Y-7.85 Z2.7 F1800.0
G1 X11.53 Y-7.85 Z2.7 F1800.0
G1 X11.53 Y-8.29 Z2.7 F1800.0
G1 X-11.53 Y-8.29 Z2.7 F1800.0
G1 X-11.53 Y-8.73 Z2.7 F1800.0
G1 X11.53 Y-8.73 Z2.7 F1800.0
G1 X11.53 Y-9.16 Z2.7 F1800.0
G1 X-11.53 Y-9.16 Z2.7 F1800.0
G1 X-11.53 Y-9.6 Z2.7 F1800.0
G1 X11.53 Y-9.6 Z2.7 F1800.0
G1 X11.53 Y-10.04 Z2.7 F1800.0
G1 X-11.53 Y-10.04 Z2.7 F1800.0
G1 X-11.53 Y-10.47 Z2.7 F1800.0
G1 X11.53 Y-10.47 Z2.7 F1800.0
G1 X11.53 Y-10.91 Z2.7 F1800.0
G1 X-11.08 Y-10.91 Z2.7 F1800.0
M108 R30.0
M102
G1 X-11.53 Y-10.91 Z2.7 F1800.0
M108 R3.569
M103
G1 X-0.04 Y-6.4 Z2.7 F3000.0
M108 R30.0
M101
G1 X0.7 Y-6.11 Z2.7 F3000.0
M108 R3.569
G1 X11.53 Y-6.11 Z2.7 F1800.0
G1 X11.53 Y-6.55 Z2.7 F1800.0
G1 X-11.53 Y-6.55 Z2.7 F1800.0
G1 X-11.53 Y-6.11 Z2.7 F1800.0
G1 X-1.15 Y-6.11 Z2.7 F1800.0
M108 R30.0
M102
G1 X-0.7 Y-6.11 Z2.7 F1800.0
M108 R3.569
M103
G1 X2.65 Y-4.9 Z2.7 F3000.0
G1 X3.56 Y-4.28 Z2.7 F3000.0
G1 X5.33 Y-2.34 Z2.7 F3000.0
M108 R30.0
M101
G1 X5.87 Y-1.75 Z2.7 F3000.0
M108 R3.569
G1 X6.15 Y-2.31 Z2.7 F1800.0
G1 X5.95 Y-2.77 Z2.7 F1800.0
G1 X7.51 Y-3.16 Z2.7 F1800.0
G1 X7.76 Y-3.16 Z2.7 F1800.0
G1 X9.69 Y-1.21 Z2.7 F1800.0
G1 X9.95 Y-1.21 Z2.7 F1800.0
G1 X11.53 Y-0.44 Z2.7 F1800.0
G1 X11.53 Y-3.93 Z2.7 F1800.0
G1 X7.76 Y-3.39 Z2.7 F1800.0
G1 X5.68 Y-3.27 Z2.7 F1800.0
G1 X5.05 Y-3.49 Z2.7 F1800.0
G1 X4.32 Y-4.36 Z2.7 F1800.0
G1 X11.53 Y-4.36 Z2.7 F1800.0
G1 X11.53 Y-4.8 Z2.7 F1800.0
G1 X3.82 Y-4.8 Z2.7 F1800.0
G1 X3.18 Y-5.24 Z2.7 F1800.0
G1 X11.53 Y-5.24 Z2.7 F1800.0
G1 X11.53 Y-5.67 Z2.7 F1800.0
G1 X2.75 Y-5.67 Z2.7 F1800.0
M108 R30.0
M102
G1 X2.3 Y-5.67 Z2.7 F1800.0
M108 R3.569
M103
G1 X4.61 Y-3.12 Z2.7 F3000.0
G1 X5.14 Y-2.15 Z2.7 F3000.0
G1 X5.47 Y-1.1 Z2.7 F3000.0
G1 X5.53 Y1.82 Z2.7 F3000.0
M108 R30.0
M101
G1 X5.54 Y2.62 Z2.7 F3000.0
M108 R3.569
G1 X5.73 Y2.18 Z2.7 F1800.0
G1 X6.07 Y2.13 Z2.7 F1800.0
G1 X6.42 Y1.46 Z2.7 F1800.0
G1 X7.51 Y1.21 Z2.7 F1800.0
G1 X7.76 Y1.21 Z2.7 F1800.0
G1 X9.69 Y3.16 Z2.7 F1800.0
G1 X11.53 Y3.05 Z2.7 F1800.0
G1 X11.53 Y-0.0 Z2.7 F1800.0
G1 X9.95 Y-0.98 Z2.7 F1800.0
G1 X9.69 Y-0.98 Z2.7 F1800.0
G1 X7.76 Y0.98 Z2.7 F1800.0
G1 X6.5 Y0.92 Z2.7 F1800.0
G1 X6.4 Y0.79 Z2.7 F1800.0
M108 R30.0
M102
G1 X6.12 Y0.44 Z2.7 F1800.0
M108 R3.569
M103
G1 X3.59 Y4.55 Z2.7 F3000.0
M108 R30.0
M101
G1 X3.18 Y5.24 Z2.7 F3000.0
M108 R3.569
G1 X11.53 Y5.24 Z2.7 F1800.0
G1 X11.53 Y4.8 Z2.7 F1800.0
G1 X3.82 Y4.8 Z2.7 F1800.0
G1 X4.32 Y4.36 Z2.7 F1800.0
G1 X11.53 Y4.36 Z2.7 F1800.0
G1 X11.53 Y3.49 Z2.7 F1800.0
G1 X5.58 Y3.27 Z2.7 F1800.0
G1 X5.3 Y3.05 Z2.7 F1800.0
G1 X5.33 Y3.27 Z2.7 F1800.0
G1 X5.05 Y3.49 Z2.7 F1800.0
G1 X4.97 Y3.58 Z2.7 F1800.0
M108 R30.0
M102
G1 X4.68 Y3.93 Z2.7 F1800.0
M108 R3.569
M103
G1 X10.97 Y10.34 Z2.7 F3000.0
M108 R30.0
M101
G1 X11.53 Y10.91 Z2.7 F3000.0
M108 R3.569
G1 X-11.53 Y10.91 Z2.7 F1800.0
G1 X-11.53 Y10.47 Z2.7 F1800.0
G1 X11.53 Y10.47 Z2.7 F1800.0
G1 X11.53 Y10.04 Z2.7 F1800.0
G1 X-11.53 Y10.04 Z2.7 F1800.0
G1 X-11.53 Y9.6 Z2.7 F1800.0
G1 X11.53 Y9.6 Z2.7 F1800.0
G1 X11.53 Y9.16 Z2.7 F1800.0
G1 X-11.53 Y9.16 Z2.7 F1800.0
G1 X-11.53 Y8.73 Z2.7 F1800.0
G1 X11.53 Y8.73 Z2.7 F1800.0
G1 X11.53 Y8.29 Z2.7 F1800.0
G1 X-11.53 Y8.29 Z2.7 F1800.0
G1 X-11.53 Y7.85 Z2.7 F1800.0
G1 X11.53 Y7.85 Z2.7 F1800.0
G1 X11.53 Y7.42 Z2.7 F1800.0
G1 X-11.53 Y7.42 Z2.7 F1800.0
G1 X-11.53 Y6.98 Z2.7 F1800.0
G1 X11.53 Y6.98 Z2.7 F1800.0
G1 X11.53 Y6.55 Z2.7 F1800.0
G1 X-11.53 Y6.55 Z2.7 F1800.0
G1 X-11.53 Y6.11 Z2.7 F1800.0
G1 X11.53 Y6.11 Z2.7 F1800.0
G1 X11.53 Y5.67 Z2.7 F1800.0
G1 X2.3 Y5.67 Z2.7 F1800.0
M103
(</surroundingLoop>)
(</layer>)
(<layer> 3.02 )
(<surroundingLoop>)
(<boundaryPerimeter>)
(<boundaryPoint> X-12.376 Y-12.104 Z3.02 </boundaryPoint>)
(<boundaryPoint> X-0.884 Y-12.104 Z3.02 </boundaryPoint>)
(<boundaryPoint> X-0.0 Y-12.197 Z3.02 </boundaryPoint>)
(<boundaryPoint> X0.884 Y-12.104 Z3.02 </boundaryPoint>)
(<boundaryPoint> X12.376 Y-12.104 Z3.02 </boundaryPoint>)
(<boundaryPoint> X12.376 Y12.104 Z3.02 </boundaryPoint>)
(<boundaryPoint> X0.884 Y12.104 Z3.02 </boundaryPoint>)
(<boundaryPoint> X0.0 Y12.197 Z3.02 </boundaryPoint>)
(<boundaryPoint> X-0.884 Y12.104 Z3.02 </boundaryPoint>)
(<boundaryPoint> X-12.376 Y12.104 Z3.02 </boundaryPoint>)
(<loop> inner )
G1 X2.24 Y5.42 Z3.02 F3000.0
M101
G1 X2.8 Y5.18 Z3.02 F1800.0
G1 X3.76 Y4.53 Z3.02 F1800.0
G1 X4.13 Y4.19 Z3.02 F1800.0
G1 X4.88 Y3.3 Z3.02 F1800.0
G1 X5.44 Y2.28 Z3.02 F1800.0
G1 X5.78 Y1.16 Z3.02 F1800.0
G1 X5.91 Y0.0 Z3.02 F1800.0
G1 X5.78 Y-1.16 Z3.02 F1800.0
G1 X5.44 Y-2.28 Z3.02 F1800.0
G1 X4.88 Y-3.3 Z3.02 F1800.0
G1 X4.13 Y-4.19 Z3.02 F1800.0
G1 X3.76 Y-4.53 Z3.02 F1800.0
G1 X2.8 Y-5.18 Z3.02 F1800.0
G1 X1.73 Y-5.64 Z3.02 F1800.0
G1 X0.59 Y-5.87 Z3.02 F1800.0
G1 X-0.59 Y-5.87 Z3.02 F1800.0
G1 X-1.73 Y-5.64 Z3.02 F1800.0
G1 X-2.8 Y-5.18 Z3.02 F1800.0
G1 X-3.76 Y-4.53 Z3.02 F1800.0
G1 X-4.13 Y-4.19 Z3.02 F1800.0
G1 X-4.88 Y-3.3 Z3.02 F1800.0
G1 X-5.44 Y-2.28 Z3.02 F1800.0
G1 X-5.78 Y-1.16 Z3.02 F1800.0
G1 X-5.91 Y-0.0 Z3.02 F1800.0
G1 X-5.78 Y1.16 Z3.02 F1800.0
G1 X-5.44 Y2.28 Z3.02 F1800.0
G1 X-4.88 Y3.3 Z3.02 F1800.0
G1 X-4.13 Y4.19 Z3.02 F1800.0
G1 X-3.76 Y4.53 Z3.02 F1800.0
G1 X-2.8 Y5.18 Z3.02 F1800.0
G1 X-1.73 Y5.64 Z3.02 F1800.0
G1 X-0.59 Y5.87 Z3.02 F1800.0
G1 X0.59 Y5.87 Z3.02 F1800.0
G1 X1.73 Y5.64 Z3.02 F1800.0
G1 X1.83 Y5.59 Z3.02 F1800.0
M108 R30.0
M102
G1 X2.2 Y5.44 Z3.02 F1800.0
G1 X2.24 Y5.42 Z3.02 F1800.0
M108 R3.569
M103
(</loop>)
(<loop> outer )
G1 X2.21 Y10.72 Z3.02 F3000.0
M108 R30.0
M101
G1 X2.2 Y11.52 Z3.02 F3000.0
M108 R3.569
G1 X0.85 Y11.52 Z3.02 F1800.0
G1 X0.0 Y11.6 Z3.02 F1800.0
G1 X-0.85 Y11.52 Z3.02 F1800.0
G1 X-11.79 Y11.52 Z3.02 F1800.0
G1 X-11.79 Y-11.52 Z3.02 F1800.0
G1 X-0.85 Y-11.52 Z3.02 F1800.0
G1 X0.0 Y-11.6 Z3.02 F1800.0
G1 X0.85 Y-11.52 Z3.02 F1800.0
G1 X11.79 Y-11.52 Z3.02 F1800.0
G1 X11.79 Y11.52 Z3.02 F1800.0
G1 X2.2 Y11.52 Z3.02 F1800.0
M103
(</loop>)
(<perimeter> outer )
G1 X2.2 Y11.91 Z3.02 F3000.0
M101
G1 X0.87 Y11.91 Z3.02 F1800.0
G1 X0.0 Y12.0 Z3.02 F1800.0
G1 X-0.87 Y11.91 Z3.02 F1800.0
G1 X-12.18 Y11.91 Z3.02 F1800.0
G1 X-12.18 Y-11.91 Z3.02 F1800.0
G1 X-0.87 Y-11.91 Z3.02 F1800.0
G1 X-0.0 Y-12.0 Z3.02 F1800.0
G1 X0.87 Y-11.91 Z3.02 F1800.0
G1 X12.18 Y-11.91 Z3.02 F1800.0
G1 X12.18 Y11.91 Z3.02 F1800.0
G1 X2.65 Y11.91 Z3.02 F1800.0
M108 R30.0
M102
G1 X2.2 Y11.91 Z3.02 F1800.0
M108 R3.569
M103
(</perimeter>)
(</boundaryPerimeter>)
(<surroundingLoop>)
(<boundaryPerimeter>)
(<boundaryPoint> X3.39 Y-4.068 Z3.02 </boundaryPoint>)
(<boundaryPoint> X2.52 Y-4.661 Z3.02 </boundaryPoint>)
(<boundaryPoint> X1.553 Y-5.071 Z3.02 </boundaryPoint>)
(<boundaryPoint> X0.525 Y-5.283 Z3.02 </boundaryPoint>)
(<boundaryPoint> X-0.525 Y-5.283 Z3.02 </boundaryPoint>)
(<boundaryPoint> X-1.553 Y-5.071 Z3.02 </boundaryPoint>)
(<boundaryPoint> X-2.52 Y-4.661 Z3.02 </boundaryPoint>)
(<boundaryPoint> X-3.39 Y-4.068 Z3.02 </boundaryPoint>)
(<boundaryPoint> X-3.708 Y-3.778 Z3.02 </boundaryPoint>)
(<boundaryPoint> X-4.386 Y-2.969 Z3.02 </boundaryPoint>)
(<boundaryPoint> X-4.89 Y-2.046 Z3.02 </boundaryPoint>)
(<boundaryPoint> X-5.203 Y-1.044 Z3.02 </boundaryPoint>)
(<boundaryPoint> X-5.313 Y0.0 Z3.02 </boundaryPoint>)
(<boundaryPoint> X-5.203 Y1.044 Z3.02 </boundaryPoint>)
(<boundaryPoint> X-4.89 Y2.046 Z3.02 </boundaryPoint>)
(<boundaryPoint> X-4.386 Y2.969 Z3.02 </boundaryPoint>)
(<boundaryPoint> X-3.708 Y3.778 Z3.02 </boundaryPoint>)
(<boundaryPoint> X-3.39 Y4.068 Z3.02 </boundaryPoint>)
(<boundaryPoint> X-2.52 Y4.661 Z3.02 </boundaryPoint>)
(<boundaryPoint> X-1.553 Y5.071 Z3.02 </boundaryPoint>)
(<boundaryPoint> X-0.525 Y5.283 Z3.02 </boundaryPoint>)
(<boundaryPoint> X0.525 Y5.283 Z3.02 </boundaryPoint>)
(<boundaryPoint> X1.553 Y5.071 Z3.02 </boundaryPoint>)
(<boundaryPoint> X2.52 Y4.661 Z3.02 </boundaryPoint>)
