(** This GCode was generated by ReplicatorG 0034 **)
(*  using Skeinforge (35)  *)
(*  for a Single headed Thing-O-Matic  *)
(*  on 2012/04/22 23:00:45 (-0400) *)
(<alteration>)
(**** beginning of start.gcode ****)
(This file is for a MakerBot Thing-O-Matic)
(**** begin initialization commands ****)
G21 (set units to mm)
G90 (set positioning to absolute)
M108 R5.0 (set extruder speed)
M103 (Make sure extruder is off)
M104 S225 T0 (set extruder temperature)
M109 S120 T0 (set heated-build-platform temperature)
(**** end initialization commands ****)
(**** begin homing ****)
G162 Z F1000 (home Z axis maximum)
G92 Z10 (set Z to 0)
G1 Z0.0 (move z down 10)
G162 Z F150 (home Z axis maximum)
G161 X Y F2500 (home XY axes minimum)
M132 X Y Z A B (Recall stored home offsets for XYZAB axis)
(**** end homing ****)
(**** begin pre-wipe commands ****)
( Some people have had problems with the nozzle hitting )
( bolts or wipers during this pre-extrusion warmup.     )
( If this happens to you, you can change the values for )
( the X and Y positions in the following code.          )
( The goal is to have the toolhead wipe its initial     )
( extrusion near the edge of the platform, [anchor it]  )
( so as not to have it interfere with the print.        )
( This file can be found in:                            )
( replicatorg/skein_engines/skeinforge-##/skeinforge_application/ )
( prefs/<profile name [e.g. Thingomatic-ABP-Mk7]>/alterations )
G1 X25.0 Y-60.0 Z10.0 F3300.0 (move to waiting position)
M6 T0 (wait for toolhead parts, nozzle, HBP, etc., to reach temperature)
G0 X25 Y-57 (Position Nozzle)
G0 Z0.6     (Position Height)
M108 R4.0   (Set Extruder Speed)
M101        (Start Extruder)
G4 P1500    (Create Anchor)
(**** end pre-wipe commands ****)
(**** end of start.gcode ****)
(</alteration>)
(<creation> skeinforge </creation>)
(<version> 10.11.05 </version>)
(<extruderInitialization>)
(<craftTypeName> extrusion </craftTypeName>)
M105
(<bridgeWidthMultiplier> 1.0 </bridgeWidthMultiplier>)
(<decimalPlacesCarried> 3 </decimalPlacesCarried>)
(<layerThickness> 0.32 </layerThickness>)
(<threadSequenceString> loops perimeter infill </threadSequenceString>)
(<operatingFeedRatePerSecond> 30.0 </operatingFeedRatePerSecond>)
(<operatingFlowRate> 3.56914845556 </operatingFlowRate>)
(<orbitalFeedRatePerSecond> 15.0 </orbitalFeedRatePerSecond>)
(<travelFeedRatePerSecond> 50.0 </travelFeedRatePerSecond>)
(<perimeterWidth> 0.393 </perimeterWidth>)
(<profileName> ABS </profileName>)
(<procedureDone> carve,bottom </procedureDone>)
(<procedureDone> preface </procedureDone>)
(<procedureDone> inset </procedureDone>)
(<procedureDone> fill </procedureDone>)
(<procedureDone> speed </procedureDone>)
(<procedureDone> raft </procedureDone>)
(<procedureDone> jitter </procedureDone>)
(<procedureDone> comb </procedureDone>)
(<procedureDone> cool </procedureDone>)
(<procedureDone> outline </procedureDone>)
(<procedureDone> reversal </procedureDone>)
(<procedureDone> export </procedureDone>)
(</extruderInitialization>)
(<extrusion>)
;M113 S1.0
M108 R3.569
(<layer> 0.46 )
(<surroundingLoop>)
(<boundaryPerimeter>)
(<boundaryPoint> X31.135 Y11.617 Z0.46 </boundaryPoint>)
(<boundaryPoint> X-31.135 Y11.617 Z0.46 </boundaryPoint>)
(<boundaryPoint> X-31.135 Y-11.617 Z0.46 </boundaryPoint>)
(<boundaryPoint> X31.135 Y-11.617 Z0.46 </boundaryPoint>)
(<loop> inner )
M108 R2.141
G1 X32.94 Y-13.42 Z0.46 F1080.0
M101
G1 X-32.94 Y-13.42 Z0.46 F1080.0
G1 X-32.94 Y13.42 Z0.46 F1080.0
G1 X32.94 Y13.42 Z0.46 F1080.0
G1 X32.94 Y-13.15 Z0.46 F1080.0
M108 R30.0
M102
G1 X32.94 Y-13.42 Z0.46 F1080.0
M108 R2.141
M103
G1 X-11.91 Y-0.31 Z0.46 F3000.0
M108 R30.0
M101
G1 X-12.67 Y-0.09 Z0.46 F3000.0
M108 R2.141
G1 X-13.19 Y-2.18 Z0.46 F1080.0
G1 X-14.68 Y-3.86 Z0.46 F1080.0
G1 X-16.77 Y-4.65 Z0.46 F1080.0
G1 X-19.0 Y-4.38 Z0.46 F1080.0
G1 X-20.85 Y-3.11 Z0.46 F1080.0
G1 X-21.89 Y-1.12 Z0.46 F1080.0
G1 X-21.89 Y1.12 Z0.46 F1080.0
G1 X-20.85 Y3.11 Z0.46 F1080.0
G1 X-19.0 Y4.38 Z0.46 F1080.0
G1 X-16.77 Y4.65 Z0.46 F1080.0
G1 X-14.68 Y3.86 Z0.46 F1080.0
G1 X-13.19 Y2.18 Z0.46 F1080.0
G1 X-12.69 Y0.17 Z0.46 F1080.0
M108 R30.0
M102
G1 X-12.65 Y0.0 Z0.46 F1080.0
G1 X-12.67 Y-0.09 Z0.46 F1080.0
M108 R2.141
M103
(</loop>)
(<loop> outer )
G1 X-12.67 Y-10.23 Z0.46 F3000.0
M108 R30.0
M101
G1 X-12.67 Y-11.03 Z0.46 F3000.0
M108 R2.141
G1 X30.55 Y-11.03 Z0.46 F1080.0
G1 X30.55 Y11.03 Z0.46 F1080.0
G1 X-12.65 Y11.03 Z0.46 F1080.0
G1 X-30.55 Y11.03 Z0.46 F1080.0
G1 X-30.55 Y-11.03 Z0.46 F1080.0
G1 X-12.67 Y-11.03 Z0.46 F1080.0
M103
(</loop>)
(<perimeter> outer )
G1 X-12.67 Y-11.42 Z0.46 F3000.0
M101
G1 X30.94 Y-11.42 Z0.46 F1080.0
G1 X30.94 Y11.42 Z0.46 F1080.0
G1 X-12.65 Y11.42 Z0.46 F1080.0
G1 X-30.94 Y11.42 Z0.46 F1080.0
G1 X-30.94 Y-11.42 Z0.46 F1080.0
G1 X-12.94 Y-11.42 Z0.46 F1080.0
M108 R30.0
M102
G1 X-12.67 Y-11.42 Z0.46 F1080.0
M108 R2.141
M103
(</perimeter>)
(</boundaryPerimeter>)
(<surroundingLoop>)
(<boundaryPerimeter>)
(<boundaryPoint> X-18.785 Y3.815 Z0.46 </boundaryPoint>)
(<boundaryPoint> X-16.846 Y4.05 Z0.46 </boundaryPoint>)
(<boundaryPoint> X-15.02 Y3.358 Z0.46 </boundaryPoint>)
(<boundaryPoint> X-13.726 Y1.896 Z0.46 </boundaryPoint>)
(<boundaryPoint> X-13.258 Y0.0 Z0.46 </boundaryPoint>)
(<boundaryPoint> X-13.726 Y-1.896 Z0.46 </boundaryPoint>)
(<boundaryPoint> X-15.02 Y-3.358 Z0.46 </boundaryPoint>)
(<boundaryPoint> X-16.846 Y-4.05 Z0.46 </boundaryPoint>)
(<boundaryPoint> X-18.785 Y-3.815 Z0.46 </boundaryPoint>)
(<boundaryPoint> X-20.392 Y-2.706 Z0.46 </boundaryPoint>)
(<boundaryPoint> X-21.3 Y-0.976 Z0.46 </boundaryPoint>)
(<boundaryPoint> X-21.3 Y0.976 Z0.46 </boundaryPoint>)
(<boundaryPoint> X-20.392 Y2.706 Z0.46 </boundaryPoint>)
(<perimeter> inner )
G1 X-15.29 Y-4.52 Z0.46 F3000.0
M108 R30.0
M101
G1 X-15.57 Y-3.78 Z0.46 F3000.0
M108 R2.141
G1 X-16.82 Y-4.25 Z0.46 F1080.0
G1 X-18.86 Y-4.0 Z0.46 F1080.0
G1 X-20.54 Y-2.84 Z0.46 F1080.0
G1 X-21.5 Y-1.02 Z0.46 F1080.0
G1 X-21.5 Y1.02 Z0.46 F1080.0
G1 X-20.54 Y2.84 Z0.46 F1080.0
G1 X-18.86 Y4.0 Z0.46 F1080.0
G1 X-16.82 Y4.25 Z0.46 F1080.0
G1 X-15.55 Y3.77 Z0.46 F1080.0
G1 X-14.91 Y3.53 Z0.46 F1080.0
G1 X-13.55 Y1.99 Z0.46 F1080.0
G1 X-13.06 Y-0.0 Z0.46 F1080.0
G1 X-13.55 Y-1.99 Z0.46 F1080.0
G1 X-14.91 Y-3.53 Z0.46 F1080.0
G1 X-15.32 Y-3.68 Z0.46 F1080.0
M108 R30.0
M102
G1 X-15.57 Y-3.78 Z0.46 F1080.0
M108 R2.141
M103
(</perimeter>)
(</boundaryPerimeter>)
(</surroundingLoop>)
G1 X-14.87 Y-3.58 Z0.46 F3000.0
G1 X-13.49 Y-2.02 Z0.46 F3000.0
G1 X-12.99 Y0.0 Z0.46 F3000.0
G1 X-13.49 Y2.02 Z0.46 F3000.0
G1 X-15.02 Y3.99 Z0.46 F1800.0
M108 R30.0
M101
G1 X-15.32 Y4.37 Z0.46 F1800.0
M108 R2.141
G1 X-15.32 Y10.77 Z0.46 F1080.0
G1 X-14.92 Y10.77 Z0.46 F1080.0
G1 X-14.92 Y4.22 Z0.46 F1080.0
G1 X-14.53 Y4.08 Z0.46 F1080.0
G1 X-14.53 Y10.77 Z0.46 F1080.0
G1 X-14.14 Y10.77 Z0.46 F1080.0
G1 X-14.14 Y3.64 Z0.46 F1080.0
G1 X-13.74 Y3.19 Z0.46 F1080.0
G1 X-13.74 Y10.77 Z0.46 F1080.0
G1 X-13.35 Y10.77 Z0.46 F1080.0
G1 X-13.35 Y2.75 Z0.46 F1080.0
G1 X-12.96 Y2.3 Z0.46 F1080.0
G1 X-12.96 Y10.5 Z0.46 F1080.0
M108 R30.0
M102
G1 X-12.96 Y10.77 Z0.46 F1080.0
M108 R2.141
M103
G1 X-15.88 Y5.1 Z0.46 F1800.0
M108 R30.0
M101
G1 X-16.1 Y4.67 Z0.46 F1800.0
M108 R2.141
G1 X-16.1 Y10.77 Z0.46 F1080.0
G1 X-15.71 Y10.77 Z0.46 F1080.0
G1 X-15.71 Y4.79 Z0.46 F1080.0
M108 R30.0
M102
G1 X-15.71 Y4.52 Z0.46 F1080.0
M108 R2.141
M103
G1 X-16.43 Y4.75 Z0.46 F1800.0
M108 R30.0
M101
G1 X-16.89 Y4.9 Z0.46 F1800.0
M108 R2.141
G1 X-16.89 Y10.77 Z0.46 F1080.0
G1 X-16.49 Y10.77 Z0.46 F1080.0
G1 X-16.49 Y5.09 Z0.46 F1080.0
M108 R30.0
M102
G1 X-16.49 Y4.82 Z0.46 F1080.0
M108 R2.141
M103
G1 X-17.19 Y4.81 Z0.46 F1800.0
M108 R30.0
M101
G1 X-17.67 Y4.8 Z0.46 F1800.0
M108 R2.141
G1 X-17.67 Y10.77 Z0.46 F1080.0
G1 X-17.28 Y10.77 Z0.46 F1080.0
G1 X-17.28 Y5.12 Z0.46 F1080.0
M108 R30.0
M102
G1 X-17.28 Y4.85 Z0.46 F1080.0
M108 R2.141
M103
G1 X-17.98 Y4.76 Z0.46 F1800.0
M108 R30.0
M101
G1 X-18.46 Y4.71 Z0.46 F1800.0
M108 R2.141
G1 X-18.46 Y10.77 Z0.46 F1080.0
G1 X-18.06 Y10.77 Z0.46 F1080.0
G1 X-18.06 Y5.02 Z0.46 F1080.0
M108 R30.0
M102
G1 X-18.06 Y4.75 Z0.46 F1080.0
M108 R2.141
M103
G1 X-20.38 Y3.65 Z0.46 F1800.0
M108 R30.0
M101
G1 X-20.81 Y3.44 Z0.46 F1800.0
M108 R2.141
G1 X-20.81 Y10.77 Z0.46 F1080.0
G1 X-20.42 Y10.77 Z0.46 F1080.0
G1 X-20.42 Y3.71 Z0.46 F1080.0
G1 X-20.03 Y3.98 Z0.46 F1080.0
G1 X-20.03 Y10.77 Z0.46 F1080.0
G1 X-19.64 Y10.77 Z0.46 F1080.0
G1 X-19.64 Y4.26 Z0.46 F1080.0
G1 X-19.24 Y4.53 Z0.46 F1080.0
G1 X-19.24 Y10.77 Z0.46 F1080.0
G1 X-18.85 Y10.77 Z0.46 F1080.0
G1 X-18.85 Y4.93 Z0.46 F1080.0
M108 R30.0
M102
G1 X-18.85 Y4.66 Z0.46 F1080.0
M108 R2.141
M103
G1 X-21.24 Y2.54 Z0.46 F1800.0
M108 R30.0
M101
G1 X-21.6 Y2.23 Z0.46 F1800.0
M108 R2.141
G1 X-21.6 Y10.77 Z0.46 F1080.0
G1 X-21.21 Y10.77 Z0.46 F1080.0
G1 X-21.21 Y3.24 Z0.46 F1080.0
M108 R30.0
M102
G1 X-21.21 Y2.97 Z0.46 F1080.0
M108 R2.141
M103
G1 X-21.91 Y-1.0 Z0.46 F1800.0
M108 R30.0
M101
G1 X-21.99 Y-1.48 Z0.46 F1800.0
M108 R2.141
G1 X-21.99 Y-10.77 Z0.46 F1080.0
G1 X-22.38 Y-10.77 Z0.46 F1080.0
G1 X-22.38 Y10.77 Z0.46 F1080.0
G1 X-21.99 Y10.77 Z0.46 F1080.0
G1 X-21.99 Y1.75 Z0.46 F1080.0
M108 R30.0
M102
G1 X-21.99 Y1.48 Z0.46 F1080.0
M108 R2.141
M103
G1 X-21.29 Y-2.5 Z0.46 F1800.0
M108 R30.0
M101
G1 X-21.21 Y-2.97 Z0.46 F1800.0
M108 R2.141
G1 X-21.21 Y-10.77 Z0.46 F1080.0
G1 X-21.6 Y-10.77 Z0.46 F1080.0
G1 X-21.6 Y-2.5 Z0.46 F1080.0
M108 R30.0
M102
G1 X-21.6 Y-2.23 Z0.46 F1080.0
M108 R2.141
M103
G1 X-19.21 Y-4.34 Z0.46 F1800.0
M108 R30.0
M101
G1 X-18.85 Y-4.66 Z0.46 F1800.0
M108 R2.141
G1 X-18.85 Y-10.77 Z0.46 F1080.0
G1 X-19.24 Y-10.77 Z0.46 F1080.0
G1 X-19.24 Y-4.53 Z0.46 F1080.0
G1 X-19.64 Y-4.26 Z0.46 F1080.0
G1 X-19.64 Y-10.77 Z0.46 F1080.0
G1 X-20.03 Y-10.77 Z0.46 F1080.0
G1 X-20.03 Y-3.98 Z0.46 F1080.0
G1 X-20.42 Y-3.71 Z0.46 F1080.0
G1 X-20.42 Y-10.77 Z0.46 F1080.0
G1 X-20.81 Y-10.77 Z0.46 F1080.0
G1 X-20.81 Y-3.71 Z0.46 F1080.0
M108 R30.0
M102
G1 X-20.81 Y-3.44 Z0.46 F1080.0
M108 R2.141
M103
G1 X-18.5 Y-4.55 Z0.46 F1800.0
M108 R30.0
M101
G1 X-18.06 Y-4.75 Z0.46 F1800.0
M108 R2.141
G1 X-18.06 Y-10.77 Z0.46 F1080.0
G1 X-18.46 Y-10.77 Z0.46 F1080.0
G1 X-18.46 Y-4.98 Z0.46 F1080.0
M108 R30.0
M102
G1 X-18.46 Y-4.71 Z0.46 F1080.0
M108 R2.141
M103
G1 X-17.76 Y-4.79 Z0.46 F1800.0
M108 R30.0
M101
G1 X-17.28 Y-4.85 Z0.46 F1800.0
M108 R2.141
G1 X-17.28 Y-10.77 Z0.46 F1080.0
G1 X-17.67 Y-10.77 Z0.46 F1080.0
G1 X-17.67 Y-5.07 Z0.46 F1080.0
M108 R30.0
M102
G1 X-17.67 Y-4.8 Z0.46 F1080.0
M108 R2.141
M103
G1 X-16.97 Y-4.81 Z0.46 F1800.0
M108 R30.0
M101
G1 X-16.49 Y-4.82 Z0.46 F1800.0
M108 R2.141
G1 X-16.49 Y-10.77 Z0.46 F1080.0
G1 X-16.89 Y-10.77 Z0.46 F1080.0
G1 X-16.89 Y-5.17 Z0.46 F1080.0
M108 R30.0
M102
G1 X-16.89 Y-4.9 Z0.46 F1080.0
M108 R2.141
M103
G1 X-16.17 Y-4.67 Z0.46 F1800.0
M108 R30.0
M101
G1 X-15.71 Y-4.52 Z0.46 F1800.0
M108 R2.141
G1 X-15.71 Y-10.77 Z0.46 F1080.0
G1 X-16.1 Y-10.77 Z0.46 F1080.0
G1 X-16.1 Y-4.94 Z0.46 F1080.0
M108 R30.0
M102
G1 X-16.1 Y-4.67 Z0.46 F1080.0
M108 R2.141
M103
G1 X-12.89 Y-1.08 Z0.46 F1800.0
M108 R30.0
M101
G1 X-12.57 Y-0.72 Z0.46 F1800.0
M108 R2.141
G1 X-12.57 Y-10.77 Z0.46 F1080.0
G1 X-12.96 Y-10.77 Z0.46 F1080.0
G1 X-12.96 Y-2.3 Z0.46 F1080.0
G1 X-13.35 Y-2.75 Z0.46 F1080.0
G1 X-13.35 Y-10.77 Z0.46 F1080.0
G1 X-13.74 Y-10.77 Z0.46 F1080.0
G1 X-13.74 Y-3.19 Z0.46 F1080.0
G1 X-14.14 Y-3.64 Z0.46 F1080.0
G1 X-14.14 Y-10.77 Z0.46 F1080.0
G1 X-14.53 Y-10.77 Z0.46 F1080.0
G1 X-14.53 Y-4.08 Z0.46 F1080.0
G1 X-14.92 Y-4.22 Z0.46 F1080.0
G1 X-14.92 Y-10.77 Z0.46 F1080.0
G1 X-15.32 Y-10.77 Z0.46 F1080.0
G1 X-15.32 Y-4.64 Z0.46 F1080.0
M108 R30.0
M102
G1 X-15.32 Y-4.37 Z0.46 F1080.0
M108 R2.141
M103
G1 X29.76 Y-10.71 Z0.46 F1800.0
M108 R30.0
M101
G1 X30.24 Y-10.77 Z0.46 F1800.0
M108 R2.141
G1 X30.24 Y10.77 Z0.46 F1080.0
G1 X29.85 Y10.77 Z0.46 F1080.0
G1 X29.85 Y-10.77 Z0.46 F1080.0
G1 X29.45 Y-10.77 Z0.46 F1080.0
G1 X29.45 Y10.77 Z0.46 F1080.0
G1 X29.06 Y10.77 Z0.46 F1080.0
G1 X29.06 Y-10.77 Z0.46 F1080.0
G1 X28.67 Y-10.77 Z0.46 F1080.0
G1 X28.67 Y10.77 Z0.46 F1080.0
G1 X28.27 Y10.77 Z0.46 F1080.0
G1 X28.27 Y-10.77 Z0.46 F1080.0
G1 X27.88 Y-10.77 Z0.46 F1080.0
G1 X27.88 Y10.77 Z0.46 F1080.0
G1 X27.49 Y10.77 Z0.46 F1080.0
G1 X27.49 Y-10.77 Z0.46 F1080.0
G1 X27.1 Y-10.77 Z0.46 F1080.0
G1 X27.1 Y10.77 Z0.46 F1080.0
G1 X26.7 Y10.77 Z0.46 F1080.0
G1 X26.7 Y-10.77 Z0.46 F1080.0
G1 X26.31 Y-10.77 Z0.46 F1080.0
G1 X26.31 Y10.77 Z0.46 F1080.0
G1 X25.92 Y10.77 Z0.46 F1080.0
G1 X25.92 Y-10.77 Z0.46 F1080.0
G1 X25.53 Y-10.77 Z0.46 F1080.0
G1 X25.53 Y10.77 Z0.46 F1080.0
G1 X25.13 Y10.77 Z0.46 F1080.0
G1 X25.13 Y-10.77 Z0.46 F1080.0
G1 X24.74 Y-10.77 Z0.46 F1080.0
G1 X24.74 Y10.77 Z0.46 F1080.0
G1 X24.35 Y10.77 Z0.46 F1080.0
G1 X24.35 Y-10.77 Z0.46 F1080.0
G1 X23.96 Y-10.77 Z0.46 F1080.0
G1 X23.96 Y10.77 Z0.46 F1080.0
G1 X23.56 Y10.77 Z0.46 F1080.0
G1 X23.56 Y-10.77 Z0.46 F1080.0
G1 X23.17 Y-10.77 Z0.46 F1080.0
G1 X23.17 Y10.77 Z0.46 F1080.0
G1 X22.78 Y10.77 Z0.46 F1080.0
G1 X22.78 Y-10.77 Z0.46 F1080.0
G1 X22.38 Y-10.77 Z0.46 F1080.0
G1 X22.38 Y10.77 Z0.46 F1080.0
G1 X21.99 Y10.77 Z0.46 F1080.0
G1 X21.99 Y-10.77 Z0.46 F1080.0
G1 X21.6 Y-10.77 Z0.46 F1080.0
G1 X21.6 Y10.77 Z0.46 F1080.0
G1 X21.21 Y10.77 Z0.46 F1080.0
G1 X21.21 Y-10.77 Z0.46 F1080.0
G1 X20.81 Y-10.77 Z0.46 F1080.0
G1 X20.81 Y10.77 Z0.46 F1080.0
G1 X20.42 Y10.77 Z0.46 F1080.0
G1 X20.42 Y-10.77 Z0.46 F1080.0
G1 X20.03 Y-10.77 Z0.46 F1080.0
G1 X20.03 Y10.77 Z0.46 F1080.0
G1 X19.64 Y10.77 Z0.46 F1080.0
G1 X19.64 Y-10.77 Z0.46 F1080.0
G1 X19.24 Y-10.77 Z0.46 F1080.0
G1 X19.24 Y10.77 Z0.46 F1080.0
G1 X18.85 Y10.77 Z0.46 F1080.0
G1 X18.85 Y-10.77 Z0.46 F1080.0
G1 X18.46 Y-10.77 Z0.46 F1080.0
G1 X18.46 Y10.77 Z0.46 F1080.0
G1 X18.06 Y10.77 Z0.46 F1080.0
G1 X18.06 Y-10.77 Z0.46 F1080.0
G1 X17.67 Y-10.77 Z0.46 F1080.0
G1 X17.67 Y10.77 Z0.46 F1080.0
G1 X17.28 Y10.77 Z0.46 F1080.0
G1 X17.28 Y-10.77 Z0.46 F1080.0
G1 X16.89 Y-10.77 Z0.46 F1080.0
G1 X16.89 Y10.77 Z0.46 F1080.0
G1 X16.49 Y10.77 Z0.46 F1080.0
G1 X16.49 Y-10.77 Z0.46 F1080.0
G1 X16.1 Y-10.77 Z0.46 F1080.0
G1 X16.1 Y10.77 Z0.46 F1080.0
G1 X15.71 Y10.77 Z0.46 F1080.0
G1 X15.71 Y-10.77 Z0.46 F1080.0
G1 X15.32 Y-10.77 Z0.46 F1080.0
G1 X15.32 Y10.77 Z0.46 F1080.0
G1 X14.92 Y10.77 Z0.46 F1080.0
G1 X14.92 Y-10.77 Z0.46 F1080.0
G1 X14.53 Y-10.77 Z0.46 F1080.0
G1 X14.53 Y10.77 Z0.46 F1080.0
G1 X14.14 Y10.77 Z0.46 F1080.0
G1 X14.14 Y-10.77 Z0.46 F1080.0
G1 X13.74 Y-10.77 Z0.46 F1080.0
G1 X13.74 Y10.77 Z0.46 F1080.0
G1 X13.35 Y10.77 Z0.46 F1080.0
G1 X13.35 Y-10.77 Z0.46 F1080.0
G1 X12.96 Y-10.77 Z0.46 F1080.0
G1 X12.96 Y10.77 Z0.46 F1080.0
G1 X12.57 Y10.77 Z0.46 F1080.0
G1 X12.57 Y-10.77 Z0.46 F1080.0
G1 X12.17 Y-10.77 Z0.46 F1080.0
G1 X12.17 Y10.77 Z0.46 F1080.0
G1 X11.78 Y10.77 Z0.46 F1080.0
G1 X11.78 Y-10.77 Z0.46 F1080.0
G1 X11.39 Y-10.77 Z0.46 F1080.0
G1 X11.39 Y10.77 Z0.46 F1080.0
G1 X11.0 Y10.77 Z0.46 F1080.0
G1 X11.0 Y-10.77 Z0.46 F1080.0
G1 X10.6 Y-10.77 Z0.46 F1080.0
G1 X10.6 Y10.77 Z0.46 F1080.0
G1 X10.21 Y10.77 Z0.46 F1080.0
G1 X10.21 Y-10.77 Z0.46 F1080.0
G1 X9.82 Y-10.77 Z0.46 F1080.0
G1 X9.82 Y10.77 Z0.46 F1080.0
G1 X9.43 Y10.77 Z0.46 F1080.0
G1 X9.43 Y-10.77 Z0.46 F1080.0
G1 X9.03 Y-10.77 Z0.46 F1080.0
G1 X9.03 Y10.77 Z0.46 F1080.0
G1 X8.64 Y10.77 Z0.46 F1080.0
G1 X8.64 Y-10.77 Z0.46 F1080.0
G1 X8.25 Y-10.77 Z0.46 F1080.0
G1 X8.25 Y10.77 Z0.46 F1080.0
G1 X7.85 Y10.77 Z0.46 F1080.0
G1 X7.85 Y-10.77 Z0.46 F1080.0
G1 X7.46 Y-10.77 Z0.46 F1080.0
G1 X7.46 Y10.77 Z0.46 F1080.0
G1 X7.07 Y10.77 Z0.46 F1080.0
G1 X7.07 Y-10.77 Z0.46 F1080.0
G1 X6.68 Y-10.77 Z0.46 F1080.0
G1 X6.68 Y10.77 Z0.46 F1080.0
G1 X6.28 Y10.77 Z0.46 F1080.0
G1 X6.28 Y-10.77 Z0.46 F1080.0
G1 X5.89 Y-10.77 Z0.46 F1080.0
G1 X5.89 Y10.77 Z0.46 F1080.0
G1 X5.5 Y10.77 Z0.46 F1080.0
G1 X5.5 Y-10.77 Z0.46 F1080.0
G1 X5.11 Y-10.77 Z0.46 F1080.0
G1 X5.11 Y10.77 Z0.46 F1080.0
G1 X4.71 Y10.77 Z0.46 F1080.0
G1 X4.71 Y-10.77 Z0.46 F1080.0
G1 X4.32 Y-10.77 Z0.46 F1080.0
G1 X4.32 Y10.77 Z0.46 F1080.0
G1 X3.93 Y10.77 Z0.46 F1080.0
G1 X3.93 Y-10.77 Z0.46 F1080.0
G1 X3.53 Y-10.77 Z0.46 F1080.0
G1 X3.53 Y10.77 Z0.46 F1080.0
G1 X3.14 Y10.77 Z0.46 F1080.0
G1 X3.14 Y-10.77 Z0.46 F1080.0
G1 X2.75 Y-10.77 Z0.46 F1080.0
G1 X2.75 Y10.77 Z0.46 F1080.0
G1 X2.36 Y10.77 Z0.46 F1080.0
G1 X2.36 Y-10.77 Z0.46 F1080.0
G1 X1.96 Y-10.77 Z0.46 F1080.0
G1 X1.96 Y10.77 Z0.46 F1080.0
G1 X1.57 Y10.77 Z0.46 F1080.0
G1 X1.57 Y-10.77 Z0.46 F1080.0
G1 X1.18 Y-10.77 Z0.46 F1080.0
G1 X1.18 Y10.77 Z0.46 F1080.0
G1 X0.79 Y10.77 Z0.46 F1080.0
G1 X0.79 Y-10.77 Z0.46 F1080.0
G1 X0.39 Y-10.77 Z0.46 F1080.0
G1 X0.39 Y10.77 Z0.46 F1080.0
G1 X0.0 Y10.77 Z0.46 F1080.0
G1 X-0.0 Y-10.77 Z0.46 F1080.0
G1 X-0.39 Y-10.77 Z0.46 F1080.0
G1 X-0.39 Y10.77 Z0.46 F1080.0
G1 X-0.79 Y10.77 Z0.46 F1080.0
G1 X-0.79 Y-10.77 Z0.46 F1080.0
G1 X-1.18 Y-10.77 Z0.46 F1080.0
G1 X-1.18 Y10.77 Z0.46 F1080.0
G1 X-1.57 Y10.77 Z0.46 F1080.0
G1 X-1.57 Y-10.77 Z0.46 F1080.0
G1 X-1.96 Y-10.77 Z0.46 F1080.0
G1 X-1.96 Y10.77 Z0.46 F1080.0
G1 X-2.36 Y10.77 Z0.46 F1080.0
G1 X-2.36 Y-10.77 Z0.46 F1080.0
G1 X-2.75 Y-10.77 Z0.46 F1080.0
G1 X-2.75 Y10.77 Z0.46 F1080.0
G1 X-3.14 Y10.77 Z0.46 F1080.0
G1 X-3.14 Y-10.77 Z0.46 F1080.0
G1 X-3.53 Y-10.77 Z0.46 F1080.0
G1 X-3.53 Y10.77 Z0.46 F1080.0
G1 X-3.93 Y10.77 Z0.46 F1080.0
G1 X-3.93 Y-10.77 Z0.46 F1080.0
G1 X-4.32 Y-10.77 Z0.46 F1080.0
G1 X-4.32 Y10.77 Z0.46 F1080.0
G1 X-4.71 Y10.77 Z0.46 F1080.0
G1 X-4.71 Y-10.77 Z0.46 F1080.0
G1 X-5.11 Y-10.77 Z0.46 F1080.0
G1 X-5.11 Y10.77 Z0.46 F1080.0
G1 X-5.5 Y10.77 Z0.46 F1080.0
G1 X-5.5 Y-10.77 Z0.46 F1080.0
G1 X-5.89 Y-10.77 Z0.46 F1080.0
G1 X-5.89 Y10.77 Z0.46 F1080.0
G1 X-6.28 Y10.77 Z0.46 F1080.0
G1 X-6.28 Y-10.77 Z0.46 F1080.0
G1 X-6.68 Y-10.77 Z0.46 F1080.0
G1 X-6.68 Y10.77 Z0.46 F1080.0
G1 X-7.07 Y10.77 Z0.46 F1080.0
G1 X-7.07 Y-10.77 Z0.46 F1080.0
G1 X-7.46 Y-10.77 Z0.46 F1080.0
G1 X-7.46 Y10.77 Z0.46 F1080.0
G1 X-7.85 Y10.77 Z0.46 F1080.0
G1 X-7.85 Y-10.77 Z0.46 F1080.0
G1 X-8.25 Y-10.77 Z0.46 F1080.0
G1 X-8.25 Y10.77 Z0.46 F1080.0
G1 X-8.64 Y10.77 Z0.46 F1080.0
G1 X-8.64 Y-10.77 Z0.46 F1080.0
G1 X-9.03 Y-10.77 Z0.46 F1080.0
G1 X-9.03 Y10.77 Z0.46 F1080.0
G1 X-9.43 Y10.77 Z0.46 F1080.0
G1 X-9.43 Y-10.77 Z0.46 F1080.0
G1 X-9.82 Y-10.77 Z0.46 F1080.0
G1 X-9.82 Y10.77 Z0.46 F1080.0
G1 X-10.21 Y10.77 Z0.46 F1080.0
G1 X-10.21 Y-10.77 Z0.46 F1080.0
G1 X-10.6 Y-10.77 Z0.46 F1080.0
G1 X-10.6 Y10.77 Z0.46 F1080.0
G1 X-11.0 Y10.77 Z0.46 F1080.0
G1 X-11.0 Y-10.77 Z0.46 F1080.0
G1 X-11.39 Y-10.77 Z0.46 F1080.0
G1 X-11.39 Y10.77 Z0.46 F1080.0
G1 X-11.78 Y10.77 Z0.46 F1080.0
G1 X-11.78 Y-10.77 Z0.46 F1080.0
G1 X-12.17 Y-10.77 Z0.46 F1080.0
G1 X-12.17 Y10.77 Z0.46 F1080.0
G1 X-12.57 Y10.77 Z0.46 F1080.0
G1 X-12.57 Y0.99 Z0.46 F1080.0
M108 R30.0
M102
G1 X-12.57 Y0.72 Z0.46 F1080.0
M108 R2.141
M103
G1 X-14.87 Y3.58 Z0.46 F3000.0
G1 X-22.42 Y10.45 Z0.46 F1800.0
M108 R30.0
M101
G1 X-22.78 Y10.77 Z0.46 F1800.0
M108 R2.141
G1 X-22.78 Y-10.77 Z0.46 F1080.0
G1 X-23.17 Y-10.77 Z0.46 F1080.0
G1 X-23.17 Y10.77 Z0.46 F1080.0
G1 X-23.56 Y10.77 Z0.46 F1080.0
G1 X-23.56 Y-10.77 Z0.46 F1080.0
G1 X-23.96 Y-10.77 Z0.46 F1080.0
G1 X-23.96 Y10.77 Z0.46 F1080.0
G1 X-24.35 Y10.77 Z0.46 F1080.0
G1 X-24.35 Y-10.77 Z0.46 F1080.0
G1 X-24.74 Y-10.77 Z0.46 F1080.0
G1 X-24.74 Y10.77 Z0.46 F1080.0
G1 X-25.13 Y10.77 Z0.46 F1080.0
G1 X-25.13 Y-10.77 Z0.46 F1080.0
G1 X-25.53 Y-10.77 Z0.46 F1080.0
G1 X-25.53 Y10.77 Z0.46 F1080.0
G1 X-25.92 Y10.77 Z0.46 F1080.0
G1 X-25.92 Y-10.77 Z0.46 F1080.0
G1 X-26.31 Y-10.77 Z0.46 F1080.0
G1 X-26.31 Y10.77 Z0.46 F1080.0
G1 X-26.7 Y10.77 Z0.46 F1080.0
G1 X-26.7 Y-10.77 Z0.46 F1080.0
G1 X-27.1 Y-10.77 Z0.46 F1080.0
G1 X-27.1 Y10.77 Z0.46 F1080.0
G1 X-27.49 Y10.77 Z0.46 F1080.0
G1 X-27.49 Y-10.77 Z0.46 F1080.0
G1 X-27.88 Y-10.77 Z0.46 F1080.0
G1 X-27.88 Y10.77 Z0.46 F1080.0
G1 X-28.27 Y10.77 Z0.46 F1080.0
G1 X-28.27 Y-10.77 Z0.46 F1080.0
G1 X-28.67 Y-10.77 Z0.46 F1080.0
G1 X-28.67 Y10.77 Z0.46 F1080.0
G1 X-29.06 Y10.77 Z0.46 F1080.0
G1 X-29.06 Y-10.77 Z0.46 F1080.0
G1 X-29.45 Y-10.77 Z0.46 F1080.0
G1 X-29.45 Y10.77 Z0.46 F1080.0
G1 X-29.85 Y10.77 Z0.46 F1080.0
G1 X-29.85 Y-10.77 Z0.46 F1080.0
G1 X-30.24 Y-10.77 Z0.46 F1080.0
G1 X-30.24 Y10.5 Z0.46 F1080.0
M108 R30.0
M102
G1 X-30.24 Y10.77 Z0.46 F1080.0
M108 R2.141
M103
(</surroundingLoop>)
(</layer>)
(<layer> 0.78 )
(<surroundingLoop>)
(<boundaryPerimeter>)
(<boundaryPoint> X31.135 Y11.617 Z0.78 </boundaryPoint>)
(<boundaryPoint> X-31.135 Y11.617 Z0.78 </boundaryPoint>)
(<boundaryPoint> X-31.135 Y-11.617 Z0.78 </boundaryPoint>)
(<boundaryPoint> X31.135 Y-11.617 Z0.78 </boundaryPoint>)
(<loop> inner )
M108 R3.569
G1 X-21.55 Y3.44 Z0.76 F3000.0
M108 R30.0
M101
G1 X-20.94 Y2.93 Z0.78 F3000.0
M108 R3.569
G1 X-20.85 Y3.11 Z0.78 F1800.0
G1 X-19.0 Y4.38 Z0.78 F1800.0
G1 X-16.77 Y4.65 Z0.78 F1800.0
G1 X-14.68 Y3.86 Z0.78 F1800.0
G1 X-13.19 Y2.18 Z0.78 F1800.0
G1 X-12.65 Y0.0 Z0.78 F1800.0
G1 X-13.19 Y-2.18 Z0.78 F1800.0
G1 X-14.68 Y-3.86 Z0.78 F1800.0
G1 X-16.77 Y-4.65 Z0.78 F1800.0
G1 X-19.0 Y-4.38 Z0.78 F1800.0
G1 X-20.85 Y-3.11 Z0.78 F1800.0
G1 X-21.89 Y-1.12 Z0.78 F1800.0
G1 X-21.89 Y1.12 Z0.78 F1800.0
G1 X-21.15 Y2.53 Z0.78 F1800.0
M108 R30.0
M102
G1 X-20.94 Y2.93 Z0.78 F1800.0
M108 R3.569
M103
(</loop>)
(<loop> outer )
G1 X-20.86 Y10.23 Z0.78 F3000.0
M108 R30.0
M101
G1 X-20.85 Y11.03 Z0.78 F3000.0
M108 R3.569
G1 X-30.55 Y11.03 Z0.78 F1800.0
G1 X-30.55 Y-11.03 Z0.78 F1800.0
G1 X30.55 Y-11.03 Z0.78 F1800.0
G1 X30.55 Y11.03 Z0.78 F1800.0
G1 X-20.85 Y11.03 Z0.78 F1800.0
M103
(</loop>)
(<perimeter> outer )
G1 X-20.85 Y11.42 Z0.78 F3000.0
M101
G1 X-30.94 Y11.42 Z0.78 F1800.0
G1 X-30.94 Y-11.42 Z0.78 F1800.0
G1 X30.94 Y-11.42 Z0.78 F1800.0
G1 X30.94 Y11.42 Z0.78 F1800.0
G1 X-20.4 Y11.42 Z0.78 F1800.0
M108 R30.0
M102
G1 X-20.85 Y11.42 Z0.78 F1800.0
M108 R3.569
M103
(</perimeter>)
(</boundaryPerimeter>)
(<surroundingLoop>)
(<boundaryPerimeter>)
(<boundaryPoint> X-18.785 Y3.815 Z0.78 </boundaryPoint>)
(<boundaryPoint> X-16.846 Y4.05 Z0.78 </boundaryPoint>)
(<boundaryPoint> X-15.02 Y3.358 Z0.78 </boundaryPoint>)
(<boundaryPoint> X-13.726 Y1.896 Z0.78 </boundaryPoint>)
(<boundaryPoint> X-13.258 Y0.0 Z0.78 </boundaryPoint>)
(<boundaryPoint> X-13.726 Y-1.896 Z0.78 </boundaryPoint>)
(<boundaryPoint> X-15.02 Y-3.358 Z0.78 </boundaryPoint>)
(<boundaryPoint> X-16.846 Y-4.05 Z0.78 </boundaryPoint>)
(<boundaryPoint> X-18.785 Y-3.815 Z0.78 </boundaryPoint>)
(<boundaryPoint> X-20.392 Y-2.706 Z0.78 </boundaryPoint>)
(<boundaryPoint> X-21.3 Y-0.976 Z0.78 </boundaryPoint>)
(<boundaryPoint> X-21.3 Y0.976 Z0.78 </boundaryPoint>)
(<boundaryPoint> X-20.392 Y2.706 Z0.78 </boundaryPoint>)
(<perimeter> inner )
G1 X-19.06 Y4.78 Z0.78 F3000.0
M108 R30.0
M101
G1 X-18.86 Y4.0 Z0.78 F3000.0
M108 R3.569
G1 X-16.82 Y4.25 Z0.78 F1800.0
G1 X-14.91 Y3.53 Z0.78 F1800.0
G1 X-13.55 Y1.99 Z0.78 F1800.0
G1 X-13.06 Y-0.0 Z0.78 F1800.0
G1 X-13.55 Y-1.99 Z0.78 F1800.0
G1 X-14.91 Y-3.53 Z0.78 F1800.0
G1 X-16.82 Y-4.25 Z0.78 F1800.0
G1 X-18.86 Y-4.0 Z0.78 F1800.0
G1 X-20.54 Y-2.84 Z0.78 F1800.0
G1 X-21.5 Y-1.02 Z0.78 F1800.0
G1 X-21.5 Y1.02 Z0.78 F1800.0
G1 X-20.54 Y2.84 Z0.78 F1800.0
G1 X-18.86 Y4.0 Z0.78 F1800.0
M103
(</perimeter>)
(</boundaryPerimeter>)
(</surroundingLoop>)
G1 X-19.54 Y4.32 Z0.78 F3000.0
M101
G1 X-30.29 Y4.32 Z0.78 F1800.0
G1 X-30.29 Y3.93 Z0.78 F1800.0
G1 X-20.11 Y3.93 Z0.78 F1800.0
G1 X-20.68 Y3.53 Z0.78 F1800.0
G1 X-30.29 Y3.53 Z0.78 F1800.0
G1 X-30.29 Y3.14 Z0.78 F1800.0
G1 X-21.12 Y3.14 Z0.78 F1800.0
G1 X-21.32 Y2.75 Z0.78 F1800.0
G1 X-30.29 Y2.75 Z0.78 F1800.0
G1 X-30.29 Y2.36 Z0.78 F1800.0
G1 X-21.53 Y2.36 Z0.78 F1800.0
M103
G1 X-21.74 Y1.96 Z0.78 F3000.0
M101
G1 X-30.29 Y1.96 Z0.78 F1800.0
G1 X-30.29 Y1.57 Z0.78 F1800.0
G1 X-21.94 Y1.57 Z0.78 F1800.0
G1 X-22.15 Y1.18 Z0.78 F1800.0
G1 X-30.29 Y1.18 Z0.78 F1800.0
G1 X-30.29 Y0.79 Z0.78 F1800.0
G1 X-22.15 Y0.79 Z0.78 F1800.0
G1 X-22.15 Y0.39 Z0.78 F1800.0
G1 X-30.29 Y0.39 Z0.78 F1800.0
G1 X-30.29 Y0.0 Z0.78 F1800.0
G1 X-22.15 Y0.0 Z0.78 F1800.0
G1 X-22.15 Y-0.39 Z0.78 F1800.0
G1 X-30.29 Y-0.39 Z0.78 F1800.0
G1 X-30.29 Y-0.79 Z0.78 F1800.0
G1 X-22.15 Y-0.79 Z0.78 F1800.0
G1 X-22.15 Y-1.18 Z0.78 F1800.0
G1 X-30.29 Y-1.18 Z0.78 F1800.0
G1 X-30.29 Y-1.57 Z0.78 F1800.0
G1 X-21.94 Y-1.57 Z0.78 F1800.0
M103
G1 X-21.74 Y-1.96 Z0.78 F3000.0
M101
G1 X-30.29 Y-1.96 Z0.78 F1800.0
G1 X-30.29 Y-2.36 Z0.78 F1800.0
G1 X-21.53 Y-2.36 Z0.78 F1800.0
G1 X-21.32 Y-2.75 Z0.78 F1800.0
G1 X-30.29 Y-2.75 Z0.78 F1800.0
G1 X-30.29 Y-3.14 Z0.78 F1800.0
G1 X-21.12 Y-3.14 Z0.78 F1800.0
M103
G1 X-20.68 Y-3.53 Z0.78 F3000.0
M101
G1 X-30.29 Y-3.53 Z0.78 F1800.0
G1 X-30.29 Y-3.93 Z0.78 F1800.0
G1 X-20.11 Y-3.93 Z0.78 F1800.0
M103
G1 X-19.54 Y-4.32 Z0.78 F3000.0
M101
G1 X-30.29 Y-4.32 Z0.78 F1800.0
G1 X-30.29 Y-4.71 Z0.78 F1800.0
G1 X-18.85 Y-4.71 Z0.78 F1800.0
M108 R30.0
M102
G1 X-18.4 Y-4.71 Z0.78 F1800.0
M108 R3.569
M103
G1 X-17.01 Y-4.71 Z0.78 F3000.0
M108 R30.0
M101
G1 X-16.21 Y-4.71 Z0.78 F3000.0
M108 R3.569
G1 X30.29 Y-4.71 Z0.78 F1800.0
G1 X30.29 Y-4.32 Z0.78 F1800.0
G1 X-15.17 Y-4.32 Z0.78 F1800.0
M103
G1 X-14.4 Y-3.93 Z0.78 F3000.0
M101
G1 X30.29 Y-3.93 Z0.78 F1800.0
G1 X30.29 Y-3.53 Z0.78 F1800.0
G1 X-14.05 Y-3.53 Z0.78 F1800.0
G1 X-13.7 Y-3.14 Z0.78 F1800.0
G1 X30.29 Y-3.14 Z0.78 F1800.0
G1 X30.29 Y-2.75 Z0.78 F1800.0
G1 X-13.35 Y-2.75 Z0.78 F1800.0
G1 X-13.01 Y-2.36 Z0.78 F1800.0
G1 X30.29 Y-2.36 Z0.78 F1800.0
G1 X30.29 Y-1.96 Z0.78 F1800.0
G1 X-12.87 Y-1.96 Z0.78 F1800.0
G1 X-12.78 Y-1.57 Z0.78 F1800.0
G1 X30.29 Y-1.57 Z0.78 F1800.0
G1 X30.29 Y-1.18 Z0.78 F1800.0
G1 X-12.68 Y-1.18 Z0.78 F1800.0
G1 X-12.58 Y-0.79 Z0.78 F1800.0
G1 X30.29 Y-0.79 Z0.78 F1800.0
G1 X30.29 Y-0.39 Z0.78 F1800.0
G1 X-12.49 Y-0.39 Z0.78 F1800.0
G1 X-12.39 Y0.0 Z0.78 F1800.0
G1 X30.29 Y-0.0 Z0.78 F1800.0
G1 X30.29 Y0.39 Z0.78 F1800.0
G1 X-12.49 Y0.39 Z0.78 F1800.0
G1 X-12.58 Y0.79 Z0.78 F1800.0
G1 X30.29 Y0.79 Z0.78 F1800.0
G1 X30.29 Y1.18 Z0.78 F1800.0
G1 X-12.68 Y1.18 Z0.78 F1800.0
G1 X-12.78 Y1.57 Z0.78 F1800.0
G1 X30.29 Y1.57 Z0.78 F1800.0
G1 X30.29 Y1.96 Z0.78 F1800.0
G1 X-12.87 Y1.96 Z0.78 F1800.0
M103
G1 X-13.01 Y2.36 Z0.78 F3000.0
M101
G1 X30.29 Y2.36 Z0.78 F1800.0
G1 X30.29 Y2.75 Z0.78 F1800.0
G1 X-13.35 Y2.75 Z0.78 F1800.0
G1 X-13.7 Y3.14 Z0.78 F1800.0
G1 X30.29 Y3.14 Z0.78 F1800.0
G1 X30.29 Y3.53 Z0.78 F1800.0
G1 X-14.05 Y3.53 Z0.78 F1800.0
G1 X-14.4 Y3.93 Z0.78 F1800.0
G1 X30.29 Y3.93 Z0.78 F1800.0
G1 X30.29 Y4.32 Z0.78 F1800.0
G1 X-14.72 Y4.32 Z0.78 F1800.0
M108 R30.0
M102
G1 X-15.17 Y4.32 Z0.78 F1800.0
M108 R3.569
M103
G1 X-15.46 Y4.43 Z0.78 F3000.0
M108 R30.0
M101
G1 X-16.21 Y4.71 Z0.78 F3000.0
M108 R3.569
G1 X29.84 Y4.71 Z0.78 F1800.0
M108 R30.0
M102
G1 X30.29 Y4.71 Z0.78 F1800.0
M108 R3.569
M103
G1 X30.29 Y9.8 Z0.78 F3000.0
M108 R30.0
M101
G1 X30.29 Y10.6 Z0.78 F3000.0
M108 R3.569
G1 X-30.29 Y10.6 Z0.78 F1800.0
G1 X-30.29 Y10.21 Z0.78 F1800.0
G1 X30.29 Y10.21 Z0.78 F1800.0
G1 X30.29 Y9.82 Z0.78 F1800.0
G1 X-30.29 Y9.82 Z0.78 F1800.0
G1 X-30.29 Y9.43 Z0.78 F1800.0
G1 X30.29 Y9.43 Z0.78 F1800.0
G1 X30.29 Y9.03 Z0.78 F1800.0
G1 X-30.29 Y9.03 Z0.78 F1800.0
G1 X-30.29 Y8.64 Z0.78 F1800.0
G1 X30.29 Y8.64 Z0.78 F1800.0
G1 X30.29 Y8.25 Z0.78 F1800.0
G1 X-30.29 Y8.25 Z0.78 F1800.0
G1 X-30.29 Y7.85 Z0.78 F1800.0
G1 X30.29 Y7.85 Z0.78 F1800.0
G1 X30.29 Y7.46 Z0.78 F1800.0
G1 X-30.29 Y7.46 Z0.78 F1800.0
G1 X-30.29 Y7.07 Z0.78 F1800.0
G1 X30.29 Y7.07 Z0.78 F1800.0
G1 X30.29 Y6.68 Z0.78 F1800.0
G1 X-30.29 Y6.68 Z0.78 F1800.0
G1 X-30.29 Y6.28 Z0.78 F1800.0
G1 X30.29 Y6.28 Z0.78 F1800.0
G1 X30.29 Y5.89 Z0.78 F1800.0
G1 X-30.29 Y5.89 Z0.78 F1800.0
G1 X-30.29 Y5.5 Z0.78 F1800.0
G1 X30.29 Y5.5 Z0.78 F1800.0
G1 X30.29 Y5.11 Z0.78 F1800.0
G1 X-30.29 Y5.11 Z0.78 F1800.0
G1 X-30.29 Y4.71 Z0.78 F1800.0
G1 X-18.85 Y4.71 Z0.78 F1800.0
M108 R30.0
M102
G1 X-18.4 Y4.71 Z0.78 F1800.0
M108 R3.569
M103
G1 X29.51 Y-4.95 Z0.78 F3000.0
M108 R30.0
M101
G1 X30.29 Y-5.11 Z0.78 F3000.0
M108 R3.569
G1 X-30.29 Y-5.11 Z0.78 F1800.0
G1 X-30.29 Y-5.5 Z0.78 F1800.0
G1 X30.29 Y-5.5 Z0.78 F1800.0
G1 X30.29 Y-5.89 Z0.78 F1800.0
G1 X-30.29 Y-5.89 Z0.78 F1800.0
G1 X-30.29 Y-6.28 Z0.78 F1800.0
G1 X30.29 Y-6.28 Z0.78 F1800.0
G1 X30.29 Y-6.68 Z0.78 F1800.0
G1 X-30.29 Y-6.68 Z0.78 F1800.0
G1 X-30.29 Y-7.07 Z0.78 F1800.0
G1 X30.29 Y-7.07 Z0.78 F1800.0
G1 X30.29 Y-7.46 Z0.78 F1800.0
G1 X-30.29 Y-7.46 Z0.78 F1800.0
G1 X-30.29 Y-7.85 Z0.78 F1800.0
G1 X30.29 Y-7.85 Z0.78 F1800.0
G1 X30.29 Y-8.25 Z0.78 F1800.0
G1 X-30.29 Y-8.25 Z0.78 F1800.0
G1 X-30.29 Y-8.64 Z0.78 F1800.0
G1 X30.29 Y-8.64 Z0.78 F1800.0
G1 X30.29 Y-9.03 Z0.78 F1800.0
G1 X-30.29 Y-9.03 Z0.78 F1800.0
G1 X-30.29 Y-9.43 Z0.78 F1800.0
G1 X30.29 Y-9.43 Z0.78 F1800.0
G1 X30.29 Y-9.82 Z0.78 F1800.0
G1 X-30.29 Y-9.82 Z0.78 F1800.0
G1 X-30.29 Y-10.21 Z0.78 F1800.0
G1 X30.29 Y-10.21 Z0.78 F1800.0
G1 X30.29 Y-10.6 Z0.78 F1800.0
G1 X-29.84 Y-10.6 Z0.78 F1800.0
M108 R30.0
M102
G1 X-30.29 Y-10.6 Z0.78 F1800.0
M108 R3.569
M103
(</surroundingLoop>)
(</layer>)
(<operatingLayerEnd> </operatingLayerEnd>)
(<layer> 1.1 )
(<surroundingLoop>)
(<boundaryPerimeter>)
(<boundaryPoint> X31.135 Y11.617 Z1.1 </boundaryPoint>)
(<boundaryPoint> X-31.135 Y11.617 Z1.1 </boundaryPoint>)
(<boundaryPoint> X-31.135 Y-11.617 Z1.1 </boundaryPoint>)
(<boundaryPoint> X31.135 Y-11.617 Z1.1 </boundaryPoint>)
(<loop> inner )
G1 X-26.95 Y-6.06 Z1.06 F3000.0
M108 R30.0
M101
G1 X-26.48 Y-5.41 Z1.1 F3000.0
M108 R3.569
G1 X-26.48 Y6.82 Z1.1 F1800.0
G1 X-8.32 Y6.82 Z1.1 F1800.0
G1 X-8.32 Y-5.69 Z1.1 F1800.0
G1 X-26.31 Y-5.69 Z1.1 F1800.0
M108 R30.0
M102
G1 X-26.48 Y-5.69 Z1.1 F1800.0
G1 X-26.48 Y-5.41 Z1.1 F1800.0
M108 R3.569
M103
(</loop>)
(<loop> inner )
G1 X12.36 Y-5.41 Z1.1 F3000.0
M108 R30.0
M101
G1 X13.16 Y-5.41 Z1.1 F3000.0
M108 R3.569
G1 X13.16 Y6.82 Z1.1 F1800.0
G1 X23.54 Y6.82 Z1.1 F1800.0
G1 X23.54 Y-5.69 Z1.1 F1800.0
G1 X13.33 Y-5.69 Z1.1 F1800.0
M108 R30.0
M102
G1 X13.16 Y-5.69 Z1.1 F1800.0
G1 X13.16 Y-5.41 Z1.1 F1800.0
M108 R3.569
M103
(</loop>)
(<loop> inner )
G1 X7.03 Y-5.41 Z1.1 F3000.0
M108 R30.0
M101
G1 X6.23 Y-5.41 Z1.1 F3000.0
M108 R3.569
G1 X6.23 Y-5.69 Z1.1 F1800.0
G1 X1.11 Y-5.69 Z1.1 F1800.0
G1 X1.11 Y6.82 Z1.1 F1800.0
G1 X6.23 Y6.82 Z1.1 F1800.0
G1 X6.23 Y-4.96 Z1.1 F1800.0
M108 R30.0
M102
G1 X6.23 Y-5.41 Z1.1 F1800.0
M108 R3.569
M103
(</loop>)
(<loop> outer )
G1 X6.23 Y-10.23 Z1.1 F3000.0
M108 R30.0
M101
G1 X6.23 Y-11.03 Z1.1 F3000.0
M108 R3.569
G1 X30.55 Y-11.03 Z1.1 F1800.0
G1 X30.55 Y11.03 Z1.1 F1800.0
G1 X-30.55 Y11.03 Z1.1 F1800.0
G1 X-30.55 Y-11.03 Z1.1 F1800.0
G1 X6.23 Y-11.03 Z1.1 F1800.0
M103
(</loop>)
(<perimeter> outer )
G1 X6.23 Y-11.42 Z1.1 F3000.0
M101
G1 X30.94 Y-11.42 Z1.1 F1800.0
G1 X30.94 Y11.42 Z1.1 F1800.0
G1 X-30.94 Y11.42 Z1.1 F1800.0
G1 X-30.94 Y-11.42 Z1.1 F1800.0
G1 X5.78 Y-11.42 Z1.1 F1800.0
M108 R30.0
M102
G1 X6.23 Y-11.42 Z1.1 F1800.0
M108 R3.569
M103
(</perimeter>)
(</boundaryPerimeter>)
(<surroundingLoop>)
(<boundaryPerimeter>)
(<boundaryPoint> X5.643 Y6.233 Z1.1 </boundaryPoint>)
(<boundaryPoint> X5.643 Y-5.1 Z1.1 </boundaryPoint>)
(<boundaryPoint> X1.701 Y-5.1 Z1.1 </boundaryPoint>)
(<boundaryPoint> X1.701 Y6.233 Z1.1 </boundaryPoint>)
(<perimeter> inner )
G1 X5.89 Y-6.1 Z1.1 F3000.0
M108 R30.0
M101
G1 X5.84 Y-5.3 Z1.1 F3000.0
M108 R3.569
G1 X1.51 Y-5.3 Z1.1 F1800.0
G1 X1.51 Y6.43 Z1.1 F1800.0
G1 X5.84 Y6.43 Z1.1 F1800.0
G1 X5.84 Y-4.85 Z1.1 F1800.0
M108 R30.0
M102
G1 X5.84 Y-5.3 Z1.1 F1800.0
M108 R3.569
M103
(</perimeter>)
(</boundaryPerimeter>)
(</surroundingLoop>)
(<surroundingLoop>)
(<boundaryPerimeter>)
(<boundaryPoint> X22.946 Y-5.1 Z1.1 </boundaryPoint>)
(<boundaryPoint> X13.748 Y-5.1 Z1.1 </boundaryPoint>)
(<boundaryPoint> X13.748 Y6.233 Z1.1 </boundaryPoint>)
(<boundaryPoint> X22.946 Y6.233 Z1.1 </boundaryPoint>)
(<perimeter> inner )
G1 X12.75 Y-5.3 Z1.1 F3000.0
M108 R30.0
M101
G1 X13.55 Y-5.3 Z1.1 F3000.0
M108 R3.569
G1 X13.55 Y6.43 Z1.1 F1800.0
G1 X23.14 Y6.43 Z1.1 F1800.0
G1 X23.14 Y-5.3 Z1.1 F1800.0
G1 X14.0 Y-5.3 Z1.1 F1800.0
M108 R30.0
M102
G1 X13.55 Y-5.3 Z1.1 F1800.0
M108 R3.569
M103
(</perimeter>)
(</boundaryPerimeter>)
(</surroundingLoop>)
(<surroundingLoop>)
(<boundaryPerimeter>)
(<boundaryPoint> X-8.912 Y-5.1 Z1.1 </boundaryPoint>)
(<boundaryPoint> X-25.892 Y-5.1 Z1.1 </boundaryPoint>)
(<boundaryPoint> X-25.892 Y6.233 Z1.1 </boundaryPoint>)
(<boundaryPoint> X-8.912 Y6.233 Z1.1 </boundaryPoint>)
(<perimeter> inner )
G1 X-7.92 Y-5.3 Z1.1 F3000.0
M108 R30.0
M101
G1 X-8.72 Y-5.3 Z1.1 F3000.0
M108 R3.569
G1 X-26.09 Y-5.3 Z1.1 F1800.0
G1 X-26.09 Y6.43 Z1.1 F1800.0
G1 X-8.72 Y6.43 Z1.1 F1800.0
G1 X-8.72 Y-4.85 Z1.1 F1800.0
M108 R30.0
M102
G1 X-8.72 Y-5.3 Z1.1 F1800.0
M108 R3.569
M103
(</perimeter>)
(</boundaryPerimeter>)
(</surroundingLoop>)
G1 X-1.53 Y-10.31 Z1.1 F3000.0
M108 R30.0
M101
G1 X-0.87 Y-10.77 Z1.1 F3000.0
M108 R3.569
G1 X0.87 Y-10.77 Z1.1 F1800.0
G1 X0.98 Y-9.69 Z1.1 F1800.0
G1 X-0.98 Y-7.76 Z1.1 F1800.0
G1 X-0.98 Y5.58 Z1.1 F1800.0
G1 X0.87 Y7.08 Z1.1 F1800.0
G1 X0.98 Y7.51 Z1.1 F1800.0
G1 X0.98 Y7.76 Z1.1 F1800.0
G1 X-0.98 Y9.69 Z1.1 F1800.0
G1 X-0.87 Y10.77 Z1.1 F1800.0
G1 X3.05 Y10.77 Z1.1 F1800.0
G1 X3.16 Y9.69 Z1.1 F1800.0
G1 X1.21 Y7.76 Z1.1 F1800.0
G1 X1.21 Y7.51 Z1.1 F1800.0
G1 X1.31 Y7.08 Z1.1 F1800.0
G1 X5.24 Y7.08 Z1.1 F1800.0
G1 X5.34 Y7.51 Z1.1 F1800.0
G1 X5.34 Y7.76 Z1.1 F1800.0
G1 X3.39 Y9.69 Z1.1 F1800.0
G1 X3.49 Y10.77 Z1.1 F1800.0
G1 X7.85 Y10.77 Z1.1 F1800.0
G1 X7.52 Y9.95 Z1.1 F1800.0
G1 X7.52 Y9.69 Z1.1 F1800.0
G1 X5.57 Y7.76 Z1.1 F1800.0
G1 X5.57 Y7.51 Z1.1 F1800.0
G1 X5.67 Y7.09 Z1.1 F1800.0
M108 R30.0
M102
G1 X5.67 Y7.08 Z1.1 F1800.0
G1 X6.11 Y7.08 Z1.1 F1800.0
M108 R3.569
M103
G1 X-2.31 Y10.47 Z1.1 F3000.0
M108 R30.0
M101
G1 X-3.05 Y10.77 Z1.1 F3000.0
M108 R3.569
G1 X-1.31 Y10.77 Z1.1 F1800.0
G1 X-1.21 Y9.69 Z1.1 F1800.0
G1 X-3.16 Y7.76 Z1.1 F1800.0
G1 X-3.16 Y7.51 Z1.1 F1800.0
G1 X-1.21 Y5.58 Z1.1 F1800.0
G1 X-1.21 Y5.33 Z1.1 F1800.0
G1 X-3.16 Y3.4 Z1.1 F1800.0
G1 X-3.16 Y3.15 Z1.1 F1800.0
G1 X-1.21 Y1.22 Z1.1 F1800.0
G1 X-1.21 Y0.96 Z1.1 F1800.0
G1 X-3.16 Y-0.96 Z1.1 F1800.0
G1 X-3.16 Y-1.22 Z1.1 F1800.0
G1 X-1.21 Y-3.15 Z1.1 F1800.0
G1 X-1.21 Y-3.4 Z1.1 F1800.0
G1 X-3.16 Y-5.33 Z1.1 F1800.0
G1 X-3.16 Y-5.58 Z1.1 F1800.0
G1 X-1.21 Y-7.51 Z1.1 F1800.0
G1 X-1.21 Y-7.76 Z1.1 F1800.0
G1 X-3.27 Y-9.69 Z1.1 F1800.0
G1 X-3.27 Y-9.95 Z1.1 F1800.0
G1 X-1.31 Y-10.34 Z1.1 F1800.0
G1 X-1.75 Y-10.77 Z1.1 F1800.0
G1 X-5.24 Y-10.77 Z1.1 F1800.0
G1 X-5.34 Y-7.51 Z1.1 F1800.0
G1 X-3.39 Y-5.58 Z1.1 F1800.0
G1 X-3.39 Y-5.33 Z1.1 F1800.0
G1 X-5.34 Y-3.4 Z1.1 F1800.0
G1 X-5.34 Y-3.15 Z1.1 F1800.0
G1 X-3.39 Y-1.22 Z1.1 F1800.0
G1 X-3.39 Y-0.96 Z1.1 F1800.0
G1 X-5.34 Y0.96 Z1.1 F1800.0
G1 X-5.34 Y1.22 Z1.1 F1800.0
G1 X-3.39 Y3.15 Z1.1 F1800.0
G1 X-3.39 Y3.4 Z1.1 F1800.0
G1 X-5.34 Y5.33 Z1.1 F1800.0
G1 X-5.34 Y5.58 Z1.1 F1800.0
G1 X-3.39 Y7.51 Z1.1 F1800.0
G1 X-3.39 Y7.76 Z1.1 F1800.0
G1 X-5.45 Y9.69 Z1.1 F1800.0
G1 X-5.45 Y9.95 Z1.1 F1800.0
G1 X-3.49 Y10.34 Z1.1 F1800.0
G1 X-3.93 Y10.77 Z1.1 F1800.0
G1 X-6.98 Y10.77 Z1.1 F1800.0
G1 X-7.52 Y7.51 Z1.1 F1800.0
G1 X-5.57 Y5.58 Z1.1 F1800.0
G1 X-5.57 Y5.33 Z1.1 F1800.0
G1 X-7.64 Y3.4 Z1.1 F1800.0
G1 X-7.64 Y3.15 Z1.1 F1800.0
G1 X-5.57 Y1.22 Z1.1 F1800.0
G1 X-5.57 Y0.96 Z1.1 F1800.0
G1 X-7.64 Y-0.96 Z1.1 F1800.0
G1 X-7.64 Y-1.22 Z1.1 F1800.0
G1 X-5.57 Y-3.15 Z1.1 F1800.0
G1 X-5.57 Y-3.4 Z1.1 F1800.0
G1 X-7.64 Y-5.33 Z1.1 F1800.0
G1 X-7.64 Y-5.58 Z1.1 F1800.0
G1 X-5.57 Y-7.51 Z1.1 F1800.0
G1 X-5.57 Y-7.76 Z1.1 F1800.0
G1 X-7.64 Y-9.69 Z1.1 F1800.0
G1 X-7.64 Y-9.95 Z1.1 F1800.0
G1 X-5.67 Y-10.34 Z1.1 F1800.0
G1 X-6.11 Y-10.77 Z1.1 F1800.0
G1 X-9.6 Y-10.77 Z1.1 F1800.0
G1 X-9.7 Y-7.51 Z1.1 F1800.0
G1 X-8.29 Y-5.95 Z1.1 F1800.0
G1 X-11.78 Y-5.95 Z1.1 F1800.0
G1 X-9.93 Y-7.51 Z1.1 F1800.0
G1 X-9.93 Y-7.76 Z1.1 F1800.0
G1 X-12.0 Y-9.69 Z1.1 F1800.0
G1 X-12.0 Y-9.95 Z1.1 F1800.0
G1 X-10.04 Y-10.34 Z1.1 F1800.0
G1 X-10.47 Y-10.77 Z1.1 F1800.0
G1 X-13.96 Y-10.77 Z1.1 F1800.0
G1 X-14.07 Y-7.51 Z1.1 F1800.0
G1 X-12.22 Y-5.95 Z1.1 F1800.0
G1 X-16.14 Y-5.95 Z1.1 F1800.0
G1 X-14.3 Y-7.51 Z1.1 F1800.0
G1 X-14.3 Y-7.76 Z1.1 F1800.0
G1 X-16.36 Y-9.69 Z1.1 F1800.0
G1 X-16.36 Y-9.95 Z1.1 F1800.0
G1 X-14.4 Y-10.34 Z1.1 F1800.0
G1 X-14.84 Y-10.77 Z1.1 F1800.0
G1 X-18.33 Y-10.77 Z1.1 F1800.0
G1 X-18.43 Y-7.51 Z1.1 F1800.0
G1 X-16.58 Y-5.95 Z1.1 F1800.0
G1 X-20.51 Y-5.95 Z1.1 F1800.0
G1 X-18.66 Y-7.51 Z1.1 F1800.0
G1 X-18.66 Y-7.76 Z1.1 F1800.0
G1 X-20.73 Y-9.69 Z1.1 F1800.0
G1 X-20.73 Y-9.95 Z1.1 F1800.0
G1 X-18.76 Y-10.34 Z1.1 F1800.0
G1 X-19.2 Y-10.77 Z1.1 F1800.0
G1 X-22.69 Y-10.77 Z1.1 F1800.0
G1 X-22.79 Y-7.51 Z1.1 F1800.0
G1 X-20.94 Y-5.95 Z1.1 F1800.0
G1 X-24.44 Y-5.95 Z1.1 F1800.0
G1 X-23.02 Y-7.51 Z1.1 F1800.0
G1 X-23.02 Y-7.76 Z1.1 F1800.0
G1 X-25.09 Y-9.69 Z1.1 F1800.0
G1 X-25.09 Y-9.95 Z1.1 F1800.0
G1 X-23.13 Y-10.34 Z1.1 F1800.0
G1 X-23.56 Y-10.77 Z1.1 F1800.0
G1 X-27.05 Y-10.77 Z1.1 F1800.0
G1 X-27.16 Y-7.51 Z1.1 F1800.0
G1 X-26.62 Y-5.95 Z1.1 F1800.0
G1 X-25.32 Y-5.95 Z1.1 F1800.0
M108 R30.0
M102
G1 X-24.87 Y-5.95 Z1.1 F1800.0
M108 R3.569
M103
G1 X-27.11 Y-10.07 Z1.1 F3000.0
M108 R30.0
M101
G1 X-27.49 Y-10.77 Z1.1 F3000.0
M108 R3.569
G1 X-29.23 Y-10.77 Z1.1 F1800.0
G1 X-29.34 Y-9.69 Z1.1 F1800.0
G1 X-27.39 Y-7.76 Z1.1 F1800.0
G1 X-27.39 Y-7.51 Z1.1 F1800.0
G1 X-29.34 Y-5.58 Z1.1 F1800.0
G1 X-29.34 Y7.76 Z1.1 F1800.0
G1 X-27.39 Y9.69 Z1.1 F1800.0
G1 X-27.39 Y9.95 Z1.1 F1800.0
G1 X-27.05 Y10.77 Z1.1 F1800.0
G1 X-30.11 Y10.77 Z1.1 F1800.0
G1 X-29.57 Y7.76 Z1.1 F1800.0
G1 X-29.57 Y-9.95 Z1.1 F1800.0
G1 X-29.67 Y-10.76 Z1.1 F1800.0
M108 R30.0
M102
G1 X-29.67 Y-10.77 Z1.1 F1800.0
G1 X-30.11 Y-10.77 Z1.1 F1800.0
M108 R3.569
M103
G1 X-26.77 Y6.29 Z1.1 F3000.0
M108 R30.0
M101
G1 X-26.62 Y7.08 Z1.1 F3000.0
M108 R3.569
G1 X-25.31 Y7.08 Z1.1 F1800.0
G1 X-25.2 Y7.51 Z1.1 F1800.0
G1 X-25.2 Y7.76 Z1.1 F1800.0
G1 X-27.16 Y9.69 Z1.1 F1800.0
G1 X-27.16 Y9.95 Z1.1 F1800.0
G1 X-26.62 Y10.77 Z1.1 F1800.0
G1 X-23.13 Y10.77 Z1.1 F1800.0
G1 X-23.02 Y9.69 Z1.1 F1800.0
G1 X-24.97 Y7.76 Z1.1 F1800.0
G1 X-24.97 Y7.51 Z1.1 F1800.0
G1 X-24.87 Y7.08 Z1.1 F1800.0
G1 X-20.94 Y7.08 Z1.1 F1800.0
G1 X-20.84 Y7.51 Z1.1 F1800.0
G1 X-20.84 Y7.76 Z1.1 F1800.0
G1 X-22.79 Y9.69 Z1.1 F1800.0
G1 X-22.69 Y10.77 Z1.1 F1800.0
G1 X-18.76 Y10.77 Z1.1 F1800.0
G1 X-18.66 Y9.69 Z1.1 F1800.0
G1 X-20.61 Y7.76 Z1.1 F1800.0
G1 X-20.61 Y7.51 Z1.1 F1800.0
G1 X-20.51 Y7.08 Z1.1 F1800.0
G1 X-16.58 Y7.08 Z1.1 F1800.0
G1 X-16.48 Y7.51 Z1.1 F1800.0
G1 X-16.48 Y7.76 Z1.1 F1800.0
G1 X-18.43 Y9.69 Z1.1 F1800.0
G1 X-18.33 Y10.77 Z1.1 F1800.0
G1 X-14.4 Y10.77 Z1.1 F1800.0
G1 X-14.3 Y9.69 Z1.1 F1800.0
G1 X-16.25 Y7.76 Z1.1 F1800.0
G1 X-16.25 Y7.51 Z1.1 F1800.0
G1 X-16.14 Y7.08 Z1.1 F1800.0
G1 X-12.22 Y7.08 Z1.1 F1800.0
G1 X-12.11 Y7.51 Z1.1 F1800.0
G1 X-12.11 Y7.76 Z1.1 F1800.0
G1 X-14.07 Y9.69 Z1.1 F1800.0
G1 X-13.96 Y10.77 Z1.1 F1800.0
G1 X-10.04 Y10.77 Z1.1 F1800.0
G1 X-9.93 Y9.69 Z1.1 F1800.0
G1 X-11.88 Y7.76 Z1.1 F1800.0
G1 X-11.88 Y7.51 Z1.1 F1800.0
G1 X-11.78 Y7.08 Z1.1 F1800.0
G1 X-8.29 Y7.08 Z1.1 F1800.0
G1 X-7.75 Y7.51 Z1.1 F1800.0
G1 X-7.75 Y7.76 Z1.1 F1800.0
G1 X-9.7 Y9.69 Z1.1 F1800.0
G1 X-9.6 Y10.77 Z1.1 F1800.0
G1 X-7.87 Y10.77 Z1.1 F1800.0
M108 R30.0
M102
G1 X-7.42 Y10.77 Z1.1 F1800.0
M108 R3.569
M103
G1 X1.43 Y5.48 Z1.1 F3000.0
G1 X1.56 Y6.37 Z1.1 F3000.0
G1 X5.78 Y6.37 Z1.1 F3000.0
G1 X5.92 Y3.19 Z1.1 F3000.0
G1 X13.47 Y-1.52 Z1.1 F3000.0
G1 X13.61 Y-5.24 Z1.1 F3000.0
G1 X19.91 Y-5.38 Z1.1 F3000.0
G1 X28.97 Y-10.39 Z1.1 F3000.0
M108 R30.0
M101
G1 X29.67 Y-10.77 Z1.1 F3000.0
M108 R3.569
G1 X30.11 Y-10.77 Z1.1 F1800.0
G1 X30.11 Y10.77 Z1.1 F1800.0
G1 X27.49 Y10.77 Z1.1 F1800.0
G1 X27.27 Y-9.95 Z1.1 F1800.0
G1 X29.23 Y-10.34 Z1.1 F1800.0
G1 X28.8 Y-10.77 Z1.1 F1800.0
G1 X25.31 Y-10.77 Z1.1 F1800.0
G1 X25.2 Y-7.51 Z1.1 F1800.0
G1 X27.16 Y-5.58 Z1.1 F1800.0
G1 X27.16 Y-5.33 Z1.1 F1800.0
G1 X25.09 Y-3.4 Z1.1 F1800.0
G1 X25.09 Y-3.15 Z1.1 F1800.0
G1 X27.16 Y-1.22 Z1.1 F1800.0
G1 X27.16 Y-0.96 Z1.1 F1800.0
G1 X25.09 Y0.96 Z1.1 F1800.0
G1 X25.09 Y1.22 Z1.1 F1800.0
G1 X27.16 Y3.15 Z1.1 F1800.0
G1 X27.16 Y3.4 Z1.1 F1800.0
G1 X25.09 Y5.33 Z1.1 F1800.0
G1 X25.09 Y5.58 Z1.1 F1800.0
G1 X27.16 Y7.51 Z1.1 F1800.0
G1 X27.16 Y7.76 Z1.1 F1800.0
G1 X25.09 Y9.69 Z1.1 F1800.0
G1 X25.09 Y9.95 Z1.1 F1800.0
G1 X27.05 Y10.34 Z1.1 F1800.0
G1 X26.62 Y10.77 Z1.1 F1800.0
G1 X23.13 Y10.77 Z1.1 F1800.0
G1 X23.02 Y7.64 Z1.1 F1800.0
G1 X23.56 Y7.08 Z1.1 F1800.0
G1 X20.51 Y7.08 Z1.1 F1800.0
G1 X20.73 Y9.95 Z1.1 F1800.0
G1 X22.69 Y10.34 Z1.1 F1800.0
G1 X22.25 Y10.77 Z1.1 F1800.0
G1 X18.76 Y10.77 Z1.1 F1800.0
G1 X18.66 Y7.64 Z1.1 F1800.0
G1 X20.07 Y7.51 Z1.1 F1800.0
G1 X19.64 Y7.08 Z1.1 F1800.0
G1 X16.58 Y7.08 Z1.1 F1800.0
G1 X16.36 Y9.95 Z1.1 F1800.0
G1 X18.33 Y10.34 Z1.1 F1800.0
G1 X17.89 Y10.77 Z1.1 F1800.0
G1 X14.4 Y10.77 Z1.1 F1800.0
G1 X14.18 Y7.51 Z1.1 F1800.0
G1 X15.27 Y7.51 Z1.1 F1800.0
G1 X16.14 Y7.08 Z1.1 F1800.0
G1 X13.09 Y7.08 Z1.1 F1800.0
G1 X13.96 Y10.77 Z1.1 F1800.0
G1 X12.22 Y10.77 Z1.1 F1800.0
G1 X12.11 Y9.95 Z1.1 F1800.0
G1 X12.11 Y-7.76 Z1.1 F1800.0
G1 X14.07 Y-9.69 Z1.1 F1800.0
G1 X13.96 Y-10.77 Z1.1 F1800.0
G1 X10.04 Y-10.77 Z1.1 F1800.0
G1 X9.93 Y-9.69 Z1.1 F1800.0
G1 X11.88 Y-7.76 Z1.1 F1800.0
G1 X11.88 Y-7.51 Z1.1 F1800.0
G1 X9.93 Y-5.58 Z1.1 F1800.0
G1 X9.93 Y7.76 Z1.1 F1800.0
G1 X11.88 Y9.69 Z1.1 F1800.0
G1 X11.78 Y10.77 Z1.1 F1800.0
G1 X8.29 Y10.77 Z1.1 F1800.0
G1 X7.75 Y9.95 Z1.1 F1800.0
G1 X7.75 Y9.69 Z1.1 F1800.0
G1 X9.7 Y7.76 Z1.1 F1800.0
G1 X9.7 Y7.51 Z1.1 F1800.0
G1 X7.64 Y5.58 Z1.1 F1800.0
G1 X7.64 Y5.33 Z1.1 F1800.0
G1 X9.7 Y3.4 Z1.1 F1800.0
G1 X9.7 Y3.15 Z1.1 F1800.0
G1 X7.64 Y1.22 Z1.1 F1800.0
G1 X7.64 Y0.96 Z1.1 F1800.0
G1 X9.7 Y-0.96 Z1.1 F1800.0
G1 X9.7 Y-1.22 Z1.1 F1800.0
G1 X7.64 Y-3.15 Z1.1 F1800.0
G1 X7.64 Y-3.4 Z1.1 F1800.0
G1 X9.7 Y-5.33 Z1.1 F1800.0
G1 X9.7 Y-5.58 Z1.1 F1800.0
G1 X7.75 Y-7.51 Z1.1 F1800.0
G1 X7.75 Y-7.76 Z1.1 F1800.0
G1 X9.7 Y-9.69 Z1.1 F1800.0
G1 X9.6 Y-10.77 Z1.1 F1800.0
G1 X5.67 Y-10.77 Z1.1 F1800.0
G1 X5.57 Y-9.69 Z1.1 F1800.0
G1 X7.52 Y-7.76 Z1.1 F1800.0
G1 X7.52 Y-7.51 Z1.1 F1800.0
G1 X6.11 Y-5.95 Z1.1 F1800.0
G1 X3.49 Y-5.95 Z1.1 F1800.0
G1 X3.39 Y-7.76 Z1.1 F1800.0
G1 X5.34 Y-9.69 Z1.1 F1800.0
G1 X5.24 Y-10.77 Z1.1 F1800.0
G1 X1.31 Y-10.77 Z1.1 F1800.0
G1 X1.21 Y-9.69 Z1.1 F1800.0
G1 X3.16 Y-7.76 Z1.1 F1800.0
G1 X3.05 Y-5.95 Z1.1 F1800.0
G1 X1.32 Y-5.95 Z1.1 F1800.0
M108 R30.0
M102
G1 X0.87 Y-5.95 Z1.1 F1800.0
M108 R3.569
M103
G1 X12.29 Y-5.95 Z1.1 F3000.0
M108 R30.0
M101
G1 X13.09 Y-5.95 Z1.1 F3000.0
M108 R3.569
G1 X16.14 Y-5.95 Z1.1 F1800.0
G1 X16.25 Y-7.76 Z1.1 F1800.0
G1 X14.3 Y-9.69 Z1.1 F1800.0
G1 X14.4 Y-10.77 Z1.1 F1800.0
G1 X18.33 Y-10.77 Z1.1 F1800.0
G1 X18.43 Y-9.69 Z1.1 F1800.0
G1 X16.48 Y-7.76 Z1.1 F1800.0
G1 X16.58 Y-5.95 Z1.1 F1800.0
G1 X20.51 Y-5.95 Z1.1 F1800.0
G1 X20.61 Y-7.76 Z1.1 F1800.0
G1 X18.66 Y-9.69 Z1.1 F1800.0
G1 X18.76 Y-10.77 Z1.1 F1800.0
G1 X22.69 Y-10.77 Z1.1 F1800.0
G1 X22.79 Y-9.69 Z1.1 F1800.0
G1 X20.84 Y-7.76 Z1.1 F1800.0
G1 X20.94 Y-5.95 Z1.1 F1800.0
G1 X23.56 Y-5.95 Z1.1 F1800.0
G1 X24.97 Y-7.51 Z1.1 F1800.0
G1 X24.97 Y-7.76 Z1.1 F1800.0
G1 X23.02 Y-9.69 Z1.1 F1800.0
G1 X23.13 Y-10.77 Z1.1 F1800.0
G1 X24.42 Y-10.77 Z1.1 F1800.0
M108 R30.0
M102
G1 X24.87 Y-10.77 Z1.1 F1800.0
M108 R3.569
M103
(</surroundingLoop>)
(</layer>)
(<layer> 1.42 )
(<surroundingLoop>)
(<boundaryPerimeter>)
(<boundaryPoint> X31.135 Y11.617 Z1.42 </boundaryPoint>)
(<boundaryPoint> X-31.135 Y11.617 Z1.42 </boundaryPoint>)
(<boundaryPoint> X-31.135 Y-11.617 Z1.42 </boundaryPoint>)
(<boundaryPoint> X31.135 Y-11.617 Z1.42 </boundaryPoint>)
(<loop> inner )
G1 X-7.53 Y-5.79 Z1.41 F3000.0
M108 R30.0
M101
G1 X-8.32 Y-5.67 Z1.42 F3000.0
M108 R3.569
G1 X-8.32 Y-5.69 Z1.42 F1800.0
G1 X-26.48 Y-5.69 Z1.42 F1800.0
G1 X-26.48 Y6.82 Z1.42 F1800.0
G1 X-8.32 Y6.82 Z1.42 F1800.0
G1 X-8.32 Y-5.22 Z1.42 F1800.0
M108 R30.0
M102
G1 X-8.32 Y-5.67 Z1.42 F1800.0
M108 R3.569
M103
(</loop>)
(<loop> inner )
G1 X12.36 Y-5.69 Z1.42 F3000.0
M108 R30.0
M101
G1 X13.16 Y-5.69 Z1.42 F3000.0
M108 R3.569
G1 X13.16 Y6.82 Z1.42 F1800.0
G1 X23.54 Y6.82 Z1.42 F1800.0
G1 X23.54 Y-5.69 Z1.42 F1800.0
G1 X13.61 Y-5.69 Z1.42 F1800.0
M108 R30.0
M102
G1 X13.16 Y-5.69 Z1.42 F1800.0
M108 R3.569
M103
(</loop>)
(<loop> inner )
G1 X7.03 Y-5.69 Z1.42 F3000.0
M108 R30.0
M101
G1 X6.23 Y-5.69 Z1.42 F3000.0
M108 R3.569
G1 X1.11 Y-5.69 Z1.42 F1800.0
G1 X1.11 Y6.82 Z1.42 F1800.0
G1 X6.23 Y6.82 Z1.42 F1800.0
G1 X6.23 Y-5.24 Z1.42 F1800.0
M108 R30.0
M102
G1 X6.23 Y-5.69 Z1.42 F1800.0
M108 R3.569
M103
(</loop>)
(<loop> outer )
G1 X6.23 Y-10.23 Z1.42 F3000.0
M108 R30.0
M101
G1 X6.23 Y-11.03 Z1.42 F3000.0
M108 R3.569
G1 X30.55 Y-11.03 Z1.42 F1800.0
G1 X30.55 Y11.03 Z1.42 F1800.0
G1 X-30.55 Y11.03 Z1.42 F1800.0
G1 X-30.55 Y-11.03 Z1.42 F1800.0
G1 X6.23 Y-11.03 Z1.42 F1800.0
M103
(</loop>)
(<perimeter> outer )
G1 X6.23 Y-11.42 Z1.42 F3000.0
M101
G1 X30.94 Y-11.42 Z1.42 F1800.0
G1 X30.94 Y11.42 Z1.42 F1800.0
G1 X-30.94 Y11.42 Z1.42 F1800.0
G1 X-30.94 Y-11.42 Z1.42 F1800.0
G1 X5.78 Y-11.42 Z1.42 F1800.0
M108 R30.0
M102
G1 X6.23 Y-11.42 Z1.42 F1800.0
M108 R3.569
M103
(</perimeter>)
(</boundaryPerimeter>)
(<surroundingLoop>)
(<boundaryPerimeter>)
(<boundaryPoint> X5.643 Y6.233 Z1.42 </boundaryPoint>)
(<boundaryPoint> X5.643 Y-5.1 Z1.42 </boundaryPoint>)
(<boundaryPoint> X1.701 Y-5.1 Z1.42 </boundaryPoint>)
(<boundaryPoint> X1.701 Y6.233 Z1.42 </boundaryPoint>)
(<perimeter> inner )
G1 X5.89 Y-6.1 Z1.42 F3000.0
M108 R30.0
M101
G1 X5.84 Y-5.3 Z1.42 F3000.0
M108 R3.569
G1 X1.51 Y-5.3 Z1.42 F1800.0
G1 X1.51 Y6.43 Z1.42 F1800.0
G1 X5.84 Y6.43 Z1.42 F1800.0
G1 X5.84 Y-4.85 Z1.42 F1800.0
M108 R30.0
M102
G1 X5.84 Y-5.3 Z1.42 F1800.0
M108 R3.569
M103
(</perimeter>)
(</boundaryPerimeter>)
(</surroundingLoop>)
(<surroundingLoop>)
(<boundaryPerimeter>)
(<boundaryPoint> X22.946 Y-5.1 Z1.42 </boundaryPoint>)
(<boundaryPoint> X13.748 Y-5.1 Z1.42 </boundaryPoint>)
(<boundaryPoint> X13.748 Y6.233 Z1.42 </boundaryPoint>)
(<boundaryPoint> X22.946 Y6.233 Z1.42 </boundaryPoint>)
(<perimeter> inner )
G1 X12.75 Y-5.3 Z1.42 F3000.0
M108 R30.0
M101
G1 X13.55 Y-5.3 Z1.42 F3000.0
M108 R3.569
G1 X13.55 Y6.43 Z1.42 F1800.0
G1 X23.14 Y6.43 Z1.42 F1800.0
G1 X23.14 Y-5.3 Z1.42 F1800.0
G1 X14.0 Y-5.3 Z1.42 F1800.0
M108 R30.0
M102
G1 X13.55 Y-5.3 Z1.42 F1800.0
M108 R3.569
M103
(</perimeter>)
(</boundaryPerimeter>)
(</surroundingLoop>)
(<surroundingLoop>)
(<boundaryPerimeter>)
(<boundaryPoint> X-8.912 Y-5.1 Z1.42 </boundaryPoint>)
(<boundaryPoint> X-25.892 Y-5.1 Z1.42 </boundaryPoint>)
(<boundaryPoint> X-25.892 Y6.233 Z1.42 </boundaryPoint>)
(<boundaryPoint> X-8.912 Y6.233 Z1.42 </boundaryPoint>)
(<perimeter> inner )
G1 X-7.92 Y-5.3 Z1.42 F3000.0
M108 R30.0
M101
G1 X-8.72 Y-5.3 Z1.42 F3000.0
M108 R3.569
G1 X-26.09 Y-5.3 Z1.42 F1800.0
G1 X-26.09 Y6.43 Z1.42 F1800.0
G1 X-8.72 Y6.43 Z1.42 F1800.0
G1 X-8.72 Y-4.85 Z1.42 F1800.0
M108 R30.0
M102
G1 X-8.72 Y-5.3 Z1.42 F1800.0
M108 R3.569
M103
(</perimeter>)
(</boundaryPerimeter>)
(</surroundingLoop>)
G1 X-8.23 Y-2.97 Z1.42 F3000.0
M108 R30.0
M101
G1 X-8.07 Y-2.18 Z1.42 F3000.0
M108 R3.569
G1 X-7.76 Y-1.21 Z1.42 F1800.0
G1 X-7.51 Y-1.21 Z1.42 F1800.0
G1 X-5.58 Y-3.16 Z1.42 F1800.0
G1 X-5.33 Y-3.16 Z1.42 F1800.0
G1 X-3.4 Y-1.21 Z1.42 F1800.0
G1 X-3.15 Y-1.21 Z1.42 F1800.0
G1 X-1.22 Y-3.16 Z1.42 F1800.0
G1 X-0.96 Y-3.16 Z1.42 F1800.0
G1 X0.86 Y-0.87 Z1.42 F1800.0
G1 X0.86 Y-5.67 Z1.42 F1800.0
G1 X-0.96 Y-3.39 Z1.42 F1800.0
G1 X-1.22 Y-3.39 Z1.42 F1800.0
G1 X-3.15 Y-5.34 Z1.42 F1800.0
G1 X-3.4 Y-5.34 Z1.42 F1800.0
G1 X-5.33 Y-3.39 Z1.42 F1800.0
G1 X-5.58 Y-3.39 Z1.42 F1800.0
G1 X-7.51 Y-5.34 Z1.42 F1800.0
G1 X-7.76 Y-5.34 Z1.42 F1800.0
G1 X-8.07 Y-5.24 Z1.42 F1800.0
G1 X-7.93 Y-4.82 Z1.42 F1800.0
G1 X-7.94 Y-4.79 Z1.42 F1800.0
M108 R30.0
M102
G1 X-8.07 Y-4.36 Z1.42 F1800.0
M108 R3.569
M103
G1 X-8.07 Y1.38 Z1.42 F3000.0
M108 R30.0
M101
G1 X-8.07 Y2.18 Z1.42 F3000.0
M108 R3.569
G1 X-7.63 Y2.62 Z1.42 F1800.0
G1 X-8.07 Y3.05 Z1.42 F1800.0
G1 X-7.76 Y3.16 Z1.42 F1800.0
G1 X-7.51 Y3.16 Z1.42 F1800.0
G1 X-5.58 Y1.21 Z1.42 F1800.0
G1 X-5.33 Y1.21 Z1.42 F1800.0
G1 X-3.4 Y3.16 Z1.42 F1800.0
G1 X-3.15 Y3.16 Z1.42 F1800.0
G1 X-1.22 Y1.21 Z1.42 F1800.0
G1 X-0.96 Y1.21 Z1.42 F1800.0
G1 X0.86 Y3.49 Z1.42 F1800.0
G1 X0.86 Y-0.44 Z1.42 F1800.0
G1 X-0.96 Y0.98 Z1.42 F1800.0
G1 X-1.22 Y0.98 Z1.42 F1800.0
G1 X-3.15 Y-0.98 Z1.42 F1800.0
G1 X-3.4 Y-0.98 Z1.42 F1800.0
G1 X-5.33 Y0.98 Z1.42 F1800.0
G1 X-5.58 Y0.98 Z1.42 F1800.0
G1 X-7.51 Y-0.98 Z1.42 F1800.0
G1 X-7.76 Y-0.98 Z1.42 F1800.0
G1 X-8.07 Y-0.87 Z1.42 F1800.0
G1 X-7.93 Y-0.46 Z1.42 F1800.0
G1 X-7.94 Y-0.43 Z1.42 F1800.0
M108 R30.0
M102
G1 X-8.07 Y0.0 Z1.42 F1800.0
M108 R3.569
M103
G1 X-8.07 Y5.75 Z1.42 F3000.0
M108 R30.0
M101
G1 X-8.07 Y6.55 Z1.42 F3000.0
M108 R3.569
G1 X-8.07 Y6.98 Z1.42 F1800.0
G1 X-7.76 Y7.52 Z1.42 F1800.0
G1 X-7.51 Y7.52 Z1.42 F1800.0
G1 X-5.58 Y5.57 Z1.42 F1800.0
G1 X-5.33 Y5.57 Z1.42 F1800.0
G1 X-3.4 Y7.52 Z1.42 F1800.0
G1 X-3.15 Y7.52 Z1.42 F1800.0
G1 X-1.22 Y5.57 Z1.42 F1800.0
G1 X-0.96 Y5.57 Z1.42 F1800.0
G1 X0.86 Y6.98 Z1.42 F1800.0
G1 X0.86 Y3.93 Z1.42 F1800.0
G1 X-0.96 Y5.34 Z1.42 F1800.0
G1 X-1.22 Y5.34 Z1.42 F1800.0
G1 X-3.15 Y3.39 Z1.42 F1800.0
G1 X-3.4 Y3.39 Z1.42 F1800.0
G1 X-5.33 Y5.34 Z1.42 F1800.0
G1 X-5.58 Y5.34 Z1.42 F1800.0
G1 X-7.51 Y3.39 Z1.42 F1800.0
G1 X-7.76 Y3.39 Z1.42 F1800.0
G1 X-8.07 Y3.49 Z1.42 F1800.0
G1 X-7.93 Y3.9 Z1.42 F1800.0
G1 X-7.94 Y3.93 Z1.42 F1800.0
M108 R30.0
M102
G1 X-8.07 Y4.36 Z1.42 F1800.0
M108 R3.569
M103
G1 X1.43 Y-2.37 Z1.42 F3000.0
G1 X1.56 Y-5.24 Z1.42 F3000.0
G1 X5.78 Y-5.24 Z1.42 F3000.0
G1 X5.92 Y-5.09 Z1.42 F3000.0
G1 X5.93 Y-5.1 Z1.42 F3000.0
M108 R30.0
M101
G1 X6.49 Y-5.67 Z1.42 F3000.0
M108 R3.569
G1 X6.49 Y-3.05 Z1.42 F1800.0
G1 X7.51 Y-3.39 Z1.42 F1800.0
G1 X7.76 Y-3.39 Z1.42 F1800.0
G1 X9.69 Y-5.34 Z1.42 F1800.0
G1 X12.9 Y-5.67 Z1.42 F1800.0
G1 X12.9 Y-0.87 Z1.42 F1800.0
G1 X9.69 Y-1.21 Z1.42 F1800.0
G1 X7.76 Y-3.16 Z1.42 F1800.0
G1 X7.51 Y-3.16 Z1.42 F1800.0
G1 X6.49 Y-2.62 Z1.42 F1800.0
G1 X6.49 Y1.31 Z1.42 F1800.0
G1 X7.51 Y0.98 Z1.42 F1800.0
G1 X7.76 Y0.98 Z1.42 F1800.0
G1 X9.69 Y-0.98 Z1.42 F1800.0
G1 X12.9 Y-0.44 Z1.42 F1800.0
G1 X12.9 Y3.49 Z1.42 F1800.0
G1 X9.69 Y3.16 Z1.42 F1800.0
G1 X7.76 Y1.21 Z1.42 F1800.0
G1 X7.51 Y1.21 Z1.42 F1800.0
G1 X6.49 Y1.75 Z1.42 F1800.0
G1 X6.49 Y5.67 Z1.42 F1800.0
G1 X7.51 Y5.34 Z1.42 F1800.0
G1 X7.76 Y5.34 Z1.42 F1800.0
G1 X9.69 Y3.39 Z1.42 F1800.0
G1 X12.9 Y3.93 Z1.42 F1800.0
G1 X12.9 Y6.98 Z1.42 F1800.0
G1 X9.69 Y7.52 Z1.42 F1800.0
G1 X7.76 Y5.57 Z1.42 F1800.0
G1 X7.51 Y5.57 Z1.42 F1800.0
G1 X6.49 Y6.11 Z1.42 F1800.0
G1 X6.49 Y6.53 Z1.42 F1800.0
M108 R30.0
M102
G1 X6.49 Y6.98 Z1.42 F1800.0
M108 R3.569
M103
G1 X29.5 Y10.36 Z1.42 F3000.0
M108 R30.0
M101
G1 X30.29 Y10.47 Z1.42 F3000.0
M108 R3.569
G1 X30.29 Y10.04 Z1.42 F1800.0
G1 X-27.4 Y9.93 Z1.42 F1800.0
G1 X-30.29 Y10.47 Z1.42 F1800.0
G1 X-30.29 Y8.73 Z1.42 F1800.0
G1 X-29.58 Y7.75 Z1.42 F1800.0
G1 X-29.33 Y7.75 Z1.42 F1800.0
G1 X-27.4 Y9.7 Z1.42 F1800.0
G1 X-27.14 Y9.7 Z1.42 F1800.0
G1 X-25.22 Y7.64 Z1.42 F1800.0
G1 X-24.96 Y7.64 Z1.42 F1800.0
G1 X-23.04 Y9.7 Z1.42 F1800.0
G1 X-22.78 Y9.7 Z1.42 F1800.0
G1 X-20.85 Y7.64 Z1.42 F1800.0
G1 X-20.6 Y7.64 Z1.42 F1800.0
G1 X-18.67 Y9.7 Z1.42 F1800.0
G1 X-18.42 Y9.7 Z1.42 F1800.0
G1 X-16.49 Y7.64 Z1.42 F1800.0
G1 X-16.24 Y7.64 Z1.42 F1800.0
G1 X-14.31 Y9.7 Z1.42 F1800.0
G1 X-14.05 Y9.7 Z1.42 F1800.0
G1 X-12.13 Y7.64 Z1.42 F1800.0
G1 X-11.87 Y7.64 Z1.42 F1800.0
G1 X-9.95 Y9.7 Z1.42 F1800.0
G1 X-9.69 Y9.7 Z1.42 F1800.0
G1 X-7.76 Y7.75 Z1.42 F1800.0
G1 X-7.51 Y7.75 Z1.42 F1800.0
G1 X-5.58 Y9.7 Z1.42 F1800.0
G1 X-5.33 Y9.7 Z1.42 F1800.0
G1 X-3.4 Y7.75 Z1.42 F1800.0
G1 X-3.15 Y7.75 Z1.42 F1800.0
G1 X-1.22 Y9.7 Z1.42 F1800.0
G1 X-0.96 Y9.7 Z1.42 F1800.0
G1 X0.96 Y7.64 Z1.42 F1800.0
G1 X1.22 Y7.64 Z1.42 F1800.0
G1 X3.15 Y9.7 Z1.42 F1800.0
G1 X3.4 Y9.7 Z1.42 F1800.0
G1 X5.33 Y7.64 Z1.42 F1800.0
G1 X5.58 Y7.64 Z1.42 F1800.0
G1 X7.51 Y9.7 Z1.42 F1800.0
G1 X7.76 Y9.7 Z1.42 F1800.0
G1 X9.69 Y7.75 Z1.42 F1800.0
G1 X9.95 Y7.75 Z1.42 F1800.0
G1 X11.87 Y9.7 Z1.42 F1800.0
G1 X12.13 Y9.7 Z1.42 F1800.0
G1 X14.05 Y7.64 Z1.42 F1800.0
G1 X14.31 Y7.64 Z1.42 F1800.0
G1 X16.24 Y9.7 Z1.42 F1800.0
G1 X16.49 Y9.7 Z1.42 F1800.0
G1 X18.42 Y7.64 Z1.42 F1800.0
G1 X18.67 Y7.64 Z1.42 F1800.0
G1 X20.6 Y9.7 Z1.42 F1800.0
G1 X20.85 Y9.7 Z1.42 F1800.0
G1 X22.78 Y7.64 Z1.42 F1800.0
G1 X23.04 Y7.64 Z1.42 F1800.0
G1 X24.96 Y9.7 Z1.42 F1800.0
G1 X25.22 Y9.7 Z1.42 F1800.0
G1 X27.14 Y7.75 Z1.42 F1800.0
G1 X27.4 Y7.75 Z1.42 F1800.0
G1 X30.29 Y9.6 Z1.42 F1800.0
G1 X30.29 Y6.11 Z1.42 F1800.0
G1 X27.4 Y7.52 Z1.42 F1800.0
G1 X27.14 Y7.52 Z1.42 F1800.0
G1 X25.22 Y5.57 Z1.42 F1800.0
G1 X24.96 Y5.57 Z1.42 F1800.0
G1 X23.79 Y6.98 Z1.42 F1800.0
G1 X23.79 Y3.93 Z1.42 F1800.0
G1 X24.96 Y5.34 Z1.42 F1800.0
G1 X25.22 Y5.34 Z1.42 F1800.0
G1 X27.14 Y3.39 Z1.42 F1800.0
G1 X27.4 Y3.39 Z1.42 F1800.0
G1 X30.29 Y5.67 Z1.42 F1800.0
G1 X30.29 Y1.75 Z1.42 F1800.0
G1 X27.4 Y3.16 Z1.42 F1800.0
G1 X27.14 Y3.16 Z1.42 F1800.0
G1 X25.22 Y1.21 Z1.42 F1800.0
G1 X24.96 Y1.21 Z1.42 F1800.0
G1 X23.79 Y3.49 Z1.42 F1800.0
G1 X23.79 Y-0.44 Z1.42 F1800.0
G1 X24.96 Y0.98 Z1.42 F1800.0
G1 X25.22 Y0.98 Z1.42 F1800.0
G1 X27.14 Y-0.98 Z1.42 F1800.0
G1 X27.4 Y-0.98 Z1.42 F1800.0
G1 X30.29 Y1.31 Z1.42 F1800.0
G1 X30.29 Y-2.62 Z1.42 F1800.0
G1 X27.4 Y-1.21 Z1.42 F1800.0
G1 X27.14 Y-1.21 Z1.42 F1800.0
G1 X25.22 Y-3.16 Z1.42 F1800.0
G1 X24.96 Y-3.16 Z1.42 F1800.0
G1 X23.79 Y-0.87 Z1.42 F1800.0
G1 X23.79 Y-5.24 Z1.42 F1800.0
G1 X24.96 Y-3.39 Z1.42 F1800.0
G1 X25.22 Y-3.39 Z1.42 F1800.0
G1 X27.14 Y-5.34 Z1.42 F1800.0
G1 X27.4 Y-5.34 Z1.42 F1800.0
G1 X30.29 Y-3.05 Z1.42 F1800.0
G1 X30.29 Y-6.98 Z1.42 F1800.0
G1 X27.4 Y-5.57 Z1.42 F1800.0
G1 X27.14 Y-5.57 Z1.42 F1800.0
G1 X25.22 Y-7.52 Z1.42 F1800.0
G1 X24.96 Y-7.52 Z1.42 F1800.0
G1 X23.42 Y-5.91 Z1.42 F1800.0
G1 X20.85 Y-7.52 Z1.42 F1800.0
G1 X11.87 Y-7.52 Z1.42 F1800.0
G1 X9.95 Y-5.57 Z1.42 F1800.0
G1 X9.69 Y-5.57 Z1.42 F1800.0
G1 X7.76 Y-7.52 Z1.42 F1800.0
G1 X-1.22 Y-7.52 Z1.42 F1800.0
G1 X-3.15 Y-5.57 Z1.42 F1800.0
G1 X-3.4 Y-5.57 Z1.42 F1800.0
G1 X-5.33 Y-7.52 Z1.42 F1800.0
G1 X-5.58 Y-7.52 Z1.42 F1800.0
G1 X-7.51 Y-5.57 Z1.42 F1800.0
G1 X-7.76 Y-5.57 Z1.42 F1800.0
G1 X-8.07 Y-5.67 Z1.42 F1800.0
G1 X-7.93 Y-6.09 Z1.42 F1800.0
G1 X-9.69 Y-7.52 Z1.42 F1800.0
G1 X-27.4 Y-7.52 Z1.42 F1800.0
G1 X-29.33 Y-5.57 Z1.42 F1800.0
G1 X-29.58 Y-5.57 Z1.42 F1800.0
G1 X-30.29 Y-5.24 Z1.42 F1800.0
G1 X-30.29 Y-9.6 Z1.42 F1800.0
G1 X-29.33 Y-9.7 Z1.42 F1800.0
G1 X-27.4 Y-7.75 Z1.42 F1800.0
G1 X-27.14 Y-7.75 Z1.42 F1800.0
G1 X-25.22 Y-9.7 Z1.42 F1800.0
G1 X-24.96 Y-9.7 Z1.42 F1800.0
G1 X-23.04 Y-7.75 Z1.42 F1800.0
G1 X-22.78 Y-7.75 Z1.42 F1800.0
G1 X-20.85 Y-9.7 Z1.42 F1800.0
G1 X-20.6 Y-9.7 Z1.42 F1800.0
G1 X-18.67 Y-7.75 Z1.42 F1800.0
G1 X-18.42 Y-7.75 Z1.42 F1800.0
G1 X-16.49 Y-9.7 Z1.42 F1800.0
G1 X-16.24 Y-9.7 Z1.42 F1800.0
G1 X-14.31 Y-7.75 Z1.42 F1800.0
G1 X-14.05 Y-7.75 Z1.42 F1800.0
G1 X-12.13 Y-9.7 Z1.42 F1800.0
G1 X-11.87 Y-9.7 Z1.42 F1800.0
G1 X-9.95 Y-7.75 Z1.42 F1800.0
G1 X-9.69 Y-7.75 Z1.42 F1800.0
G1 X-7.76 Y-9.7 Z1.42 F1800.0
G1 X-7.51 Y-9.7 Z1.42 F1800.0
G1 X-5.58 Y-7.75 Z1.42 F1800.0
G1 X-5.33 Y-7.75 Z1.42 F1800.0
G1 X-3.4 Y-9.7 Z1.42 F1800.0
G1 X-3.15 Y-9.7 Z1.42 F1800.0
G1 X-1.22 Y-7.75 Z1.42 F1800.0
G1 X-0.96 Y-7.75 Z1.42 F1800.0
G1 X0.96 Y-9.7 Z1.42 F1800.0
G1 X1.22 Y-9.7 Z1.42 F1800.0
G1 X3.15 Y-7.75 Z1.42 F1800.0
G1 X3.4 Y-7.75 Z1.42 F1800.0
G1 X5.33 Y-9.7 Z1.42 F1800.0
G1 X5.58 Y-9.7 Z1.42 F1800.0
G1 X7.51 Y-7.75 Z1.42 F1800.0
G1 X7.76 Y-7.75 Z1.42 F1800.0
G1 X9.69 Y-9.7 Z1.42 F1800.0
G1 X9.95 Y-9.7 Z1.42 F1800.0
G1 X11.87 Y-7.75 Z1.42 F1800.0
G1 X12.13 Y-7.75 Z1.42 F1800.0
G1 X14.05 Y-9.7 Z1.42 F1800.0
G1 X14.31 Y-9.7 Z1.42 F1800.0
G1 X16.24 Y-7.75 Z1.42 F1800.0
G1 X16.49 Y-7.75 Z1.42 F1800.0
G1 X18.42 Y-9.7 Z1.42 F1800.0
G1 X18.67 Y-9.7 Z1.42 F1800.0
G1 X20.6 Y-7.75 Z1.42 F1800.0
G1 X20.85 Y-7.75 Z1.42 F1800.0
G1 X22.78 Y-9.7 Z1.42 F1800.0
G1 X23.04 Y-9.7 Z1.42 F1800.0
G1 X24.96 Y-7.75 Z1.42 F1800.0
G1 X25.22 Y-7.75 Z1.42 F1800.0
G1 X27.14 Y-9.7 Z1.42 F1800.0
G1 X27.4 Y-9.7 Z1.42 F1800.0
G1 X30.29 Y-7.42 Z1.42 F1800.0
G1 X30.29 Y-10.47 Z1.42 F1800.0
G1 X27.4 Y-9.93 Z1.42 F1800.0
G1 X-29.58 Y-9.93 Z1.42 F1800.0
G1 X-30.28 Y-10.03 Z1.42 F1800.0
M108 R30.0
M102
G1 X-30.29 Y-10.04 Z1.42 F1800.0
G1 X-30.29 Y-10.47 Z1.42 F1800.0
M108 R3.569
M103
G1 X-30.29 Y-3.42 Z1.42 F3000.0
M108 R30.0
M101
G1 X-30.29 Y-2.62 Z1.42 F3000.0
M108 R3.569
G1 X-30.29 Y-4.8 Z1.42 F1800.0
G1 X-29.58 Y-5.34 Z1.42 F1800.0
G1 X-26.74 Y-5.67 Z1.42 F1800.0
G1 X-26.74 Y-0.87 Z1.42 F1800.0
G1 X-29.58 Y-1.21 Z1.42 F1800.0
G1 X-30.29 Y-2.18 Z1.42 F1800.0
G1 X-30.29 Y1.75 Z1.42 F1800.0
G1 X-29.85 Y0.87 Z1.42 F1800.0
G1 X-29.58 Y-0.98 Z1.42 F1800.0
G1 X-29.33 Y-0.98 Z1.42 F1800.0
G1 X-26.74 Y-0.44 Z1.42 F1800.0
G1 X-26.74 Y3.49 Z1.42 F1800.0
G1 X-29.58 Y3.16 Z1.42 F1800.0
G1 X-30.29 Y2.18 Z1.42 F1800.0
G1 X-30.29 Y5.67 Z1.42 F1800.0
G1 X-29.85 Y5.24 Z1.42 F1800.0
G1 X-29.58 Y3.39 Z1.42 F1800.0
G1 X-29.33 Y3.39 Z1.42 F1800.0
G1 X-26.74 Y3.93 Z1.42 F1800.0
G1 X-26.74 Y6.98 Z1.42 F1800.0
G1 X-29.33 Y7.52 Z1.42 F1800.0
G1 X-29.58 Y7.52 Z1.42 F1800.0
G1 X-30.29 Y8.29 Z1.42 F1800.0
G1 X-30.29 Y6.56 Z1.42 F1800.0
M108 R30.0
M102
G1 X-30.29 Y6.11 Z1.42 F1800.0
M108 R3.569
M103
(</surroundingLoop>)
(</layer>)
(<layer> 1.74 )
(<surroundingLoop>)
(<boundaryPerimeter>)
(<boundaryPoint> X31.135 Y11.617 Z1.74 </boundaryPoint>)
(<boundaryPoint> X-31.135 Y11.617 Z1.74 </boundaryPoint>)
(<boundaryPoint> X-31.135 Y-11.617 Z1.74 </boundaryPoint>)
(<boundaryPoint> X31.135 Y-11.617 Z1.74 </boundaryPoint>)
(<loop> inner )
G1 X-27.28 Y5.85 Z1.67 F3000.0
M108 R30.0
M101
G1 X-26.48 Y5.79 Z1.74 F3000.0
M108 R3.569
G1 X-26.48 Y6.11 Z1.74 F1800.0
G1 X-26.48 Y6.82 Z1.74 F1800.0
G1 X-8.32 Y6.82 Z1.74 F1800.0
G1 X-8.32 Y-5.69 Z1.74 F1800.0
G1 X-26.48 Y-5.69 Z1.74 F1800.0
G1 X-26.48 Y5.34 Z1.74 F1800.0
M108 R30.0
M102
G1 X-26.48 Y5.79 Z1.74 F1800.0
M108 R3.569
M103
(</loop>)
(<loop> inner )
G1 X-26.17 Y5.79 Z1.74 F3000.0
G1 X-26.03 Y6.37 Z1.74 F3000.0
G1 X-8.77 Y6.37 Z1.74 F3000.0
G1 X-8.64 Y5.79 Z1.74 F3000.0
G1 X1.43 Y5.79 Z1.74 F3000.0
G1 X1.56 Y6.37 Z1.74 F3000.0
G1 X5.78 Y6.37 Z1.74 F3000.0
G1 X5.92 Y5.79 Z1.74 F3000.0
G1 X12.36 Y5.79 Z1.74 F3000.0
M108 R30.0
M101
G1 X13.16 Y5.79 Z1.74 F3000.0
M108 R3.569
G1 X13.16 Y6.11 Z1.74 F1800.0
G1 X13.16 Y6.82 Z1.74 F1800.0
G1 X23.54 Y6.82 Z1.74 F1800.0
G1 X23.54 Y-5.69 Z1.74 F1800.0
G1 X13.16 Y-5.69 Z1.74 F1800.0
G1 X13.16 Y5.34 Z1.74 F1800.0
M108 R30.0
M102
G1 X13.16 Y5.79 Z1.74 F1800.0
M108 R3.569
M103
(</loop>)
(<loop> inner )
G1 X7.03 Y5.79 Z1.74 F3000.0
M108 R30.0
M101
G1 X6.23 Y5.79 Z1.74 F3000.0
M108 R3.569
G1 X6.23 Y-5.69 Z1.74 F1800.0
G1 X1.11 Y-5.69 Z1.74 F1800.0
G1 X1.11 Y6.82 Z1.74 F1800.0
G1 X6.23 Y6.82 Z1.74 F1800.0
G1 X6.23 Y6.24 Z1.74 F1800.0
M108 R30.0
M102
G1 X6.23 Y6.11 Z1.74 F1800.0
G1 X6.23 Y5.79 Z1.74 F1800.0
M108 R3.569
M103
(</loop>)
(<loop> outer )
G1 X6.23 Y10.23 Z1.74 F3000.0
M108 R30.0
M101
G1 X6.23 Y11.03 Z1.74 F3000.0
M108 R3.569
G1 X-30.55 Y11.03 Z1.74 F1800.0
G1 X-30.55 Y-11.03 Z1.74 F1800.0
G1 X30.55 Y-11.03 Z1.74 F1800.0
G1 X30.55 Y11.03 Z1.74 F1800.0
G1 X6.23 Y11.03 Z1.74 F1800.0
M103
(</loop>)
(<perimeter> outer )
G1 X6.23 Y11.42 Z1.74 F3000.0
M101
G1 X-30.94 Y11.42 Z1.74 F1800.0
G1 X-30.94 Y-11.42 Z1.74 F1800.0
G1 X30.94 Y-11.42 Z1.74 F1800.0
G1 X30.94 Y11.42 Z1.74 F1800.0
G1 X6.68 Y11.42 Z1.74 F1800.0
M108 R30.0
M102
G1 X6.23 Y11.42 Z1.74 F1800.0
M108 R3.569
M103
(</perimeter>)
(</boundaryPerimeter>)
(<surroundingLoop>)
(<boundaryPerimeter>)
(<boundaryPoint> X5.643 Y6.233 Z1.74 </boundaryPoint>)
(<boundaryPoint> X5.643 Y-5.1 Z1.74 </boundaryPoint>)
(<boundaryPoint> X1.701 Y-5.1 Z1.74 </boundaryPoint>)
(<boundaryPoint> X1.701 Y6.233 Z1.74 </boundaryPoint>)
(<perimeter> inner )
G1 X5.9 Y7.23 Z1.74 F3000.0
M108 R30.0
M101
G1 X5.84 Y6.43 Z1.74 F3000.0
M108 R3.569
G1 X5.84 Y-5.3 Z1.74 F1800.0
G1 X1.51 Y-5.3 Z1.74 F1800.0
G1 X1.51 Y6.43 Z1.74 F1800.0
G1 X5.39 Y6.43 Z1.74 F1800.0
M108 R30.0
M102
G1 X5.84 Y6.43 Z1.74 F1800.0
M108 R3.569
M103
(</perimeter>)
(</boundaryPerimeter>)
(</surroundingLoop>)
(<surroundingLoop>)
(<boundaryPerimeter>)
(<boundaryPoint> X22.946 Y-5.1 Z1.74 </boundaryPoint>)
(<boundaryPoint> X13.748 Y-5.1 Z1.74 </boundaryPoint>)
(<boundaryPoint> X13.748 Y6.233 Z1.74 </boundaryPoint>)
(<boundaryPoint> X22.946 Y6.233 Z1.74 </boundaryPoint>)
(<perimeter> inner )
G1 X12.75 Y6.43 Z1.74 F3000.0
M108 R30.0
M101
G1 X13.55 Y6.43 Z1.74 F3000.0
M108 R3.569
G1 X23.14 Y6.43 Z1.74 F1800.0
G1 X23.14 Y-5.3 Z1.74 F1800.0
G1 X13.55 Y-5.3 Z1.74 F1800.0
G1 X13.55 Y5.98 Z1.74 F1800.0
M108 R30.0
M102
G1 X13.55 Y6.43 Z1.74 F1800.0
M108 R3.569
M103
(</perimeter>)
(</boundaryPerimeter>)
(</surroundingLoop>)
(<surroundingLoop>)
(<boundaryPerimeter>)
(<boundaryPoint> X-8.912 Y-5.1 Z1.74 </boundaryPoint>)
(<boundaryPoint> X-25.892 Y-5.1 Z1.74 </boundaryPoint>)
(<boundaryPoint> X-25.892 Y6.233 Z1.74 </boundaryPoint>)
(<boundaryPoint> X-8.912 Y6.233 Z1.74 </boundaryPoint>)
(<perimeter> inner )
G1 X-7.92 Y6.43 Z1.74 F3000.0
M108 R30.0
M101
G1 X-8.72 Y6.43 Z1.74 F3000.0
M108 R3.569
G1 X-8.72 Y-5.3 Z1.74 F1800.0
G1 X-26.09 Y-5.3 Z1.74 F1800.0
G1 X-26.09 Y6.43 Z1.74 F1800.0
G1 X-9.17 Y6.43 Z1.74 F1800.0
M108 R30.0
M102
G1 X-8.72 Y6.43 Z1.74 F1800.0
M108 R3.569
M103
(</perimeter>)
(</boundaryPerimeter>)
(</surroundingLoop>)
G1 X-25.82 Y7.05 Z1.74 F3000.0
M108 R30.0
M101
G1 X-26.62 Y7.08 Z1.74 F3000.0
M108 R3.569
G1 X-25.31 Y7.08 Z1.74 F1800.0
G1 X-25.2 Y7.51 Z1.74 F1800.0
G1 X-25.2 Y7.76 Z1.74 F1800.0
G1 X-27.16 Y9.69 Z1.74 F1800.0
G1 X-27.16 Y9.95 Z1.74 F1800.0
G1 X-26.62 Y10.77 Z1.74 F1800.0
G1 X-23.13 Y10.77 Z1.74 F1800.0
G1 X-23.02 Y9.69 Z1.74 F1800.0
G1 X-24.97 Y7.76 Z1.74 F1800.0
G1 X-24.97 Y7.51 Z1.74 F1800.0
G1 X-24.87 Y7.08 Z1.74 F1800.0
G1 X-20.94 Y7.08 Z1.74 F1800.0
G1 X-20.84 Y7.51 Z1.74 F1800.0
G1 X-20.84 Y7.76 Z1.74 F1800.0
G1 X-22.79 Y9.69 Z1.74 F1800.0
G1 X-22.69 Y10.77 Z1.74 F1800.0
G1 X-18.76 Y10.77 Z1.74 F1800.0
G1 X-18.66 Y9.69 Z1.74 F1800.0
G1 X-20.61 Y7.76 Z1.74 F1800.0
G1 X-20.61 Y7.51 Z1.74 F1800.0
G1 X-20.51 Y7.08 Z1.74 F1800.0
G1 X-16.58 Y7.08 Z1.74 F1800.0
G1 X-16.48 Y7.51 Z1.74 F1800.0
G1 X-16.48 Y7.76 Z1.74 F1800.0
G1 X-18.43 Y9.69 Z1.74 F1800.0
G1 X-18.33 Y10.77 Z1.74 F1800.0
G1 X-14.4 Y10.77 Z1.74 F1800.0
G1 X-14.3 Y9.69 Z1.74 F1800.0
G1 X-16.25 Y7.76 Z1.74 F1800.0
G1 X-16.25 Y7.51 Z1.74 F1800.0
G1 X-16.14 Y7.08 Z1.74 F1800.0
G1 X-12.22 Y7.08 Z1.74 F1800.0
G1 X-12.11 Y7.51 Z1.74 F1800.0
G1 X-12.11 Y7.76 Z1.74 F1800.0
G1 X-14.07 Y9.69 Z1.74 F1800.0
G1 X-13.96 Y10.77 Z1.74 F1800.0
G1 X-10.04 Y10.77 Z1.74 F1800.0
G1 X-9.93 Y9.69 Z1.74 F1800.0
G1 X-11.88 Y7.76 Z1.74 F1800.0
G1 X-11.88 Y7.51 Z1.74 F1800.0
G1 X-11.78 Y7.08 Z1.74 F1800.0
G1 X-8.29 Y7.08 Z1.74 F1800.0
G1 X-7.75 Y7.51 Z1.74 F1800.0
G1 X-7.75 Y7.76 Z1.74 F1800.0
G1 X-9.7 Y9.69 Z1.74 F1800.0
G1 X-9.6 Y10.77 Z1.74 F1800.0
G1 X-7.87 Y10.77 Z1.74 F1800.0
M108 R30.0
M102
G1 X-7.42 Y10.77 Z1.74 F1800.0
M108 R3.569
M103
G1 X-3.85 Y10.77 Z1.74 F3000.0
M108 R30.0
M101
G1 X-3.05 Y10.77 Z1.74 F3000.0
M108 R3.569
G1 X-1.31 Y10.77 Z1.74 F1800.0
G1 X-1.21 Y9.69 Z1.74 F1800.0
G1 X-3.16 Y7.76 Z1.74 F1800.0
G1 X-3.16 Y7.51 Z1.74 F1800.0
G1 X-1.21 Y5.58 Z1.74 F1800.0
G1 X-1.21 Y5.33 Z1.74 F1800.0
G1 X-3.16 Y3.4 Z1.74 F1800.0
G1 X-3.16 Y3.15 Z1.74 F1800.0
G1 X-1.21 Y1.22 Z1.74 F1800.0
G1 X-1.21 Y0.96 Z1.74 F1800.0
G1 X-3.16 Y-0.96 Z1.74 F1800.0
G1 X-3.16 Y-1.22 Z1.74 F1800.0
G1 X-1.21 Y-3.15 Z1.74 F1800.0
G1 X-1.21 Y-3.4 Z1.74 F1800.0
G1 X-3.16 Y-5.33 Z1.74 F1800.0
G1 X-3.16 Y-5.58 Z1.74 F1800.0
G1 X-1.21 Y-7.51 Z1.74 F1800.0
G1 X-1.21 Y-7.76 Z1.74 F1800.0
G1 X-3.27 Y-9.69 Z1.74 F1800.0
G1 X-3.27 Y-9.95 Z1.74 F1800.0
G1 X-1.31 Y-10.34 Z1.74 F1800.0
G1 X-1.75 Y-10.77 Z1.74 F1800.0
G1 X-5.24 Y-10.77 Z1.74 F1800.0
G1 X-5.34 Y-7.51 Z1.74 F1800.0
G1 X-3.39 Y-5.58 Z1.74 F1800.0
G1 X-3.39 Y-5.33 Z1.74 F1800.0
G1 X-5.34 Y-3.4 Z1.74 F1800.0
G1 X-5.34 Y-3.15 Z1.74 F1800.0
G1 X-3.39 Y-1.22 Z1.74 F1800.0
G1 X-3.39 Y-0.96 Z1.74 F1800.0
G1 X-5.34 Y0.96 Z1.74 F1800.0
G1 X-5.34 Y1.22 Z1.74 F1800.0
G1 X-3.39 Y3.15 Z1.74 F1800.0
G1 X-3.39 Y3.4 Z1.74 F1800.0
G1 X-5.34 Y5.33 Z1.74 F1800.0
G1 X-5.34 Y5.58 Z1.74 F1800.0
G1 X-3.39 Y7.51 Z1.74 F1800.0
G1 X-3.39 Y7.76 Z1.74 F1800.0
G1 X-5.45 Y9.69 Z1.74 F1800.0
G1 X-5.45 Y9.95 Z1.74 F1800.0
G1 X-3.49 Y10.34 Z1.74 F1800.0
G1 X-3.93 Y10.77 Z1.74 F1800.0
G1 X-6.98 Y10.77 Z1.74 F1800.0
G1 X-7.52 Y7.51 Z1.74 F1800.0
G1 X-5.57 Y5.58 Z1.74 F1800.0
G1 X-5.57 Y5.33 Z1.74 F1800.0
G1 X-7.64 Y3.4 Z1.74 F1800.0
G1 X-7.64 Y3.15 Z1.74 F1800.0
G1 X-5.57 Y1.22 Z1.74 F1800.0
G1 X-5.57 Y0.96 Z1.74 F1800.0
G1 X-7.64 Y-0.96 Z1.74 F1800.0
G1 X-7.64 Y-1.22 Z1.74 F1800.0
G1 X-5.57 Y-3.15 Z1.74 F1800.0
G1 X-5.57 Y-3.4 Z1.74 F1800.0
G1 X-7.64 Y-5.33 Z1.74 F1800.0
G1 X-7.64 Y-5.58 Z1.74 F1800.0
G1 X-5.57 Y-7.51 Z1.74 F1800.0
G1 X-5.57 Y-7.76 Z1.74 F1800.0
G1 X-7.64 Y-9.69 Z1.74 F1800.0
G1 X-7.64 Y-9.95 Z1.74 F1800.0
G1 X-5.67 Y-10.34 Z1.74 F1800.0
G1 X-6.11 Y-10.77 Z1.74 F1800.0
G1 X-9.6 Y-10.77 Z1.74 F1800.0
G1 X-9.7 Y-7.51 Z1.74 F1800.0
G1 X-8.29 Y-5.95 Z1.74 F1800.0
G1 X-11.78 Y-5.95 Z1.74 F1800.0
G1 X-9.93 Y-7.51 Z1.74 F1800.0
G1 X-9.93 Y-7.76 Z1.74 F1800.0
G1 X-12.0 Y-9.69 Z1.74 F1800.0
G1 X-12.0 Y-9.95 Z1.74 F1800.0
G1 X-10.04 Y-10.34 Z1.74 F1800.0
G1 X-10.47 Y-10.77 Z1.74 F1800.0
G1 X-13.96 Y-10.77 Z1.74 F1800.0
G1 X-14.07 Y-7.51 Z1.74 F1800.0
G1 X-12.22 Y-5.95 Z1.74 F1800.0
G1 X-16.14 Y-5.95 Z1.74 F1800.0
G1 X-14.3 Y-7.51 Z1.74 F1800.0
G1 X-14.3 Y-7.76 Z1.74 F1800.0
G1 X-16.36 Y-9.69 Z1.74 F1800.0
G1 X-16.36 Y-9.95 Z1.74 F1800.0
G1 X-14.4 Y-10.34 Z1.74 F1800.0
G1 X-14.84 Y-10.77 Z1.74 F1800.0
G1 X-18.33 Y-10.77 Z1.74 F1800.0
G1 X-18.43 Y-7.51 Z1.74 F1800.0
G1 X-16.58 Y-5.95 Z1.74 F1800.0
G1 X-20.51 Y-5.95 Z1.74 F1800.0
G1 X-18.66 Y-7.51 Z1.74 F1800.0
G1 X-18.66 Y-7.76 Z1.74 F1800.0
G1 X-20.73 Y-9.69 Z1.74 F1800.0
G1 X-20.73 Y-9.95 Z1.74 F1800.0
G1 X-18.76 Y-10.34 Z1.74 F1800.0
G1 X-19.2 Y-10.77 Z1.74 F1800.0
G1 X-22.69 Y-10.77 Z1.74 F1800.0
G1 X-22.79 Y-7.51 Z1.74 F1800.0
G1 X-20.94 Y-5.95 Z1.74 F1800.0
G1 X-24.44 Y-5.95 Z1.74 F1800.0
G1 X-23.02 Y-7.51 Z1.74 F1800.0
G1 X-23.02 Y-7.76 Z1.74 F1800.0
G1 X-25.09 Y-9.69 Z1.74 F1800.0
G1 X-25.09 Y-9.95 Z1.74 F1800.0
G1 X-23.13 Y-10.34 Z1.74 F1800.0
G1 X-23.56 Y-10.77 Z1.74 F1800.0
G1 X-27.05 Y-10.77 Z1.74 F1800.0
G1 X-27.16 Y-7.51 Z1.74 F1800.0
G1 X-26.62 Y-5.95 Z1.74 F1800.0
G1 X-25.32 Y-5.95 Z1.74 F1800.0
M108 R30.0
M102
G1 X-24.87 Y-5.95 Z1.74 F1800.0
M108 R3.569
M103
G1 X-27.11 Y-10.07 Z1.74 F3000.0
M108 R30.0
M101
G1 X-27.49 Y-10.77 Z1.74 F3000.0
M108 R3.569
G1 X-29.23 Y-10.77 Z1.74 F1800.0
G1 X-29.34 Y-9.69 Z1.74 F1800.0
G1 X-27.39 Y-7.76 Z1.74 F1800.0
G1 X-27.39 Y-7.51 Z1.74 F1800.0
G1 X-29.34 Y-5.58 Z1.74 F1800.0
G1 X-29.34 Y7.76 Z1.74 F1800.0
G1 X-27.39 Y9.69 Z1.74 F1800.0
G1 X-27.39 Y9.95 Z1.74 F1800.0
G1 X-27.05 Y10.77 Z1.74 F1800.0
G1 X-30.11 Y10.77 Z1.74 F1800.0
G1 X-29.57 Y7.76 Z1.74 F1800.0
G1 X-29.57 Y-9.95 Z1.74 F1800.0
G1 X-29.67 Y-10.76 Z1.74 F1800.0
M108 R30.0
M102
G1 X-29.67 Y-10.77 Z1.74 F1800.0
G1 X-30.11 Y-10.77 Z1.74 F1800.0
M108 R3.569
M103
G1 X-1.67 Y-10.77 Z1.74 F3000.0
M108 R30.0
M101
G1 X-0.87 Y-10.77 Z1.74 F3000.0
M108 R3.569
G1 X0.87 Y-10.77 Z1.74 F1800.0
G1 X0.98 Y-9.69 Z1.74 F1800.0
G1 X-0.98 Y-7.76 Z1.74 F1800.0
G1 X-0.98 Y5.58 Z1.74 F1800.0
G1 X0.87 Y7.08 Z1.74 F1800.0
G1 X0.98 Y7.51 Z1.74 F1800.0
G1 X0.98 Y7.76 Z1.74 F1800.0
G1 X-0.98 Y9.69 Z1.74 F1800.0
G1 X-0.87 Y10.77 Z1.74 F1800.0
G1 X3.05 Y10.77 Z1.74 F1800.0
G1 X3.16 Y9.69 Z1.74 F1800.0
G1 X1.21 Y7.76 Z1.74 F1800.0
G1 X1.21 Y7.51 Z1.74 F1800.0
G1 X1.31 Y7.08 Z1.74 F1800.0
G1 X5.24 Y7.08 Z1.74 F1800.0
G1 X5.34 Y7.51 Z1.74 F1800.0
G1 X5.34 Y7.76 Z1.74 F1800.0
G1 X3.39 Y9.69 Z1.74 F1800.0
G1 X3.49 Y10.77 Z1.74 F1800.0
G1 X7.85 Y10.77 Z1.74 F1800.0
G1 X7.52 Y9.95 Z1.74 F1800.0
G1 X7.52 Y9.69 Z1.74 F1800.0
G1 X5.57 Y7.76 Z1.74 F1800.0
G1 X5.57 Y7.51 Z1.74 F1800.0
G1 X5.67 Y7.09 Z1.74 F1800.0
M108 R30.0
M102
G1 X5.67 Y7.08 Z1.74 F1800.0
G1 X6.11 Y7.08 Z1.74 F1800.0
M108 R3.569
M103
G1 X13.47 Y1.29 Z1.74 F3000.0
G1 X13.61 Y-5.24 Z1.74 F3000.0
G1 X22.18 Y-5.38 Z1.74 F3000.0
G1 X29.02 Y-10.3 Z1.74 F3000.0
M108 R30.0
M101
G1 X29.67 Y-10.77 Z1.74 F3000.0
M108 R3.569
G1 X30.11 Y-10.77 Z1.74 F1800.0
G1 X30.11 Y10.77 Z1.74 F1800.0
G1 X27.49 Y10.77 Z1.74 F1800.0
G1 X27.27 Y-9.95 Z1.74 F1800.0
G1 X29.23 Y-10.34 Z1.74 F1800.0
G1 X28.8 Y-10.77 Z1.74 F1800.0
G1 X25.31 Y-10.77 Z1.74 F1800.0
G1 X25.2 Y-7.51 Z1.74 F1800.0
G1 X27.16 Y-5.58 Z1.74 F1800.0
G1 X27.16 Y-5.33 Z1.74 F1800.0
G1 X25.09 Y-3.4 Z1.74 F1800.0
G1 X25.09 Y-3.15 Z1.74 F1800.0
G1 X27.16 Y-1.22 Z1.74 F1800.0
G1 X27.16 Y-0.96 Z1.74 F1800.0
G1 X25.09 Y0.96 Z1.74 F1800.0
G1 X25.09 Y1.22 Z1.74 F1800.0
G1 X27.16 Y3.15 Z1.74 F1800.0
G1 X27.16 Y3.4 Z1.74 F1800.0
G1 X25.09 Y5.33 Z1.74 F1800.0
G1 X25.09 Y5.58 Z1.74 F1800.0
G1 X27.16 Y7.51 Z1.74 F1800.0
G1 X27.16 Y7.76 Z1.74 F1800.0
G1 X25.09 Y9.69 Z1.74 F1800.0
G1 X25.09 Y9.95 Z1.74 F1800.0
G1 X27.05 Y10.34 Z1.74 F1800.0
G1 X26.62 Y10.77 Z1.74 F1800.0
G1 X23.13 Y10.77 Z1.74 F1800.0
G1 X23.02 Y7.64 Z1.74 F1800.0
G1 X23.56 Y7.08 Z1.74 F1800.0
G1 X20.51 Y7.08 Z1.74 F1800.0
G1 X20.73 Y9.95 Z1.74 F1800.0
G1 X22.69 Y10.34 Z1.74 F1800.0
G1 X22.25 Y10.77 Z1.74 F1800.0
G1 X18.76 Y10.77 Z1.74 F1800.0
G1 X18.66 Y7.64 Z1.74 F1800.0
G1 X20.07 Y7.51 Z1.74 F1800.0
G1 X19.64 Y7.08 Z1.74 F1800.0
G1 X16.58 Y7.08 Z1.74 F1800.0
G1 X16.36 Y9.95 Z1.74 F1800.0
G1 X18.33 Y10.34 Z1.74 F1800.0
G1 X17.89 Y10.77 Z1.74 F1800.0
G1 X14.4 Y10.77 Z1.74 F1800.0
G1 X14.18 Y7.51 Z1.74 F1800.0
G1 X15.27 Y7.51 Z1.74 F1800.0
G1 X16.14 Y7.08 Z1.74 F1800.0
G1 X13.09 Y7.08 Z1.74 F1800.0
G1 X13.96 Y10.77 Z1.74 F1800.0
G1 X12.22 Y10.77 Z1.74 F1800.0
G1 X12.11 Y9.95 Z1.74 F1800.0
G1 X12.11 Y-7.76 Z1.74 F1800.0
G1 X14.07 Y-9.69 Z1.74 F1800.0
G1 X13.96 Y-10.77 Z1.74 F1800.0
G1 X10.04 Y-10.77 Z1.74 F1800.0
G1 X9.93 Y-9.69 Z1.74 F1800.0
G1 X11.88 Y-7.76 Z1.74 F1800.0
G1 X11.88 Y-7.51 Z1.74 F1800.0
G1 X9.93 Y-5.58 Z1.74 F1800.0
G1 X9.93 Y7.76 Z1.74 F1800.0
G1 X11.88 Y9.69 Z1.74 F1800.0
G1 X11.78 Y10.77 Z1.74 F1800.0
G1 X8.29 Y10.77 Z1.74 F1800.0
G1 X7.75 Y9.95 Z1.74 F1800.0
G1 X7.75 Y9.69 Z1.74 F1800.0
G1 X9.7 Y7.76 Z1.74 F1800.0
G1 X9.7 Y7.51 Z1.74 F1800.0
G1 X7.64 Y5.58 Z1.74 F1800.0
G1 X7.64 Y5.33 Z1.74 F1800.0
G1 X9.7 Y3.4 Z1.74 F1800.0
G1 X9.7 Y3.15 Z1.74 F1800.0
G1 X7.64 Y1.22 Z1.74 F1800.0
G1 X7.64 Y0.96 Z1.74 F1800.0
G1 X9.7 Y-0.96 Z1.74 F1800.0
G1 X9.7 Y-1.22 Z1.74 F1800.0
G1 X7.64 Y-3.15 Z1.74 F1800.0
G1 X7.64 Y-3.4 Z1.74 F1800.0
G1 X9.7 Y-5.33 Z1.74 F1800.0
G1 X9.7 Y-5.58 Z1.74 F1800.0
G1 X7.75 Y-7.51 Z1.74 F1800.0
G1 X7.75 Y-7.76 Z1.74 F1800.0
G1 X9.7 Y-9.69 Z1.74 F1800.0
G1 X9.6 Y-10.77 Z1.74 F1800.0
G1 X5.67 Y-10.77 Z1.74 F1800.0
G1 X5.57 Y-9.69 Z1.74 F1800.0
G1 X7.52 Y-7.76 Z1.74 F1800.0
G1 X7.52 Y-7.51 Z1.74 F1800.0
G1 X6.11 Y-5.95 Z1.74 F1800.0
G1 X3.49 Y-5.95 Z1.74 F1800.0
G1 X3.39 Y-7.76 Z1.74 F1800.0
G1 X5.34 Y-9.69 Z1.74 F1800.0
G1 X5.24 Y-10.77 Z1.74 F1800.0
G1 X1.31 Y-10.77 Z1.74 F1800.0
G1 X1.21 Y-9.69 Z1.74 F1800.0
G1 X3.16 Y-7.76 Z1.74 F1800.0
G1 X3.05 Y-5.95 Z1.74 F1800.0
G1 X1.32 Y-5.95 Z1.74 F1800.0
M108 R30.0
M102
G1 X0.87 Y-5.95 Z1.74 F1800.0
M108 R3.569
M103
G1 X12.29 Y-5.95 Z1.74 F3000.0
M108 R30.0
M101
G1 X13.09 Y-5.95 Z1.74 F3000.0
M108 R3.569
G1 X16.14 Y-5.95 Z1.74 F1800.0
G1 X16.25 Y-7.76 Z1.74 F1800.0
G1 X14.3 Y-9.69 Z1.74 F1800.0
G1 X14.4 Y-10.77 Z1.74 F1800.0
G1 X18.33 Y-10.77 Z1.74 F1800.0
G1 X18.43 Y-9.69 Z1.74 F1800.0
G1 X16.48 Y-7.76 Z1.74 F1800.0
G1 X16.58 Y-5.95 Z1.74 F1800.0
G1 X20.51 Y-5.95 Z1.74 F1800.0
G1 X20.61 Y-7.76 Z1.74 F1800.0
G1 X18.66 Y-9.69 Z1.74 F1800.0
G1 X18.76 Y-10.77 Z1.74 F1800.0
G1 X22.69 Y-10.77 Z1.74 F1800.0
G1 X22.79 Y-9.69 Z1.74 F1800.0
G1 X20.84 Y-7.76 Z1.74 F1800.0
G1 X20.94 Y-5.95 Z1.74 F1800.0
G1 X23.56 Y-5.95 Z1.74 F1800.0
G1 X24.97 Y-7.51 Z1.74 F1800.0
G1 X24.97 Y-7.76 Z1.74 F1800.0
G1 X23.02 Y-9.69 Z1.74 F1800.0
G1 X23.13 Y-10.77 Z1.74 F1800.0
G1 X24.42 Y-10.77 Z1.74 F1800.0
M108 R30.0
M102
G1 X24.87 Y-10.77 Z1.74 F1800.0
M108 R3.569
M103
(</surroundingLoop>)
(</layer>)
(<layer> 2.06 )
(<surroundingLoop>)
(<boundaryPerimeter>)
(<boundaryPoint> X31.135 Y11.617 Z2.06 </boundaryPoint>)
(<boundaryPoint> X-31.135 Y11.617 Z2.06 </boundaryPoint>)
(<boundaryPoint> X-31.135 Y-11.617 Z2.06 </boundaryPoint>)
(<boundaryPoint> X31.135 Y-11.617 Z2.06 </boundaryPoint>)
(<loop> inner )
G1 X-7.7 Y-5.81 Z2.05 F3000.0
M108 R30.0
M101
G1 X-8.49 Y-5.69 Z2.06 F3000.0
M108 R3.569
G1 X-26.48 Y-5.69 Z2.06 F1800.0
G1 X-26.48 Y6.82 Z2.06 F1800.0
G1 X-8.32 Y6.82 Z2.06 F1800.0
G1 X-8.32 Y-5.4 Z2.06 F1800.0
M108 R30.0
M102
G1 X-8.32 Y-5.69 Z2.06 F1800.0
G1 X-8.49 Y-5.69 Z2.06 F1800.0
M108 R3.569
M103
(</loop>)
(<loop> inner )
G1 X12.36 Y-5.69 Z2.06 F3000.0
M108 R30.0
M101
G1 X13.16 Y-5.69 Z2.06 F3000.0
M108 R3.569
G1 X13.16 Y6.82 Z2.06 F1800.0
G1 X23.54 Y6.82 Z2.06 F1800.0
G1 X23.54 Y-5.69 Z2.06 F1800.0
G1 X13.61 Y-5.69 Z2.06 F1800.0
M108 R30.0
M102
G1 X13.16 Y-5.69 Z2.06 F1800.0
M108 R3.569
M103
(</loop>)
(<loop> inner )
G1 X7.03 Y-5.69 Z2.06 F3000.0
M108 R30.0
M101
G1 X6.23 Y-5.69 Z2.06 F3000.0
M108 R3.569
G1 X1.11 Y-5.69 Z2.06 F1800.0
G1 X1.11 Y6.82 Z2.06 F1800.0
G1 X6.23 Y6.82 Z2.06 F1800.0
G1 X6.23 Y-5.24 Z2.06 F1800.0
M108 R30.0
M102
G1 X6.23 Y-5.69 Z2.06 F1800.0
M108 R3.569
M103
(</loop>)
(<loop> outer )
G1 X6.23 Y-10.23 Z2.06 F3000.0
M108 R30.0
M101
G1 X6.23 Y-11.03 Z2.06 F3000.0
M108 R3.569
G1 X30.55 Y-11.03 Z2.06 F1800.0
G1 X30.55 Y11.03 Z2.06 F1800.0
G1 X-30.55 Y11.03 Z2.06 F1800.0
G1 X-30.55 Y-11.03 Z2.06 F1800.0
G1 X6.23 Y-11.03 Z2.06 F1800.0
M103
(</loop>)
(<perimeter> outer )
G1 X6.23 Y-11.42 Z2.06 F3000.0
M101
G1 X30.94 Y-11.42 Z2.06 F1800.0
G1 X30.94 Y11.42 Z2.06 F1800.0
G1 X-30.94 Y11.42 Z2.06 F1800.0
G1 X-30.94 Y-11.42 Z2.06 F1800.0
G1 X5.78 Y-11.42 Z2.06 F1800.0
M108 R30.0
M102
G1 X6.23 Y-11.42 Z2.06 F1800.0
M108 R3.569
M103
(</perimeter>)
(</boundaryPerimeter>)
(<surroundingLoop>)
(<boundaryPerimeter>)
(<boundaryPoint> X5.643 Y6.233 Z2.06 </boundaryPoint>)
(<boundaryPoint> X5.643 Y-5.1 Z2.06 </boundaryPoint>)
(<boundaryPoint> X1.701 Y-5.1 Z2.06 </boundaryPoint>)
(<boundaryPoint> X1.701 Y6.233 Z2.06 </boundaryPoint>)
(<perimeter> inner )
G1 X5.89 Y-6.1 Z2.06 F3000.0
M108 R30.0
M101
G1 X5.84 Y-5.3 Z2.06 F3000.0
M108 R3.569
G1 X1.51 Y-5.3 Z2.06 F1800.0
G1 X1.51 Y6.43 Z2.06 F1800.0
G1 X5.84 Y6.43 Z2.06 F1800.0
G1 X5.84 Y-4.85 Z2.06 F1800.0
M108 R30.0
M102
G1 X5.84 Y-5.3 Z2.06 F1800.0
M108 R3.569
M103
(</perimeter>)
(</boundaryPerimeter>)
(</surroundingLoop>)
(<surroundingLoop>)
(<boundaryPerimeter>)
(<boundaryPoint> X22.946 Y-5.1 Z2.06 </boundaryPoint>)
(<boundaryPoint> X13.748 Y-5.1 Z2.06 </boundaryPoint>)
(<boundaryPoint> X13.748 Y6.233 Z2.06 </boundaryPoint>)
(<boundaryPoint> X22.946 Y6.233 Z2.06 </boundaryPoint>)
(<perimeter> inner )
G1 X12.75 Y-5.3 Z2.06 F3000.0
M108 R30.0
M101
G1 X13.55 Y-5.3 Z2.06 F3000.0
M108 R3.569
G1 X13.55 Y6.43 Z2.06 F1800.0
G1 X23.14 Y6.43 Z2.06 F1800.0
G1 X23.14 Y-5.3 Z2.06 F1800.0
G1 X14.0 Y-5.3 Z2.06 F1800.0
M108 R30.0
M102
G1 X13.55 Y-5.3 Z2.06 F1800.0
M108 R3.569
M103
(</perimeter>)
(</boundaryPerimeter>)
(</surroundingLoop>)
(<surroundingLoop>)
(<boundaryPerimeter>)
(<boundaryPoint> X-8.912 Y-5.1 Z2.06 </boundaryPoint>)
(<boundaryPoint> X-25.892 Y-5.1 Z2.06 </boundaryPoint>)
(<boundaryPoint> X-25.892 Y6.233 Z2.06 </boundaryPoint>)
(<boundaryPoint> X-8.912 Y6.233 Z2.06 </boundaryPoint>)
(<perimeter> inner )
G1 X-7.92 Y-5.3 Z2.06 F3000.0
M108 R30.0
M101
G1 X-8.72 Y-5.3 Z2.06 F3000.0
M108 R3.569
G1 X-26.09 Y-5.3 Z2.06 F1800.0
G1 X-26.09 Y6.43 Z2.06 F1800.0
G1 X-8.72 Y6.43 Z2.06 F1800.0
G1 X-8.72 Y-4.85 Z2.06 F1800.0
M108 R30.0
M102
G1 X-8.72 Y-5.3 Z2.06 F1800.0
M108 R3.569
M103
(</perimeter>)
(</boundaryPerimeter>)
(</surroundingLoop>)
G1 X-8.23 Y-2.97 Z2.06 F3000.0
M108 R30.0
M101
G1 X-8.07 Y-2.18 Z2.06 F3000.0
M108 R3.569
G1 X-7.76 Y-1.21 Z2.06 F1800.0
G1 X-7.51 Y-1.21 Z2.06 F1800.0
G1 X-5.58 Y-3.16 Z2.06 F1800.0
G1 X-5.33 Y-3.16 Z2.06 F1800.0
G1 X-3.4 Y-1.21 Z2.06 F1800.0
G1 X-3.15 Y-1.21 Z2.06 F1800.0
G1 X-1.22 Y-3.16 Z2.06 F1800.0
G1 X-0.96 Y-3.16 Z2.06 F1800.0
G1 X0.86 Y-0.87 Z2.06 F1800.0
G1 X0.86 Y-5.67 Z2.06 F1800.0
G1 X-0.96 Y-3.39 Z2.06 F1800.0
G1 X-1.22 Y-3.39 Z2.06 F1800.0
G1 X-3.15 Y-5.34 Z2.06 F1800.0
G1 X-3.4 Y-5.34 Z2.06 F1800.0
G1 X-5.33 Y-3.39 Z2.06 F1800.0
G1 X-5.58 Y-3.39 Z2.06 F1800.0
G1 X-7.51 Y-5.34 Z2.06 F1800.0
G1 X-7.76 Y-5.34 Z2.06 F1800.0
G1 X-8.07 Y-5.24 Z2.06 F1800.0
G1 X-7.93 Y-4.82 Z2.06 F1800.0
G1 X-7.94 Y-4.79 Z2.06 F1800.0
M108 R30.0
M102
G1 X-8.07 Y-4.36 Z2.06 F1800.0
M108 R3.569
M103
G1 X-8.07 Y1.38 Z2.06 F3000.0
M108 R30.0
M101
G1 X-8.07 Y2.18 Z2.06 F3000.0
M108 R3.569
G1 X-7.63 Y2.62 Z2.06 F1800.0
G1 X-8.07 Y3.05 Z2.06 F1800.0
G1 X-7.76 Y3.16 Z2.06 F1800.0
G1 X-7.51 Y3.16 Z2.06 F1800.0
G1 X-5.58 Y1.21 Z2.06 F1800.0
G1 X-5.33 Y1.21 Z2.06 F1800.0
G1 X-3.4 Y3.16 Z2.06 F1800.0
G1 X-3.15 Y3.16 Z2.06 F1800.0
G1 X-1.22 Y1.21 Z2.06 F1800.0
G1 X-0.96 Y1.21 Z2.06 F1800.0
G1 X0.86 Y3.49 Z2.06 F1800.0
G1 X0.86 Y-0.44 Z2.06 F1800.0
G1 X-0.96 Y0.98 Z2.06 F1800.0
G1 X-1.22 Y0.98 Z2.06 F1800.0
G1 X-3.15 Y-0.98 Z2.06 F1800.0
G1 X-3.4 Y-0.98 Z2.06 F1800.0
G1 X-5.33 Y0.98 Z2.06 F1800.0
G1 X-5.58 Y0.98 Z2.06 F1800.0
G1 X-7.51 Y-0.98 Z2.06 F1800.0
G1 X-7.76 Y-0.98 Z2.06 F1800.0
G1 X-8.07 Y-0.87 Z2.06 F1800.0
G1 X-7.93 Y-0.46 Z2.06 F1800.0
G1 X-7.94 Y-0.43 Z2.06 F1800.0
M108 R30.0
M102
G1 X-8.07 Y0.0 Z2.06 F1800.0
M108 R3.569
M103
G1 X-8.07 Y5.75 Z2.06 F3000.0
M108 R30.0
M101
G1 X-8.07 Y6.55 Z2.06 F3000.0
M108 R3.569
G1 X-8.07 Y6.98 Z2.06 F1800.0
G1 X-7.76 Y7.52 Z2.06 F1800.0
G1 X-7.51 Y7.52 Z2.06 F1800.0
G1 X-5.58 Y5.57 Z2.06 F1800.0
G1 X-5.33 Y5.57 Z2.06 F1800.0
G1 X-3.4 Y7.52 Z2.06 F1800.0
G1 X-3.15 Y7.52 Z2.06 F1800.0
G1 X-1.22 Y5.57 Z2.06 F1800.0
G1 X-0.96 Y5.57 Z2.06 F1800.0
G1 X0.86 Y6.98 Z2.06 F1800.0
G1 X0.86 Y3.93 Z2.06 F1800.0
G1 X-0.96 Y5.34 Z2.06 F1800.0
G1 X-1.22 Y5.34 Z2.06 F1800.0
G1 X-3.15 Y3.39 Z2.06 F1800.0
G1 X-3.4 Y3.39 Z2.06 F1800.0
G1 X-5.33 Y5.34 Z2.06 F1800.0
G1 X-5.58 Y5.34 Z2.06 F1800.0
G1 X-7.51 Y3.39 Z2.06 F1800.0
G1 X-7.76 Y3.39 Z2.06 F1800.0
G1 X-8.07 Y3.49 Z2.06 F1800.0
G1 X-7.93 Y3.9 Z2.06 F1800.0
G1 X-7.94 Y3.93 Z2.06 F1800.0
M108 R30.0
M102
G1 X-8.07 Y4.36 Z2.06 F1800.0
M108 R3.569
M103
G1 X1.43 Y-2.37 Z2.06 F3000.0
G1 X1.56 Y-5.24 Z2.06 F3000.0
G1 X5.78 Y-5.24 Z2.06 F3000.0
G1 X5.92 Y-5.09 Z2.06 F3000.0
G1 X5.93 Y-5.1 Z2.06 F3000.0
M108 R30.0
M101
G1 X6.49 Y-5.67 Z2.06 F3000.0
M108 R3.569
G1 X6.49 Y-3.05 Z2.06 F1800.0
G1 X7.51 Y-3.39 Z2.06 F1800.0
G1 X7.76 Y-3.39 Z2.06 F1800.0
G1 X9.69 Y-5.34 Z2.06 F1800.0
G1 X12.9 Y-5.67 Z2.06 F1800.0
G1 X12.9 Y-0.87 Z2.06 F1800.0
G1 X9.69 Y-1.21 Z2.06 F1800.0
G1 X7.76 Y-3.16 Z2.06 F1800.0
G1 X7.51 Y-3.16 Z2.06 F1800.0
G1 X6.49 Y-2.62 Z2.06 F1800.0
G1 X6.49 Y1.31 Z2.06 F1800.0
G1 X7.51 Y0.98 Z2.06 F1800.0
G1 X7.76 Y0.98 Z2.06 F1800.0
G1 X9.69 Y-0.98 Z2.06 F1800.0
G1 X12.9 Y-0.44 Z2.06 F1800.0
G1 X12.9 Y3.49 Z2.06 F1800.0
G1 X9.69 Y3.16 Z2.06 F1800.0
G1 X7.76 Y1.21 Z2.06 F1800.0
G1 X7.51 Y1.21 Z2.06 F1800.0
G1 X6.49 Y1.75 Z2.06 F1800.0
G1 X6.49 Y5.67 Z2.06 F1800.0
G1 X7.51 Y5.34 Z2.06 F1800.0
G1 X7.76 Y5.34 Z2.06 F1800.0
G1 X9.69 Y3.39 Z2.06 F1800.0
G1 X12.9 Y3.93 Z2.06 F1800.0
G1 X12.9 Y6.98 Z2.06 F1800.0
G1 X9.69 Y7.52 Z2.06 F1800.0
G1 X7.76 Y5.57 Z2.06 F1800.0
G1 X7.51 Y5.57 Z2.06 F1800.0
G1 X6.49 Y6.11 Z2.06 F1800.0
G1 X6.49 Y6.53 Z2.06 F1800.0
M108 R30.0
M102
G1 X6.49 Y6.98 Z2.06 F1800.0
M108 R3.569
M103
G1 X29.5 Y10.36 Z2.06 F3000.0
M108 R30.0
M101
G1 X30.29 Y10.47 Z2.06 F3000.0
M108 R3.569
G1 X30.29 Y10.04 Z2.06 F1800.0
G1 X-27.4 Y9.93 Z2.06 F1800.0
G1 X-30.29 Y10.47 Z2.06 F1800.0
G1 X-30.29 Y8.73 Z2.06 F1800.0
G1 X-29.58 Y7.75 Z2.06 F1800.0
G1 X-29.33 Y7.75 Z2.06 F1800.0
G1 X-27.4 Y9.7 Z2.06 F1800.0
G1 X-27.14 Y9.7 Z2.06 F1800.0
G1 X-25.22 Y7.64 Z2.06 F1800.0
G1 X-24.96 Y7.64 Z2.06 F1800.0
G1 X-23.04 Y9.7 Z2.06 F1800.0
G1 X-22.78 Y9.7 Z2.06 F1800.0
G1 X-20.85 Y7.64 Z2.06 F1800.0
G1 X-20.6 Y7.64 Z2.06 F1800.0
G1 X-18.67 Y9.7 Z2.06 F1800.0
G1 X-18.42 Y9.7 Z2.06 F1800.0
G1 X-16.49 Y7.64 Z2.06 F1800.0
G1 X-16.24 Y7.64 Z2.06 F1800.0
G1 X-14.31 Y9.7 Z2.06 F1800.0
G1 X-14.05 Y9.7 Z2.06 F1800.0
G1 X-12.13 Y7.64 Z2.06 F1800.0
G1 X-11.87 Y7.64 Z2.06 F1800.0
G1 X-9.95 Y9.7 Z2.06 F1800.0
G1 X-9.69 Y9.7 Z2.06 F1800.0
G1 X-7.76 Y7.75 Z2.06 F1800.0
G1 X-7.51 Y7.75 Z2.06 F1800.0
G1 X-5.58 Y9.7 Z2.06 F1800.0
G1 X-5.33 Y9.7 Z2.06 F1800.0
G1 X-3.4 Y7.75 Z2.06 F1800.0
G1 X-3.15 Y7.75 Z2.06 F1800.0
G1 X-1.22 Y9.7 Z2.06 F1800.0
G1 X-0.96 Y9.7 Z2.06 F1800.0
G1 X0.96 Y7.64 Z2.06 F1800.0
G1 X1.22 Y7.64 Z2.06 F1800.0
G1 X3.15 Y9.7 Z2.06 F1800.0
G1 X3.4 Y9.7 Z2.06 F1800.0
G1 X5.33 Y7.64 Z2.06 F1800.0
G1 X5.58 Y7.64 Z2.06 F1800.0
G1 X7.51 Y9.7 Z2.06 F1800.0
G1 X7.76 Y9.7 Z2.06 F1800.0
G1 X9.69 Y7.75 Z2.06 F1800.0
G1 X9.95 Y7.75 Z2.06 F1800.0
G1 X11.87 Y9.7 Z2.06 F1800.0
G1 X12.13 Y9.7 Z2.06 F1800.0
G1 X14.05 Y7.64 Z2.06 F1800.0
G1 X14.31 Y7.64 Z2.06 F1800.0
G1 X16.24 Y9.7 Z2.06 F1800.0
G1 X16.49 Y9.7 Z2.06 F1800.0
G1 X18.42 Y7.64 Z2.06 F1800.0
G1 X18.67 Y7.64 Z2.06 F1800.0
G1 X20.6 Y9.7 Z2.06 F1800.0
G1 X20.85 Y9.7 Z2.06 F1800.0
G1 X22.78 Y7.64 Z2.06 F1800.0
G1 X23.04 Y7.64 Z2.06 F1800.0
G1 X24.96 Y9.7 Z2.06 F1800.0
G1 X25.22 Y9.7 Z2.06 F1800.0
G1 X27.14 Y7.75 Z2.06 F1800.0
G1 X27.4 Y7.75 Z2.06 F1800.0
G1 X30.29 Y9.6 Z2.06 F1800.0
G1 X30.29 Y6.11 Z2.06 F1800.0
G1 X27.4 Y7.52 Z2.06 F1800.0
G1 X27.14 Y7.52 Z2.06 F1800.0
G1 X25.22 Y5.57 Z2.06 F1800.0
G1 X24.96 Y5.57 Z2.06 F1800.0
G1 X23.79 Y6.98 Z2.06 F1800.0
G1 X23.79 Y3.93 Z2.06 F1800.0
G1 X24.96 Y5.34 Z2.06 F1800.0
G1 X25.22 Y5.34 Z2.06 F1800.0
G1 X27.14 Y3.39 Z2.06 F1800.0
G1 X27.4 Y3.39 Z2.06 F1800.0
G1 X30.29 Y5.67 Z2.06 F1800.0
G1 X30.29 Y1.75 Z2.06 F1800.0
G1 X27.4 Y3.16 Z2.06 F1800.0
G1 X27.14 Y3.16 Z2.06 F1800.0
G1 X25.22 Y1.21 Z2.06 F1800.0
G1 X24.96 Y1.21 Z2.06 F1800.0
G1 X23.79 Y3.49 Z2.06 F1800.0
G1 X23.79 Y-0.44 Z2.06 F1800.0
G1 X24.96 Y0.98 Z2.06 F1800.0
G1 X25.22 Y0.98 Z2.06 F1800.0
G1 X27.14 Y-0.98 Z2.06 F1800.0
G1 X27.4 Y-0.98 Z2.06 F1800.0
G1 X30.29 Y1.31 Z2.06 F1800.0
G1 X30.29 Y-2.62 Z2.06 F1800.0
G1 X27.4 Y-1.21 Z2.06 F1800.0
G1 X27.14 Y-1.21 Z2.06 F1800.0
G1 X25.22 Y-3.16 Z2.06 F1800.0
G1 X24.96 Y-3.16 Z2.06 F1800.0
G1 X23.79 Y-0.87 Z2.06 F1800.0
G1 X23.79 Y-5.24 Z2.06 F1800.0
G1 X24.96 Y-3.39 Z2.06 F1800.0
G1 X25.22 Y-3.39 Z2.06 F1800.0
G1 X27.14 Y-5.34 Z2.06 F1800.0
G1 X27.4 Y-5.34 Z2.06 F1800.0
G1 X30.29 Y-3.05 Z2.06 F1800.0
G1 X30.29 Y-6.98 Z2.06 F1800.0
G1 X27.4 Y-5.57 Z2.06 F1800.0
G1 X27.14 Y-5.57 Z2.06 F1800.0
G1 X25.22 Y-7.52 Z2.06 F1800.0
G1 X24.96 Y-7.52 Z2.06 F1800.0
G1 X23.42 Y-5.91 Z2.06 F1800.0
G1 X20.85 Y-7.52 Z2.06 F1800.0
G1 X11.87 Y-7.52 Z2.06 F1800.0
G1 X9.95 Y-5.57 Z2.06 F1800.0
G1 X9.69 Y-5.57 Z2.06 F1800.0
G1 X7.76 Y-7.52 Z2.06 F1800.0
G1 X-1.22 Y-7.52 Z2.06 F1800.0
G1 X-3.15 Y-5.57 Z2.06 F1800.0
G1 X-3.4 Y-5.57 Z2.06 F1800.0
G1 X-5.33 Y-7.52 Z2.06 F1800.0
G1 X-5.58 Y-7.52 Z2.06 F1800.0
G1 X-7.51 Y-5.57 Z2.06 F1800.0
G1 X-7.76 Y-5.57 Z2.06 F1800.0
G1 X-8.07 Y-5.67 Z2.06 F1800.0
G1 X-7.93 Y-6.09 Z2.06 F1800.0
G1 X-9.69 Y-7.52 Z2.06 F1800.0
G1 X-27.4 Y-7.52 Z2.06 F1800.0
G1 X-29.33 Y-5.57 Z2.06 F1800.0
G1 X-29.58 Y-5.57 Z2.06 F1800.0
G1 X-30.29 Y-5.24 Z2.06 F1800.0
G1 X-30.29 Y-9.6 Z2.06 F1800.0
G1 X-29.33 Y-9.7 Z2.06 F1800.0
G1 X-27.4 Y-7.75 Z2.06 F1800.0
G1 X-27.14 Y-7.75 Z2.06 F1800.0
G1 X-25.22 Y-9.7 Z2.06 F1800.0
G1 X-24.96 Y-9.7 Z2.06 F1800.0
G1 X-23.04 Y-7.75 Z2.06 F1800.0
G1 X-22.78 Y-7.75 Z2.06 F1800.0
G1 X-20.85 Y-9.7 Z2.06 F1800.0
G1 X-20.6 Y-9.7 Z2.06 F1800.0
G1 X-18.67 Y-7.75 Z2.06 F1800.0
G1 X-18.42 Y-7.75 Z2.06 F1800.0
G1 X-16.49 Y-9.7 Z2.06 F1800.0
G1 X-16.24 Y-9.7 Z2.06 F1800.0
G1 X-14.31 Y-7.75 Z2.06 F1800.0
G1 X-14.05 Y-7.75 Z2.06 F1800.0
G1 X-12.13 Y-9.7 Z2.06 F1800.0
G1 X-11.87 Y-9.7 Z2.06 F1800.0
G1 X-9.95 Y-7.75 Z2.06 F1800.0
G1 X-9.69 Y-7.75 Z2.06 F1800.0
G1 X-7.76 Y-9.7 Z2.06 F1800.0
G1 X-7.51 Y-9.7 Z2.06 F1800.0
G1 X-5.58 Y-7.75 Z2.06 F1800.0
G1 X-5.33 Y-7.75 Z2.06 F1800.0
G1 X-3.4 Y-9.7 Z2.06 F1800.0
G1 X-3.15 Y-9.7 Z2.06 F1800.0
G1 X-1.22 Y-7.75 Z2.06 F1800.0
G1 X-0.96 Y-7.75 Z2.06 F1800.0
G1 X0.96 Y-9.7 Z2.06 F1800.0
G1 X1.22 Y-9.7 Z2.06 F1800.0
G1 X3.15 Y-7.75 Z2.06 F1800.0
G1 X3.4 Y-7.75 Z2.06 F1800.0
G1 X5.33 Y-9.7 Z2.06 F1800.0
G1 X5.58 Y-9.7 Z2.06 F1800.0
G1 X7.51 Y-7.75 Z2.06 F1800.0
G1 X7.76 Y-7.75 Z2.06 F1800.0
G1 X9.69 Y-9.7 Z2.06 F1800.0
G1 X9.95 Y-9.7 Z2.06 F1800.0
G1 X11.87 Y-7.75 Z2.06 F1800.0
G1 X12.13 Y-7.75 Z2.06 F1800.0
G1 X14.05 Y-9.7 Z2.06 F1800.0
G1 X14.31 Y-9.7 Z2.06 F1800.0
G1 X16.24 Y-7.75 Z2.06 F1800.0
G1 X16.49 Y-7.75 Z2.06 F1800.0
G1 X18.42 Y-9.7 Z2.06 F1800.0
G1 X18.67 Y-9.7 Z2.06 F1800.0
G1 X20.6 Y-7.75 Z2.06 F1800.0
G1 X20.85 Y-7.75 Z2.06 F1800.0
G1 X22.78 Y-9.7 Z2.06 F1800.0
G1 X23.04 Y-9.7 Z2.06 F1800.0
G1 X24.96 Y-7.75 Z2.06 F1800.0
G1 X25.22 Y-7.75 Z2.06 F1800.0
G1 X27.14 Y-9.7 Z2.06 F1800.0
G1 X27.4 Y-9.7 Z2.06 F1800.0
G1 X30.29 Y-7.42 Z2.06 F1800.0
G1 X30.29 Y-10.47 Z2.06 F1800.0
G1 X27.4 Y-9.93 Z2.06 F1800.0
G1 X-29.58 Y-9.93 Z2.06 F1800.0
G1 X-30.28 Y-10.03 Z2.06 F1800.0
M108 R30.0
M102
G1 X-30.29 Y-10.04 Z2.06 F1800.0
G1 X-30.29 Y-10.47 Z2.06 F1800.0
M108 R3.569
M103
G1 X-30.29 Y-3.42 Z2.06 F3000.0
M108 R30.0
M101
G1 X-30.29 Y-2.62 Z2.06 F3000.0
M108 R3.569
G1 X-30.29 Y-4.8 Z2.06 F1800.0
G1 X-29.58 Y-5.34 Z2.06 F1800.0
G1 X-26.74 Y-5.67 Z2.06 F1800.0
G1 X-26.74 Y-0.87 Z2.06 F1800.0
G1 X-29.58 Y-1.21 Z2.06 F1800.0
G1 X-30.29 Y-2.18 Z2.06 F1800.0
G1 X-30.29 Y1.75 Z2.06 F1800.0
G1 X-29.85 Y0.87 Z2.06 F1800.0
G1 X-29.58 Y-0.98 Z2.06 F1800.0
G1 X-29.33 Y-0.98 Z2.06 F1800.0
G1 X-26.74 Y-0.44 Z2.06 F1800.0
G1 X-26.74 Y3.49 Z2.06 F1800.0
G1 X-29.58 Y3.16 Z2.06 F1800.0
G1 X-30.29 Y2.18 Z2.06 F1800.0
G1 X-30.29 Y5.67 Z2.06 F1800.0
G1 X-29.85 Y5.24 Z2.06 F1800.0
G1 X-29.58 Y3.39 Z2.06 F1800.0
G1 X-29.33 Y3.39 Z2.06 F1800.0
G1 X-26.74 Y3.93 Z2.06 F1800.0
G1 X-26.74 Y6.98 Z2.06 F1800.0
G1 X-29.33 Y7.52 Z2.06 F1800.0
G1 X-29.58 Y7.52 Z2.06 F1800.0
G1 X-30.29 Y8.29 Z2.06 F1800.0
G1 X-30.29 Y6.56 Z2.06 F1800.0
M108 R30.0
M102
G1 X-30.29 Y6.11 Z2.06 F1800.0
M108 R3.569
M103
(</surroundingLoop>)
(</layer>)
(<layer> 2.38 )
(<surroundingLoop>)
(<boundaryPerimeter>)
(<boundaryPoint> X31.135 Y11.617 Z2.38 </boundaryPoint>)
(<boundaryPoint> X-31.135 Y11.617 Z2.38 </boundaryPoint>)
(<boundaryPoint> X-31.135 Y-11.617 Z2.38 </boundaryPoint>)
(<boundaryPoint> X31.135 Y-11.617 Z2.38 </boundaryPoint>)
(<loop> inner )
G1 X-27.28 Y6.0 Z2.31 F3000.0
M108 R30.0
M101
G1 X-26.48 Y5.97 Z2.38 F3000.0
M108 R3.569
G1 X-26.48 Y6.11 Z2.38 F1800.0
G1 X-26.48 Y6.82 Z2.38 F1800.0
G1 X-8.32 Y6.82 Z2.38 F1800.0
G1 X-8.32 Y-5.69 Z2.38 F1800.0
G1 X-26.48 Y-5.69 Z2.38 F1800.0
G1 X-26.48 Y5.52 Z2.38 F1800.0
M108 R30.0
M102
G1 X-26.48 Y5.97 Z2.38 F1800.0
M108 R3.569
M103
(</loop>)
(<loop> inner )
G1 X-26.17 Y5.97 Z2.38 F3000.0
G1 X-26.03 Y6.37 Z2.38 F3000.0
G1 X-8.77 Y6.37 Z2.38 F3000.0
G1 X-8.64 Y6.03 Z2.38 F3000.0
G1 X1.43 Y6.07 Z2.38 F3000.0
G1 X1.56 Y6.37 Z2.38 F3000.0
G1 X5.78 Y6.37 Z2.38 F3000.0
G1 X5.92 Y6.08 Z2.38 F3000.0
G1 X12.36 Y6.11 Z2.38 F3000.0
M108 R30.0
M101
G1 X13.16 Y6.11 Z2.38 F3000.0
M108 R3.569
G1 X13.16 Y6.82 Z2.38 F1800.0
G1 X23.54 Y6.82 Z2.38 F1800.0
G1 X23.54 Y-5.69 Z2.38 F1800.0
G1 X13.16 Y-5.69 Z2.38 F1800.0
G1 X13.16 Y5.66 Z2.38 F1800.0
M108 R30.0
M102
G1 X13.16 Y6.11 Z2.38 F1800.0
M108 R3.569
M103
(</loop>)
(<loop> inner )
G1 X7.03 Y6.11 Z2.38 F3000.0
M108 R30.0
M101
G1 X6.23 Y6.11 Z2.38 F3000.0
M108 R3.569
G1 X6.23 Y-5.69 Z2.38 F1800.0
G1 X1.11 Y-5.69 Z2.38 F1800.0
G1 X1.11 Y6.82 Z2.38 F1800.0
G1 X6.23 Y6.82 Z2.38 F1800.0
G1 X6.23 Y6.56 Z2.38 F1800.0
M108 R30.0
M102
G1 X6.23 Y6.11 Z2.38 F1800.0
M108 R3.569
M103
(</loop>)
(<loop> outer )
G1 X6.23 Y10.23 Z2.38 F3000.0
M108 R30.0
M101
G1 X6.23 Y11.03 Z2.38 F3000.0
M108 R3.569
G1 X-30.55 Y11.03 Z2.38 F1800.0
G1 X-30.55 Y-11.03 Z2.38 F1800.0
G1 X30.55 Y-11.03 Z2.38 F1800.0
G1 X30.55 Y11.03 Z2.38 F1800.0
G1 X6.23 Y11.03 Z2.38 F1800.0
M103
(</loop>)
(<perimeter> outer )
G1 X6.23 Y11.42 Z2.38 F3000.0
M101
G1 X-30.94 Y11.42 Z2.38 F1800.0
G1 X-30.94 Y-11.42 Z2.38 F1800.0
G1 X30.94 Y-11.42 Z2.38 F1800.0
G1 X30.94 Y11.42 Z2.38 F1800.0
G1 X6.68 Y11.42 Z2.38 F1800.0
M108 R30.0
M102
G1 X6.23 Y11.42 Z2.38 F1800.0
M108 R3.569
M103
(</perimeter>)
(</boundaryPerimeter>)
(<surroundingLoop>)
(<boundaryPerimeter>)
(<boundaryPoint> X5.643 Y6.233 Z2.38 </boundaryPoint>)
(<boundaryPoint> X5.643 Y-5.1 Z2.38 </boundaryPoint>)
(<boundaryPoint> X1.701 Y-5.1 Z2.38 </boundaryPoint>)
(<boundaryPoint> X1.701 Y6.233 Z2.38 </boundaryPoint>)
(<perimeter> inner )
G1 X5.9 Y7.23 Z2.38 F3000.0
M108 R30.0
M101
G1 X5.84 Y6.43 Z2.38 F3000.0
M108 R3.569
G1 X5.84 Y-5.3 Z2.38 F1800.0
G1 X1.51 Y-5.3 Z2.38 F1800.0
G1 X1.51 Y6.43 Z2.38 F1800.0
G1 X5.39 Y6.43 Z2.38 F1800.0
M108 R30.0
M102
G1 X5.84 Y6.43 Z2.38 F1800.0
M108 R3.569
M103
(</perimeter>)
(</boundaryPerimeter>)
(</surroundingLoop>)
(<surroundingLoop>)
(<boundaryPerimeter>)
(<boundaryPoint> X22.946 Y-5.1 Z2.38 </boundaryPoint>)
(<boundaryPoint> X13.748 Y-5.1 Z2.38 </boundaryPoint>)
(<boundaryPoint> X13.748 Y6.233 Z2.38 </boundaryPoint>)
(<boundaryPoint> X22.946 Y6.233 Z2.38 </boundaryPoint>)
(<perimeter> inner )
G1 X12.75 Y6.43 Z2.38 F3000.0
M108 R30.0
M101
G1 X13.55 Y6.43 Z2.38 F3000.0
M108 R3.569
G1 X23.14 Y6.43 Z2.38 F1800.0
G1 X23.14 Y-5.3 Z2.38 F1800.0
G1 X13.55 Y-5.3 Z2.38 F1800.0
G1 X13.55 Y5.98 Z2.38 F1800.0
M108 R30.0
M102
G1 X13.55 Y6.43 Z2.38 F1800.0
M108 R3.569
M103
(</perimeter>)
(</boundaryPerimeter>)
(</surroundingLoop>)
(<surroundingLoop>)
(<boundaryPerimeter>)
(<boundaryPoint> X-8.912 Y-5.1 Z2.38 </boundaryPoint>)
(<boundaryPoint> X-25.892 Y-5.1 Z2.38 </boundaryPoint>)
(<boundaryPoint> X-25.892 Y6.233 Z2.38 </boundaryPoint>)
(<boundaryPoint> X-8.912 Y6.233 Z2.38 </boundaryPoint>)
(<perimeter> inner )
G1 X-7.92 Y6.43 Z2.38 F3000.0
M108 R30.0
M101
G1 X-8.72 Y6.43 Z2.38 F3000.0
M108 R3.569
G1 X-8.72 Y-5.3 Z2.38 F1800.0
G1 X-26.09 Y-5.3 Z2.38 F1800.0
G1 X-26.09 Y6.43 Z2.38 F1800.0
G1 X-9.17 Y6.43 Z2.38 F1800.0
M108 R30.0
M102
G1 X-8.72 Y6.43 Z2.38 F1800.0
M108 R3.569
M103
(</perimeter>)
(</boundaryPerimeter>)
(</surroundingLoop>)
G1 X-25.82 Y7.05 Z2.38 F3000.0
M108 R30.0
M101
G1 X-26.62 Y7.08 Z2.38 F3000.0
M108 R3.569
G1 X-25.31 Y7.08 Z2.38 F1800.0
G1 X-25.2 Y7.51 Z2.38 F1800.0
G1 X-25.2 Y7.76 Z2.38 F1800.0
G1 X-27.16 Y9.69 Z2.38 F1800.0
G1 X-27.16 Y9.95 Z2.38 F1800.0
G1 X-26.62 Y10.77 Z2.38 F1800.0
G1 X-23.13 Y10.77 Z2.38 F1800.0
G1 X-23.02 Y9.69 Z2.38 F1800.0
G1 X-24.97 Y7.76 Z2.38 F1800.0
G1 X-24.97 Y7.51 Z2.38 F1800.0
G1 X-24.87 Y7.08 Z2.38 F1800.0
G1 X-20.94 Y7.08 Z2.38 F1800.0
G1 X-20.84 Y7.51 Z2.38 F1800.0
G1 X-20.84 Y7.76 Z2.38 F1800.0
G1 X-22.79 Y9.69 Z2.38 F1800.0
G1 X-22.69 Y10.77 Z2.38 F1800.0
G1 X-18.76 Y10.77 Z2.38 F1800.0
G1 X-18.66 Y9.69 Z2.38 F1800.0
G1 X-20.61 Y7.76 Z2.38 F1800.0
G1 X-20.61 Y7.51 Z2.38 F1800.0
G1 X-20.51 Y7.08 Z2.38 F1800.0
G1 X-16.58 Y7.08 Z2.38 F1800.0
G1 X-16.48 Y7.51 Z2.38 F1800.0
G1 X-16.48 Y7.76 Z2.38 F1800.0
G1 X-18.43 Y9.69 Z2.38 F1800.0
G1 X-18.33 Y10.77 Z2.38 F1800.0
G1 X-14.4 Y10.77 Z2.38 F1800.0
G1 X-14.3 Y9.69 Z2.38 F1800.0
G1 X-16.25 Y7.76 Z2.38 F1800.0
G1 X-16.25 Y7.51 Z2.38 F1800.0
G1 X-16.14 Y7.08 Z2.38 F1800.0
G1 X-12.22 Y7.08 Z2.38 F1800.0
G1 X-12.11 Y7.51 Z2.38 F1800.0
G1 X-12.11 Y7.76 Z2.38 F1800.0
G1 X-14.07 Y9.69 Z2.38 F1800.0
G1 X-13.96 Y10.77 Z2.38 F1800.0
G1 X-10.04 Y10.77 Z2.38 F1800.0
G1 X-9.93 Y9.69 Z2.38 F1800.0
G1 X-11.88 Y7.76 Z2.38 F1800.0
G1 X-11.88 Y7.51 Z2.38 F1800.0
G1 X-11.78 Y7.08 Z2.38 F1800.0
G1 X-8.29 Y7.08 Z2.38 F1800.0
G1 X-7.75 Y7.51 Z2.38 F1800.0
G1 X-7.75 Y7.76 Z2.38 F1800.0
G1 X-9.7 Y9.69 Z2.38 F1800.0
G1 X-9.6 Y10.77 Z2.38 F1800.0
G1 X-7.87 Y10.77 Z2.38 F1800.0
M108 R30.0
M102
G1 X-7.42 Y10.77 Z2.38 F1800.0
M108 R3.569
M103
G1 X-3.85 Y10.77 Z2.38 F3000.0
M108 R30.0
M101
G1 X-3.05 Y10.77 Z2.38 F3000.0
M108 R3.569
G1 X-1.31 Y10.77 Z2.38 F1800.0
G1 X-1.21 Y9.69 Z2.38 F1800.0
G1 X-3.16 Y7.76 Z2.38 F1800.0
G1 X-3.16 Y7.51 Z2.38 F1800.0
G1 X-1.21 Y5.58 Z2.38 F1800.0
G1 X-1.21 Y5.33 Z2.38 F1800.0
G1 X-3.16 Y3.4 Z2.38 F1800.0
G1 X-3.16 Y3.15 Z2.38 F1800.0
G1 X-1.21 Y1.22 Z2.38 F1800.0
G1 X-1.21 Y0.96 Z2.38 F1800.0
G1 X-3.16 Y-0.96 Z2.38 F1800.0
G1 X-3.16 Y-1.22 Z2.38 F1800.0
G1 X-1.21 Y-3.15 Z2.38 F1800.0
G1 X-1.21 Y-3.4 Z2.38 F1800.0
G1 X-3.16 Y-5.33 Z2.38 F1800.0
G1 X-3.16 Y-5.58 Z2.38 F1800.0
G1 X-1.21 Y-7.51 Z2.38 F1800.0
G1 X-1.21 Y-7.76 Z2.38 F1800.0
G1 X-3.27 Y-9.69 Z2.38 F1800.0
G1 X-3.27 Y-9.95 Z2.38 F1800.0
G1 X-1.31 Y-10.34 Z2.38 F1800.0
G1 X-1.75 Y-10.77 Z2.38 F1800.0
G1 X-5.24 Y-10.77 Z2.38 F1800.0
G1 X-5.34 Y-7.51 Z2.38 F1800.0
G1 X-3.39 Y-5.58 Z2.38 F1800.0
G1 X-3.39 Y-5.33 Z2.38 F1800.0
G1 X-5.34 Y-3.4 Z2.38 F1800.0
G1 X-5.34 Y-3.15 Z2.38 F1800.0
G1 X-3.39 Y-1.22 Z2.38 F1800.0
G1 X-3.39 Y-0.96 Z2.38 F1800.0
G1 X-5.34 Y0.96 Z2.38 F1800.0
G1 X-5.34 Y1.22 Z2.38 F1800.0
G1 X-3.39 Y3.15 Z2.38 F1800.0
G1 X-3.39 Y3.4 Z2.38 F1800.0
G1 X-5.34 Y5.33 Z2.38 F1800.0
G1 X-5.34 Y5.58 Z2.38 F1800.0
G1 X-3.39 Y7.51 Z2.38 F1800.0
G1 X-3.39 Y7.76 Z2.38 F1800.0
G1 X-5.45 Y9.69 Z2.38 F1800.0
G1 X-5.45 Y9.95 Z2.38 F1800.0
G1 X-3.49 Y10.34 Z2.38 F1800.0
G1 X-3.93 Y10.77 Z2.38 F1800.0
G1 X-6.98 Y10.77 Z2.38 F1800.0
G1 X-7.52 Y7.51 Z2.38 F1800.0
G1 X-5.57 Y5.58 Z2.38 F1800.0
G1 X-5.57 Y5.33 Z2.38 F1800.0
G1 X-7.64 Y3.4 Z2.38 F1800.0
G1 X-7.64 Y3.15 Z2.38 F1800.0
G1 X-5.57 Y1.22 Z2.38 F1800.0
G1 X-5.57 Y0.96 Z2.38 F1800.0
G1 X-7.64 Y-0.96 Z2.38 F1800.0
G1 X-7.64 Y-1.22 Z2.38 F1800.0
G1 X-5.57 Y-3.15 Z2.38 F1800.0
G1 X-5.57 Y-3.4 Z2.38 F1800.0
G1 X-7.64 Y-5.33 Z2.38 F1800.0
G1 X-7.64 Y-5.58 Z2.38 F1800.0
G1 X-5.57 Y-7.51 Z2.38 F1800.0
G1 X-5.57 Y-7.76 Z2.38 F1800.0
G1 X-7.64 Y-9.69 Z2.38 F1800.0
G1 X-7.64 Y-9.95 Z2.38 F1800.0
G1 X-5.67 Y-10.34 Z2.38 F1800.0
G1 X-6.11 Y-10.77 Z2.38 F1800.0
G1 X-9.6 Y-10.77 Z2.38 F1800.0
G1 X-9.7 Y-7.51 Z2.38 F1800.0
G1 X-8.29 Y-5.95 Z2.38 F1800.0
G1 X-11.78 Y-5.95 Z2.38 F1800.0
G1 X-9.93 Y-7.51 Z2.38 F1800.0
G1 X-9.93 Y-7.76 Z2.38 F1800.0
G1 X-12.0 Y-9.69 Z2.38 F1800.0
G1 X-12.0 Y-9.95 Z2.38 F1800.0
G1 X-10.04 Y-10.34 Z2.38 F1800.0
G1 X-10.47 Y-10.77 Z2.38 F1800.0
G1 X-13.96 Y-10.77 Z2.38 F1800.0
G1 X-14.07 Y-7.51 Z2.38 F1800.0
G1 X-12.22 Y-5.95 Z2.38 F1800.0
G1 X-16.14 Y-5.95 Z2.38 F1800.0
G1 X-14.3 Y-7.51 Z2.38 F1800.0
G1 X-14.3 Y-7.76 Z2.38 F1800.0
G1 X-16.36 Y-9.69 Z2.38 F1800.0
G1 X-16.36 Y-9.95 Z2.38 F1800.0
G1 X-14.4 Y-10.34 Z2.38 F1800.0
G1 X-14.84 Y-10.77 Z2.38 F1800.0
G1 X-18.33 Y-10.77 Z2.38 F1800.0
G1 X-18.43 Y-7.51 Z2.38 F1800.0
G1 X-16.58 Y-5.95 Z2.38 F1800.0
G1 X-20.51 Y-5.95 Z2.38 F1800.0
G1 X-18.66 Y-7.51 Z2.38 F1800.0
G1 X-18.66 Y-7.76 Z2.38 F1800.0
G1 X-20.73 Y-9.69 Z2.38 F1800.0
G1 X-20.73 Y-9.95 Z2.38 F1800.0
G1 X-18.76 Y-10.34 Z2.38 F1800.0
G1 X-19.2 Y-10.77 Z2.38 F1800.0
G1 X-22.69 Y-10.77 Z2.38 F1800.0
G1 X-22.79 Y-7.51 Z2.38 F1800.0
G1 X-20.94 Y-5.95 Z2.38 F1800.0
G1 X-24.44 Y-5.95 Z2.38 F1800.0
G1 X-23.02 Y-7.51 Z2.38 F1800.0
G1 X-23.02 Y-7.76 Z2.38 F1800.0
G1 X-25.09 Y-9.69 Z2.38 F1800.0
G1 X-25.09 Y-9.95 Z2.38 F1800.0
G1 X-23.13 Y-10.34 Z2.38 F1800.0
G1 X-23.56 Y-10.77 Z2.38 F1800.0
G1 X-27.05 Y-10.77 Z2.38 F1800.0
G1 X-27.16 Y-7.51 Z2.38 F1800.0
G1 X-26.62 Y-5.95 Z2.38 F1800.0
G1 X-25.32 Y-5.95 Z2.38 F1800.0
M108 R30.0
M102
G1 X-24.87 Y-5.95 Z2.38 F1800.0
M108 R3.569
M103
G1 X-27.11 Y-10.07 Z2.38 F3000.0
M108 R30.0
M101
G1 X-27.49 Y-10.77 Z2.38 F3000.0
M108 R3.569
G1 X-29.23 Y-10.77 Z2.38 F1800.0
G1 X-29.34 Y-9.69 Z2.38 F1800.0
G1 X-27.39 Y-7.76 Z2.38 F1800.0
G1 X-27.39 Y-7.51 Z2.38 F1800.0
G1 X-29.34 Y-5.58 Z2.38 F1800.0
G1 X-29.34 Y7.76 Z2.38 F1800.0
G1 X-27.39 Y9.69 Z2.38 F1800.0
G1 X-27.39 Y9.95 Z2.38 F1800.0
G1 X-27.05 Y10.77 Z2.38 F1800.0
G1 X-30.11 Y10.77 Z2.38 F1800.0
G1 X-29.57 Y7.76 Z2.38 F1800.0
G1 X-29.57 Y-9.95 Z2.38 F1800.0
G1 X-29.67 Y-10.76 Z2.38 F1800.0
M108 R30.0
M102
G1 X-29.67 Y-10.77 Z2.38 F1800.0
G1 X-30.11 Y-10.77 Z2.38 F1800.0
M108 R3.569
M103
G1 X-1.67 Y-10.77 Z2.38 F3000.0
M108 R30.0
M101
G1 X-0.87 Y-10.77 Z2.38 F3000.0
M108 R3.569
G1 X0.87 Y-10.77 Z2.38 F1800.0
G1 X0.98 Y-9.69 Z2.38 F1800.0
G1 X-0.98 Y-7.76 Z2.38 F1800.0
G1 X-0.98 Y5.58 Z2.38 F1800.0
G1 X0.87 Y7.08 Z2.38 F1800.0
G1 X0.98 Y7.51 Z2.38 F1800.0
G1 X0.98 Y7.76 Z2.38 F1800.0
G1 X-0.98 Y9.69 Z2.38 F1800.0
G1 X-0.87 Y10.77 Z2.38 F1800.0
G1 X3.05 Y10.77 Z2.38 F1800.0
G1 X3.16 Y9.69 Z2.38 F1800.0
G1 X1.21 Y7.76 Z2.38 F1800.0
G1 X1.21 Y7.51 Z2.38 F1800.0
G1 X1.31 Y7.08 Z2.38 F1800.0
G1 X5.24 Y7.08 Z2.38 F1800.0
G1 X5.34 Y7.51 Z2.38 F1800.0
G1 X5.34 Y7.76 Z2.38 F1800.0
G1 X3.39 Y9.69 Z2.38 F1800.0
G1 X3.49 Y10.77 Z2.38 F1800.0
G1 X7.85 Y10.77 Z2.38 F1800.0
G1 X7.52 Y9.95 Z2.38 F1800.0
G1 X7.52 Y9.69 Z2.38 F1800.0
G1 X5.57 Y7.76 Z2.38 F1800.0
G1 X5.57 Y7.51 Z2.38 F1800.0
G1 X5.67 Y7.09 Z2.38 F1800.0
M108 R30.0
M102
G1 X5.67 Y7.08 Z2.38 F1800.0
G1 X6.11 Y7.08 Z2.38 F1800.0
M108 R3.569
M103
G1 X13.47 Y1.29 Z2.38 F3000.0
G1 X13.61 Y-5.24 Z2.38 F3000.0
G1 X22.18 Y-5.38 Z2.38 F3000.0
G1 X29.02 Y-10.3 Z2.38 F3000.0
M108 R30.0
M101
G1 X29.67 Y-10.77 Z2.38 F3000.0
M108 R3.569
G1 X30.11 Y-10.77 Z2.38 F1800.0
G1 X30.11 Y10.77 Z2.38 F1800.0
G1 X27.49 Y10.77 Z2.38 F1800.0
G1 X27.27 Y-9.95 Z2.38 F1800.0
G1 X29.23 Y-10.34 Z2.38 F1800.0
G1 X28.8 Y-10.77 Z2.38 F1800.0
G1 X25.31 Y-10.77 Z2.38 F1800.0
G1 X25.2 Y-7.51 Z2.38 F1800.0
G1 X27.16 Y-5.58 Z2.38 F1800.0
G1 X27.16 Y-5.33 Z2.38 F1800.0
G1 X25.09 Y-3.4 Z2.38 F1800.0
G1 X25.09 Y-3.15 Z2.38 F1800.0
G1 X27.16 Y-1.22 Z2.38 F1800.0
G1 X27.16 Y-0.96 Z2.38 F1800.0
G1 X25.09 Y0.96 Z2.38 F1800.0
G1 X25.09 Y1.22 Z2.38 F1800.0
G1 X27.16 Y3.15 Z2.38 F1800.0
G1 X27.16 Y3.4 Z2.38 F1800.0
G1 X25.09 Y5.33 Z2.38 F1800.0
G1 X25.09 Y5.58 Z2.38 F1800.0
G1 X27.16 Y7.51 Z2.38 F1800.0
G1 X27.16 Y7.76 Z2.38 F1800.0
G1 X25.09 Y9.69 Z2.38 F1800.0
G1 X25.09 Y9.95 Z2.38 F1800.0
G1 X27.05 Y10.34 Z2.38 F1800.0
G1 X26.62 Y10.77 Z2.38 F1800.0
G1 X23.13 Y10.77 Z2.38 F1800.0
G1 X23.02 Y7.64 Z2.38 F1800.0
G1 X23.56 Y7.08 Z2.38 F1800.0
G1 X20.51 Y7.08 Z2.38 F1800.0
G1 X20.73 Y9.95 Z2.38 F1800.0
G1 X22.69 Y10.34 Z2.38 F1800.0
G1 X22.25 Y10.77 Z2.38 F1800.0
G1 X18.76 Y10.77 Z2.38 F1800.0
G1 X18.66 Y7.64 Z2.38 F1800.0
G1 X20.07 Y7.51 Z2.38 F1800.0
G1 X19.64 Y7.08 Z2.38 F1800.0
G1 X16.58 Y7.08 Z2.38 F1800.0
G1 X16.36 Y9.95 Z2.38 F1800.0
G1 X18.33 Y10.34 Z2.38 F1800.0
G1 X17.89 Y10.77 Z2.38 F1800.0
G1 X14.4 Y10.77 Z2.38 F1800.0
G1 X14.18 Y7.51 Z2.38 F1800.0
G1 X15.27 Y7.51 Z2.38 F1800.0
G1 X16.14 Y7.08 Z2.38 F1800.0
G1 X13.09 Y7.08 Z2.38 F1800.0
G1 X13.96 Y10.77 Z2.38 F1800.0
G1 X12.22 Y10.77 Z2.38 F1800.0
G1 X12.11 Y9.95 Z2.38 F1800.0
G1 X12.11 Y-7.76 Z2.38 F1800.0
G1 X14.07 Y-9.69 Z2.38 F1800.0
G1 X13.96 Y-10.77 Z2.38 F1800.0
G1 X10.04 Y-10.77 Z2.38 F1800.0
G1 X9.93 Y-9.69 Z2.38 F1800.0
G1 X11.88 Y-7.76 Z2.38 F1800.0
G1 X11.88 Y-7.51 Z2.38 F1800.0
G1 X9.93 Y-5.58 Z2.38 F1800.0
G1 X9.93 Y7.76 Z2.38 F1800.0
G1 X11.88 Y9.69 Z2.38 F1800.0
G1 X11.78 Y10.77 Z2.38 F1800.0
G1 X8.29 Y10.77 Z2.38 F1800.0
G1 X7.75 Y9.95 Z2.38 F1800.0
G1 X7.75 Y9.69 Z2.38 F1800.0
G1 X9.7 Y7.76 Z2.38 F1800.0
G1 X9.7 Y7.51 Z2.38 F1800.0
G1 X7.64 Y5.58 Z2.38 F1800.0
G1 X7.64 Y5.33 Z2.38 F1800.0
G1 X9.7 Y3.4 Z2.38 F1800.0
G1 X9.7 Y3.15 Z2.38 F1800.0
G1 X7.64 Y1.22 Z2.38 F1800.0
G1 X7.64 Y0.96 Z2.38 F1800.0
G1 X9.7 Y-0.96 Z2.38 F1800.0
G1 X9.7 Y-1.22 Z2.38 F1800.0
G1 X7.64 Y-3.15 Z2.38 F1800.0
G1 X7.64 Y-3.4 Z2.38 F1800.0
G1 X9.7 Y-5.33 Z2.38 F1800.0
G1 X9.7 Y-5.58 Z2.38 F1800.0
G1 X7.75 Y-7.51 Z2.38 F1800.0
G1 X7.75 Y-7.76 Z2.38 F1800.0
G1 X9.7 Y-9.69 Z2.38 F1800.0
G1 X9.6 Y-10.77 Z2.38 F1800.0
G1 X5.67 Y-10.77 Z2.38 F1800.0
G1 X5.57 Y-9.69 Z2.38 F1800.0
G1 X7.52 Y-7.76 Z2.38 F1800.0
G1 X7.52 Y-7.51 Z2.38 F1800.0
G1 X6.11 Y-5.95 Z2.38 F1800.0
G1 X3.49 Y-5.95 Z2.38 F1800.0
G1 X3.39 Y-7.76 Z2.38 F1800.0
G1 X5.34 Y-9.69 Z2.38 F1800.0
G1 X5.24 Y-10.77 Z2.38 F1800.0
G1 X1.31 Y-10.77 Z2.38 F1800.0
G1 X1.21 Y-9.69 Z2.38 F1800.0
G1 X3.16 Y-7.76 Z2.38 F1800.0
G1 X3.05 Y-5.95 Z2.38 F1800.0
G1 X1.32 Y-5.95 Z2.38 F1800.0
M108 R30.0
M102
G1 X0.87 Y-5.95 Z2.38 F1800.0
M108 R3.569
M103
G1 X12.29 Y-5.95 Z2.38 F3000.0
M108 R30.0
M101
G1 X13.09 Y-5.95 Z2.38 F3000.0
M108 R3.569
G1 X16.14 Y-5.95 Z2.38 F1800.0
G1 X16.25 Y-7.76 Z2.38 F1800.0
G1 X14.3 Y-9.69 Z2.38 F1800.0
G1 X14.4 Y-10.77 Z2.38 F1800.0
G1 X18.33 Y-10.77 Z2.38 F1800.0
G1 X18.43 Y-9.69 Z2.38 F1800.0
G1 X16.48 Y-7.76 Z2.38 F1800.0
G1 X16.58 Y-5.95 Z2.38 F1800.0
G1 X20.51 Y-5.95 Z2.38 F1800.0
G1 X20.61 Y-7.76 Z2.38 F1800.0
G1 X18.66 Y-9.69 Z2.38 F1800.0
G1 X18.76 Y-10.77 Z2.38 F1800.0
G1 X22.69 Y-10.77 Z2.38 F1800.0
G1 X22.79 Y-9.69 Z2.38 F1800.0
G1 X20.84 Y-7.76 Z2.38 F1800.0
G1 X20.94 Y-5.95 Z2.38 F1800.0
G1 X23.56 Y-5.95 Z2.38 F1800.0
G1 X24.97 Y-7.51 Z2.38 F1800.0
G1 X24.97 Y-7.76 Z2.38 F1800.0
G1 X23.02 Y-9.69 Z2.38 F1800.0
G1 X23.13 Y-10.77 Z2.38 F1800.0
G1 X24.42 Y-10.77 Z2.38 F1800.0
M108 R30.0
M102
G1 X24.87 Y-10.77 Z2.38 F1800.0
M108 R3.569
M103
(</surroundingLoop>)
(</layer>)
(<layer> 2.7 )
(<surroundingLoop>)
(<boundaryPerimeter>)
(<boundaryPoint> X31.135 Y11.617 Z2.7 </boundaryPoint>)
(<boundaryPoint> X-31.135 Y11.617 Z2.7 </boundaryPoint>)
(<boundaryPoint> X-31.135 Y-11.617 Z2.7 </boundaryPoint>)
(<boundaryPoint> X31.135 Y-11.617 Z2.7 </boundaryPoint>)
(<loop> inner )
G1 X-7.88 Y-5.81 Z2.69 F3000.0
M108 R30.0
M101
G1 X-8.67 Y-5.69 Z2.7 F3000.0
M108 R3.569
G1 X-26.48 Y-5.69 Z2.7 F1800.0
G1 X-26.48 Y6.82 Z2.7 F1800.0
G1 X-8.32 Y6.82 Z2.7 F1800.0
G1 X-8.32 Y-5.59 Z2.7 F1800.0
M108 R30.0
M102
G1 X-8.32 Y-5.69 Z2.7 F1800.0
G1 X-8.67 Y-5.69 Z2.7 F1800.0
M108 R3.569
