(** This GCode was generated by ReplicatorG 0034 **)
(*  using Skeinforge (35)  *)
(*  for a Single headed Thing-O-Matic  *)
(*  on 2012/04/10 18:59:54 (-0400) *)
(<alteration>)
(**** beginning of start.gcode ****)
(This file is for a MakerBot Thing-O-Matic)
(**** begin initialization commands ****)
G21 (set units to mm)
G90 (set positioning to absolute)
M108 R5.0 (set extruder speed)
M103 (Make sure extruder is off)
M104 S225 T0 (set extruder temperature)
M109 S120 T0 (set heated-build-platform temperature)
(**** end initialization commands ****)
(**** begin homing ****)
G162 Z F1000 (home Z axis maximum)
G92 Z10 (set Z to 0)
G1 Z0.0 (move z down 10)
G162 Z F150 (home Z axis maximum)
G161 X Y F2500 (home XY axes minimum)
M132 X Y Z A B (Recall stored home offsets for XYZAB axis)
(**** end homing ****)
(**** begin pre-wipe commands ****)
( Some people have had problems with the nozzle hitting )
( bolts or wipers during this pre-extrusion warmup.     )
( If this happens to you, you can change the values for )
( the X and Y positions in the following code.          )
( The goal is to have the toolhead wipe its initial     )
( extrusion near the edge of the platform, [anchor it]  )
( so as not to have it interfere with the print.        )
( This file can be found in:                            )
( replicatorg/skein_engines/skeinforge-##/skeinforge_application/ )
( prefs/<profile name [e.g. Thingomatic-ABP-Mk7]>/alterations )
G1 X25.0 Y-60.0 Z10.0 F3300.0 (move to waiting position)
M6 T0 (wait for toolhead parts, nozzle, HBP, etc., to reach temperature)
G0 X25 Y-57 (Position Nozzle)
G0 Z0.6     (Position Height)
M108 R4.0   (Set Extruder Speed)
M101        (Start Extruder)
G4 P1500    (Create Anchor)
(**** end pre-wipe commands ****)
(**** end of start.gcode ****)
(</alteration>)
(<creation> skeinforge </creation>)
(<version> 10.11.05 </version>)
(<extruderInitialization>)
(<craftTypeName> extrusion </craftTypeName>)
M105
(<bridgeWidthMultiplier> 1.0 </bridgeWidthMultiplier>)
(<decimalPlacesCarried> 3 </decimalPlacesCarried>)
(<layerThickness> 0.32 </layerThickness>)
(<threadSequenceString> loops perimeter infill </threadSequenceString>)
(<operatingFeedRatePerSecond> 30.0 </operatingFeedRatePerSecond>)
(<operatingFlowRate> 3.56914845556 </operatingFlowRate>)
(<orbitalFeedRatePerSecond> 15.0 </orbitalFeedRatePerSecond>)
(<travelFeedRatePerSecond> 50.0 </travelFeedRatePerSecond>)
(<perimeterWidth> 0.393 </perimeterWidth>)
(<profileName> ABS </profileName>)
(<procedureDone> carve,bottom </procedureDone>)
(<procedureDone> preface </procedureDone>)
(<procedureDone> inset </procedureDone>)
(<procedureDone> fill </procedureDone>)
(<procedureDone> speed </procedureDone>)
(<procedureDone> raft </procedureDone>)
(<procedureDone> jitter </procedureDone>)
(<procedureDone> comb </procedureDone>)
(<procedureDone> cool </procedureDone>)
(<procedureDone> outline </procedureDone>)
(<procedureDone> reversal </procedureDone>)
(<procedureDone> export </procedureDone>)
(</extruderInitialization>)
(<extrusion>)
;M113 S1.0
M108 R3.569
(<layer> 0.46 )
(<surroundingLoop>)
(<boundaryPerimeter>)
(<boundaryPoint> X-0.645 Y0.246 Z0.46 </boundaryPoint>)
(<boundaryPoint> X-51.325 Y0.246 Z0.46 </boundaryPoint>)
(<boundaryPoint> X-51.325 Y-51.904 Z0.46 </boundaryPoint>)
(<boundaryPoint> X52.135 Y-51.904 Z0.46 </boundaryPoint>)
(<boundaryPoint> X52.135 Y51.556 Z0.46 </boundaryPoint>)
(<boundaryPoint> X-0.015 Y51.556 Z0.46 </boundaryPoint>)
(<boundaryPoint> X-0.015 Y0.876 Z0.46 </boundaryPoint>)
(<boundaryPoint> X-0.645 Y0.876 Z0.46 </boundaryPoint>)
(<loop> inner )
M108 R2.141
G1 X53.94 Y-53.71 Z0.46 F1080.0
M101
G1 X-53.13 Y-53.71 Z0.46 F1080.0
G1 X-53.13 Y53.36 Z0.46 F1080.0
G1 X53.94 Y53.36 Z0.46 F1080.0
G1 X53.94 Y-53.44 Z0.46 F1080.0
M108 R30.0
M102
G1 X53.94 Y-53.71 Z0.46 F1080.0
M108 R2.141
M103
G1 X3.97 Y-3.65 Z0.46 F3000.0
M108 R30.0
M101
G1 X3.41 Y-3.09 Z0.46 F3000.0
M108 R2.141
G1 X42.78 Y-3.09 Z0.46 F1080.0
G1 X42.78 Y-42.55 Z0.46 F1080.0
G1 X3.32 Y-42.55 Z0.46 F1080.0
G1 X3.32 Y-3.26 Z0.46 F1080.0
M108 R30.0
M102
G1 X3.32 Y-3.09 Z0.46 F1080.0
G1 X3.41 Y-3.09 Z0.46 F1080.0
M108 R2.141
M103
(</loop>)
(<loop> inner )
G1 X-4.54 Y-10.45 Z0.46 F3000.0
M108 R30.0
M101
G1 X-5.12 Y-11.0 Z0.46 F3000.0
M108 R2.141
G1 X-5.12 Y-44.62 Z0.46 F1080.0
G1 X-46.85 Y-44.62 Z0.46 F1080.0
G1 X-46.85 Y-11.0 Z0.46 F1080.0
G1 X-5.39 Y-11.0 Z0.46 F1080.0
M108 R30.0
M102
G1 X-5.12 Y-11.0 Z0.46 F1080.0
M108 R2.141
M103
(</loop>)
(<loop> inner )
G1 X10.66 Y4.79 Z0.46 F3000.0
M108 R30.0
M101
G1 X11.23 Y5.36 Z0.46 F3000.0
M108 R2.141
G1 X11.23 Y47.08 Z0.46 F1080.0
G1 X44.85 Y47.08 Z0.46 F1080.0
G1 X44.85 Y5.36 Z0.46 F1080.0
G1 X11.5 Y5.36 Z0.46 F1080.0
M108 R30.0
M102
G1 X11.23 Y5.36 Z0.46 F1080.0
M108 R2.141
M103
(</loop>)
(<loop> outer )
G1 X1.37 Y5.36 Z0.46 F3000.0
M108 R30.0
M101
G1 X0.57 Y5.36 Z0.46 F3000.0
M108 R2.141
G1 X0.57 Y0.52 Z0.46 F1080.0
G1 X-0.29 Y-0.34 Z0.46 F1080.0
G1 X-50.74 Y-0.34 Z0.46 F1080.0
G1 X-50.74 Y-51.32 Z0.46 F1080.0
G1 X51.55 Y-51.32 Z0.46 F1080.0
G1 X51.55 Y50.97 Z0.46 F1080.0
G1 X0.57 Y50.97 Z0.46 F1080.0
G1 X0.57 Y5.36 Z0.46 F1080.0
M103
(</loop>)
(<perimeter> outer )
G1 X0.18 Y5.36 Z0.46 F3000.0
M101
G1 X0.18 Y0.68 Z0.46 F1080.0
G1 X-0.45 Y0.68 Z0.46 F1080.0
G1 X-0.45 Y0.05 Z0.46 F1080.0
G1 X-51.13 Y0.05 Z0.46 F1080.0
G1 X-51.13 Y-51.71 Z0.46 F1080.0
G1 X51.94 Y-51.71 Z0.46 F1080.0
G1 X51.94 Y51.36 Z0.46 F1080.0
G1 X0.18 Y51.36 Z0.46 F1080.0
G1 X0.18 Y5.63 Z0.46 F1080.0
M108 R30.0
M102
G1 X0.18 Y5.36 Z0.46 F1080.0
M108 R2.141
M103
(</perimeter>)
(</boundaryPerimeter>)
(<surroundingLoop>)
(<boundaryPerimeter>)
(<boundaryPoint> X42.188 Y-3.674 Z0.46 </boundaryPoint>)
(<boundaryPoint> X42.188 Y-41.957 Z0.46 </boundaryPoint>)
(<boundaryPoint> X3.905 Y-41.957 Z0.46 </boundaryPoint>)
(<boundaryPoint> X3.905 Y-3.674 Z0.46 </boundaryPoint>)
(<perimeter> inner )
G1 X3.41 Y-2.74 Z0.46 F3000.0
M108 R30.0
M101
G1 X3.71 Y-3.48 Z0.46 F3000.0
M108 R2.141
G1 X42.39 Y-3.48 Z0.46 F1080.0
G1 X42.39 Y-42.15 Z0.46 F1080.0
G1 X3.71 Y-42.15 Z0.46 F1080.0
G1 X3.71 Y-3.75 Z0.46 F1080.0
M108 R30.0
M102
G1 X3.71 Y-3.48 Z0.46 F1080.0
M108 R2.141
M103
(</perimeter>)
(</boundaryPerimeter>)
(</surroundingLoop>)
(<surroundingLoop>)
(<boundaryPerimeter>)
(<boundaryPoint> X-5.713 Y-11.584 Z0.46 </boundaryPoint>)
(<boundaryPoint> X-5.713 Y-44.029 Z0.46 </boundaryPoint>)
(<boundaryPoint> X-46.257 Y-44.029 Z0.46 </boundaryPoint>)
(<boundaryPoint> X-46.257 Y-11.584 Z0.46 </boundaryPoint>)
(<perimeter> inner )
G1 X-4.91 Y-10.87 Z0.46 F3000.0
M108 R30.0
M101
G1 X-5.52 Y-11.39 Z0.46 F3000.0
M108 R2.141
G1 X-5.52 Y-44.23 Z0.46 F1080.0
G1 X-46.45 Y-44.23 Z0.46 F1080.0
G1 X-46.45 Y-11.39 Z0.46 F1080.0
G1 X-5.79 Y-11.39 Z0.46 F1080.0
M108 R30.0
M102
G1 X-5.52 Y-11.39 Z0.46 F1080.0
M108 R2.141
M103
(</perimeter>)
(</boundaryPerimeter>)
(</surroundingLoop>)
(<surroundingLoop>)
(<boundaryPerimeter>)
(<boundaryPoint> X11.815 Y46.488 Z0.46 </boundaryPoint>)
(<boundaryPoint> X44.26 Y46.488 Z0.46 </boundaryPoint>)
(<boundaryPoint> X44.26 Y5.944 Z0.46 </boundaryPoint>)
(<boundaryPoint> X11.815 Y5.944 Z0.46 </boundaryPoint>)
(<perimeter> inner )
G1 X11.05 Y5.18 Z0.46 F3000.0
M108 R30.0
M101
G1 X11.62 Y5.75 Z0.46 F3000.0
M108 R2.141
G1 X11.62 Y46.69 Z0.46 F1080.0
G1 X44.46 Y46.69 Z0.46 F1080.0
G1 X44.46 Y5.75 Z0.46 F1080.0
G1 X11.89 Y5.75 Z0.46 F1080.0
M108 R30.0
M102
G1 X11.62 Y5.75 Z0.46 F1080.0
M108 R2.141
M103
(</perimeter>)
(</boundaryPerimeter>)
(</surroundingLoop>)
G1 X16.86 Y-3.4 Z0.46 F3000.0
G1 X42.33 Y-3.54 Z0.46 F3000.0
G1 X42.33 Y-42.1 Z0.46 F3000.0
G1 X38.14 Y-42.23 Z0.46 F3000.0
G1 X42.96 Y-50.64 Z0.46 F1800.0
M108 R30.0
M101
G1 X43.2 Y-51.06 Z0.46 F1800.0
M108 R2.141
G1 X43.2 Y5.1 Z0.46 F1080.0
G1 X42.8 Y5.1 Z0.46 F1080.0
G1 X42.8 Y-2.83 Z0.46 F1080.0
G1 X42.41 Y-2.83 Z0.46 F1080.0
G1 X42.41 Y5.1 Z0.46 F1080.0
G1 X42.02 Y5.1 Z0.46 F1080.0
G1 X42.02 Y-2.83 Z0.46 F1080.0
G1 X41.63 Y-2.83 Z0.46 F1080.0
G1 X41.63 Y5.1 Z0.46 F1080.0
G1 X41.23 Y5.1 Z0.46 F1080.0
G1 X41.23 Y-2.83 Z0.46 F1080.0
G1 X40.84 Y-2.83 Z0.46 F1080.0
G1 X40.84 Y5.1 Z0.46 F1080.0
G1 X40.45 Y5.1 Z0.46 F1080.0
G1 X40.45 Y-2.83 Z0.46 F1080.0
G1 X40.06 Y-2.83 Z0.46 F1080.0
G1 X40.06 Y5.1 Z0.46 F1080.0
G1 X39.66 Y5.1 Z0.46 F1080.0
G1 X39.66 Y-2.83 Z0.46 F1080.0
G1 X39.27 Y-2.83 Z0.46 F1080.0
G1 X39.27 Y5.1 Z0.46 F1080.0
G1 X38.88 Y5.1 Z0.46 F1080.0
G1 X38.88 Y-2.83 Z0.46 F1080.0
G1 X38.49 Y-2.83 Z0.46 F1080.0
G1 X38.49 Y5.1 Z0.46 F1080.0
G1 X38.09 Y5.1 Z0.46 F1080.0
G1 X38.09 Y-2.83 Z0.46 F1080.0
G1 X37.7 Y-2.83 Z0.46 F1080.0
G1 X37.7 Y5.1 Z0.46 F1080.0
G1 X37.31 Y5.1 Z0.46 F1080.0
G1 X37.31 Y-2.83 Z0.46 F1080.0
G1 X36.91 Y-2.83 Z0.46 F1080.0
G1 X36.91 Y5.1 Z0.46 F1080.0
G1 X36.52 Y5.1 Z0.46 F1080.0
G1 X36.52 Y-2.83 Z0.46 F1080.0
G1 X36.13 Y-2.83 Z0.46 F1080.0
G1 X36.13 Y5.1 Z0.46 F1080.0
G1 X35.74 Y5.1 Z0.46 F1080.0
G1 X35.74 Y-2.83 Z0.46 F1080.0
G1 X35.34 Y-2.83 Z0.46 F1080.0
G1 X35.34 Y5.1 Z0.46 F1080.0
G1 X34.95 Y5.1 Z0.46 F1080.0
G1 X34.95 Y-2.83 Z0.46 F1080.0
G1 X34.56 Y-2.83 Z0.46 F1080.0
G1 X34.56 Y5.1 Z0.46 F1080.0
G1 X34.17 Y5.1 Z0.46 F1080.0
G1 X34.17 Y-2.83 Z0.46 F1080.0
G1 X33.77 Y-2.83 Z0.46 F1080.0
G1 X33.77 Y5.1 Z0.46 F1080.0
G1 X33.38 Y5.1 Z0.46 F1080.0
G1 X33.38 Y-2.83 Z0.46 F1080.0
G1 X32.99 Y-2.83 Z0.46 F1080.0
G1 X32.99 Y5.1 Z0.46 F1080.0
G1 X32.59 Y5.1 Z0.46 F1080.0
G1 X32.59 Y-2.83 Z0.46 F1080.0
G1 X32.2 Y-2.83 Z0.46 F1080.0
G1 X32.2 Y5.1 Z0.46 F1080.0
G1 X31.81 Y5.1 Z0.46 F1080.0
G1 X31.81 Y-2.83 Z0.46 F1080.0
G1 X31.42 Y-2.83 Z0.46 F1080.0
G1 X31.42 Y5.1 Z0.46 F1080.0
G1 X31.02 Y5.1 Z0.46 F1080.0
G1 X31.02 Y-2.83 Z0.46 F1080.0
G1 X30.63 Y-2.83 Z0.46 F1080.0
G1 X30.63 Y5.1 Z0.46 F1080.0
G1 X30.24 Y5.1 Z0.46 F1080.0
G1 X30.24 Y-2.83 Z0.46 F1080.0
G1 X29.85 Y-2.83 Z0.46 F1080.0
G1 X29.85 Y5.1 Z0.46 F1080.0
G1 X29.45 Y5.1 Z0.46 F1080.0
G1 X29.45 Y-2.83 Z0.46 F1080.0
G1 X29.06 Y-2.83 Z0.46 F1080.0
G1 X29.06 Y5.1 Z0.46 F1080.0
G1 X28.67 Y5.1 Z0.46 F1080.0
G1 X28.67 Y-2.83 Z0.46 F1080.0
G1 X28.27 Y-2.83 Z0.46 F1080.0
G1 X28.27 Y5.1 Z0.46 F1080.0
G1 X27.88 Y5.1 Z0.46 F1080.0
G1 X27.88 Y-2.83 Z0.46 F1080.0
G1 X27.49 Y-2.83 Z0.46 F1080.0
G1 X27.49 Y5.1 Z0.46 F1080.0
G1 X27.1 Y5.1 Z0.46 F1080.0
G1 X27.1 Y-2.83 Z0.46 F1080.0
G1 X26.7 Y-2.83 Z0.46 F1080.0
G1 X26.7 Y5.1 Z0.46 F1080.0
G1 X26.31 Y5.1 Z0.46 F1080.0
G1 X26.31 Y-2.83 Z0.46 F1080.0
G1 X25.92 Y-2.83 Z0.46 F1080.0
G1 X25.92 Y5.1 Z0.46 F1080.0
G1 X25.53 Y5.1 Z0.46 F1080.0
G1 X25.53 Y-2.83 Z0.46 F1080.0
G1 X25.13 Y-2.83 Z0.46 F1080.0
G1 X25.13 Y5.1 Z0.46 F1080.0
G1 X24.74 Y5.1 Z0.46 F1080.0
G1 X24.74 Y-2.83 Z0.46 F1080.0
G1 X24.35 Y-2.83 Z0.46 F1080.0
G1 X24.35 Y5.1 Z0.46 F1080.0
G1 X23.96 Y5.1 Z0.46 F1080.0
G1 X23.96 Y-2.83 Z0.46 F1080.0
G1 X23.56 Y-2.83 Z0.46 F1080.0
G1 X23.56 Y5.1 Z0.46 F1080.0
G1 X23.17 Y5.1 Z0.46 F1080.0
G1 X23.17 Y-2.83 Z0.46 F1080.0
G1 X22.78 Y-2.83 Z0.46 F1080.0
G1 X22.78 Y5.1 Z0.46 F1080.0
G1 X22.38 Y5.1 Z0.46 F1080.0
G1 X22.38 Y-2.83 Z0.46 F1080.0
G1 X21.99 Y-2.83 Z0.46 F1080.0
G1 X21.99 Y5.1 Z0.46 F1080.0
G1 X21.6 Y5.1 Z0.46 F1080.0
G1 X21.6 Y-2.83 Z0.46 F1080.0
G1 X21.21 Y-2.83 Z0.46 F1080.0
G1 X21.21 Y5.1 Z0.46 F1080.0
G1 X20.81 Y5.1 Z0.46 F1080.0
G1 X20.81 Y-2.83 Z0.46 F1080.0
G1 X20.42 Y-2.83 Z0.46 F1080.0
G1 X20.42 Y5.1 Z0.46 F1080.0
G1 X20.03 Y5.1 Z0.46 F1080.0
G1 X20.03 Y-2.83 Z0.46 F1080.0
G1 X19.64 Y-2.83 Z0.46 F1080.0
G1 X19.64 Y5.1 Z0.46 F1080.0
G1 X19.24 Y5.1 Z0.46 F1080.0
G1 X19.24 Y-2.83 Z0.46 F1080.0
G1 X18.85 Y-2.83 Z0.46 F1080.0
G1 X18.85 Y5.1 Z0.46 F1080.0
G1 X18.46 Y5.1 Z0.46 F1080.0
G1 X18.46 Y-2.83 Z0.46 F1080.0
G1 X18.06 Y-2.83 Z0.46 F1080.0
G1 X18.06 Y5.1 Z0.46 F1080.0
G1 X17.67 Y5.1 Z0.46 F1080.0
G1 X17.67 Y-2.83 Z0.46 F1080.0
G1 X17.28 Y-2.83 Z0.46 F1080.0
G1 X17.28 Y5.1 Z0.46 F1080.0
G1 X16.89 Y5.1 Z0.46 F1080.0
G1 X16.89 Y-2.83 Z0.46 F1080.0
G1 X16.49 Y-2.83 Z0.46 F1080.0
G1 X16.49 Y5.1 Z0.46 F1080.0
G1 X16.1 Y5.1 Z0.46 F1080.0
G1 X16.1 Y-2.83 Z0.46 F1080.0
G1 X15.71 Y-2.83 Z0.46 F1080.0
G1 X15.71 Y5.1 Z0.46 F1080.0
G1 X15.32 Y5.1 Z0.46 F1080.0
G1 X15.32 Y-2.83 Z0.46 F1080.0
G1 X14.92 Y-2.83 Z0.46 F1080.0
G1 X14.92 Y5.1 Z0.46 F1080.0
G1 X14.53 Y5.1 Z0.46 F1080.0
G1 X14.53 Y-2.83 Z0.46 F1080.0
G1 X14.14 Y-2.83 Z0.46 F1080.0
G1 X14.14 Y5.1 Z0.46 F1080.0
G1 X13.74 Y5.1 Z0.46 F1080.0
G1 X13.74 Y-2.83 Z0.46 F1080.0
G1 X13.35 Y-2.83 Z0.46 F1080.0
G1 X13.35 Y5.1 Z0.46 F1080.0
G1 X12.96 Y5.1 Z0.46 F1080.0
G1 X12.96 Y-2.83 Z0.46 F1080.0
G1 X12.57 Y-2.83 Z0.46 F1080.0
G1 X12.57 Y5.1 Z0.46 F1080.0
G1 X12.17 Y5.1 Z0.46 F1080.0
G1 X12.17 Y-2.83 Z0.46 F1080.0
G1 X11.78 Y-2.83 Z0.46 F1080.0
G1 X11.78 Y5.1 Z0.46 F1080.0
G1 X11.39 Y5.1 Z0.46 F1080.0
G1 X11.39 Y-2.83 Z0.46 F1080.0
G1 X11.0 Y-2.83 Z0.46 F1080.0
G1 X11.0 Y4.83 Z0.46 F1080.0
M108 R30.0
M102
G1 X11.0 Y5.1 Z0.46 F1080.0
M108 R2.141
M103
G1 X10.63 Y-2.35 Z0.46 F1800.0
M108 R30.0
M101
G1 X10.6 Y-2.83 Z0.46 F1800.0
M108 R2.141
G1 X10.6 Y50.71 Z0.46 F1080.0
G1 X10.21 Y50.71 Z0.46 F1080.0
G1 X10.21 Y-2.83 Z0.46 F1080.0
G1 X9.82 Y-2.83 Z0.46 F1080.0
G1 X9.82 Y50.71 Z0.46 F1080.0
G1 X9.43 Y50.71 Z0.46 F1080.0
G1 X9.43 Y-2.83 Z0.46 F1080.0
G1 X9.03 Y-2.83 Z0.46 F1080.0
G1 X9.03 Y50.71 Z0.46 F1080.0
G1 X8.64 Y50.71 Z0.46 F1080.0
G1 X8.64 Y-2.83 Z0.46 F1080.0
G1 X8.25 Y-2.83 Z0.46 F1080.0
G1 X8.25 Y50.71 Z0.46 F1080.0
G1 X7.85 Y50.71 Z0.46 F1080.0
G1 X7.85 Y-2.83 Z0.46 F1080.0
G1 X7.46 Y-2.83 Z0.46 F1080.0
G1 X7.46 Y50.71 Z0.46 F1080.0
G1 X7.07 Y50.71 Z0.46 F1080.0
G1 X7.07 Y-2.83 Z0.46 F1080.0
G1 X6.68 Y-2.83 Z0.46 F1080.0
G1 X6.68 Y50.71 Z0.46 F1080.0
G1 X6.28 Y50.71 Z0.46 F1080.0
G1 X6.28 Y-2.83 Z0.46 F1080.0
G1 X5.89 Y-2.83 Z0.46 F1080.0
G1 X5.89 Y50.71 Z0.46 F1080.0
G1 X5.5 Y50.71 Z0.46 F1080.0
G1 X5.5 Y-2.83 Z0.46 F1080.0
G1 X5.11 Y-2.83 Z0.46 F1080.0
G1 X5.11 Y50.71 Z0.46 F1080.0
G1 X4.71 Y50.71 Z0.46 F1080.0
G1 X4.71 Y-2.83 Z0.46 F1080.0
G1 X4.32 Y-2.83 Z0.46 F1080.0
G1 X4.32 Y50.71 Z0.46 F1080.0
G1 X3.93 Y50.71 Z0.46 F1080.0
G1 X3.93 Y-2.83 Z0.46 F1080.0
G1 X3.53 Y-2.83 Z0.46 F1080.0
G1 X3.53 Y50.71 Z0.46 F1080.0
G1 X3.14 Y50.71 Z0.46 F1080.0
G1 X3.14 Y-2.56 Z0.46 F1080.0
M108 R30.0
M102
G1 X3.14 Y-2.83 Z0.46 F1080.0
M108 R2.141
M103
G1 X0.38 Y-0.71 Z0.46 F1800.0
M108 R30.0
M101
G1 X-0.0 Y-0.42 Z0.46 F1800.0
M108 R2.141
G1 X-0.0 Y-51.06 Z0.46 F1080.0
M103
G1 X-0.39 Y-51.06 Z0.46 F1800.0
M101
G1 X-0.39 Y-0.6 Z0.46 F1080.0
G1 X-0.79 Y-0.6 Z0.46 F1080.0
G1 X-0.79 Y-51.06 Z0.46 F1080.0
M103
G1 X-1.18 Y-51.06 Z0.46 F1800.0
M101
G1 X-1.18 Y-0.6 Z0.46 F1080.0
G1 X-1.57 Y-0.6 Z0.46 F1080.0
G1 X-1.57 Y-51.06 Z0.46 F1080.0
M103
G1 X-1.96 Y-51.06 Z0.46 F1800.0
M101
G1 X-1.96 Y-0.6 Z0.46 F1080.0
G1 X-2.36 Y-0.6 Z0.46 F1080.0
G1 X-2.36 Y-51.06 Z0.46 F1080.0
M103
G1 X-2.75 Y-51.06 Z0.46 F1800.0
M101
G1 X-2.75 Y-0.6 Z0.46 F1080.0
G1 X-3.14 Y-0.6 Z0.46 F1080.0
G1 X-3.14 Y-51.06 Z0.46 F1080.0
M103
G1 X-3.53 Y-51.06 Z0.46 F1800.0
M101
G1 X-3.53 Y-0.6 Z0.46 F1080.0
G1 X-3.93 Y-0.6 Z0.46 F1080.0
G1 X-3.93 Y-51.06 Z0.46 F1080.0
M103
G1 X-4.32 Y-51.06 Z0.46 F1800.0
M101
G1 X-4.32 Y-0.6 Z0.46 F1080.0
G1 X-4.71 Y-0.6 Z0.46 F1080.0
G1 X-4.71 Y-51.06 Z0.46 F1080.0
M103
G1 X-5.11 Y-51.06 Z0.46 F1800.0
M101
G1 X-5.11 Y-44.87 Z0.46 F1080.0
G1 X-5.5 Y-44.87 Z0.46 F1080.0
G1 X-5.5 Y-51.06 Z0.46 F1080.0
M103
G1 X-5.89 Y-51.06 Z0.46 F1800.0
M101
G1 X-5.89 Y-44.87 Z0.46 F1080.0
G1 X-6.28 Y-44.87 Z0.46 F1080.0
G1 X-6.28 Y-51.06 Z0.46 F1080.0
M103
G1 X-6.68 Y-51.06 Z0.46 F1800.0
M101
G1 X-6.68 Y-44.87 Z0.46 F1080.0
G1 X-7.07 Y-44.87 Z0.46 F1080.0
G1 X-7.07 Y-51.06 Z0.46 F1080.0
M103
G1 X-7.46 Y-51.06 Z0.46 F1800.0
M101
G1 X-7.46 Y-44.87 Z0.46 F1080.0
G1 X-7.85 Y-44.87 Z0.46 F1080.0
G1 X-7.85 Y-51.06 Z0.46 F1080.0
M103
G1 X-8.25 Y-51.06 Z0.46 F1800.0
M101
G1 X-8.25 Y-44.87 Z0.46 F1080.0
G1 X-8.64 Y-44.87 Z0.46 F1080.0
G1 X-8.64 Y-51.06 Z0.46 F1080.0
M103
G1 X-9.03 Y-51.06 Z0.46 F1800.0
M101
G1 X-9.03 Y-44.87 Z0.46 F1080.0
G1 X-9.43 Y-44.87 Z0.46 F1080.0
G1 X-9.43 Y-51.06 Z0.46 F1080.0
M103
G1 X-9.82 Y-51.06 Z0.46 F1800.0
M101
G1 X-9.82 Y-44.87 Z0.46 F1080.0
G1 X-10.21 Y-44.87 Z0.46 F1080.0
G1 X-10.21 Y-51.06 Z0.46 F1080.0
M103
G1 X-10.6 Y-51.06 Z0.46 F1800.0
M101
G1 X-10.6 Y-44.87 Z0.46 F1080.0
G1 X-11.0 Y-44.87 Z0.46 F1080.0
G1 X-11.0 Y-51.06 Z0.46 F1080.0
M103
G1 X-11.39 Y-51.06 Z0.46 F1800.0
M101
G1 X-11.39 Y-44.87 Z0.46 F1080.0
G1 X-11.78 Y-44.87 Z0.46 F1080.0
G1 X-11.78 Y-51.06 Z0.46 F1080.0
M103
G1 X-12.17 Y-51.06 Z0.46 F1800.0
M101
G1 X-12.17 Y-44.87 Z0.46 F1080.0
G1 X-12.57 Y-44.87 Z0.46 F1080.0
G1 X-12.57 Y-51.06 Z0.46 F1080.0
M103
G1 X-12.96 Y-51.06 Z0.46 F1800.0
M101
G1 X-12.96 Y-44.87 Z0.46 F1080.0
G1 X-13.35 Y-44.87 Z0.46 F1080.0
G1 X-13.35 Y-51.06 Z0.46 F1080.0
M103
G1 X-13.74 Y-51.06 Z0.46 F1800.0
M101
G1 X-13.74 Y-44.87 Z0.46 F1080.0
G1 X-14.14 Y-44.87 Z0.46 F1080.0
G1 X-14.14 Y-51.06 Z0.46 F1080.0
M103
G1 X-14.53 Y-51.06 Z0.46 F1800.0
M101
G1 X-14.53 Y-44.87 Z0.46 F1080.0
G1 X-14.92 Y-44.87 Z0.46 F1080.0
G1 X-14.92 Y-51.06 Z0.46 F1080.0
M103
G1 X-15.32 Y-51.06 Z0.46 F1800.0
M101
G1 X-15.32 Y-44.87 Z0.46 F1080.0
G1 X-15.71 Y-44.87 Z0.46 F1080.0
G1 X-15.71 Y-51.06 Z0.46 F1080.0
M103
G1 X-16.1 Y-51.06 Z0.46 F1800.0
M101
G1 X-16.1 Y-44.87 Z0.46 F1080.0
G1 X-16.49 Y-44.87 Z0.46 F1080.0
G1 X-16.49 Y-51.06 Z0.46 F1080.0
M103
G1 X-16.89 Y-51.06 Z0.46 F1800.0
M101
G1 X-16.89 Y-44.87 Z0.46 F1080.0
G1 X-17.28 Y-44.87 Z0.46 F1080.0
G1 X-17.28 Y-51.06 Z0.46 F1080.0
M103
G1 X-17.67 Y-51.06 Z0.46 F1800.0
M101
G1 X-17.67 Y-44.87 Z0.46 F1080.0
G1 X-18.06 Y-44.87 Z0.46 F1080.0
G1 X-18.06 Y-51.06 Z0.46 F1080.0
M103
G1 X-18.46 Y-51.06 Z0.46 F1800.0
M101
G1 X-18.46 Y-44.87 Z0.46 F1080.0
G1 X-18.85 Y-44.87 Z0.46 F1080.0
G1 X-18.85 Y-51.06 Z0.46 F1080.0
M103
G1 X-19.24 Y-51.06 Z0.46 F1800.0
M101
G1 X-19.24 Y-44.87 Z0.46 F1080.0
G1 X-19.64 Y-44.87 Z0.46 F1080.0
G1 X-19.64 Y-51.06 Z0.46 F1080.0
M103
G1 X-20.03 Y-51.06 Z0.46 F1800.0
M101
G1 X-20.03 Y-44.87 Z0.46 F1080.0
G1 X-20.42 Y-44.87 Z0.46 F1080.0
G1 X-20.42 Y-51.06 Z0.46 F1080.0
M103
G1 X-20.81 Y-51.06 Z0.46 F1800.0
M101
G1 X-20.81 Y-44.87 Z0.46 F1080.0
G1 X-21.21 Y-44.87 Z0.46 F1080.0
G1 X-21.21 Y-51.06 Z0.46 F1080.0
M103
G1 X-21.6 Y-51.06 Z0.46 F1800.0
M101
G1 X-21.6 Y-44.87 Z0.46 F1080.0
G1 X-21.99 Y-44.87 Z0.46 F1080.0
G1 X-21.99 Y-51.06 Z0.46 F1080.0
M103
G1 X-22.38 Y-51.06 Z0.46 F1800.0
M101
G1 X-22.38 Y-44.87 Z0.46 F1080.0
G1 X-22.78 Y-44.87 Z0.46 F1080.0
G1 X-22.78 Y-51.06 Z0.46 F1080.0
M103
G1 X-23.17 Y-51.06 Z0.46 F1800.0
M101
G1 X-23.17 Y-44.87 Z0.46 F1080.0
G1 X-23.56 Y-44.87 Z0.46 F1080.0
G1 X-23.56 Y-51.06 Z0.46 F1080.0
M103
G1 X-23.96 Y-51.06 Z0.46 F1800.0
M101
G1 X-23.96 Y-44.87 Z0.46 F1080.0
G1 X-24.35 Y-44.87 Z0.46 F1080.0
G1 X-24.35 Y-51.06 Z0.46 F1080.0
M103
G1 X-24.74 Y-51.06 Z0.46 F1800.0
M101
G1 X-24.74 Y-44.87 Z0.46 F1080.0
G1 X-25.13 Y-44.87 Z0.46 F1080.0
G1 X-25.13 Y-51.06 Z0.46 F1080.0
M103
G1 X-25.53 Y-51.06 Z0.46 F1800.0
M101
G1 X-25.53 Y-44.87 Z0.46 F1080.0
G1 X-25.92 Y-44.87 Z0.46 F1080.0
G1 X-25.92 Y-51.06 Z0.46 F1080.0
M103
G1 X-26.31 Y-51.06 Z0.46 F1800.0
M101
G1 X-26.31 Y-44.87 Z0.46 F1080.0
G1 X-26.7 Y-44.87 Z0.46 F1080.0
G1 X-26.7 Y-51.06 Z0.46 F1080.0
M103
G1 X-27.1 Y-51.06 Z0.46 F1800.0
M101
G1 X-27.1 Y-44.87 Z0.46 F1080.0
G1 X-27.49 Y-44.87 Z0.46 F1080.0
G1 X-27.49 Y-51.06 Z0.46 F1080.0
M103
G1 X-27.88 Y-51.06 Z0.46 F1800.0
M101
G1 X-27.88 Y-44.87 Z0.46 F1080.0
G1 X-28.27 Y-44.87 Z0.46 F1080.0
G1 X-28.27 Y-51.06 Z0.46 F1080.0
M103
G1 X-28.67 Y-51.06 Z0.46 F1800.0
M101
G1 X-28.67 Y-44.87 Z0.46 F1080.0
G1 X-29.06 Y-44.87 Z0.46 F1080.0
G1 X-29.06 Y-51.06 Z0.46 F1080.0
M103
G1 X-29.45 Y-51.06 Z0.46 F1800.0
M101
G1 X-29.45 Y-44.87 Z0.46 F1080.0
G1 X-29.85 Y-44.87 Z0.46 F1080.0
G1 X-29.85 Y-51.06 Z0.46 F1080.0
M103
G1 X-30.24 Y-51.06 Z0.46 F1800.0
M101
G1 X-30.24 Y-44.87 Z0.46 F1080.0
G1 X-30.63 Y-44.87 Z0.46 F1080.0
G1 X-30.63 Y-51.06 Z0.46 F1080.0
M103
G1 X-31.02 Y-51.06 Z0.46 F1800.0
M101
G1 X-31.02 Y-44.87 Z0.46 F1080.0
G1 X-31.42 Y-44.87 Z0.46 F1080.0
G1 X-31.42 Y-51.06 Z0.46 F1080.0
M103
G1 X-31.81 Y-51.06 Z0.46 F1800.0
M101
G1 X-31.81 Y-44.87 Z0.46 F1080.0
G1 X-32.2 Y-44.87 Z0.46 F1080.0
G1 X-32.2 Y-51.06 Z0.46 F1080.0
M103
G1 X-32.59 Y-51.06 Z0.46 F1800.0
M101
G1 X-32.59 Y-44.87 Z0.46 F1080.0
G1 X-32.99 Y-44.87 Z0.46 F1080.0
G1 X-32.99 Y-51.06 Z0.46 F1080.0
M103
G1 X-33.38 Y-51.06 Z0.46 F1800.0
M101
G1 X-33.38 Y-44.87 Z0.46 F1080.0
G1 X-33.77 Y-44.87 Z0.46 F1080.0
G1 X-33.77 Y-51.06 Z0.46 F1080.0
M103
G1 X-34.17 Y-51.06 Z0.46 F1800.0
M101
G1 X-34.17 Y-44.87 Z0.46 F1080.0
G1 X-34.56 Y-44.87 Z0.46 F1080.0
G1 X-34.56 Y-51.06 Z0.46 F1080.0
M103
G1 X-34.95 Y-51.06 Z0.46 F1800.0
M101
G1 X-34.95 Y-44.87 Z0.46 F1080.0
G1 X-35.34 Y-44.87 Z0.46 F1080.0
G1 X-35.34 Y-51.06 Z0.46 F1080.0
M103
G1 X-35.74 Y-51.06 Z0.46 F1800.0
M101
G1 X-35.74 Y-44.87 Z0.46 F1080.0
G1 X-36.13 Y-44.87 Z0.46 F1080.0
G1 X-36.13 Y-51.06 Z0.46 F1080.0
M103
G1 X-36.52 Y-51.06 Z0.46 F1800.0
M101
G1 X-36.52 Y-44.87 Z0.46 F1080.0
G1 X-36.91 Y-44.87 Z0.46 F1080.0
G1 X-36.91 Y-51.06 Z0.46 F1080.0
M103
G1 X-37.31 Y-51.06 Z0.46 F1800.0
M101
G1 X-37.31 Y-44.87 Z0.46 F1080.0
G1 X-37.7 Y-44.87 Z0.46 F1080.0
G1 X-37.7 Y-51.06 Z0.46 F1080.0
M103
G1 X-38.09 Y-51.06 Z0.46 F1800.0
M101
G1 X-38.09 Y-44.87 Z0.46 F1080.0
G1 X-38.49 Y-44.87 Z0.46 F1080.0
G1 X-38.49 Y-51.06 Z0.46 F1080.0
M103
G1 X-38.88 Y-51.06 Z0.46 F1800.0
M101
G1 X-38.88 Y-44.87 Z0.46 F1080.0
G1 X-39.27 Y-44.87 Z0.46 F1080.0
G1 X-39.27 Y-51.06 Z0.46 F1080.0
M103
G1 X-39.66 Y-51.06 Z0.46 F1800.0
M101
G1 X-39.66 Y-44.87 Z0.46 F1080.0
G1 X-40.06 Y-44.87 Z0.46 F1080.0
G1 X-40.06 Y-51.06 Z0.46 F1080.0
M103
G1 X-40.45 Y-51.06 Z0.46 F1800.0
M101
G1 X-40.45 Y-44.87 Z0.46 F1080.0
G1 X-40.84 Y-44.87 Z0.46 F1080.0
G1 X-40.84 Y-51.06 Z0.46 F1080.0
M103
G1 X-41.23 Y-51.06 Z0.46 F1800.0
M101
G1 X-41.23 Y-44.87 Z0.46 F1080.0
G1 X-41.63 Y-44.87 Z0.46 F1080.0
G1 X-41.63 Y-51.06 Z0.46 F1080.0
M103
G1 X-42.02 Y-51.06 Z0.46 F1800.0
M101
G1 X-42.02 Y-44.87 Z0.46 F1080.0
G1 X-42.41 Y-44.87 Z0.46 F1080.0
G1 X-42.41 Y-51.06 Z0.46 F1080.0
M103
G1 X-42.8 Y-51.06 Z0.46 F1800.0
M101
G1 X-42.8 Y-44.87 Z0.46 F1080.0
G1 X-43.2 Y-44.87 Z0.46 F1080.0
G1 X-43.2 Y-51.06 Z0.46 F1080.0
M103
G1 X-43.59 Y-51.06 Z0.46 F1800.0
M101
G1 X-43.59 Y-44.87 Z0.46 F1080.0
G1 X-43.98 Y-44.87 Z0.46 F1080.0
G1 X-43.98 Y-51.06 Z0.46 F1080.0
M103
G1 X-44.38 Y-51.06 Z0.46 F1800.0
M101
G1 X-44.38 Y-44.87 Z0.46 F1080.0
G1 X-44.77 Y-44.87 Z0.46 F1080.0
G1 X-44.77 Y-51.06 Z0.46 F1080.0
M103
G1 X-45.16 Y-51.06 Z0.46 F1800.0
M101
G1 X-45.16 Y-44.87 Z0.46 F1080.0
G1 X-45.55 Y-44.87 Z0.46 F1080.0
G1 X-45.55 Y-51.06 Z0.46 F1080.0
M103
G1 X-45.95 Y-51.06 Z0.46 F1800.0
M101
G1 X-45.95 Y-44.87 Z0.46 F1080.0
G1 X-46.34 Y-44.87 Z0.46 F1080.0
G1 X-46.34 Y-51.06 Z0.46 F1080.0
M103
G1 X-46.73 Y-51.06 Z0.46 F1800.0
M101
G1 X-46.73 Y-45.14 Z0.46 F1080.0
M108 R30.0
M102
G1 X-46.73 Y-44.87 Z0.46 F1080.0
M108 R2.141
M103
G1 X-47.09 Y-50.58 Z0.46 F1800.0
M108 R30.0
M101
G1 X-47.12 Y-51.06 Z0.46 F1800.0
M108 R2.141
G1 X-47.12 Y-0.6 Z0.46 F1080.0
G1 X-47.52 Y-0.6 Z0.46 F1080.0
G1 X-47.52 Y-51.06 Z0.46 F1080.0
M103
G1 X-47.91 Y-51.06 Z0.46 F1800.0
M101
G1 X-47.91 Y-0.6 Z0.46 F1080.0
G1 X-48.3 Y-0.6 Z0.46 F1080.0
G1 X-48.3 Y-51.06 Z0.46 F1080.0
M103
G1 X-48.7 Y-51.06 Z0.46 F1800.0
M101
G1 X-48.7 Y-0.6 Z0.46 F1080.0
G1 X-49.09 Y-0.6 Z0.46 F1080.0
G1 X-49.09 Y-51.06 Z0.46 F1080.0
M103
G1 X-49.48 Y-51.06 Z0.46 F1800.0
M101
G1 X-49.48 Y-0.6 Z0.46 F1080.0
G1 X-49.87 Y-0.6 Z0.46 F1080.0
G1 X-49.87 Y-51.06 Z0.46 F1080.0
M103
G1 X-50.27 Y-51.06 Z0.46 F1800.0
M101
G1 X-50.27 Y-0.87 Z0.46 F1080.0
M108 R30.0
M102
G1 X-50.27 Y-0.6 Z0.46 F1080.0
M108 R2.141
M103
G1 X-47.21 Y-0.6 Z0.46 F1800.0
M108 R30.0
M101
G1 X-46.73 Y-0.6 Z0.46 F1800.0
M108 R2.141
G1 X-46.73 Y-10.74 Z0.46 F1080.0
M103
G1 X-46.34 Y-10.74 Z0.46 F1800.0
M101
G1 X-46.34 Y-0.6 Z0.46 F1080.0
G1 X-45.95 Y-0.6 Z0.46 F1080.0
G1 X-45.95 Y-10.74 Z0.46 F1080.0
M103
G1 X-45.55 Y-10.74 Z0.46 F1800.0
M101
G1 X-45.55 Y-0.6 Z0.46 F1080.0
G1 X-45.16 Y-0.6 Z0.46 F1080.0
G1 X-45.16 Y-10.74 Z0.46 F1080.0
M103
G1 X-44.77 Y-10.74 Z0.46 F1800.0
M101
G1 X-44.77 Y-0.6 Z0.46 F1080.0
G1 X-44.38 Y-0.6 Z0.46 F1080.0
G1 X-44.38 Y-10.74 Z0.46 F1080.0
M103
G1 X-43.98 Y-10.74 Z0.46 F1800.0
M101
G1 X-43.98 Y-0.6 Z0.46 F1080.0
G1 X-43.59 Y-0.6 Z0.46 F1080.0
G1 X-43.59 Y-10.74 Z0.46 F1080.0
M103
G1 X-43.2 Y-10.74 Z0.46 F1800.0
M101
G1 X-43.2 Y-0.6 Z0.46 F1080.0
G1 X-42.8 Y-0.6 Z0.46 F1080.0
G1 X-42.8 Y-10.74 Z0.46 F1080.0
M103
G1 X-42.41 Y-10.74 Z0.46 F1800.0
M101
G1 X-42.41 Y-0.6 Z0.46 F1080.0
G1 X-42.02 Y-0.6 Z0.46 F1080.0
G1 X-42.02 Y-10.74 Z0.46 F1080.0
M103
G1 X-41.63 Y-10.74 Z0.46 F1800.0
M101
G1 X-41.63 Y-0.6 Z0.46 F1080.0
G1 X-41.23 Y-0.6 Z0.46 F1080.0
G1 X-41.23 Y-10.74 Z0.46 F1080.0
M103
G1 X-40.84 Y-10.74 Z0.46 F1800.0
M101
G1 X-40.84 Y-0.6 Z0.46 F1080.0
G1 X-40.45 Y-0.6 Z0.46 F1080.0
G1 X-40.45 Y-10.74 Z0.46 F1080.0
M103
G1 X-40.06 Y-10.74 Z0.46 F1800.0
M101
G1 X-40.06 Y-0.6 Z0.46 F1080.0
G1 X-39.66 Y-0.6 Z0.46 F1080.0
G1 X-39.66 Y-10.74 Z0.46 F1080.0
M103
G1 X-39.27 Y-10.74 Z0.46 F1800.0
M101
G1 X-39.27 Y-0.6 Z0.46 F1080.0
G1 X-38.88 Y-0.6 Z0.46 F1080.0
G1 X-38.88 Y-10.74 Z0.46 F1080.0
M103
G1 X-38.49 Y-10.74 Z0.46 F1800.0
M101
G1 X-38.49 Y-0.6 Z0.46 F1080.0
G1 X-38.09 Y-0.6 Z0.46 F1080.0
G1 X-38.09 Y-10.74 Z0.46 F1080.0
M103
G1 X-37.7 Y-10.74 Z0.46 F1800.0
M101
G1 X-37.7 Y-0.6 Z0.46 F1080.0
G1 X-37.31 Y-0.6 Z0.46 F1080.0
G1 X-37.31 Y-10.74 Z0.46 F1080.0
M103
G1 X-36.91 Y-10.74 Z0.46 F1800.0
M101
G1 X-36.91 Y-0.6 Z0.46 F1080.0
G1 X-36.52 Y-0.6 Z0.46 F1080.0
G1 X-36.52 Y-10.74 Z0.46 F1080.0
M103
G1 X-36.13 Y-10.74 Z0.46 F1800.0
M101
G1 X-36.13 Y-0.6 Z0.46 F1080.0
G1 X-35.74 Y-0.6 Z0.46 F1080.0
G1 X-35.74 Y-10.74 Z0.46 F1080.0
M103
G1 X-35.34 Y-10.74 Z0.46 F1800.0
M101
G1 X-35.34 Y-0.6 Z0.46 F1080.0
G1 X-34.95 Y-0.6 Z0.46 F1080.0
G1 X-34.95 Y-10.74 Z0.46 F1080.0
M103
G1 X-34.56 Y-10.74 Z0.46 F1800.0
M101
G1 X-34.56 Y-0.6 Z0.46 F1080.0
G1 X-34.17 Y-0.6 Z0.46 F1080.0
G1 X-34.17 Y-10.74 Z0.46 F1080.0
M103
G1 X-33.77 Y-10.74 Z0.46 F1800.0
M101
G1 X-33.77 Y-0.6 Z0.46 F1080.0
G1 X-33.38 Y-0.6 Z0.46 F1080.0
G1 X-33.38 Y-10.74 Z0.46 F1080.0
M103
G1 X-32.99 Y-10.74 Z0.46 F1800.0
M101
G1 X-32.99 Y-0.6 Z0.46 F1080.0
G1 X-32.59 Y-0.6 Z0.46 F1080.0
G1 X-32.59 Y-10.74 Z0.46 F1080.0
M103
G1 X-32.2 Y-10.74 Z0.46 F1800.0
M101
G1 X-32.2 Y-0.6 Z0.46 F1080.0
G1 X-31.81 Y-0.6 Z0.46 F1080.0
G1 X-31.81 Y-10.74 Z0.46 F1080.0
M103
G1 X-31.42 Y-10.74 Z0.46 F1800.0
M101
G1 X-31.42 Y-0.6 Z0.46 F1080.0
G1 X-31.02 Y-0.6 Z0.46 F1080.0
G1 X-31.02 Y-10.74 Z0.46 F1080.0
M103
G1 X-30.63 Y-10.74 Z0.46 F1800.0
M101
G1 X-30.63 Y-0.6 Z0.46 F1080.0
G1 X-30.24 Y-0.6 Z0.46 F1080.0
G1 X-30.24 Y-10.74 Z0.46 F1080.0
M103
G1 X-29.85 Y-10.74 Z0.46 F1800.0
M101
G1 X-29.85 Y-0.6 Z0.46 F1080.0
G1 X-29.45 Y-0.6 Z0.46 F1080.0
G1 X-29.45 Y-10.74 Z0.46 F1080.0
M103
G1 X-29.06 Y-10.74 Z0.46 F1800.0
M101
G1 X-29.06 Y-0.6 Z0.46 F1080.0
G1 X-28.67 Y-0.6 Z0.46 F1080.0
G1 X-28.67 Y-10.74 Z0.46 F1080.0
M103
G1 X-28.27 Y-10.74 Z0.46 F1800.0
M101
G1 X-28.27 Y-0.6 Z0.46 F1080.0
G1 X-27.88 Y-0.6 Z0.46 F1080.0
G1 X-27.88 Y-10.74 Z0.46 F1080.0
M103
G1 X-27.49 Y-10.74 Z0.46 F1800.0
M101
G1 X-27.49 Y-0.6 Z0.46 F1080.0
G1 X-27.1 Y-0.6 Z0.46 F1080.0
G1 X-27.1 Y-10.74 Z0.46 F1080.0
M103
G1 X-26.7 Y-10.74 Z0.46 F1800.0
M101
G1 X-26.7 Y-0.6 Z0.46 F1080.0
G1 X-26.31 Y-0.6 Z0.46 F1080.0
G1 X-26.31 Y-10.74 Z0.46 F1080.0
M103
G1 X-25.92 Y-10.74 Z0.46 F1800.0
M101
G1 X-25.92 Y-0.6 Z0.46 F1080.0
G1 X-25.53 Y-0.6 Z0.46 F1080.0
G1 X-25.53 Y-10.74 Z0.46 F1080.0
M103
G1 X-25.13 Y-10.74 Z0.46 F1800.0
M101
G1 X-25.13 Y-0.6 Z0.46 F1080.0
G1 X-24.74 Y-0.6 Z0.46 F1080.0
G1 X-24.74 Y-10.74 Z0.46 F1080.0
M103
G1 X-24.35 Y-10.74 Z0.46 F1800.0
M101
G1 X-24.35 Y-0.6 Z0.46 F1080.0
G1 X-23.96 Y-0.6 Z0.46 F1080.0
G1 X-23.96 Y-10.74 Z0.46 F1080.0
M103
G1 X-23.56 Y-10.74 Z0.46 F1800.0
M101
G1 X-23.56 Y-0.6 Z0.46 F1080.0
G1 X-23.17 Y-0.6 Z0.46 F1080.0
G1 X-23.17 Y-10.74 Z0.46 F1080.0
M103
G1 X-22.78 Y-10.74 Z0.46 F1800.0
M101
G1 X-22.78 Y-0.6 Z0.46 F1080.0
G1 X-22.38 Y-0.6 Z0.46 F1080.0
G1 X-22.38 Y-10.74 Z0.46 F1080.0
M103
G1 X-21.99 Y-10.74 Z0.46 F1800.0
M101
G1 X-21.99 Y-0.6 Z0.46 F1080.0
G1 X-21.6 Y-0.6 Z0.46 F1080.0
G1 X-21.6 Y-10.74 Z0.46 F1080.0
M103
G1 X-21.21 Y-10.74 Z0.46 F1800.0
M101
G1 X-21.21 Y-0.6 Z0.46 F1080.0
G1 X-20.81 Y-0.6 Z0.46 F1080.0
G1 X-20.81 Y-10.74 Z0.46 F1080.0
M103
G1 X-20.42 Y-10.74 Z0.46 F1800.0
M101
G1 X-20.42 Y-0.6 Z0.46 F1080.0
G1 X-20.03 Y-0.6 Z0.46 F1080.0
G1 X-20.03 Y-10.74 Z0.46 F1080.0
M103
G1 X-19.64 Y-10.74 Z0.46 F1800.0
M101
G1 X-19.64 Y-0.6 Z0.46 F1080.0
G1 X-19.24 Y-0.6 Z0.46 F1080.0
G1 X-19.24 Y-10.74 Z0.46 F1080.0
M103
G1 X-18.85 Y-10.74 Z0.46 F1800.0
M101
G1 X-18.85 Y-0.6 Z0.46 F1080.0
G1 X-18.46 Y-0.6 Z0.46 F1080.0
G1 X-18.46 Y-10.74 Z0.46 F1080.0
M103
G1 X-18.06 Y-10.74 Z0.46 F1800.0
M101
G1 X-18.06 Y-0.6 Z0.46 F1080.0
G1 X-17.67 Y-0.6 Z0.46 F1080.0
G1 X-17.67 Y-10.74 Z0.46 F1080.0
M103
G1 X-17.28 Y-10.74 Z0.46 F1800.0
M101
G1 X-17.28 Y-0.6 Z0.46 F1080.0
G1 X-16.89 Y-0.6 Z0.46 F1080.0
G1 X-16.89 Y-10.74 Z0.46 F1080.0
M103
G1 X-16.49 Y-10.74 Z0.46 F1800.0
M101
G1 X-16.49 Y-0.6 Z0.46 F1080.0
G1 X-16.1 Y-0.6 Z0.46 F1080.0
G1 X-16.1 Y-10.74 Z0.46 F1080.0
M103
G1 X-15.71 Y-10.74 Z0.46 F1800.0
M101
G1 X-15.71 Y-0.6 Z0.46 F1080.0
G1 X-15.32 Y-0.6 Z0.46 F1080.0
G1 X-15.32 Y-10.74 Z0.46 F1080.0
M103
G1 X-14.92 Y-10.74 Z0.46 F1800.0
M101
G1 X-14.92 Y-0.6 Z0.46 F1080.0
G1 X-14.53 Y-0.6 Z0.46 F1080.0
G1 X-14.53 Y-10.74 Z0.46 F1080.0
M103
G1 X-14.14 Y-10.74 Z0.46 F1800.0
M101
G1 X-14.14 Y-0.6 Z0.46 F1080.0
G1 X-13.74 Y-0.6 Z0.46 F1080.0
G1 X-13.74 Y-10.74 Z0.46 F1080.0
M103
G1 X-13.35 Y-10.74 Z0.46 F1800.0
M101
G1 X-13.35 Y-0.6 Z0.46 F1080.0
G1 X-12.96 Y-0.6 Z0.46 F1080.0
G1 X-12.96 Y-10.74 Z0.46 F1080.0
M103
G1 X-12.57 Y-10.74 Z0.46 F1800.0
M101
G1 X-12.57 Y-0.6 Z0.46 F1080.0
G1 X-12.17 Y-0.6 Z0.46 F1080.0
G1 X-12.17 Y-10.74 Z0.46 F1080.0
M103
G1 X-11.78 Y-10.74 Z0.46 F1800.0
M101
G1 X-11.78 Y-0.6 Z0.46 F1080.0
G1 X-11.39 Y-0.6 Z0.46 F1080.0
G1 X-11.39 Y-10.74 Z0.46 F1080.0
M103
G1 X-11.0 Y-10.74 Z0.46 F1800.0
M101
G1 X-11.0 Y-0.6 Z0.46 F1080.0
G1 X-10.6 Y-0.6 Z0.46 F1080.0
G1 X-10.6 Y-10.74 Z0.46 F1080.0
M103
G1 X-10.21 Y-10.74 Z0.46 F1800.0
M101
G1 X-10.21 Y-0.6 Z0.46 F1080.0
G1 X-9.82 Y-0.6 Z0.46 F1080.0
G1 X-9.82 Y-10.74 Z0.46 F1080.0
M103
G1 X-9.43 Y-10.74 Z0.46 F1800.0
M101
G1 X-9.43 Y-0.6 Z0.46 F1080.0
G1 X-9.03 Y-0.6 Z0.46 F1080.0
G1 X-9.03 Y-10.74 Z0.46 F1080.0
M103
G1 X-8.64 Y-10.74 Z0.46 F1800.0
M101
G1 X-8.64 Y-0.6 Z0.46 F1080.0
G1 X-8.25 Y-0.6 Z0.46 F1080.0
G1 X-8.25 Y-10.74 Z0.46 F1080.0
M103
G1 X-7.85 Y-10.74 Z0.46 F1800.0
M101
G1 X-7.85 Y-0.6 Z0.46 F1080.0
G1 X-7.46 Y-0.6 Z0.46 F1080.0
G1 X-7.46 Y-10.74 Z0.46 F1080.0
M103
G1 X-7.07 Y-10.74 Z0.46 F1800.0
M101
G1 X-7.07 Y-0.6 Z0.46 F1080.0
G1 X-6.68 Y-0.6 Z0.46 F1080.0
G1 X-6.68 Y-10.74 Z0.46 F1080.0
M103
G1 X-6.28 Y-10.74 Z0.46 F1800.0
M101
G1 X-6.28 Y-0.6 Z0.46 F1080.0
G1 X-5.89 Y-0.6 Z0.46 F1080.0
G1 X-5.89 Y-10.74 Z0.46 F1080.0
M103
G1 X-5.5 Y-10.74 Z0.46 F1800.0
M101
G1 X-5.5 Y-0.6 Z0.46 F1080.0
G1 X-5.11 Y-0.6 Z0.46 F1080.0
G1 X-5.11 Y-10.47 Z0.46 F1080.0
M108 R30.0
M102
G1 X-5.11 Y-10.74 Z0.46 F1080.0
M108 R2.141
M103
G1 X3.02 Y-42.34 Z0.46 F1800.0
M108 R30.0
M101
G1 X3.14 Y-42.8 Z0.46 F1800.0
M108 R2.141
G1 X3.14 Y-51.06 Z0.46 F1080.0
M103
G1 X2.75 Y-51.06 Z0.46 F1800.0
M101
G1 X2.75 Y50.71 Z0.46 F1080.0
G1 X2.36 Y50.71 Z0.46 F1080.0
G1 X2.36 Y-51.06 Z0.46 F1080.0
M103
G1 X1.96 Y-51.06 Z0.46 F1800.0
M101
G1 X1.96 Y50.71 Z0.46 F1080.0
G1 X1.57 Y50.71 Z0.46 F1080.0
G1 X1.57 Y-51.06 Z0.46 F1080.0
M103
G1 X1.18 Y-51.06 Z0.46 F1800.0
M101
G1 X1.18 Y50.44 Z0.46 F1080.0
M108 R30.0
M102
G1 X1.18 Y50.71 Z0.46 F1080.0
M108 R2.141
M103
G1 X10.52 Y50.71 Z0.46 F1800.0
M108 R30.0
M101
G1 X11.0 Y50.71 Z0.46 F1800.0
M108 R2.141
G1 X11.0 Y47.33 Z0.46 F1080.0
G1 X11.39 Y47.33 Z0.46 F1080.0
G1 X11.39 Y50.71 Z0.46 F1080.0
G1 X11.78 Y50.71 Z0.46 F1080.0
G1 X11.78 Y47.33 Z0.46 F1080.0
G1 X12.17 Y47.33 Z0.46 F1080.0
G1 X12.17 Y50.71 Z0.46 F1080.0
G1 X12.57 Y50.71 Z0.46 F1080.0
G1 X12.57 Y47.33 Z0.46 F1080.0
G1 X12.96 Y47.33 Z0.46 F1080.0
G1 X12.96 Y50.71 Z0.46 F1080.0
G1 X13.35 Y50.71 Z0.46 F1080.0
G1 X13.35 Y47.33 Z0.46 F1080.0
G1 X13.74 Y47.33 Z0.46 F1080.0
G1 X13.74 Y50.71 Z0.46 F1080.0
G1 X14.14 Y50.71 Z0.46 F1080.0
G1 X14.14 Y47.33 Z0.46 F1080.0
G1 X14.53 Y47.33 Z0.46 F1080.0
G1 X14.53 Y50.71 Z0.46 F1080.0
G1 X14.92 Y50.71 Z0.46 F1080.0
G1 X14.92 Y47.33 Z0.46 F1080.0
G1 X15.32 Y47.33 Z0.46 F1080.0
G1 X15.32 Y50.71 Z0.46 F1080.0
G1 X15.71 Y50.71 Z0.46 F1080.0
G1 X15.71 Y47.33 Z0.46 F1080.0
G1 X16.1 Y47.33 Z0.46 F1080.0
G1 X16.1 Y50.71 Z0.46 F1080.0
G1 X16.49 Y50.71 Z0.46 F1080.0
G1 X16.49 Y47.33 Z0.46 F1080.0
G1 X16.89 Y47.33 Z0.46 F1080.0
G1 X16.89 Y50.71 Z0.46 F1080.0
G1 X17.28 Y50.71 Z0.46 F1080.0
G1 X17.28 Y47.33 Z0.46 F1080.0
G1 X17.67 Y47.33 Z0.46 F1080.0
G1 X17.67 Y50.71 Z0.46 F1080.0
G1 X18.06 Y50.71 Z0.46 F1080.0
G1 X18.06 Y47.33 Z0.46 F1080.0
G1 X18.46 Y47.33 Z0.46 F1080.0
G1 X18.46 Y50.71 Z0.46 F1080.0
G1 X18.85 Y50.71 Z0.46 F1080.0
G1 X18.85 Y47.33 Z0.46 F1080.0
G1 X19.24 Y47.33 Z0.46 F1080.0
G1 X19.24 Y50.71 Z0.46 F1080.0
G1 X19.64 Y50.71 Z0.46 F1080.0
G1 X19.64 Y47.33 Z0.46 F1080.0
G1 X20.03 Y47.33 Z0.46 F1080.0
G1 X20.03 Y50.71 Z0.46 F1080.0
G1 X20.42 Y50.71 Z0.46 F1080.0
G1 X20.42 Y47.33 Z0.46 F1080.0
G1 X20.81 Y47.33 Z0.46 F1080.0
G1 X20.81 Y50.71 Z0.46 F1080.0
G1 X21.21 Y50.71 Z0.46 F1080.0
G1 X21.21 Y47.33 Z0.46 F1080.0
G1 X21.6 Y47.33 Z0.46 F1080.0
G1 X21.6 Y50.71 Z0.46 F1080.0
G1 X21.99 Y50.71 Z0.46 F1080.0
G1 X21.99 Y47.33 Z0.46 F1080.0
G1 X22.38 Y47.33 Z0.46 F1080.0
G1 X22.38 Y50.71 Z0.46 F1080.0
G1 X22.78 Y50.71 Z0.46 F1080.0
G1 X22.78 Y47.33 Z0.46 F1080.0
G1 X23.17 Y47.33 Z0.46 F1080.0
G1 X23.17 Y50.71 Z0.46 F1080.0
G1 X23.56 Y50.71 Z0.46 F1080.0
G1 X23.56 Y47.33 Z0.46 F1080.0
G1 X23.96 Y47.33 Z0.46 F1080.0
G1 X23.96 Y50.71 Z0.46 F1080.0
G1 X24.35 Y50.71 Z0.46 F1080.0
G1 X24.35 Y47.33 Z0.46 F1080.0
G1 X24.74 Y47.33 Z0.46 F1080.0
G1 X24.74 Y50.71 Z0.46 F1080.0
G1 X25.13 Y50.71 Z0.46 F1080.0
G1 X25.13 Y47.33 Z0.46 F1080.0
G1 X25.53 Y47.33 Z0.46 F1080.0
G1 X25.53 Y50.71 Z0.46 F1080.0
G1 X25.92 Y50.71 Z0.46 F1080.0
G1 X25.92 Y47.33 Z0.46 F1080.0
G1 X26.31 Y47.33 Z0.46 F1080.0
G1 X26.31 Y50.71 Z0.46 F1080.0
G1 X26.7 Y50.71 Z0.46 F1080.0
G1 X26.7 Y47.33 Z0.46 F1080.0
G1 X27.1 Y47.33 Z0.46 F1080.0
G1 X27.1 Y50.71 Z0.46 F1080.0
G1 X27.49 Y50.71 Z0.46 F1080.0
G1 X27.49 Y47.33 Z0.46 F1080.0
G1 X27.88 Y47.33 Z0.46 F1080.0
G1 X27.88 Y50.71 Z0.46 F1080.0
G1 X28.27 Y50.71 Z0.46 F1080.0
G1 X28.27 Y47.33 Z0.46 F1080.0
G1 X28.67 Y47.33 Z0.46 F1080.0
G1 X28.67 Y50.71 Z0.46 F1080.0
G1 X29.06 Y50.71 Z0.46 F1080.0
G1 X29.06 Y47.33 Z0.46 F1080.0
G1 X29.45 Y47.33 Z0.46 F1080.0
G1 X29.45 Y50.71 Z0.46 F1080.0
G1 X29.85 Y50.71 Z0.46 F1080.0
G1 X29.85 Y47.33 Z0.46 F1080.0
G1 X30.24 Y47.33 Z0.46 F1080.0
G1 X30.24 Y50.71 Z0.46 F1080.0
G1 X30.63 Y50.71 Z0.46 F1080.0
G1 X30.63 Y47.33 Z0.46 F1080.0
G1 X31.02 Y47.33 Z0.46 F1080.0
G1 X31.02 Y50.71 Z0.46 F1080.0
G1 X31.42 Y50.71 Z0.46 F1080.0
G1 X31.42 Y47.33 Z0.46 F1080.0
G1 X31.81 Y47.33 Z0.46 F1080.0
G1 X31.81 Y50.71 Z0.46 F1080.0
G1 X32.2 Y50.71 Z0.46 F1080.0
G1 X32.2 Y47.33 Z0.46 F1080.0
G1 X32.59 Y47.33 Z0.46 F1080.0
G1 X32.59 Y50.71 Z0.46 F1080.0
G1 X32.99 Y50.71 Z0.46 F1080.0
G1 X32.99 Y47.33 Z0.46 F1080.0
G1 X33.38 Y47.33 Z0.46 F1080.0
G1 X33.38 Y50.71 Z0.46 F1080.0
G1 X33.77 Y50.71 Z0.46 F1080.0
G1 X33.77 Y47.33 Z0.46 F1080.0
G1 X34.17 Y47.33 Z0.46 F1080.0
G1 X34.17 Y50.71 Z0.46 F1080.0
G1 X34.56 Y50.71 Z0.46 F1080.0
G1 X34.56 Y47.33 Z0.46 F1080.0
G1 X34.95 Y47.33 Z0.46 F1080.0
G1 X34.95 Y50.71 Z0.46 F1080.0
G1 X35.34 Y50.71 Z0.46 F1080.0
G1 X35.34 Y47.33 Z0.46 F1080.0
G1 X35.74 Y47.33 Z0.46 F1080.0
G1 X35.74 Y50.71 Z0.46 F1080.0
G1 X36.13 Y50.71 Z0.46 F1080.0
G1 X36.13 Y47.33 Z0.46 F1080.0
G1 X36.52 Y47.33 Z0.46 F1080.0
G1 X36.52 Y50.71 Z0.46 F1080.0
G1 X36.91 Y50.71 Z0.46 F1080.0
G1 X36.91 Y47.33 Z0.46 F1080.0
G1 X37.31 Y47.33 Z0.46 F1080.0
G1 X37.31 Y50.71 Z0.46 F1080.0
G1 X37.7 Y50.71 Z0.46 F1080.0
G1 X37.7 Y47.33 Z0.46 F1080.0
G1 X38.09 Y47.33 Z0.46 F1080.0
G1 X38.09 Y50.71 Z0.46 F1080.0
G1 X38.49 Y50.71 Z0.46 F1080.0
G1 X38.49 Y47.33 Z0.46 F1080.0
G1 X38.88 Y47.33 Z0.46 F1080.0
G1 X38.88 Y50.71 Z0.46 F1080.0
G1 X39.27 Y50.71 Z0.46 F1080.0
G1 X39.27 Y47.33 Z0.46 F1080.0
G1 X39.66 Y47.33 Z0.46 F1080.0
G1 X39.66 Y50.71 Z0.46 F1080.0
G1 X40.06 Y50.71 Z0.46 F1080.0
G1 X40.06 Y47.33 Z0.46 F1080.0
G1 X40.45 Y47.33 Z0.46 F1080.0
G1 X40.45 Y50.71 Z0.46 F1080.0
G1 X40.84 Y50.71 Z0.46 F1080.0
G1 X40.84 Y47.33 Z0.46 F1080.0
G1 X41.23 Y47.33 Z0.46 F1080.0
G1 X41.23 Y50.71 Z0.46 F1080.0
G1 X41.63 Y50.71 Z0.46 F1080.0
G1 X41.63 Y47.33 Z0.46 F1080.0
G1 X42.02 Y47.33 Z0.46 F1080.0
G1 X42.02 Y50.71 Z0.46 F1080.0
G1 X42.41 Y50.71 Z0.46 F1080.0
G1 X42.41 Y47.33 Z0.46 F1080.0
G1 X42.8 Y47.33 Z0.46 F1080.0
G1 X42.8 Y50.71 Z0.46 F1080.0
G1 X43.2 Y50.71 Z0.46 F1080.0
G1 X43.2 Y47.33 Z0.46 F1080.0
G1 X43.59 Y47.33 Z0.46 F1080.0
G1 X43.59 Y50.71 Z0.46 F1080.0
G1 X43.98 Y50.71 Z0.46 F1080.0
G1 X43.98 Y47.33 Z0.46 F1080.0
G1 X44.38 Y47.33 Z0.46 F1080.0
G1 X44.38 Y50.71 Z0.46 F1080.0
G1 X44.77 Y50.71 Z0.46 F1080.0
G1 X44.77 Y47.6 Z0.46 F1080.0
M108 R30.0
M102
G1 X44.77 Y47.33 Z0.46 F1080.0
M108 R2.141
M103
G1 X44.54 Y21.88 Z0.46 F3000.0
G1 X44.4 Y5.81 Z0.46 F3000.0
G1 X43.94 Y5.67 Z0.46 F3000.0
G1 X42.81 Y-50.58 Z0.46 F1800.0
M108 R30.0
M101
G1 X42.8 Y-51.06 Z0.46 F1800.0
M108 R2.141
G1 X42.8 Y-42.8 Z0.46 F1080.0
M103
G1 X42.41 Y-42.8 Z0.46 F1800.0
M101
G1 X42.41 Y-51.06 Z0.46 F1080.0
M103
G1 X42.02 Y-51.06 Z0.46 F1800.0
M101
G1 X42.02 Y-42.8 Z0.46 F1080.0
M103
G1 X41.63 Y-42.8 Z0.46 F1800.0
M101
G1 X41.63 Y-51.06 Z0.46 F1080.0
M103
G1 X41.23 Y-51.06 Z0.46 F1800.0
M101
G1 X41.23 Y-42.8 Z0.46 F1080.0
M103
G1 X40.84 Y-42.8 Z0.46 F1800.0
M101
G1 X40.84 Y-51.06 Z0.46 F1080.0
M103
G1 X40.45 Y-51.06 Z0.46 F1800.0
M101
G1 X40.45 Y-42.8 Z0.46 F1080.0
M103
G1 X40.06 Y-42.8 Z0.46 F1800.0
M101
G1 X40.06 Y-51.06 Z0.46 F1080.0
M103
G1 X39.66 Y-51.06 Z0.46 F1800.0
M101
G1 X39.66 Y-42.8 Z0.46 F1080.0
M103
G1 X39.27 Y-42.8 Z0.46 F1800.0
M101
G1 X39.27 Y-51.06 Z0.46 F1080.0
M103
G1 X38.88 Y-51.06 Z0.46 F1800.0
M101
G1 X38.88 Y-42.8 Z0.46 F1080.0
M103
G1 X38.49 Y-42.8 Z0.46 F1800.0
M101
G1 X38.49 Y-51.06 Z0.46 F1080.0
M103
G1 X38.09 Y-51.06 Z0.46 F1800.0
M101
G1 X38.09 Y-42.8 Z0.46 F1080.0
M103
G1 X37.7 Y-42.8 Z0.46 F1800.0
M101
G1 X37.7 Y-51.06 Z0.46 F1080.0
M103
G1 X37.31 Y-51.06 Z0.46 F1800.0
M101
G1 X37.31 Y-42.8 Z0.46 F1080.0
M103
G1 X36.91 Y-42.8 Z0.46 F1800.0
M101
G1 X36.91 Y-51.06 Z0.46 F1080.0
M103
G1 X36.52 Y-51.06 Z0.46 F1800.0
M101
G1 X36.52 Y-42.8 Z0.46 F1080.0
M103
G1 X36.13 Y-42.8 Z0.46 F1800.0
M101
G1 X36.13 Y-51.06 Z0.46 F1080.0
M103
G1 X35.74 Y-51.06 Z0.46 F1800.0
M101
G1 X35.74 Y-42.8 Z0.46 F1080.0
M103
G1 X35.34 Y-42.8 Z0.46 F1800.0
M101
G1 X35.34 Y-51.06 Z0.46 F1080.0
M103
G1 X34.95 Y-51.06 Z0.46 F1800.0
M101
G1 X34.95 Y-42.8 Z0.46 F1080.0
M103
G1 X34.56 Y-42.8 Z0.46 F1800.0
M101
G1 X34.56 Y-51.06 Z0.46 F1080.0
M103
G1 X34.17 Y-51.06 Z0.46 F1800.0
M101
G1 X34.17 Y-42.8 Z0.46 F1080.0
M103
G1 X33.77 Y-42.8 Z0.46 F1800.0
M101
G1 X33.77 Y-51.06 Z0.46 F1080.0
M103
G1 X33.38 Y-51.06 Z0.46 F1800.0
M101
G1 X33.38 Y-42.8 Z0.46 F1080.0
M103
G1 X32.99 Y-42.8 Z0.46 F1800.0
M101
G1 X32.99 Y-51.06 Z0.46 F1080.0
M103
G1 X32.59 Y-51.06 Z0.46 F1800.0
M101
G1 X32.59 Y-42.8 Z0.46 F1080.0
M103
G1 X32.2 Y-42.8 Z0.46 F1800.0
M101
G1 X32.2 Y-51.06 Z0.46 F1080.0
M103
G1 X31.81 Y-51.06 Z0.46 F1800.0
M101
G1 X31.81 Y-42.8 Z0.46 F1080.0
M103
G1 X31.42 Y-42.8 Z0.46 F1800.0
M101
G1 X31.42 Y-51.06 Z0.46 F1080.0
M103
G1 X31.02 Y-51.06 Z0.46 F1800.0
M101
G1 X31.02 Y-42.8 Z0.46 F1080.0
M103
G1 X30.63 Y-42.8 Z0.46 F1800.0
M101
G1 X30.63 Y-51.06 Z0.46 F1080.0
M103
G1 X30.24 Y-51.06 Z0.46 F1800.0
M101
G1 X30.24 Y-42.8 Z0.46 F1080.0
M103
G1 X29.85 Y-42.8 Z0.46 F1800.0
M101
G1 X29.85 Y-51.06 Z0.46 F1080.0
M103
G1 X29.45 Y-51.06 Z0.46 F1800.0
M101
G1 X29.45 Y-42.8 Z0.46 F1080.0
M103
G1 X29.06 Y-42.8 Z0.46 F1800.0
M101
G1 X29.06 Y-51.06 Z0.46 F1080.0
M103
G1 X28.67 Y-51.06 Z0.46 F1800.0
M101
G1 X28.67 Y-42.8 Z0.46 F1080.0
M103
G1 X28.27 Y-42.8 Z0.46 F1800.0
M101
G1 X28.27 Y-51.06 Z0.46 F1080.0
M103
G1 X27.88 Y-51.06 Z0.46 F1800.0
M101
G1 X27.88 Y-42.8 Z0.46 F1080.0
M103
G1 X27.49 Y-42.8 Z0.46 F1800.0
M101
G1 X27.49 Y-51.06 Z0.46 F1080.0
M103
G1 X27.1 Y-51.06 Z0.46 F1800.0
M101
G1 X27.1 Y-42.8 Z0.46 F1080.0
M103
G1 X26.7 Y-42.8 Z0.46 F1800.0
M101
G1 X26.7 Y-51.06 Z0.46 F1080.0
M103
G1 X26.31 Y-51.06 Z0.46 F1800.0
M101
G1 X26.31 Y-42.8 Z0.46 F1080.0
M103
G1 X25.92 Y-42.8 Z0.46 F1800.0
M101
G1 X25.92 Y-51.06 Z0.46 F1080.0
M103
G1 X25.53 Y-51.06 Z0.46 F1800.0
M101
G1 X25.53 Y-42.8 Z0.46 F1080.0
M103
G1 X25.13 Y-42.8 Z0.46 F1800.0
M101
G1 X25.13 Y-51.06 Z0.46 F1080.0
M103
G1 X24.74 Y-51.06 Z0.46 F1800.0
M101
G1 X24.74 Y-42.8 Z0.46 F1080.0
M103
G1 X24.35 Y-42.8 Z0.46 F1800.0
M101
G1 X24.35 Y-51.06 Z0.46 F1080.0
M103
G1 X23.96 Y-51.06 Z0.46 F1800.0
M101
G1 X23.96 Y-42.8 Z0.46 F1080.0
M103
G1 X23.56 Y-42.8 Z0.46 F1800.0
M101
G1 X23.56 Y-51.06 Z0.46 F1080.0
M103
G1 X23.17 Y-51.06 Z0.46 F1800.0
M101
G1 X23.17 Y-42.8 Z0.46 F1080.0
M103
G1 X22.78 Y-42.8 Z0.46 F1800.0
M101
G1 X22.78 Y-51.06 Z0.46 F1080.0
M103
G1 X22.38 Y-51.06 Z0.46 F1800.0
M101
G1 X22.38 Y-42.8 Z0.46 F1080.0
M103
G1 X21.99 Y-42.8 Z0.46 F1800.0
M101
G1 X21.99 Y-51.06 Z0.46 F1080.0
M103
G1 X21.6 Y-51.06 Z0.46 F1800.0
M101
G1 X21.6 Y-42.8 Z0.46 F1080.0
M103
G1 X21.21 Y-42.8 Z0.46 F1800.0
M101
G1 X21.21 Y-51.06 Z0.46 F1080.0
M103
G1 X20.81 Y-51.06 Z0.46 F1800.0
M101
G1 X20.81 Y-42.8 Z0.46 F1080.0
M103
G1 X20.42 Y-42.8 Z0.46 F1800.0
M101
G1 X20.42 Y-51.06 Z0.46 F1080.0
M103
G1 X20.03 Y-51.06 Z0.46 F1800.0
M101
G1 X20.03 Y-42.8 Z0.46 F1080.0
M103
G1 X19.64 Y-42.8 Z0.46 F1800.0
M101
G1 X19.64 Y-51.06 Z0.46 F1080.0
M103
G1 X19.24 Y-51.06 Z0.46 F1800.0
M101
G1 X19.24 Y-42.8 Z0.46 F1080.0
M103
G1 X18.85 Y-42.8 Z0.46 F1800.0
M101
G1 X18.85 Y-51.06 Z0.46 F1080.0
M103
G1 X18.46 Y-51.06 Z0.46 F1800.0
M101
G1 X18.46 Y-42.8 Z0.46 F1080.0
M103
G1 X18.06 Y-42.8 Z0.46 F1800.0
M101
G1 X18.06 Y-51.06 Z0.46 F1080.0
M103
G1 X17.67 Y-51.06 Z0.46 F1800.0
M101
G1 X17.67 Y-42.8 Z0.46 F1080.0
M103
G1 X17.28 Y-42.8 Z0.46 F1800.0
M101
G1 X17.28 Y-51.06 Z0.46 F1080.0
M103
G1 X16.89 Y-51.06 Z0.46 F1800.0
M101
G1 X16.89 Y-42.8 Z0.46 F1080.0
M103
G1 X16.49 Y-42.8 Z0.46 F1800.0
M101
G1 X16.49 Y-51.06 Z0.46 F1080.0
M103
G1 X16.1 Y-51.06 Z0.46 F1800.0
M101
G1 X16.1 Y-42.8 Z0.46 F1080.0
M103
G1 X15.71 Y-42.8 Z0.46 F1800.0
M101
G1 X15.71 Y-51.06 Z0.46 F1080.0
M103
G1 X15.32 Y-51.06 Z0.46 F1800.0
M101
G1 X15.32 Y-42.8 Z0.46 F1080.0
M103
G1 X14.92 Y-42.8 Z0.46 F1800.0
M101
G1 X14.92 Y-51.06 Z0.46 F1080.0
M103
G1 X14.53 Y-51.06 Z0.46 F1800.0
M101
G1 X14.53 Y-42.8 Z0.46 F1080.0
M103
G1 X14.14 Y-42.8 Z0.46 F1800.0
M101
G1 X14.14 Y-51.06 Z0.46 F1080.0
M103
G1 X13.74 Y-51.06 Z0.46 F1800.0
M101
G1 X13.74 Y-42.8 Z0.46 F1080.0
M103
G1 X13.35 Y-42.8 Z0.46 F1800.0
M101
G1 X13.35 Y-51.06 Z0.46 F1080.0
M103
G1 X12.96 Y-51.06 Z0.46 F1800.0
M101
G1 X12.96 Y-42.8 Z0.46 F1080.0
M103
G1 X12.57 Y-42.8 Z0.46 F1800.0
M101
G1 X12.57 Y-51.06 Z0.46 F1080.0
M103
G1 X12.17 Y-51.06 Z0.46 F1800.0
M101
G1 X12.17 Y-42.8 Z0.46 F1080.0
M103
G1 X11.78 Y-42.8 Z0.46 F1800.0
M101
G1 X11.78 Y-51.06 Z0.46 F1080.0
M103
G1 X11.39 Y-51.06 Z0.46 F1800.0
M101
G1 X11.39 Y-42.8 Z0.46 F1080.0
M103
G1 X11.0 Y-42.8 Z0.46 F1800.0
M101
G1 X11.0 Y-51.06 Z0.46 F1080.0
M103
G1 X10.6 Y-51.06 Z0.46 F1800.0
M101
G1 X10.6 Y-42.8 Z0.46 F1080.0
M103
G1 X10.21 Y-42.8 Z0.46 F1800.0
M101
G1 X10.21 Y-51.06 Z0.46 F1080.0
M103
G1 X9.82 Y-51.06 Z0.46 F1800.0
M101
G1 X9.82 Y-42.8 Z0.46 F1080.0
M103
G1 X9.43 Y-42.8 Z0.46 F1800.0
M101
G1 X9.43 Y-51.06 Z0.46 F1080.0
M103
G1 X9.03 Y-51.06 Z0.46 F1800.0
M101
G1 X9.03 Y-42.8 Z0.46 F1080.0
M103
G1 X8.64 Y-42.8 Z0.46 F1800.0
M101
G1 X8.64 Y-51.06 Z0.46 F1080.0
M103
G1 X8.25 Y-51.06 Z0.46 F1800.0
M101
G1 X8.25 Y-42.8 Z0.46 F1080.0
M103
G1 X7.85 Y-42.8 Z0.46 F1800.0
M101
G1 X7.85 Y-51.06 Z0.46 F1080.0
M103
G1 X7.46 Y-51.06 Z0.46 F1800.0
M101
G1 X7.46 Y-42.8 Z0.46 F1080.0
M103
G1 X7.07 Y-42.8 Z0.46 F1800.0
M101
G1 X7.07 Y-51.06 Z0.46 F1080.0
M103
G1 X6.68 Y-51.06 Z0.46 F1800.0
M101
G1 X6.68 Y-42.8 Z0.46 F1080.0
M103
G1 X6.28 Y-42.8 Z0.46 F1800.0
M101
G1 X6.28 Y-51.06 Z0.46 F1080.0
M103
G1 X5.89 Y-51.06 Z0.46 F1800.0
M101
G1 X5.89 Y-42.8 Z0.46 F1080.0
M103
G1 X5.5 Y-42.8 Z0.46 F1800.0
M101
G1 X5.5 Y-51.06 Z0.46 F1080.0
M103
G1 X5.11 Y-51.06 Z0.46 F1800.0
M101
G1 X5.11 Y-42.8 Z0.46 F1080.0
M103
G1 X4.71 Y-42.8 Z0.46 F1800.0
M101
G1 X4.71 Y-51.06 Z0.46 F1080.0
M103
G1 X4.32 Y-51.06 Z0.46 F1800.0
M101
G1 X4.32 Y-42.8 Z0.46 F1080.0
M103
G1 X3.93 Y-42.8 Z0.46 F1800.0
M101
G1 X3.93 Y-51.06 Z0.46 F1080.0
M103
G1 X3.53 Y-51.06 Z0.46 F1800.0
M101
G1 X3.53 Y-43.07 Z0.46 F1080.0
M108 R30.0
M102
G1 X3.53 Y-42.8 Z0.46 F1080.0
M108 R2.141
M103
G1 X0.56 Y-50.61 Z0.46 F1800.0
M108 R30.0
M101
G1 X0.39 Y-51.06 Z0.46 F1800.0
M108 R2.141
G1 X0.39 Y-0.03 Z0.46 F1080.0
G1 X0.79 Y0.37 Z0.46 F1080.0
G1 X0.79 Y-50.79 Z0.46 F1080.0
M108 R30.0
M102
G1 X0.79 Y-51.06 Z0.46 F1080.0
M108 R2.141
M103
G1 X43.5 Y-51.06 Z0.46 F1800.0
M108 R30.0
M101
G1 X43.98 Y-51.06 Z0.46 F1800.0
M108 R2.141
G1 X43.98 Y5.1 Z0.46 F1080.0
G1 X43.59 Y5.1 Z0.46 F1080.0
G1 X43.59 Y-50.79 Z0.46 F1080.0
M108 R30.0
M102
G1 X43.59 Y-51.06 Z0.46 F1080.0
M108 R2.141
M103
G1 X44.29 Y-51.06 Z0.46 F1800.0
M108 R30.0
M101
G1 X44.77 Y-51.06 Z0.46 F1800.0
M108 R2.141
G1 X44.77 Y5.1 Z0.46 F1080.0
G1 X44.38 Y5.1 Z0.46 F1080.0
G1 X44.38 Y-50.79 Z0.46 F1080.0
M108 R30.0
M102
G1 X44.38 Y-51.06 Z0.46 F1080.0
M108 R2.141
M103
G1 X45.07 Y-51.06 Z0.46 F1800.0
M108 R30.0
M101
G1 X45.55 Y-51.06 Z0.46 F1800.0
M108 R2.141
G1 X45.55 Y50.71 Z0.46 F1080.0
G1 X45.16 Y50.71 Z0.46 F1080.0
G1 X45.16 Y-50.79 Z0.46 F1080.0
M108 R30.0
M102
G1 X45.16 Y-51.06 Z0.46 F1080.0
M108 R2.141
M103
G1 X45.86 Y-51.06 Z0.46 F1800.0
M108 R30.0
M101
G1 X46.34 Y-51.06 Z0.46 F1800.0
M108 R2.141
G1 X46.34 Y50.71 Z0.46 F1080.0
G1 X45.95 Y50.71 Z0.46 F1080.0
G1 X45.95 Y-50.79 Z0.46 F1080.0
M108 R30.0
M102
G1 X45.95 Y-51.06 Z0.46 F1080.0
M108 R2.141
M103
G1 X46.64 Y-51.06 Z0.46 F1800.0
M108 R30.0
M101
G1 X47.12 Y-51.06 Z0.46 F1800.0
M108 R2.141
G1 X47.12 Y50.71 Z0.46 F1080.0
G1 X46.73 Y50.71 Z0.46 F1080.0
G1 X46.73 Y-50.79 Z0.46 F1080.0
M108 R30.0
M102
G1 X46.73 Y-51.06 Z0.46 F1080.0
M108 R2.141
M103
G1 X47.43 Y-51.06 Z0.46 F1800.0
M108 R30.0
M101
G1 X47.91 Y-51.06 Z0.46 F1800.0
M108 R2.141
G1 X47.91 Y50.71 Z0.46 F1080.0
G1 X47.52 Y50.71 Z0.46 F1080.0
G1 X47.52 Y-50.79 Z0.46 F1080.0
M108 R30.0
M102
G1 X47.52 Y-51.06 Z0.46 F1080.0
M108 R2.141
M103
G1 X48.22 Y-51.06 Z0.46 F1800.0
M108 R30.0
M101
G1 X48.7 Y-51.06 Z0.46 F1800.0
M108 R2.141
G1 X48.7 Y50.71 Z0.46 F1080.0
G1 X48.3 Y50.71 Z0.46 F1080.0
G1 X48.3 Y-50.79 Z0.46 F1080.0
M108 R30.0
M102
G1 X48.3 Y-51.06 Z0.46 F1080.0
M108 R2.141
M103
G1 X49.0 Y-51.06 Z0.46 F1800.0
M108 R30.0
M101
G1 X49.48 Y-51.06 Z0.46 F1800.0
M108 R2.141
G1 X49.48 Y50.71 Z0.46 F1080.0
G1 X49.09 Y50.71 Z0.46 F1080.0
G1 X49.09 Y-50.79 Z0.46 F1080.0
M108 R30.0
M102
G1 X49.09 Y-51.06 Z0.46 F1080.0
M108 R2.141
M103
G1 X49.79 Y-51.06 Z0.46 F1800.0
M108 R30.0
M101
G1 X50.27 Y-51.06 Z0.46 F1800.0
M108 R2.141
G1 X50.27 Y50.71 Z0.46 F1080.0
G1 X49.87 Y50.71 Z0.46 F1080.0
G1 X49.87 Y-50.79 Z0.46 F1080.0
M108 R30.0
M102
G1 X49.87 Y-51.06 Z0.46 F1080.0
M108 R2.141
M103
G1 X50.57 Y-51.06 Z0.46 F1800.0
M108 R30.0
M101
G1 X51.05 Y-51.06 Z0.46 F1800.0
M108 R2.141
G1 X51.05 Y50.71 Z0.46 F1080.0
G1 X50.66 Y50.71 Z0.46 F1080.0
G1 X50.66 Y-50.79 Z0.46 F1080.0
M108 R30.0
M102
G1 X50.66 Y-51.06 Z0.46 F1080.0
M108 R2.141
M103
(</surroundingLoop>)
(</layer>)
(<layer> 0.78 )
(<surroundingLoop>)
(<boundaryPerimeter>)
(<boundaryPoint> X-0.645 Y0.246 Z0.78 </boundaryPoint>)
(<boundaryPoint> X-51.325 Y0.246 Z0.78 </boundaryPoint>)
(<boundaryPoint> X-51.325 Y-51.904 Z0.78 </boundaryPoint>)
(<boundaryPoint> X52.135 Y-51.904 Z0.78 </boundaryPoint>)
(<boundaryPoint> X52.135 Y51.556 Z0.78 </boundaryPoint>)
(<boundaryPoint> X-0.015 Y51.556 Z0.78 </boundaryPoint>)
(<boundaryPoint> X-0.015 Y0.876 Z0.78 </boundaryPoint>)
(<boundaryPoint> X-0.616 Y0.876 Z0.78 </boundaryPoint>)
(<boundaryPoint> X-0.645 Y0.561 Z0.78 </boundaryPoint>)
(<loop> inner )
M108 R3.569
G1 X43.31 Y-42.93 Z0.76 F3000.0
M108 R30.0
M101
G1 X42.78 Y-42.34 Z0.78 F3000.0
M108 R3.569
G1 X42.78 Y-42.55 Z0.78 F1800.0
G1 X3.32 Y-42.55 Z0.78 F1800.0
G1 X3.32 Y-3.09 Z0.78 F1800.0
G1 X42.78 Y-3.09 Z0.78 F1800.0
G1 X42.78 Y-41.89 Z0.78 F1800.0
M108 R30.0
M102
G1 X42.78 Y-42.34 Z0.78 F1800.0
M108 R3.569
M103
(</loop>)
(<loop> inner )
G1 X-4.32 Y-42.34 Z0.78 F3000.0
M108 R30.0
M101
G1 X-5.12 Y-42.34 Z0.78 F3000.0
M108 R3.569
G1 X-5.12 Y-42.55 Z0.78 F1800.0
G1 X-5.12 Y-44.62 Z0.78 F1800.0
G1 X-46.85 Y-44.62 Z0.78 F1800.0
G1 X-46.85 Y-11.0 Z0.78 F1800.0
G1 X-5.12 Y-11.0 Z0.78 F1800.0
G1 X-5.12 Y-41.89 Z0.78 F1800.0
M108 R30.0
M102
G1 X-5.12 Y-42.34 Z0.78 F1800.0
M108 R3.569
M103
(</loop>)
(<loop> inner )
G1 X3.63 Y-16.0 Z0.78 F3000.0
G1 X3.77 Y-3.54 Z0.78 F3000.0
G1 X8.13 Y-3.4 Z0.78 F3000.0
G1 X10.96 Y4.6 Z0.78 F3000.0
M108 R30.0
M101
G1 X11.23 Y5.36 Z0.78 F3000.0
M108 R3.569
G1 X11.23 Y47.08 Z0.78 F1800.0
G1 X44.85 Y47.08 Z0.78 F1800.0
G1 X44.85 Y5.36 Z0.78 F1800.0
G1 X11.68 Y5.36 Z0.78 F1800.0
M108 R30.0
M102
G1 X11.23 Y5.36 Z0.78 F1800.0
M108 R3.569
M103
(</loop>)
(<loop> outer )
G1 X1.37 Y5.36 Z0.78 F3000.0
M108 R30.0
M101
G1 X0.57 Y5.36 Z0.78 F3000.0
M108 R3.569
G1 X0.57 Y0.52 Z0.78 F1800.0
G1 X-0.29 Y-0.34 Z0.78 F1800.0
G1 X-50.74 Y-0.34 Z0.78 F1800.0
G1 X-50.74 Y-51.32 Z0.78 F1800.0
G1 X51.55 Y-51.32 Z0.78 F1800.0
G1 X51.55 Y50.97 Z0.78 F1800.0
G1 X0.57 Y50.97 Z0.78 F1800.0
G1 X0.57 Y5.36 Z0.78 F1800.0
M103
(</loop>)
(<perimeter> outer )
G1 X0.18 Y5.36 Z0.78 F3000.0
M101
G1 X0.18 Y0.68 Z0.78 F1800.0
G1 X-0.44 Y0.68 Z0.78 F1800.0
G1 X-0.45 Y0.55 Z0.78 F1800.0
G1 X-0.45 Y0.05 Z0.78 F1800.0
G1 X-51.13 Y0.05 Z0.78 F1800.0
G1 X-51.13 Y-51.71 Z0.78 F1800.0
G1 X51.94 Y-51.71 Z0.78 F1800.0
G1 X51.94 Y51.36 Z0.78 F1800.0
G1 X0.18 Y51.36 Z0.78 F1800.0
G1 X0.18 Y5.81 Z0.78 F1800.0
M108 R30.0
M102
G1 X0.18 Y5.36 Z0.78 F1800.0
M108 R3.569
M103
(</perimeter>)
(</boundaryPerimeter>)
(<surroundingLoop>)
(<boundaryPerimeter>)
(<boundaryPoint> X42.188 Y-3.674 Z0.78 </boundaryPoint>)
(<boundaryPoint> X42.188 Y-41.957 Z0.78 </boundaryPoint>)
(<boundaryPoint> X3.905 Y-41.957 Z0.78 </boundaryPoint>)
(<boundaryPoint> X3.905 Y-3.674 Z0.78 </boundaryPoint>)
(<perimeter> inner )
G1 X3.41 Y-2.74 Z0.78 F3000.0
M108 R30.0
M101
G1 X3.71 Y-3.48 Z0.78 F3000.0
M108 R3.569
G1 X42.39 Y-3.48 Z0.78 F1800.0
G1 X42.39 Y-42.15 Z0.78 F1800.0
G1 X3.71 Y-42.15 Z0.78 F1800.0
G1 X3.71 Y-3.93 Z0.78 F1800.0
M108 R30.0
M102
G1 X3.71 Y-3.48 Z0.78 F1800.0
M108 R3.569
M103
(</perimeter>)
(</boundaryPerimeter>)
(</surroundingLoop>)
(<surroundingLoop>)
(<boundaryPerimeter>)
(<boundaryPoint> X-5.713 Y-11.584 Z0.78 </boundaryPoint>)
(<boundaryPoint> X-5.713 Y-44.029 Z0.78 </boundaryPoint>)
(<boundaryPoint> X-46.257 Y-44.029 Z0.78 </boundaryPoint>)
(<boundaryPoint> X-46.257 Y-11.584 Z0.78 </boundaryPoint>)
(<perimeter> inner )
G1 X-4.91 Y-10.87 Z0.78 F3000.0
M108 R30.0
M101
G1 X-5.52 Y-11.39 Z0.78 F3000.0
M108 R3.569
G1 X-5.52 Y-44.23 Z0.78 F1800.0
G1 X-46.45 Y-44.23 Z0.78 F1800.0
G1 X-46.45 Y-11.39 Z0.78 F1800.0
G1 X-5.97 Y-11.39 Z0.78 F1800.0
M108 R30.0
M102
G1 X-5.52 Y-11.39 Z0.78 F1800.0
M108 R3.569
M103
(</perimeter>)
(</boundaryPerimeter>)
(</surroundingLoop>)
(<surroundingLoop>)
(<boundaryPerimeter>)
(<boundaryPoint> X44.26 Y5.944 Z0.78 </boundaryPoint>)
(<boundaryPoint> X11.815 Y5.944 Z0.78 </boundaryPoint>)
(<boundaryPoint> X11.815 Y46.488 Z0.78 </boundaryPoint>)
(<boundaryPoint> X44.26 Y46.488 Z0.78 </boundaryPoint>)
(<perimeter> inner )
G1 X11.05 Y5.18 Z0.78 F3000.0
M108 R30.0
M101
G1 X11.62 Y5.75 Z0.78 F3000.0
M108 R3.569
G1 X11.62 Y46.69 Z0.78 F1800.0
G1 X44.46 Y46.69 Z0.78 F1800.0
G1 X44.46 Y5.75 Z0.78 F1800.0
G1 X12.07 Y5.75 Z0.78 F1800.0
M108 R30.0
M102
G1 X11.62 Y5.75 Z0.78 F1800.0
M108 R3.569
M103
(</perimeter>)
(</boundaryPerimeter>)
(</surroundingLoop>)
G1 X3.62 Y-2.57 Z0.78 F3000.0
M108 R30.0
M101
G1 X3.06 Y-3.14 Z0.78 F3000.0
M108 R3.569
G1 X-50.48 Y-3.14 Z0.78 F1800.0
M103
G1 X-50.48 Y-3.53 Z0.78 F3000.0
M101
G1 X3.06 Y-3.53 Z0.78 F1800.0
M103
G1 X3.06 Y-3.93 Z0.78 F3000.0
M101
G1 X-50.48 Y-3.93 Z0.78 F1800.0
M103
G1 X-50.48 Y-4.32 Z0.78 F3000.0
M101
G1 X3.06 Y-4.32 Z0.78 F1800.0
M103
G1 X3.06 Y-4.71 Z0.78 F3000.0
M101
G1 X-50.48 Y-4.71 Z0.78 F1800.0
M103
G1 X-50.48 Y-5.11 Z0.78 F3000.0
M101
G1 X3.06 Y-5.11 Z0.78 F1800.0
M103
G1 X3.06 Y-5.5 Z0.78 F3000.0
M101
G1 X-50.48 Y-5.5 Z0.78 F1800.0
M103
G1 X-50.48 Y-5.89 Z0.78 F3000.0
M101
G1 X3.06 Y-5.89 Z0.78 F1800.0
M103
G1 X3.06 Y-6.28 Z0.78 F3000.0
M101
G1 X-50.48 Y-6.28 Z0.78 F1800.0
M103
G1 X-50.48 Y-6.68 Z0.78 F3000.0
M101
G1 X3.06 Y-6.68 Z0.78 F1800.0
M103
G1 X3.06 Y-7.07 Z0.78 F3000.0
M101
G1 X-50.48 Y-7.07 Z0.78 F1800.0
M103
G1 X-50.48 Y-7.46 Z0.78 F3000.0
M101
G1 X3.06 Y-7.46 Z0.78 F1800.0
M103
G1 X3.06 Y-7.85 Z0.78 F3000.0
M101
G1 X-50.48 Y-7.85 Z0.78 F1800.0
M103
G1 X-50.48 Y-8.25 Z0.78 F3000.0
M101
G1 X3.06 Y-8.25 Z0.78 F1800.0
M103
G1 X3.06 Y-8.64 Z0.78 F3000.0
M101
G1 X-50.48 Y-8.64 Z0.78 F1800.0
M103
G1 X-50.48 Y-9.03 Z0.78 F3000.0
M101
G1 X3.06 Y-9.03 Z0.78 F1800.0
M103
G1 X3.06 Y-9.43 Z0.78 F3000.0
M101
G1 X-50.48 Y-9.43 Z0.78 F1800.0
M103
G1 X-50.48 Y-9.82 Z0.78 F3000.0
M101
G1 X3.06 Y-9.82 Z0.78 F1800.0
M103
G1 X3.06 Y-10.21 Z0.78 F3000.0
M101
G1 X-50.03 Y-10.21 Z0.78 F1800.0
M108 R30.0
M102
G1 X-50.48 Y-10.21 Z0.78 F1800.0
M108 R3.569
M103
G1 X2.26 Y-10.6 Z0.78 F3000.0
M108 R30.0
M101
G1 X3.06 Y-10.6 Z0.78 F3000.0
M108 R3.569
G1 X-50.48 Y-10.6 Z0.78 F1800.0
M103
G1 X-50.48 Y-11.0 Z0.78 F3000.0
M101
G1 X-47.1 Y-11.0 Z0.78 F1800.0
M103
G1 X-47.1 Y-11.39 Z0.78 F3000.0
M101
G1 X-50.48 Y-11.39 Z0.78 F1800.0
M103
G1 X-50.48 Y-11.78 Z0.78 F3000.0
M101
G1 X-47.1 Y-11.78 Z0.78 F1800.0
M103
G1 X-47.1 Y-12.17 Z0.78 F3000.0
M101
G1 X-50.48 Y-12.17 Z0.78 F1800.0
M103
G1 X-50.48 Y-12.57 Z0.78 F3000.0
M101
G1 X-47.1 Y-12.57 Z0.78 F1800.0
M103
G1 X-47.1 Y-12.96 Z0.78 F3000.0
M101
G1 X-50.48 Y-12.96 Z0.78 F1800.0
M103
G1 X-50.48 Y-13.35 Z0.78 F3000.0
M101
G1 X-47.1 Y-13.35 Z0.78 F1800.0
M103
G1 X-47.1 Y-13.74 Z0.78 F3000.0
M101
G1 X-50.48 Y-13.74 Z0.78 F1800.0
M103
G1 X-50.48 Y-14.14 Z0.78 F3000.0
M101
G1 X-47.1 Y-14.14 Z0.78 F1800.0
M103
G1 X-47.1 Y-14.53 Z0.78 F3000.0
M101
G1 X-50.48 Y-14.53 Z0.78 F1800.0
M103
G1 X-50.48 Y-14.92 Z0.78 F3000.0
M101
G1 X-47.1 Y-14.92 Z0.78 F1800.0
M103
G1 X-47.1 Y-15.32 Z0.78 F3000.0
M101
G1 X-50.48 Y-15.32 Z0.78 F1800.0
M103
G1 X-50.48 Y-15.71 Z0.78 F3000.0
M101
G1 X-47.1 Y-15.71 Z0.78 F1800.0
M103
G1 X-47.1 Y-16.1 Z0.78 F3000.0
M101
G1 X-50.48 Y-16.1 Z0.78 F1800.0
M103
G1 X-50.48 Y-16.49 Z0.78 F3000.0
M101
G1 X-47.1 Y-16.49 Z0.78 F1800.0
M103
G1 X-47.1 Y-16.89 Z0.78 F3000.0
M101
G1 X-50.48 Y-16.89 Z0.78 F1800.0
M103
G1 X-50.48 Y-17.28 Z0.78 F3000.0
M101
G1 X-47.1 Y-17.28 Z0.78 F1800.0
M103
G1 X-47.1 Y-17.67 Z0.78 F3000.0
M101
G1 X-50.48 Y-17.67 Z0.78 F1800.0
M103
G1 X-50.48 Y-18.06 Z0.78 F3000.0
M101
G1 X-47.1 Y-18.06 Z0.78 F1800.0
M103
G1 X-47.1 Y-18.46 Z0.78 F3000.0
M101
G1 X-50.48 Y-18.46 Z0.78 F1800.0
M103
G1 X-50.48 Y-18.85 Z0.78 F3000.0
M101
G1 X-47.1 Y-18.85 Z0.78 F1800.0
M103
G1 X-47.1 Y-19.24 Z0.78 F3000.0
M101
G1 X-50.48 Y-19.24 Z0.78 F1800.0
M103
G1 X-50.48 Y-19.64 Z0.78 F3000.0
M101
G1 X-47.1 Y-19.64 Z0.78 F1800.0
M103
G1 X-47.1 Y-20.03 Z0.78 F3000.0
M101
G1 X-50.48 Y-20.03 Z0.78 F1800.0
M103
G1 X-50.48 Y-20.42 Z0.78 F3000.0
M101
G1 X-47.1 Y-20.42 Z0.78 F1800.0
M103
G1 X-47.1 Y-20.81 Z0.78 F3000.0
M101
G1 X-50.48 Y-20.81 Z0.78 F1800.0
M103
G1 X-50.48 Y-21.21 Z0.78 F3000.0
M101
G1 X-47.1 Y-21.21 Z0.78 F1800.0
M103
G1 X-47.1 Y-21.6 Z0.78 F3000.0
M101
G1 X-50.48 Y-21.6 Z0.78 F1800.0
M103
G1 X-50.48 Y-21.99 Z0.78 F3000.0
M101
G1 X-47.1 Y-21.99 Z0.78 F1800.0
M103
G1 X-47.1 Y-22.38 Z0.78 F3000.0
M101
G1 X-50.48 Y-22.38 Z0.78 F1800.0
M103
G1 X-50.48 Y-22.78 Z0.78 F3000.0
M101
G1 X-47.1 Y-22.78 Z0.78 F1800.0
M103
G1 X-47.1 Y-23.17 Z0.78 F3000.0
M101
G1 X-50.48 Y-23.17 Z0.78 F1800.0
M103
G1 X-50.48 Y-23.56 Z0.78 F3000.0
M101
G1 X-47.1 Y-23.56 Z0.78 F1800.0
M103
G1 X-47.1 Y-23.96 Z0.78 F3000.0
M101
G1 X-50.48 Y-23.96 Z0.78 F1800.0
M103
G1 X-50.48 Y-24.35 Z0.78 F3000.0
M101
G1 X-47.1 Y-24.35 Z0.78 F1800.0
M103
G1 X-47.1 Y-24.74 Z0.78 F3000.0
M101
G1 X-50.48 Y-24.74 Z0.78 F1800.0
M103
G1 X-50.48 Y-25.13 Z0.78 F3000.0
M101
G1 X-47.1 Y-25.13 Z0.78 F1800.0
M103
G1 X-47.1 Y-25.53 Z0.78 F3000.0
M101
G1 X-50.48 Y-25.53 Z0.78 F1800.0
M103
G1 X-50.48 Y-25.92 Z0.78 F3000.0
M101
G1 X-47.1 Y-25.92 Z0.78 F1800.0
M103
G1 X-47.1 Y-26.31 Z0.78 F3000.0
M101
G1 X-50.48 Y-26.31 Z0.78 F1800.0
M103
G1 X-50.48 Y-26.7 Z0.78 F3000.0
M101
G1 X-47.1 Y-26.7 Z0.78 F1800.0
M103
G1 X-47.1 Y-27.1 Z0.78 F3000.0
M101
G1 X-50.48 Y-27.1 Z0.78 F1800.0
M103
G1 X-50.48 Y-27.49 Z0.78 F3000.0
M101
G1 X-47.1 Y-27.49 Z0.78 F1800.0
M103
G1 X-47.1 Y-27.88 Z0.78 F3000.0
M101
G1 X-50.48 Y-27.88 Z0.78 F1800.0
M103
G1 X-50.48 Y-28.27 Z0.78 F3000.0
M101
G1 X-47.1 Y-28.27 Z0.78 F1800.0
M103
G1 X-47.1 Y-28.67 Z0.78 F3000.0
M101
G1 X-50.48 Y-28.67 Z0.78 F1800.0
M103
G1 X-50.48 Y-29.06 Z0.78 F3000.0
M101
G1 X-47.1 Y-29.06 Z0.78 F1800.0
M103
G1 X-47.1 Y-29.45 Z0.78 F3000.0
M101
G1 X-50.48 Y-29.45 Z0.78 F1800.0
M103
G1 X-50.48 Y-29.85 Z0.78 F3000.0
M101
G1 X-47.1 Y-29.85 Z0.78 F1800.0
M103
G1 X-47.1 Y-30.24 Z0.78 F3000.0
M101
G1 X-50.48 Y-30.24 Z0.78 F1800.0
M103
G1 X-50.48 Y-30.63 Z0.78 F3000.0
M101
G1 X-47.1 Y-30.63 Z0.78 F1800.0
M103
G1 X-47.1 Y-31.02 Z0.78 F3000.0
M101
G1 X-50.48 Y-31.02 Z0.78 F1800.0
M103
G1 X-50.48 Y-31.42 Z0.78 F3000.0
M101
G1 X-47.1 Y-31.42 Z0.78 F1800.0
M103
G1 X-47.1 Y-31.81 Z0.78 F3000.0
M101
G1 X-50.48 Y-31.81 Z0.78 F1800.0
M103
G1 X-50.48 Y-32.2 Z0.78 F3000.0
M101
G1 X-47.1 Y-32.2 Z0.78 F1800.0
M103
G1 X-47.1 Y-32.59 Z0.78 F3000.0
M101
G1 X-50.48 Y-32.59 Z0.78 F1800.0
M103
G1 X-50.48 Y-32.99 Z0.78 F3000.0
M101
G1 X-47.1 Y-32.99 Z0.78 F1800.0
M103
G1 X-47.1 Y-33.38 Z0.78 F3000.0
M101
G1 X-50.48 Y-33.38 Z0.78 F1800.0
M103
G1 X-50.48 Y-33.77 Z0.78 F3000.0
M101
G1 X-47.1 Y-33.77 Z0.78 F1800.0
M103
G1 X-47.1 Y-34.17 Z0.78 F3000.0
M101
G1 X-50.48 Y-34.17 Z0.78 F1800.0
M103
G1 X-50.48 Y-34.56 Z0.78 F3000.0
M101
G1 X-47.1 Y-34.56 Z0.78 F1800.0
M103
G1 X-47.1 Y-34.95 Z0.78 F3000.0
M101
G1 X-50.48 Y-34.95 Z0.78 F1800.0
M103
G1 X-50.48 Y-35.34 Z0.78 F3000.0
M101
G1 X-47.1 Y-35.34 Z0.78 F1800.0
M103
G1 X-47.1 Y-35.74 Z0.78 F3000.0
M101
G1 X-50.48 Y-35.74 Z0.78 F1800.0
M103
G1 X-50.48 Y-36.13 Z0.78 F3000.0
M101
G1 X-47.1 Y-36.13 Z0.78 F1800.0
M103
G1 X-47.1 Y-36.52 Z0.78 F3000.0
M101
G1 X-50.48 Y-36.52 Z0.78 F1800.0
M103
G1 X-50.48 Y-36.91 Z0.78 F3000.0
M101
G1 X-47.1 Y-36.91 Z0.78 F1800.0
M103
G1 X-47.1 Y-37.31 Z0.78 F3000.0
M101
G1 X-50.48 Y-37.31 Z0.78 F1800.0
M103
G1 X-50.48 Y-37.7 Z0.78 F3000.0
M101
G1 X-47.1 Y-37.7 Z0.78 F1800.0
M103
G1 X-47.1 Y-38.09 Z0.78 F3000.0
M101
G1 X-50.48 Y-38.09 Z0.78 F1800.0
M103
G1 X-50.48 Y-38.49 Z0.78 F3000.0
M101
G1 X-47.1 Y-38.49 Z0.78 F1800.0
M103
G1 X-47.1 Y-38.88 Z0.78 F3000.0
M101
G1 X-50.48 Y-38.88 Z0.78 F1800.0
M103
G1 X-50.48 Y-39.27 Z0.78 F3000.0
M101
G1 X-47.1 Y-39.27 Z0.78 F1800.0
M103
G1 X-47.1 Y-39.66 Z0.78 F3000.0
M101
G1 X-50.48 Y-39.66 Z0.78 F1800.0
M103
G1 X-50.48 Y-40.06 Z0.78 F3000.0
M101
G1 X-47.1 Y-40.06 Z0.78 F1800.0
M103
G1 X-47.1 Y-40.45 Z0.78 F3000.0
M101
G1 X-50.48 Y-40.45 Z0.78 F1800.0
M103
G1 X-50.48 Y-40.84 Z0.78 F3000.0
M101
G1 X-47.1 Y-40.84 Z0.78 F1800.0
M103
G1 X-47.1 Y-41.23 Z0.78 F3000.0
M101
G1 X-50.48 Y-41.23 Z0.78 F1800.0
M103
G1 X-50.48 Y-41.63 Z0.78 F3000.0
M101
G1 X-47.1 Y-41.63 Z0.78 F1800.0
M103
G1 X-47.1 Y-42.02 Z0.78 F3000.0
M101
G1 X-50.48 Y-42.02 Z0.78 F1800.0
M103
G1 X-50.48 Y-42.41 Z0.78 F3000.0
M101
G1 X-47.1 Y-42.41 Z0.78 F1800.0
M103
G1 X-47.1 Y-42.8 Z0.78 F3000.0
M101
G1 X-50.48 Y-42.8 Z0.78 F1800.0
M103
G1 X-50.48 Y-43.2 Z0.78 F3000.0
M101
G1 X-47.1 Y-43.2 Z0.78 F1800.0
M103
G1 X-47.1 Y-43.59 Z0.78 F3000.0
M101
G1 X-50.48 Y-43.59 Z0.78 F1800.0
M103
G1 X-50.48 Y-43.98 Z0.78 F3000.0
M101
G1 X-47.1 Y-43.98 Z0.78 F1800.0
M103
G1 X-47.1 Y-44.38 Z0.78 F3000.0
M101
G1 X-50.48 Y-44.38 Z0.78 F1800.0
M103
G1 X-50.48 Y-44.77 Z0.78 F3000.0
M101
G1 X-47.55 Y-44.77 Z0.78 F1800.0
M108 R30.0
M102
G1 X-47.1 Y-44.77 Z0.78 F1800.0
M108 R3.569
M103
G1 X-49.69 Y-45.07 Z0.78 F3000.0
M108 R30.0
M101
G1 X-50.48 Y-45.16 Z0.78 F3000.0
M108 R3.569
G1 X51.29 Y-45.16 Z0.78 F1800.0
G1 X51.29 Y-44.77 Z0.78 F1800.0
G1 X-4.87 Y-44.77 Z0.78 F1800.0
G1 X-4.87 Y-44.38 Z0.78 F1800.0
G1 X51.29 Y-44.38 Z0.78 F1800.0
G1 X51.29 Y-43.98 Z0.78 F1800.0
G1 X-4.87 Y-43.98 Z0.78 F1800.0
G1 X-4.87 Y-43.59 Z0.78 F1800.0
G1 X51.29 Y-43.59 Z0.78 F1800.0
G1 X51.29 Y-43.2 Z0.78 F1800.0
G1 X-4.42 Y-43.2 Z0.78 F1800.0
M108 R30.0
M102
G1 X-4.87 Y-43.2 Z0.78 F1800.0
M108 R3.569
M103
G1 X50.49 Y-42.81 Z0.78 F3000.0
M108 R30.0
M101
G1 X51.29 Y-42.8 Z0.78 F3000.0
M108 R3.569
G1 X-4.87 Y-42.8 Z0.78 F1800.0
G1 X-4.87 Y-42.41 Z0.78 F1800.0
G1 X3.06 Y-42.41 Z0.78 F1800.0
M103
G1 X3.06 Y-42.02 Z0.78 F3000.0
M101
G1 X-4.87 Y-42.02 Z0.78 F1800.0
G1 X-4.87 Y-41.63 Z0.78 F1800.0
G1 X3.06 Y-41.63 Z0.78 F1800.0
M103
G1 X3.06 Y-41.23 Z0.78 F3000.0
M101
G1 X-4.87 Y-41.23 Z0.78 F1800.0
G1 X-4.87 Y-40.84 Z0.78 F1800.0
G1 X3.06 Y-40.84 Z0.78 F1800.0
M103
G1 X3.06 Y-40.45 Z0.78 F3000.0
M101
G1 X-4.87 Y-40.45 Z0.78 F1800.0
G1 X-4.87 Y-40.06 Z0.78 F1800.0
G1 X3.06 Y-40.06 Z0.78 F1800.0
M103
G1 X3.06 Y-39.66 Z0.78 F3000.0
M101
G1 X-4.87 Y-39.66 Z0.78 F1800.0
G1 X-4.87 Y-39.27 Z0.78 F1800.0
G1 X3.06 Y-39.27 Z0.78 F1800.0
M103
G1 X3.06 Y-38.88 Z0.78 F3000.0
M101
G1 X-4.87 Y-38.88 Z0.78 F1800.0
G1 X-4.87 Y-38.49 Z0.78 F1800.0
G1 X3.06 Y-38.49 Z0.78 F1800.0
M103
G1 X3.06 Y-38.09 Z0.78 F3000.0
M101
G1 X-4.87 Y-38.09 Z0.78 F1800.0
G1 X-4.87 Y-37.7 Z0.78 F1800.0
G1 X3.06 Y-37.7 Z0.78 F1800.0
M103
G1 X3.06 Y-37.31 Z0.78 F3000.0
M101
G1 X-4.87 Y-37.31 Z0.78 F1800.0
G1 X-4.87 Y-36.91 Z0.78 F1800.0
G1 X3.06 Y-36.91 Z0.78 F1800.0
M103
G1 X3.06 Y-36.52 Z0.78 F3000.0
M101
G1 X-4.87 Y-36.52 Z0.78 F1800.0
G1 X-4.87 Y-36.13 Z0.78 F1800.0
G1 X3.06 Y-36.13 Z0.78 F1800.0
M103
G1 X3.06 Y-35.74 Z0.78 F3000.0
M101
G1 X-4.87 Y-35.74 Z0.78 F1800.0
G1 X-4.87 Y-35.34 Z0.78 F1800.0
G1 X3.06 Y-35.34 Z0.78 F1800.0
M103
G1 X3.06 Y-34.95 Z0.78 F3000.0
M101
G1 X-4.87 Y-34.95 Z0.78 F1800.0
G1 X-4.87 Y-34.56 Z0.78 F1800.0
G1 X3.06 Y-34.56 Z0.78 F1800.0
M103
G1 X3.06 Y-34.17 Z0.78 F3000.0
M101
G1 X-4.87 Y-34.17 Z0.78 F1800.0
G1 X-4.87 Y-33.77 Z0.78 F1800.0
G1 X3.06 Y-33.77 Z0.78 F1800.0
M103
G1 X3.06 Y-33.38 Z0.78 F3000.0
M101
G1 X-4.87 Y-33.38 Z0.78 F1800.0
G1 X-4.87 Y-32.99 Z0.78 F1800.0
G1 X3.06 Y-32.99 Z0.78 F1800.0
M103
G1 X3.06 Y-32.59 Z0.78 F3000.0
M101
G1 X-4.87 Y-32.59 Z0.78 F1800.0
G1 X-4.87 Y-32.2 Z0.78 F1800.0
G1 X3.06 Y-32.2 Z0.78 F1800.0
M103
G1 X3.06 Y-31.81 Z0.78 F3000.0
M101
G1 X-4.87 Y-31.81 Z0.78 F1800.0
G1 X-4.87 Y-31.42 Z0.78 F1800.0
G1 X3.06 Y-31.42 Z0.78 F1800.0
M103
G1 X3.06 Y-31.02 Z0.78 F3000.0
M101
G1 X-4.87 Y-31.02 Z0.78 F1800.0
G1 X-4.87 Y-30.63 Z0.78 F1800.0
G1 X3.06 Y-30.63 Z0.78 F1800.0
M103
G1 X3.06 Y-30.24 Z0.78 F3000.0
M101
G1 X-4.87 Y-30.24 Z0.78 F1800.0
G1 X-4.87 Y-29.85 Z0.78 F1800.0
G1 X3.06 Y-29.85 Z0.78 F1800.0
M103
G1 X3.06 Y-29.45 Z0.78 F3000.0
M101
G1 X-4.87 Y-29.45 Z0.78 F1800.0
G1 X-4.87 Y-29.06 Z0.78 F1800.0
G1 X3.06 Y-29.06 Z0.78 F1800.0
M103
G1 X3.06 Y-28.67 Z0.78 F3000.0
M101
G1 X-4.87 Y-28.67 Z0.78 F1800.0
G1 X-4.87 Y-28.27 Z0.78 F1800.0
G1 X3.06 Y-28.27 Z0.78 F1800.0
M103
G1 X3.06 Y-27.88 Z0.78 F3000.0
M101
G1 X-4.87 Y-27.88 Z0.78 F1800.0
G1 X-4.87 Y-27.49 Z0.78 F1800.0
G1 X3.06 Y-27.49 Z0.78 F1800.0
M103
G1 X3.06 Y-27.1 Z0.78 F3000.0
M101
G1 X-4.87 Y-27.1 Z0.78 F1800.0
G1 X-4.87 Y-26.7 Z0.78 F1800.0
G1 X3.06 Y-26.7 Z0.78 F1800.0
M103
G1 X3.06 Y-26.31 Z0.78 F3000.0
M101
G1 X-4.87 Y-26.31 Z0.78 F1800.0
G1 X-4.87 Y-25.92 Z0.78 F1800.0
G1 X3.06 Y-25.92 Z0.78 F1800.0
M103
G1 X3.06 Y-25.53 Z0.78 F3000.0
M101
G1 X-4.87 Y-25.53 Z0.78 F1800.0
G1 X-4.87 Y-25.13 Z0.78 F1800.0
G1 X3.06 Y-25.13 Z0.78 F1800.0
M103
G1 X3.06 Y-24.74 Z0.78 F3000.0
M101
G1 X-4.87 Y-24.74 Z0.78 F1800.0
G1 X-4.87 Y-24.35 Z0.78 F1800.0
G1 X3.06 Y-24.35 Z0.78 F1800.0
M103
G1 X3.06 Y-23.96 Z0.78 F3000.0
M101
G1 X-4.87 Y-23.96 Z0.78 F1800.0
G1 X-4.87 Y-23.56 Z0.78 F1800.0
G1 X3.06 Y-23.56 Z0.78 F1800.0
M103
G1 X3.06 Y-23.17 Z0.78 F3000.0
M101
G1 X-4.87 Y-23.17 Z0.78 F1800.0
G1 X-4.87 Y-22.78 Z0.78 F1800.0
G1 X3.06 Y-22.78 Z0.78 F1800.0
M103
G1 X3.06 Y-22.38 Z0.78 F3000.0
M101
G1 X-4.87 Y-22.38 Z0.78 F1800.0
G1 X-4.87 Y-21.99 Z0.78 F1800.0
G1 X3.06 Y-21.99 Z0.78 F1800.0
M103
G1 X3.06 Y-21.6 Z0.78 F3000.0
M101
G1 X-4.87 Y-21.6 Z0.78 F1800.0
G1 X-4.87 Y-21.21 Z0.78 F1800.0
G1 X3.06 Y-21.21 Z0.78 F1800.0
M103
G1 X3.06 Y-20.81 Z0.78 F3000.0
M101
G1 X-4.87 Y-20.81 Z0.78 F1800.0
G1 X-4.87 Y-20.42 Z0.78 F1800.0
G1 X3.06 Y-20.42 Z0.78 F1800.0
M103
G1 X3.06 Y-20.03 Z0.78 F3000.0
M101
G1 X-4.87 Y-20.03 Z0.78 F1800.0
G1 X-4.87 Y-19.64 Z0.78 F1800.0
G1 X3.06 Y-19.64 Z0.78 F1800.0
M103
G1 X3.06 Y-19.24 Z0.78 F3000.0
M101
G1 X-4.87 Y-19.24 Z0.78 F1800.0
G1 X-4.87 Y-18.85 Z0.78 F1800.0
G1 X3.06 Y-18.85 Z0.78 F1800.0
M103
G1 X3.06 Y-18.46 Z0.78 F3000.0
M101
G1 X-4.87 Y-18.46 Z0.78 F1800.0
G1 X-4.87 Y-18.06 Z0.78 F1800.0
G1 X3.06 Y-18.06 Z0.78 F1800.0
M103
G1 X3.06 Y-17.67 Z0.78 F3000.0
M101
G1 X-4.87 Y-17.67 Z0.78 F1800.0
G1 X-4.87 Y-17.28 Z0.78 F1800.0
G1 X3.06 Y-17.28 Z0.78 F1800.0
M103
G1 X3.06 Y-16.89 Z0.78 F3000.0
M101
G1 X-4.87 Y-16.89 Z0.78 F1800.0
G1 X-4.87 Y-16.49 Z0.78 F1800.0
G1 X3.06 Y-16.49 Z0.78 F1800.0
M103
G1 X3.06 Y-16.1 Z0.78 F3000.0
M101
G1 X-4.87 Y-16.1 Z0.78 F1800.0
G1 X-4.87 Y-15.71 Z0.78 F1800.0
G1 X3.06 Y-15.71 Z0.78 F1800.0
M103
G1 X3.06 Y-15.32 Z0.78 F3000.0
M101
G1 X-4.87 Y-15.32 Z0.78 F1800.0
G1 X-4.87 Y-14.92 Z0.78 F1800.0
G1 X3.06 Y-14.92 Z0.78 F1800.0
M103
G1 X3.06 Y-14.53 Z0.78 F3000.0
M101
G1 X-4.87 Y-14.53 Z0.78 F1800.0
G1 X-4.87 Y-14.14 Z0.78 F1800.0
G1 X3.06 Y-14.14 Z0.78 F1800.0
M103
G1 X3.06 Y-13.74 Z0.78 F3000.0
M101
G1 X-4.87 Y-13.74 Z0.78 F1800.0
G1 X-4.87 Y-13.35 Z0.78 F1800.0
G1 X3.06 Y-13.35 Z0.78 F1800.0
M103
G1 X3.06 Y-12.96 Z0.78 F3000.0
M101
G1 X-4.87 Y-12.96 Z0.78 F1800.0
G1 X-4.87 Y-12.57 Z0.78 F1800.0
G1 X3.06 Y-12.57 Z0.78 F1800.0
M103
G1 X3.06 Y-12.17 Z0.78 F3000.0
M101
G1 X-4.87 Y-12.17 Z0.78 F1800.0
G1 X-4.87 Y-11.78 Z0.78 F1800.0
G1 X3.06 Y-11.78 Z0.78 F1800.0
M103
G1 X3.06 Y-11.39 Z0.78 F3000.0
M101
G1 X-4.87 Y-11.39 Z0.78 F1800.0
G1 X-4.87 Y-11.0 Z0.78 F1800.0
G1 X2.61 Y-11.0 Z0.78 F1800.0
M108 R30.0
M102
G1 X3.06 Y-11.0 Z0.78 F1800.0
M108 R3.569
M103
G1 X3.63 Y-10.73 Z0.78 F3000.0
G1 X3.77 Y-3.54 Z0.78 F3000.0
G1 X26.12 Y-3.4 Z0.78 F3000.0
G1 X50.53 Y4.09 Z0.78 F3000.0
M108 R30.0
M101
G1 X51.29 Y4.32 Z0.78 F3000.0
M108 R3.569
G1 X0.83 Y4.32 Z0.78 F1800.0
G1 X0.83 Y3.93 Z0.78 F1800.0
G1 X51.29 Y3.93 Z0.78 F1800.0
G1 X51.29 Y3.53 Z0.78 F1800.0
G1 X0.83 Y3.53 Z0.78 F1800.0
G1 X0.83 Y3.14 Z0.78 F1800.0
G1 X51.29 Y3.14 Z0.78 F1800.0
G1 X51.29 Y2.75 Z0.78 F1800.0
G1 X0.83 Y2.75 Z0.78 F1800.0
G1 X0.83 Y2.36 Z0.78 F1800.0
G1 X51.29 Y2.36 Z0.78 F1800.0
G1 X51.29 Y1.96 Z0.78 F1800.0
G1 X0.83 Y1.96 Z0.78 F1800.0
G1 X0.83 Y1.57 Z0.78 F1800.0
G1 X51.29 Y1.57 Z0.78 F1800.0
G1 X51.29 Y1.18 Z0.78 F1800.0
G1 X0.83 Y1.18 Z0.78 F1800.0
G1 X0.83 Y0.79 Z0.78 F1800.0
G1 X51.29 Y0.79 Z0.78 F1800.0
G1 X51.29 Y0.39 Z0.78 F1800.0
G1 X0.81 Y0.39 Z0.78 F1800.0
G1 X0.42 Y-0.0 Z0.78 F1800.0
G1 X51.29 Y-0.0 Z0.78 F1800.0
G1 X51.29 Y-0.39 Z0.78 F1800.0
G1 X0.48 Y-0.39 Z0.78 F1800.0
M108 R30.0
M102
G1 X0.03 Y-0.39 Z0.78 F1800.0
M108 R3.569
M103
G1 X-49.68 Y-1.17 Z0.78 F3000.0
M108 R30.0
M101
G1 X-50.48 Y-1.18 Z0.78 F3000.0
M108 R3.569
G1 X51.29 Y-1.18 Z0.78 F1800.0
G1 X51.29 Y-0.79 Z0.78 F1800.0
G1 X-50.03 Y-0.79 Z0.78 F1800.0
M108 R30.0
M102
G1 X-50.48 Y-0.79 Z0.78 F1800.0
M108 R3.569
M103
G1 X-50.48 Y-1.16 Z0.78 F3000.0
M108 R30.0
M101
G1 X-50.48 Y-1.96 Z0.78 F3000.0
M108 R3.569
G1 X51.29 Y-1.96 Z0.78 F1800.0
G1 X51.29 Y-1.57 Z0.78 F1800.0
G1 X-50.03 Y-1.57 Z0.78 F1800.0
M108 R30.0
M102
G1 X-50.48 Y-1.57 Z0.78 F1800.0
M108 R3.569
M103
G1 X50.49 Y-2.35 Z0.78 F3000.0
M108 R30.0
M101
G1 X51.29 Y-2.36 Z0.78 F3000.0
M108 R3.569
G1 X-50.48 Y-2.36 Z0.78 F1800.0
M103
G1 X-50.48 Y-2.75 Z0.78 F3000.0
M101
G1 X51.29 Y-2.75 Z0.78 F1800.0
G1 X51.29 Y-3.14 Z0.78 F1800.0
G1 X43.03 Y-3.14 Z0.78 F1800.0
G1 X43.03 Y-3.53 Z0.78 F1800.0
G1 X51.29 Y-3.53 Z0.78 F1800.0
G1 X51.29 Y-3.93 Z0.78 F1800.0
G1 X43.03 Y-3.93 Z0.78 F1800.0
G1 X43.03 Y-4.32 Z0.78 F1800.0
G1 X51.29 Y-4.32 Z0.78 F1800.0
G1 X51.29 Y-4.71 Z0.78 F1800.0
G1 X43.03 Y-4.71 Z0.78 F1800.0
G1 X43.03 Y-5.11 Z0.78 F1800.0
G1 X51.29 Y-5.11 Z0.78 F1800.0
G1 X51.29 Y-5.5 Z0.78 F1800.0
G1 X43.03 Y-5.5 Z0.78 F1800.0
G1 X43.03 Y-5.89 Z0.78 F1800.0
G1 X51.29 Y-5.89 Z0.78 F1800.0
G1 X51.29 Y-6.28 Z0.78 F1800.0
G1 X43.03 Y-6.28 Z0.78 F1800.0
G1 X43.03 Y-6.68 Z0.78 F1800.0
G1 X51.29 Y-6.68 Z0.78 F1800.0
G1 X51.29 Y-7.07 Z0.78 F1800.0
G1 X43.03 Y-7.07 Z0.78 F1800.0
G1 X43.03 Y-7.46 Z0.78 F1800.0
G1 X51.29 Y-7.46 Z0.78 F1800.0
G1 X51.29 Y-7.85 Z0.78 F1800.0
G1 X43.03 Y-7.85 Z0.78 F1800.0
G1 X43.03 Y-8.25 Z0.78 F1800.0
G1 X51.29 Y-8.25 Z0.78 F1800.0
G1 X51.29 Y-8.64 Z0.78 F1800.0
G1 X43.03 Y-8.64 Z0.78 F1800.0
G1 X43.03 Y-9.03 Z0.78 F1800.0
G1 X51.29 Y-9.03 Z0.78 F1800.0
G1 X51.29 Y-9.43 Z0.78 F1800.0
G1 X43.03 Y-9.43 Z0.78 F1800.0
G1 X43.03 Y-9.82 Z0.78 F1800.0
G1 X51.29 Y-9.82 Z0.78 F1800.0
G1 X51.29 Y-10.21 Z0.78 F1800.0
G1 X43.03 Y-10.21 Z0.78 F1800.0
G1 X43.03 Y-10.6 Z0.78 F1800.0
G1 X51.29 Y-10.6 Z0.78 F1800.0
G1 X51.29 Y-11.0 Z0.78 F1800.0
G1 X43.03 Y-11.0 Z0.78 F1800.0
G1 X43.03 Y-11.39 Z0.78 F1800.0
G1 X51.29 Y-11.39 Z0.78 F1800.0
G1 X51.29 Y-11.78 Z0.78 F1800.0
G1 X43.03 Y-11.78 Z0.78 F1800.0
G1 X43.03 Y-12.17 Z0.78 F1800.0
G1 X51.29 Y-12.17 Z0.78 F1800.0
G1 X51.29 Y-12.57 Z0.78 F1800.0
G1 X43.03 Y-12.57 Z0.78 F1800.0
G1 X43.03 Y-12.96 Z0.78 F1800.0
G1 X51.29 Y-12.96 Z0.78 F1800.0
G1 X51.29 Y-13.35 Z0.78 F1800.0
G1 X43.03 Y-13.35 Z0.78 F1800.0
G1 X43.03 Y-13.74 Z0.78 F1800.0
G1 X51.29 Y-13.74 Z0.78 F1800.0
G1 X51.29 Y-14.14 Z0.78 F1800.0
G1 X43.03 Y-14.14 Z0.78 F1800.0
G1 X43.03 Y-14.53 Z0.78 F1800.0
G1 X51.29 Y-14.53 Z0.78 F1800.0
G1 X51.29 Y-14.92 Z0.78 F1800.0
G1 X43.03 Y-14.92 Z0.78 F1800.0
G1 X43.03 Y-15.32 Z0.78 F1800.0
G1 X51.29 Y-15.32 Z0.78 F1800.0
G1 X51.29 Y-15.71 Z0.78 F1800.0
G1 X43.03 Y-15.71 Z0.78 F1800.0
G1 X43.03 Y-16.1 Z0.78 F1800.0
G1 X51.29 Y-16.1 Z0.78 F1800.0
G1 X51.29 Y-16.49 Z0.78 F1800.0
G1 X43.03 Y-16.49 Z0.78 F1800.0
G1 X43.03 Y-16.89 Z0.78 F1800.0
G1 X51.29 Y-16.89 Z0.78 F1800.0
G1 X51.29 Y-17.28 Z0.78 F1800.0
G1 X43.03 Y-17.28 Z0.78 F1800.0
G1 X43.03 Y-17.67 Z0.78 F1800.0
G1 X51.29 Y-17.67 Z0.78 F1800.0
G1 X51.29 Y-18.06 Z0.78 F1800.0
G1 X43.03 Y-18.06 Z0.78 F1800.0
G1 X43.03 Y-18.46 Z0.78 F1800.0
G1 X51.29 Y-18.46 Z0.78 F1800.0
G1 X51.29 Y-18.85 Z0.78 F1800.0
G1 X43.03 Y-18.85 Z0.78 F1800.0
G1 X43.03 Y-19.24 Z0.78 F1800.0
G1 X51.29 Y-19.24 Z0.78 F1800.0
G1 X51.29 Y-19.64 Z0.78 F1800.0
G1 X43.03 Y-19.64 Z0.78 F1800.0
G1 X43.03 Y-20.03 Z0.78 F1800.0
G1 X51.29 Y-20.03 Z0.78 F1800.0
G1 X51.29 Y-20.42 Z0.78 F1800.0
G1 X43.03 Y-20.42 Z0.78 F1800.0
G1 X43.03 Y-20.81 Z0.78 F1800.0
G1 X51.29 Y-20.81 Z0.78 F1800.0
G1 X51.29 Y-21.21 Z0.78 F1800.0
G1 X43.03 Y-21.21 Z0.78 F1800.0
G1 X43.03 Y-21.6 Z0.78 F1800.0
G1 X51.29 Y-21.6 Z0.78 F1800.0
G1 X51.29 Y-21.99 Z0.78 F1800.0
G1 X43.03 Y-21.99 Z0.78 F1800.0
G1 X43.03 Y-22.38 Z0.78 F1800.0
G1 X51.29 Y-22.38 Z0.78 F1800.0
G1 X51.29 Y-22.78 Z0.78 F1800.0
G1 X43.03 Y-22.78 Z0.78 F1800.0
G1 X43.03 Y-23.17 Z0.78 F1800.0
G1 X51.29 Y-23.17 Z0.78 F1800.0
G1 X51.29 Y-23.56 Z0.78 F1800.0
G1 X43.03 Y-23.56 Z0.78 F1800.0
G1 X43.03 Y-23.96 Z0.78 F1800.0
G1 X51.29 Y-23.96 Z0.78 F1800.0
G1 X51.29 Y-24.35 Z0.78 F1800.0
G1 X43.03 Y-24.35 Z0.78 F1800.0
G1 X43.03 Y-24.74 Z0.78 F1800.0
G1 X51.29 Y-24.74 Z0.78 F1800.0
G1 X51.29 Y-25.13 Z0.78 F1800.0
G1 X43.03 Y-25.13 Z0.78 F1800.0
G1 X43.03 Y-25.53 Z0.78 F1800.0
G1 X51.29 Y-25.53 Z0.78 F1800.0
G1 X51.29 Y-25.92 Z0.78 F1800.0
G1 X43.03 Y-25.92 Z0.78 F1800.0
G1 X43.03 Y-26.31 Z0.78 F1800.0
G1 X51.29 Y-26.31 Z0.78 F1800.0
G1 X51.29 Y-26.7 Z0.78 F1800.0
G1 X43.03 Y-26.7 Z0.78 F1800.0
G1 X43.03 Y-27.1 Z0.78 F1800.0
G1 X51.29 Y-27.1 Z0.78 F1800.0
G1 X51.29 Y-27.49 Z0.78 F1800.0
G1 X43.03 Y-27.49 Z0.78 F1800.0
G1 X43.03 Y-27.88 Z0.78 F1800.0
G1 X51.29 Y-27.88 Z0.78 F1800.0
G1 X51.29 Y-28.27 Z0.78 F1800.0
G1 X43.03 Y-28.27 Z0.78 F1800.0
G1 X43.03 Y-28.67 Z0.78 F1800.0
G1 X51.29 Y-28.67 Z0.78 F1800.0
G1 X51.29 Y-29.06 Z0.78 F1800.0
G1 X43.03 Y-29.06 Z0.78 F1800.0
G1 X43.03 Y-29.45 Z0.78 F1800.0
G1 X51.29 Y-29.45 Z0.78 F1800.0
G1 X51.29 Y-29.85 Z0.78 F1800.0
G1 X43.03 Y-29.85 Z0.78 F1800.0
G1 X43.03 Y-30.24 Z0.78 F1800.0
G1 X51.29 Y-30.24 Z0.78 F1800.0
G1 X51.29 Y-30.63 Z0.78 F1800.0
G1 X43.03 Y-30.63 Z0.78 F1800.0
G1 X43.03 Y-31.02 Z0.78 F1800.0
G1 X51.29 Y-31.02 Z0.78 F1800.0
G1 X51.29 Y-31.42 Z0.78 F1800.0
G1 X43.03 Y-31.42 Z0.78 F1800.0
G1 X43.03 Y-31.81 Z0.78 F1800.0
G1 X51.29 Y-31.81 Z0.78 F1800.0
G1 X51.29 Y-32.2 Z0.78 F1800.0
G1 X43.03 Y-32.2 Z0.78 F1800.0
G1 X43.03 Y-32.59 Z0.78 F1800.0
G1 X51.29 Y-32.59 Z0.78 F1800.0
G1 X51.29 Y-32.99 Z0.78 F1800.0
G1 X43.03 Y-32.99 Z0.78 F1800.0
G1 X43.03 Y-33.38 Z0.78 F1800.0
G1 X51.29 Y-33.38 Z0.78 F1800.0
G1 X51.29 Y-33.77 Z0.78 F1800.0
G1 X43.03 Y-33.77 Z0.78 F1800.0
G1 X43.03 Y-34.17 Z0.78 F1800.0
G1 X51.29 Y-34.17 Z0.78 F1800.0
G1 X51.29 Y-34.56 Z0.78 F1800.0
G1 X43.03 Y-34.56 Z0.78 F1800.0
G1 X43.03 Y-34.95 Z0.78 F1800.0
G1 X51.29 Y-34.95 Z0.78 F1800.0
G1 X51.29 Y-35.34 Z0.78 F1800.0
G1 X43.03 Y-35.34 Z0.78 F1800.0
G1 X43.03 Y-35.74 Z0.78 F1800.0
G1 X51.29 Y-35.74 Z0.78 F1800.0
G1 X51.29 Y-36.13 Z0.78 F1800.0
G1 X43.03 Y-36.13 Z0.78 F1800.0
G1 X43.03 Y-36.52 Z0.78 F1800.0
G1 X51.29 Y-36.52 Z0.78 F1800.0
G1 X51.29 Y-36.91 Z0.78 F1800.0
G1 X43.03 Y-36.91 Z0.78 F1800.0
G1 X43.03 Y-37.31 Z0.78 F1800.0
G1 X51.29 Y-37.31 Z0.78 F1800.0
G1 X51.29 Y-37.7 Z0.78 F1800.0
G1 X43.03 Y-37.7 Z0.78 F1800.0
G1 X43.03 Y-38.09 Z0.78 F1800.0
G1 X51.29 Y-38.09 Z0.78 F1800.0
G1 X51.29 Y-38.49 Z0.78 F1800.0
G1 X43.03 Y-38.49 Z0.78 F1800.0
G1 X43.03 Y-38.88 Z0.78 F1800.0
G1 X51.29 Y-38.88 Z0.78 F1800.0
G1 X51.29 Y-39.27 Z0.78 F1800.0
G1 X43.03 Y-39.27 Z0.78 F1800.0
G1 X43.03 Y-39.66 Z0.78 F1800.0
G1 X51.29 Y-39.66 Z0.78 F1800.0
G1 X51.29 Y-40.06 Z0.78 F1800.0
G1 X43.03 Y-40.06 Z0.78 F1800.0
G1 X43.03 Y-40.45 Z0.78 F1800.0
G1 X51.29 Y-40.45 Z0.78 F1800.0
G1 X51.29 Y-40.84 Z0.78 F1800.0
G1 X43.03 Y-40.84 Z0.78 F1800.0
G1 X43.03 Y-41.23 Z0.78 F1800.0
G1 X51.29 Y-41.23 Z0.78 F1800.0
G1 X51.29 Y-41.63 Z0.78 F1800.0
G1 X43.03 Y-41.63 Z0.78 F1800.0
G1 X43.03 Y-42.02 Z0.78 F1800.0
G1 X51.29 Y-42.02 Z0.78 F1800.0
G1 X51.29 Y-42.41 Z0.78 F1800.0
G1 X43.48 Y-42.41 Z0.78 F1800.0
M108 R30.0
M102
G1 X43.03 Y-42.41 Z0.78 F1800.0
M108 R3.569
M103
G1 X-49.68 Y-50.98 Z0.78 F3000.0
M108 R30.0
M101
G1 X-50.48 Y-51.05 Z0.78 F3000.0
M108 R3.569
G1 X50.84 Y-51.05 Z0.78 F1800.0
M108 R30.0
M102
G1 X51.29 Y-51.05 Z0.78 F1800.0
M108 R3.569
M103
G1 X51.29 Y49.86 Z0.78 F3000.0
M108 R30.0
M101
G1 X51.29 Y50.66 Z0.78 F3000.0
M108 R3.569
G1 X0.83 Y50.66 Z0.78 F1800.0
G1 X0.83 Y50.27 Z0.78 F1800.0
G1 X51.29 Y50.27 Z0.78 F1800.0
G1 X51.29 Y49.87 Z0.78 F1800.0
G1 X0.83 Y49.87 Z0.78 F1800.0
G1 X0.83 Y49.48 Z0.78 F1800.0
G1 X51.29 Y49.48 Z0.78 F1800.0
G1 X51.29 Y49.09 Z0.78 F1800.0
G1 X0.83 Y49.09 Z0.78 F1800.0
G1 X0.83 Y48.7 Z0.78 F1800.0
G1 X51.29 Y48.7 Z0.78 F1800.0
G1 X51.29 Y48.3 Z0.78 F1800.0
G1 X0.83 Y48.3 Z0.78 F1800.0
G1 X0.83 Y47.91 Z0.78 F1800.0
G1 X51.29 Y47.91 Z0.78 F1800.0
G1 X51.29 Y47.52 Z0.78 F1800.0
G1 X0.83 Y47.52 Z0.78 F1800.0
G1 X0.83 Y47.12 Z0.78 F1800.0
G1 X10.97 Y47.12 Z0.78 F1800.0
G1 X10.97 Y46.73 Z0.78 F1800.0
G1 X0.83 Y46.73 Z0.78 F1800.0
G1 X0.83 Y46.34 Z0.78 F1800.0
G1 X10.97 Y46.34 Z0.78 F1800.0
G1 X10.97 Y45.95 Z0.78 F1800.0
G1 X0.83 Y45.95 Z0.78 F1800.0
G1 X0.83 Y45.55 Z0.78 F1800.0
G1 X10.97 Y45.55 Z0.78 F1800.0
G1 X10.97 Y45.16 Z0.78 F1800.0
G1 X0.83 Y45.16 Z0.78 F1800.0
G1 X0.83 Y44.77 Z0.78 F1800.0
G1 X10.97 Y44.77 Z0.78 F1800.0
G1 X10.97 Y44.38 Z0.78 F1800.0
G1 X0.83 Y44.38 Z0.78 F1800.0
G1 X0.83 Y43.98 Z0.78 F1800.0
G1 X10.97 Y43.98 Z0.78 F1800.0
G1 X10.97 Y43.59 Z0.78 F1800.0
G1 X0.83 Y43.59 Z0.78 F1800.0
G1 X0.83 Y43.2 Z0.78 F1800.0
G1 X10.97 Y43.2 Z0.78 F1800.0
G1 X10.97 Y42.8 Z0.78 F1800.0
G1 X0.83 Y42.8 Z0.78 F1800.0
G1 X0.83 Y42.41 Z0.78 F1800.0
G1 X10.97 Y42.41 Z0.78 F1800.0
G1 X10.97 Y42.02 Z0.78 F1800.0
G1 X0.83 Y42.02 Z0.78 F1800.0
G1 X0.83 Y41.63 Z0.78 F1800.0
G1 X10.97 Y41.63 Z0.78 F1800.0
G1 X10.97 Y41.23 Z0.78 F1800.0
G1 X0.83 Y41.23 Z0.78 F1800.0
G1 X0.83 Y40.84 Z0.78 F1800.0
G1 X10.97 Y40.84 Z0.78 F1800.0
G1 X10.97 Y40.45 Z0.78 F1800.0
G1 X0.83 Y40.45 Z0.78 F1800.0
G1 X0.83 Y40.06 Z0.78 F1800.0
G1 X10.97 Y40.06 Z0.78 F1800.0
G1 X10.97 Y39.66 Z0.78 F1800.0
G1 X0.83 Y39.66 Z0.78 F1800.0
G1 X0.83 Y39.27 Z0.78 F1800.0
G1 X10.97 Y39.27 Z0.78 F1800.0
G1 X10.97 Y38.88 Z0.78 F1800.0
G1 X0.83 Y38.88 Z0.78 F1800.0
G1 X0.83 Y38.49 Z0.78 F1800.0
G1 X10.97 Y38.49 Z0.78 F1800.0
G1 X10.97 Y38.09 Z0.78 F1800.0
G1 X0.83 Y38.09 Z0.78 F1800.0
G1 X0.83 Y37.7 Z0.78 F1800.0
G1 X10.97 Y37.7 Z0.78 F1800.0
G1 X10.97 Y37.31 Z0.78 F1800.0
G1 X0.83 Y37.31 Z0.78 F1800.0
G1 X0.83 Y36.91 Z0.78 F1800.0
G1 X10.97 Y36.91 Z0.78 F1800.0
G1 X10.97 Y36.52 Z0.78 F1800.0
G1 X0.83 Y36.52 Z0.78 F1800.0
G1 X0.83 Y36.13 Z0.78 F1800.0
G1 X10.97 Y36.13 Z0.78 F1800.0
G1 X10.97 Y35.74 Z0.78 F1800.0
G1 X0.83 Y35.74 Z0.78 F1800.0
G1 X0.83 Y35.34 Z0.78 F1800.0
G1 X10.97 Y35.34 Z0.78 F1800.0
G1 X10.97 Y34.95 Z0.78 F1800.0
G1 X0.83 Y34.95 Z0.78 F1800.0
G1 X0.83 Y34.56 Z0.78 F1800.0
G1 X10.97 Y34.56 Z0.78 F1800.0
G1 X10.97 Y34.17 Z0.78 F1800.0
G1 X0.83 Y34.17 Z0.78 F1800.0
G1 X0.83 Y33.77 Z0.78 F1800.0
G1 X10.97 Y33.77 Z0.78 F1800.0
G1 X10.97 Y33.38 Z0.78 F1800.0
G1 X0.83 Y33.38 Z0.78 F1800.0
G1 X0.83 Y32.99 Z0.78 F1800.0
G1 X10.97 Y32.99 Z0.78 F1800.0
G1 X10.97 Y32.59 Z0.78 F1800.0
G1 X0.83 Y32.59 Z0.78 F1800.0
G1 X0.83 Y32.2 Z0.78 F1800.0
G1 X10.97 Y32.2 Z0.78 F1800.0
G1 X10.97 Y31.81 Z0.78 F1800.0
G1 X0.83 Y31.81 Z0.78 F1800.0
G1 X0.83 Y31.42 Z0.78 F1800.0
G1 X10.97 Y31.42 Z0.78 F1800.0
G1 X10.97 Y31.02 Z0.78 F1800.0
G1 X0.83 Y31.02 Z0.78 F1800.0
G1 X0.83 Y30.63 Z0.78 F1800.0
G1 X10.97 Y30.63 Z0.78 F1800.0
G1 X10.97 Y30.24 Z0.78 F1800.0
G1 X0.83 Y30.24 Z0.78 F1800.0
G1 X0.83 Y29.85 Z0.78 F1800.0
G1 X10.97 Y29.85 Z0.78 F1800.0
G1 X10.97 Y29.45 Z0.78 F1800.0
G1 X0.83 Y29.45 Z0.78 F1800.0
G1 X0.83 Y29.06 Z0.78 F1800.0
G1 X10.97 Y29.06 Z0.78 F1800.0
G1 X10.97 Y28.67 Z0.78 F1800.0
G1 X0.83 Y28.67 Z0.78 F1800.0
G1 X0.83 Y28.27 Z0.78 F1800.0
G1 X10.97 Y28.27 Z0.78 F1800.0
G1 X10.97 Y27.88 Z0.78 F1800.0
G1 X0.83 Y27.88 Z0.78 F1800.0
G1 X0.83 Y27.49 Z0.78 F1800.0
G1 X10.97 Y27.49 Z0.78 F1800.0
G1 X10.97 Y27.1 Z0.78 F1800.0
G1 X0.83 Y27.1 Z0.78 F1800.0
G1 X0.83 Y26.7 Z0.78 F1800.0
G1 X10.97 Y26.7 Z0.78 F1800.0
G1 X10.97 Y26.31 Z0.78 F1800.0
G1 X0.83 Y26.31 Z0.78 F1800.0
G1 X0.83 Y25.92 Z0.78 F1800.0
G1 X10.97 Y25.92 Z0.78 F1800.0
G1 X10.97 Y25.53 Z0.78 F1800.0
G1 X0.83 Y25.53 Z0.78 F1800.0
G1 X0.83 Y25.13 Z0.78 F1800.0
G1 X10.97 Y25.13 Z0.78 F1800.0
G1 X10.97 Y24.74 Z0.78 F1800.0
G1 X0.83 Y24.74 Z0.78 F1800.0
G1 X0.83 Y24.35 Z0.78 F1800.0
G1 X10.97 Y24.35 Z0.78 F1800.0
G1 X10.97 Y23.96 Z0.78 F1800.0
G1 X0.83 Y23.96 Z0.78 F1800.0
G1 X0.83 Y23.56 Z0.78 F1800.0
G1 X10.97 Y23.56 Z0.78 F1800.0
G1 X10.97 Y23.17 Z0.78 F1800.0
G1 X0.83 Y23.17 Z0.78 F1800.0
G1 X0.83 Y22.78 Z0.78 F1800.0
G1 X10.97 Y22.78 Z0.78 F1800.0
G1 X10.97 Y22.38 Z0.78 F1800.0
G1 X0.83 Y22.38 Z0.78 F1800.0
G1 X0.83 Y21.99 Z0.78 F1800.0
G1 X10.97 Y21.99 Z0.78 F1800.0
G1 X10.97 Y21.6 Z0.78 F1800.0
G1 X0.83 Y21.6 Z0.78 F1800.0
G1 X0.83 Y21.21 Z0.78 F1800.0
G1 X10.97 Y21.21 Z0.78 F1800.0
G1 X10.97 Y20.81 Z0.78 F1800.0
G1 X0.83 Y20.81 Z0.78 F1800.0
G1 X0.83 Y20.42 Z0.78 F1800.0
G1 X10.97 Y20.42 Z0.78 F1800.0
G1 X10.97 Y20.03 Z0.78 F1800.0
G1 X0.83 Y20.03 Z0.78 F1800.0
G1 X0.83 Y19.64 Z0.78 F1800.0
G1 X10.97 Y19.64 Z0.78 F1800.0
G1 X10.97 Y19.24 Z0.78 F1800.0
G1 X0.83 Y19.24 Z0.78 F1800.0
G1 X0.83 Y18.85 Z0.78 F1800.0
G1 X10.97 Y18.85 Z0.78 F1800.0
G1 X10.97 Y18.46 Z0.78 F1800.0
G1 X0.83 Y18.46 Z0.78 F1800.0
G1 X0.83 Y18.06 Z0.78 F1800.0
G1 X10.97 Y18.06 Z0.78 F1800.0
G1 X10.97 Y17.67 Z0.78 F1800.0
G1 X0.83 Y17.67 Z0.78 F1800.0
G1 X0.83 Y17.28 Z0.78 F1800.0
G1 X10.97 Y17.28 Z0.78 F1800.0
G1 X10.97 Y16.89 Z0.78 F1800.0
G1 X0.83 Y16.89 Z0.78 F1800.0
G1 X0.83 Y16.49 Z0.78 F1800.0
G1 X10.97 Y16.49 Z0.78 F1800.0
G1 X10.97 Y16.1 Z0.78 F1800.0
G1 X0.83 Y16.1 Z0.78 F1800.0
G1 X0.83 Y15.71 Z0.78 F1800.0
G1 X10.97 Y15.71 Z0.78 F1800.0
G1 X10.97 Y15.32 Z0.78 F1800.0
G1 X0.83 Y15.32 Z0.78 F1800.0
G1 X0.83 Y14.92 Z0.78 F1800.0
G1 X10.97 Y14.92 Z0.78 F1800.0
G1 X10.97 Y14.53 Z0.78 F1800.0
G1 X0.83 Y14.53 Z0.78 F1800.0
G1 X0.83 Y14.14 Z0.78 F1800.0
G1 X10.97 Y14.14 Z0.78 F1800.0
G1 X10.97 Y13.74 Z0.78 F1800.0
G1 X0.83 Y13.74 Z0.78 F1800.0
G1 X0.83 Y13.35 Z0.78 F1800.0
G1 X10.97 Y13.35 Z0.78 F1800.0
G1 X10.97 Y12.96 Z0.78 F1800.0
G1 X0.83 Y12.96 Z0.78 F1800.0
G1 X0.83 Y12.57 Z0.78 F1800.0
G1 X10.97 Y12.57 Z0.78 F1800.0
G1 X10.97 Y12.17 Z0.78 F1800.0
G1 X0.83 Y12.17 Z0.78 F1800.0
G1 X0.83 Y11.78 Z0.78 F1800.0
G1 X10.97 Y11.78 Z0.78 F1800.0
G1 X10.97 Y11.39 Z0.78 F1800.0
G1 X0.83 Y11.39 Z0.78 F1800.0
G1 X0.83 Y11.0 Z0.78 F1800.0
G1 X10.97 Y11.0 Z0.78 F1800.0
G1 X10.97 Y10.6 Z0.78 F1800.0
G1 X0.83 Y10.6 Z0.78 F1800.0
G1 X0.83 Y10.21 Z0.78 F1800.0
G1 X10.97 Y10.21 Z0.78 F1800.0
G1 X10.97 Y9.82 Z0.78 F1800.0
G1 X0.83 Y9.82 Z0.78 F1800.0
G1 X0.83 Y9.43 Z0.78 F1800.0
G1 X10.97 Y9.43 Z0.78 F1800.0
G1 X10.97 Y9.03 Z0.78 F1800.0
G1 X0.83 Y9.03 Z0.78 F1800.0
G1 X0.83 Y8.64 Z0.78 F1800.0
G1 X10.97 Y8.64 Z0.78 F1800.0
G1 X10.97 Y8.25 Z0.78 F1800.0
G1 X0.83 Y8.25 Z0.78 F1800.0
G1 X0.83 Y7.85 Z0.78 F1800.0
G1 X10.97 Y7.85 Z0.78 F1800.0
G1 X10.97 Y7.46 Z0.78 F1800.0
G1 X0.83 Y7.46 Z0.78 F1800.0
G1 X0.83 Y7.07 Z0.78 F1800.0
G1 X10.97 Y7.07 Z0.78 F1800.0
G1 X10.97 Y6.68 Z0.78 F1800.0
G1 X0.83 Y6.68 Z0.78 F1800.0
G1 X0.83 Y6.28 Z0.78 F1800.0
G1 X10.97 Y6.28 Z0.78 F1800.0
G1 X10.97 Y5.89 Z0.78 F1800.0
G1 X0.83 Y5.89 Z0.78 F1800.0
G1 X0.83 Y5.5 Z0.78 F1800.0
G1 X10.97 Y5.5 Z0.78 F1800.0
G1 X10.97 Y5.11 Z0.78 F1800.0
G1 X0.83 Y5.11 Z0.78 F1800.0
G1 X0.83 Y4.71 Z0.78 F1800.0
G1 X51.29 Y4.71 Z0.78 F1800.0
G1 X51.29 Y5.11 Z0.78 F1800.0
G1 X45.11 Y5.11 Z0.78 F1800.0
G1 X45.11 Y5.5 Z0.78 F1800.0
G1 X51.29 Y5.5 Z0.78 F1800.0
G1 X51.29 Y5.89 Z0.78 F1800.0
G1 X45.11 Y5.89 Z0.78 F1800.0
G1 X45.11 Y6.28 Z0.78 F1800.0
G1 X51.29 Y6.28 Z0.78 F1800.0
G1 X51.29 Y6.68 Z0.78 F1800.0
G1 X45.11 Y6.68 Z0.78 F1800.0
G1 X45.11 Y7.07 Z0.78 F1800.0
G1 X51.29 Y7.07 Z0.78 F1800.0
G1 X51.29 Y7.46 Z0.78 F1800.0
G1 X45.11 Y7.46 Z0.78 F1800.0
G1 X45.11 Y7.85 Z0.78 F1800.0
G1 X51.29 Y7.85 Z0.78 F1800.0
G1 X51.29 Y8.25 Z0.78 F1800.0
G1 X45.11 Y8.25 Z0.78 F1800.0
G1 X45.11 Y8.64 Z0.78 F1800.0
G1 X51.29 Y8.64 Z0.78 F1800.0
G1 X51.29 Y9.03 Z0.78 F1800.0
G1 X45.11 Y9.03 Z0.78 F1800.0
G1 X45.11 Y9.43 Z0.78 F1800.0
G1 X51.29 Y9.43 Z0.78 F1800.0
G1 X51.29 Y9.82 Z0.78 F1800.0
G1 X45.11 Y9.82 Z0.78 F1800.0
G1 X45.11 Y10.21 Z0.78 F1800.0
G1 X51.29 Y10.21 Z0.78 F1800.0
G1 X51.29 Y10.6 Z0.78 F1800.0
G1 X45.11 Y10.6 Z0.78 F1800.0
G1 X45.11 Y11.0 Z0.78 F1800.0
G1 X51.29 Y11.0 Z0.78 F1800.0
G1 X51.29 Y11.39 Z0.78 F1800.0
G1 X45.11 Y11.39 Z0.78 F1800.0
G1 X45.11 Y11.78 Z0.78 F1800.0
G1 X51.29 Y11.78 Z0.78 F1800.0
G1 X51.29 Y12.17 Z0.78 F1800.0
G1 X45.11 Y12.17 Z0.78 F1800.0
G1 X45.11 Y12.57 Z0.78 F1800.0
G1 X51.29 Y12.57 Z0.78 F1800.0
G1 X51.29 Y12.96 Z0.78 F1800.0
G1 X45.11 Y12.96 Z0.78 F1800.0
G1 X45.11 Y13.35 Z0.78 F1800.0
G1 X51.29 Y13.35 Z0.78 F1800.0
G1 X51.29 Y13.74 Z0.78 F1800.0
G1 X45.11 Y13.74 Z0.78 F1800.0
G1 X45.11 Y14.14 Z0.78 F1800.0
G1 X51.29 Y14.14 Z0.78 F1800.0
G1 X51.29 Y14.53 Z0.78 F1800.0
G1 X45.11 Y14.53 Z0.78 F1800.0
G1 X45.11 Y14.92 Z0.78 F1800.0
G1 X51.29 Y14.92 Z0.78 F1800.0
G1 X51.29 Y15.32 Z0.78 F1800.0
G1 X45.11 Y15.32 Z0.78 F1800.0
G1 X45.11 Y15.71 Z0.78 F1800.0
G1 X51.29 Y15.71 Z0.78 F1800.0
G1 X51.29 Y16.1 Z0.78 F1800.0
G1 X45.11 Y16.1 Z0.78 F1800.0
G1 X45.11 Y16.49 Z0.78 F1800.0
G1 X51.29 Y16.49 Z0.78 F1800.0
G1 X51.29 Y16.89 Z0.78 F1800.0
G1 X45.11 Y16.89 Z0.78 F1800.0
G1 X45.11 Y17.28 Z0.78 F1800.0
G1 X51.29 Y17.28 Z0.78 F1800.0
G1 X51.29 Y17.67 Z0.78 F1800.0
G1 X45.11 Y17.67 Z0.78 F1800.0
G1 X45.11 Y18.06 Z0.78 F1800.0
G1 X51.29 Y18.06 Z0.78 F1800.0
G1 X51.29 Y18.46 Z0.78 F1800.0
G1 X45.11 Y18.46 Z0.78 F1800.0
G1 X45.11 Y18.85 Z0.78 F1800.0
G1 X51.29 Y18.85 Z0.78 F1800.0
G1 X51.29 Y19.24 Z0.78 F1800.0
G1 X45.11 Y19.24 Z0.78 F1800.0
G1 X45.11 Y19.64 Z0.78 F1800.0
G1 X51.29 Y19.64 Z0.78 F1800.0
G1 X51.29 Y20.03 Z0.78 F1800.0
G1 X45.11 Y20.03 Z0.78 F1800.0
G1 X45.11 Y20.42 Z0.78 F1800.0
G1 X51.29 Y20.42 Z0.78 F1800.0
G1 X51.29 Y20.81 Z0.78 F1800.0
G1 X45.11 Y20.81 Z0.78 F1800.0
G1 X45.11 Y21.21 Z0.78 F1800.0
G1 X51.29 Y21.21 Z0.78 F1800.0
G1 X51.29 Y21.6 Z0.78 F1800.0
G1 X45.11 Y21.6 Z0.78 F1800.0
G1 X45.11 Y21.99 Z0.78 F1800.0
G1 X51.29 Y21.99 Z0.78 F1800.0
G1 X51.29 Y22.38 Z0.78 F1800.0
G1 X45.11 Y22.38 Z0.78 F1800.0
G1 X45.11 Y22.78 Z0.78 F1800.0
G1 X51.29 Y22.78 Z0.78 F1800.0
G1 X51.29 Y23.17 Z0.78 F1800.0
G1 X45.11 Y23.17 Z0.78 F1800.0
G1 X45.11 Y23.56 Z0.78 F1800.0
G1 X51.29 Y23.56 Z0.78 F1800.0
G1 X51.29 Y23.96 Z0.78 F1800.0
G1 X45.11 Y23.96 Z0.78 F1800.0
G1 X45.11 Y24.35 Z0.78 F1800.0
G1 X51.29 Y24.35 Z0.78 F1800.0
G1 X51.29 Y24.74 Z0.78 F1800.0
G1 X45.11 Y24.74 Z0.78 F1800.0
G1 X45.11 Y25.13 Z0.78 F1800.0
G1 X51.29 Y25.13 Z0.78 F1800.0
G1 X51.29 Y25.53 Z0.78 F1800.0
G1 X45.11 Y25.53 Z0.78 F1800.0
G1 X45.11 Y25.92 Z0.78 F1800.0
G1 X51.29 Y25.92 Z0.78 F1800.0
G1 X51.29 Y26.31 Z0.78 F1800.0
G1 X45.11 Y26.31 Z0.78 F1800.0
G1 X45.11 Y26.7 Z0.78 F1800.0
G1 X51.29 Y26.7 Z0.78 F1800.0
G1 X51.29 Y27.1 Z0.78 F1800.0
G1 X45.11 Y27.1 Z0.78 F1800.0
G1 X45.11 Y27.49 Z0.78 F1800.0
G1 X51.29 Y27.49 Z0.78 F1800.0
G1 X51.29 Y27.88 Z0.78 F1800.0
G1 X45.11 Y27.88 Z0.78 F1800.0
G1 X45.11 Y28.27 Z0.78 F1800.0
G1 X51.29 Y28.27 Z0.78 F1800.0
G1 X51.29 Y28.67 Z0.78 F1800.0
G1 X45.11 Y28.67 Z0.78 F1800.0
G1 X45.11 Y29.06 Z0.78 F1800.0
G1 X51.29 Y29.06 Z0.78 F1800.0
G1 X51.29 Y29.45 Z0.78 F1800.0
G1 X45.11 Y29.45 Z0.78 F1800.0
G1 X45.11 Y29.85 Z0.78 F1800.0
G1 X51.29 Y29.85 Z0.78 F1800.0
G1 X51.29 Y30.24 Z0.78 F1800.0
G1 X45.11 Y30.24 Z0.78 F1800.0
G1 X45.11 Y30.63 Z0.78 F1800.0
G1 X51.29 Y30.63 Z0.78 F1800.0
G1 X51.29 Y31.02 Z0.78 F1800.0
G1 X45.11 Y31.02 Z0.78 F1800.0
G1 X45.11 Y31.42 Z0.78 F1800.0
G1 X51.29 Y31.42 Z0.78 F1800.0
G1 X51.29 Y31.81 Z0.78 F1800.0
G1 X45.11 Y31.81 Z0.78 F1800.0
G1 X45.11 Y32.2 Z0.78 F1800.0
G1 X51.29 Y32.2 Z0.78 F1800.0
G1 X51.29 Y32.59 Z0.78 F1800.0
G1 X45.11 Y32.59 Z0.78 F1800.0
G1 X45.11 Y32.99 Z0.78 F1800.0
G1 X51.29 Y32.99 Z0.78 F1800.0
G1 X51.29 Y33.38 Z0.78 F1800.0
G1 X45.11 Y33.38 Z0.78 F1800.0
G1 X45.11 Y33.77 Z0.78 F1800.0
G1 X51.29 Y33.77 Z0.78 F1800.0
G1 X51.29 Y34.17 Z0.78 F1800.0
G1 X45.11 Y34.17 Z0.78 F1800.0
G1 X45.11 Y34.56 Z0.78 F1800.0
G1 X51.29 Y34.56 Z0.78 F1800.0
G1 X51.29 Y34.95 Z0.78 F1800.0
G1 X45.11 Y34.95 Z0.78 F1800.0
G1 X45.11 Y35.34 Z0.78 F1800.0
G1 X51.29 Y35.34 Z0.78 F1800.0
G1 X51.29 Y35.74 Z0.78 F1800.0
G1 X45.11 Y35.74 Z0.78 F1800.0
G1 X45.11 Y36.13 Z0.78 F1800.0
G1 X51.29 Y36.13 Z0.78 F1800.0
G1 X51.29 Y36.52 Z0.78 F1800.0
G1 X45.11 Y36.52 Z0.78 F1800.0
G1 X45.11 Y36.91 Z0.78 F1800.0
G1 X51.29 Y36.91 Z0.78 F1800.0
G1 X51.29 Y37.31 Z0.78 F1800.0
G1 X45.11 Y37.31 Z0.78 F1800.0
G1 X45.11 Y37.7 Z0.78 F1800.0
G1 X51.29 Y37.7 Z0.78 F1800.0
G1 X51.29 Y38.09 Z0.78 F1800.0
G1 X45.11 Y38.09 Z0.78 F1800.0
G1 X45.11 Y38.49 Z0.78 F1800.0
G1 X51.29 Y38.49 Z0.78 F1800.0
G1 X51.29 Y38.88 Z0.78 F1800.0
G1 X45.11 Y38.88 Z0.78 F1800.0
G1 X45.11 Y39.27 Z0.78 F1800.0
G1 X51.29 Y39.27 Z0.78 F1800.0
G1 X51.29 Y39.66 Z0.78 F1800.0
G1 X45.11 Y39.66 Z0.78 F1800.0
G1 X45.11 Y40.06 Z0.78 F1800.0
G1 X51.29 Y40.06 Z0.78 F1800.0
G1 X51.29 Y40.45 Z0.78 F1800.0
G1 X45.11 Y40.45 Z0.78 F1800.0
G1 X45.11 Y40.84 Z0.78 F1800.0
G1 X51.29 Y40.84 Z0.78 F1800.0
G1 X51.29 Y41.23 Z0.78 F1800.0
G1 X45.11 Y41.23 Z0.78 F1800.0
G1 X45.11 Y41.63 Z0.78 F1800.0
G1 X51.29 Y41.63 Z0.78 F1800.0
G1 X51.29 Y42.02 Z0.78 F1800.0
G1 X45.11 Y42.02 Z0.78 F1800.0
G1 X45.11 Y42.41 Z0.78 F1800.0
G1 X51.29 Y42.41 Z0.78 F1800.0
G1 X51.29 Y42.8 Z0.78 F1800.0
G1 X45.11 Y42.8 Z0.78 F1800.0
G1 X45.11 Y43.2 Z0.78 F1800.0
G1 X51.29 Y43.2 Z0.78 F1800.0
G1 X51.29 Y43.59 Z0.78 F1800.0
G1 X45.11 Y43.59 Z0.78 F1800.0
G1 X45.11 Y43.98 Z0.78 F1800.0
G1 X51.29 Y43.98 Z0.78 F1800.0
G1 X51.29 Y44.38 Z0.78 F1800.0
G1 X45.11 Y44.38 Z0.78 F1800.0
G1 X45.11 Y44.77 Z0.78 F1800.0
G1 X51.29 Y44.77 Z0.78 F1800.0
G1 X51.29 Y45.16 Z0.78 F1800.0
G1 X45.11 Y45.16 Z0.78 F1800.0
G1 X45.11 Y45.55 Z0.78 F1800.0
G1 X51.29 Y45.55 Z0.78 F1800.0
G1 X51.29 Y45.95 Z0.78 F1800.0
G1 X45.11 Y45.95 Z0.78 F1800.0
G1 X45.11 Y46.34 Z0.78 F1800.0
G1 X51.29 Y46.34 Z0.78 F1800.0
G1 X51.29 Y46.73 Z0.78 F1800.0
G1 X45.11 Y46.73 Z0.78 F1800.0
G1 X45.11 Y47.12 Z0.78 F1800.0
G1 X50.84 Y47.12 Z0.78 F1800.0
M108 R30.0
M102
G1 X51.29 Y47.12 Z0.78 F1800.0
M108 R3.569
M103
G1 X44.54 Y40.72 Z0.78 F3000.0
G1 X44.4 Y5.81 Z0.78 F3000.0
G1 X11.68 Y5.81 Z0.78 F3000.0
G1 X11.54 Y11.18 Z0.78 F3000.0
G1 X-13.18 Y-11.31 Z0.78 F3000.0
G1 X-46.4 Y-11.45 Z0.78 F3000.0
G1 X-46.53 Y-41.71 Z0.78 F3000.0
G1 X-49.91 Y-45.0 Z0.78 F3000.0
M108 R30.0
M101
G1 X-50.48 Y-45.55 Z0.78 F3000.0
M108 R3.569
G1 X51.29 Y-45.55 Z0.78 F1800.0
G1 X51.29 Y-45.95 Z0.78 F1800.0
G1 X-50.48 Y-45.95 Z0.78 F1800.0
M103
G1 X-50.48 Y-46.34 Z0.78 F3000.0
M101
G1 X51.29 Y-46.34 Z0.78 F1800.0
G1 X51.29 Y-46.73 Z0.78 F1800.0
G1 X-50.48 Y-46.73 Z0.78 F1800.0
M103
G1 X-50.48 Y-47.12 Z0.78 F3000.0
M101
G1 X51.29 Y-47.12 Z0.78 F1800.0
G1 X51.29 Y-47.52 Z0.78 F1800.0
G1 X-50.48 Y-47.52 Z0.78 F1800.0
M103
G1 X-50.48 Y-47.91 Z0.78 F3000.0
M101
G1 X51.29 Y-47.91 Z0.78 F1800.0
G1 X51.29 Y-48.3 Z0.78 F1800.0
G1 X-50.48 Y-48.3 Z0.78 F1800.0
M103
G1 X-50.48 Y-48.7 Z0.78 F3000.0
M101
G1 X51.29 Y-48.7 Z0.78 F1800.0
G1 X51.29 Y-49.09 Z0.78 F1800.0
G1 X-50.48 Y-49.09 Z0.78 F1800.0
M103
G1 X-50.48 Y-49.48 Z0.78 F3000.0
M101
G1 X51.29 Y-49.48 Z0.78 F1800.0
G1 X51.29 Y-49.87 Z0.78 F1800.0
G1 X-50.48 Y-49.87 Z0.78 F1800.0
M103
G1 X-50.48 Y-50.27 Z0.78 F3000.0
M101
G1 X51.29 Y-50.27 Z0.78 F1800.0
G1 X51.29 Y-50.66 Z0.78 F1800.0
G1 X-50.03 Y-50.66 Z0.78 F1800.0
M108 R30.0
M102
G1 X-50.48 Y-50.66 Z0.78 F1800.0
M108 R3.569
M103
(</surroundingLoop>)
(</layer>)
(<operatingLayerEnd> </operatingLayerEnd>)
(<layer> 1.1 )
(<surroundingLoop>)
(<boundaryPerimeter>)
(<boundaryPoint> X-0.645 Y0.246 Z1.1 </boundaryPoint>)
(<boundaryPoint> X-51.325 Y0.246 Z1.1 </boundaryPoint>)
(<boundaryPoint> X-51.325 Y-51.904 Z1.1 </boundaryPoint>)
(<boundaryPoint> X52.135 Y-51.904 Z1.1 </boundaryPoint>)
(<boundaryPoint> X52.135 Y51.556 Z1.1 </boundaryPoint>)
(<boundaryPoint> X-0.015 Y51.556 Z1.1 </boundaryPoint>)
(<boundaryPoint> X-0.015 Y0.876 Z1.1 </boundaryPoint>)
(<boundaryPoint> X-0.597 Y0.876 Z1.1 </boundaryPoint>)
(<boundaryPoint> X-0.645 Y0.561 Z1.1 </boundaryPoint>)
(<loop> inner )
G1 X-7.98 Y-44.3 Z1.1 F3000.0
G1 X-5.58 Y-44.17 Z1.1 F3000.0
G1 X-5.44 Y-43.68 Z1.1 F3000.0
G1 X2.53 Y-42.4 Z1.1 F3000.0
M108 R30.0
M101
G1 X3.32 Y-42.27 Z1.1 F3000.0
M108 R3.569
G1 X3.32 Y-3.09 Z1.1 F1800.0
G1 X42.78 Y-3.09 Z1.1 F1800.0
G1 X42.78 Y-42.55 Z1.1 F1800.0
G1 X3.49 Y-42.55 Z1.1 F1800.0
M108 R30.0
M102
G1 X3.32 Y-42.55 Z1.1 F1800.0
G1 X3.32 Y-42.27 Z1.1 F1800.0
M108 R3.569
M103
(</loop>)
(<loop> inner )
G1 X-4.32 Y-42.27 Z1.1 F3000.0
M108 R30.0
M101
G1 X-5.12 Y-42.27 Z1.1 F3000.0
M108 R3.569
G1 X-5.12 Y-42.55 Z1.1 F1800.0
G1 X-5.12 Y-44.62 Z1.1 F1800.0
G1 X-46.85 Y-44.62 Z1.1 F1800.0
G1 X-46.85 Y-11.0 Z1.1 F1800.0
G1 X-5.12 Y-11.0 Z1.1 F1800.0
G1 X-5.12 Y-41.82 Z1.1 F1800.0
M108 R30.0
M102
G1 X-5.12 Y-42.27 Z1.1 F1800.0
M108 R3.569
M103
(</loop>)
(<loop> inner )
G1 X3.63 Y-15.97 Z1.1 F3000.0
G1 X3.77 Y-3.54 Z1.1 F3000.0
G1 X8.13 Y-3.4 Z1.1 F3000.0
G1 X10.96 Y4.6 Z1.1 F3000.0
M108 R30.0
M101
G1 X11.23 Y5.36 Z1.1 F3000.0
M108 R3.569
G1 X11.23 Y47.08 Z1.1 F1800.0
G1 X44.85 Y47.08 Z1.1 F1800.0
G1 X44.85 Y5.36 Z1.1 F1800.0
G1 X11.68 Y5.36 Z1.1 F1800.0
M108 R30.0
M102
G1 X11.23 Y5.36 Z1.1 F1800.0
M108 R3.569
M103
(</loop>)
(<loop> outer )
G1 X1.37 Y5.36 Z1.1 F3000.0
M108 R30.0
M101
G1 X0.57 Y5.36 Z1.1 F3000.0
M108 R3.569
G1 X0.57 Y0.52 Z1.1 F1800.0
G1 X-0.29 Y-0.34 Z1.1 F1800.0
G1 X-50.74 Y-0.34 Z1.1 F1800.0
G1 X-50.74 Y-51.32 Z1.1 F1800.0
G1 X51.55 Y-51.32 Z1.1 F1800.0
G1 X51.55 Y50.97 Z1.1 F1800.0
G1 X0.57 Y50.97 Z1.1 F1800.0
G1 X0.57 Y5.36 Z1.1 F1800.0
M103
(</loop>)
(<perimeter> outer )
G1 X0.18 Y5.36 Z1.1 F3000.0
M101
G1 X0.18 Y0.68 Z1.1 F1800.0
G1 X-0.43 Y0.68 Z1.1 F1800.0
G1 X-0.45 Y0.55 Z1.1 F1800.0
G1 X-0.45 Y0.05 Z1.1 F1800.0
G1 X-51.13 Y0.05 Z1.1 F1800.0
G1 X-51.13 Y-51.71 Z1.1 F1800.0
G1 X51.94 Y-51.71 Z1.1 F1800.0
G1 X51.94 Y51.36 Z1.1 F1800.0
G1 X0.18 Y51.36 Z1.1 F1800.0
G1 X0.18 Y5.81 Z1.1 F1800.0
M108 R30.0
M102
G1 X0.18 Y5.36 Z1.1 F1800.0
M108 R3.569
M103
(</perimeter>)
(</boundaryPerimeter>)
(<surroundingLoop>)
(<boundaryPerimeter>)
(<boundaryPoint> X42.188 Y-3.674 Z1.1 </boundaryPoint>)
(<boundaryPoint> X42.188 Y-41.957 Z1.1 </boundaryPoint>)
(<boundaryPoint> X3.905 Y-41.957 Z1.1 </boundaryPoint>)
(<boundaryPoint> X3.905 Y-3.674 Z1.1 </boundaryPoint>)
(<perimeter> inner )
G1 X3.41 Y-2.74 Z1.1 F3000.0
M108 R30.0
M101
G1 X3.71 Y-3.48 Z1.1 F3000.0
M108 R3.569
G1 X42.39 Y-3.48 Z1.1 F1800.0
G1 X42.39 Y-42.15 Z1.1 F1800.0
G1 X3.71 Y-42.15 Z1.1 F1800.0
G1 X3.71 Y-3.93 Z1.1 F1800.0
M108 R30.0
M102
G1 X3.71 Y-3.48 Z1.1 F1800.0
M108 R3.569
M103
(</perimeter>)
(</boundaryPerimeter>)
(</surroundingLoop>)
(<surroundingLoop>)
(<boundaryPerimeter>)
(<boundaryPoint> X-5.713 Y-11.584 Z1.1 </boundaryPoint>)
(<boundaryPoint> X-5.713 Y-44.029 Z1.1 </boundaryPoint>)
(<boundaryPoint> X-46.257 Y-44.029 Z1.1 </boundaryPoint>)
(<boundaryPoint> X-46.257 Y-11.584 Z1.1 </boundaryPoint>)
(<perimeter> inner )
G1 X-4.91 Y-10.87 Z1.1 F3000.0
M108 R30.0
M101
G1 X-5.52 Y-11.39 Z1.1 F3000.0
M108 R3.569
G1 X-5.52 Y-44.23 Z1.1 F1800.0
G1 X-46.45 Y-44.23 Z1.1 F1800.0
G1 X-46.45 Y-11.39 Z1.1 F1800.0
G1 X-5.97 Y-11.39 Z1.1 F1800.0
M108 R30.0
M102
G1 X-5.52 Y-11.39 Z1.1 F1800.0
M108 R3.569
M103
(</perimeter>)
(</boundaryPerimeter>)
(</surroundingLoop>)
(<surroundingLoop>)
(<boundaryPerimeter>)
(<boundaryPoint> X44.26 Y5.944 Z1.1 </boundaryPoint>)
(<boundaryPoint> X11.815 Y5.944 Z1.1 </boundaryPoint>)
(<boundaryPoint> X11.815 Y46.488 Z1.1 </boundaryPoint>)
(<boundaryPoint> X44.26 Y46.488 Z1.1 </boundaryPoint>)
(<perimeter> inner )
G1 X11.05 Y5.18 Z1.1 F3000.0
M108 R30.0
M101
G1 X11.62 Y5.75 Z1.1 F3000.0
M108 R3.569
G1 X11.62 Y46.69 Z1.1 F1800.0
G1 X44.46 Y46.69 Z1.1 F1800.0
G1 X44.46 Y5.75 Z1.1 F1800.0
G1 X12.07 Y5.75 Z1.1 F1800.0
M108 R30.0
M102
G1 X11.62 Y5.75 Z1.1 F1800.0
M108 R3.569
M103
(</perimeter>)
(</boundaryPerimeter>)
(</surroundingLoop>)
G1 X-7.24 Y-10.22 Z1.1 F3000.0
M108 R30.0
M101
G1 X-7.85 Y-10.74 Z1.1 F3000.0
M108 R3.569
G1 X-7.75 Y-9.69 Z1.1 F1800.0
G1 X-9.7 Y-7.76 Z1.1 F1800.0
G1 X-9.7 Y-7.51 Z1.1 F1800.0
G1 X-7.75 Y-5.58 Z1.1 F1800.0
G1 X-7.75 Y-5.33 Z1.1 F1800.0
G1 X-9.7 Y-3.4 Z1.1 F1800.0
G1 X-9.7 Y-3.15 Z1.1 F1800.0
G1 X-7.64 Y-1.22 Z1.1 F1800.0
G1 X-7.64 Y-0.96 Z1.1 F1800.0
G1 X-7.85 Y-0.6 Z1.1 F1800.0
G1 X-4.36 Y-0.6 Z1.1 F1800.0
G1 X-5.57 Y-3.15 Z1.1 F1800.0
G1 X-5.57 Y-3.4 Z1.1 F1800.0
G1 X-7.52 Y-5.33 Z1.1 F1800.0
G1 X-7.52 Y-5.58 Z1.1 F1800.0
G1 X-5.57 Y-7.51 Z1.1 F1800.0
G1 X-5.57 Y-7.76 Z1.1 F1800.0
G1 X-7.52 Y-9.69 Z1.1 F1800.0
G1 X-7.52 Y-9.95 Z1.1 F1800.0
G1 X-7.42 Y-10.3 Z1.1 F1800.0
G1 X-6.98 Y-10.74 Z1.1 F1800.0
G1 X-6.55 Y-10.3 Z1.1 F1800.0
G1 X-6.11 Y-10.3 Z1.1 F1800.0
G1 X-5.99 Y-10.42 Z1.1 F1800.0
M108 R30.0
M102
G1 X-5.67 Y-10.74 Z1.1 F1800.0
M108 R3.569
M103
G1 X-11.42 Y-10.74 Z1.1 F3000.0
M108 R30.0
M101
G1 X-12.22 Y-10.74 Z1.1 F3000.0
M108 R3.569
G1 X-12.11 Y-9.69 Z1.1 F1800.0
G1 X-14.07 Y-7.76 Z1.1 F1800.0
G1 X-14.07 Y-7.51 Z1.1 F1800.0
G1 X-12.11 Y-5.58 Z1.1 F1800.0
G1 X-12.11 Y-5.33 Z1.1 F1800.0
G1 X-14.07 Y-3.4 Z1.1 F1800.0
G1 X-14.07 Y-3.15 Z1.1 F1800.0
G1 X-12.0 Y-1.22 Z1.1 F1800.0
G1 X-12.0 Y-0.96 Z1.1 F1800.0
G1 X-12.22 Y-0.6 Z1.1 F1800.0
G1 X-8.29 Y-0.6 Z1.1 F1800.0
G1 X-9.93 Y-3.15 Z1.1 F1800.0
G1 X-9.93 Y-3.4 Z1.1 F1800.0
G1 X-11.88 Y-5.33 Z1.1 F1800.0
G1 X-11.88 Y-5.58 Z1.1 F1800.0
G1 X-9.93 Y-7.51 Z1.1 F1800.0
G1 X-9.93 Y-7.76 Z1.1 F1800.0
G1 X-11.88 Y-9.69 Z1.1 F1800.0
G1 X-11.88 Y-9.95 Z1.1 F1800.0
G1 X-10.98 Y-10.49 Z1.1 F1800.0
G1 X-10.47 Y-10.63 Z1.1 F1800.0
M108 R30.0
M102
G1 X-10.04 Y-10.74 Z1.1 F1800.0
M108 R3.569
M103
G1 X-15.78 Y-10.74 Z1.1 F3000.0
M108 R30.0
M101
G1 X-16.58 Y-10.74 Z1.1 F3000.0
M108 R3.569
G1 X-16.48 Y-9.69 Z1.1 F1800.0
G1 X-18.43 Y-7.76 Z1.1 F1800.0
G1 X-18.43 Y-7.51 Z1.1 F1800.0
G1 X-16.48 Y-5.58 Z1.1 F1800.0
G1 X-16.48 Y-5.33 Z1.1 F1800.0
G1 X-18.43 Y-3.4 Z1.1 F1800.0
G1 X-18.43 Y-3.15 Z1.1 F1800.0
G1 X-16.36 Y-1.22 Z1.1 F1800.0
G1 X-16.36 Y-0.96 Z1.1 F1800.0
G1 X-16.58 Y-0.6 Z1.1 F1800.0
G1 X-12.65 Y-0.6 Z1.1 F1800.0
G1 X-14.3 Y-3.15 Z1.1 F1800.0
G1 X-14.3 Y-3.4 Z1.1 F1800.0
G1 X-16.25 Y-5.33 Z1.1 F1800.0
G1 X-16.25 Y-5.58 Z1.1 F1800.0
G1 X-14.3 Y-7.51 Z1.1 F1800.0
G1 X-14.3 Y-7.76 Z1.1 F1800.0
G1 X-16.25 Y-9.69 Z1.1 F1800.0
G1 X-16.25 Y-9.95 Z1.1 F1800.0
G1 X-16.14 Y-10.3 Z1.1 F1800.0
G1 X-15.71 Y-10.74 Z1.1 F1800.0
G1 X-15.27 Y-10.3 Z1.1 F1800.0
G1 X-14.84 Y-10.3 Z1.1 F1800.0
G1 X-14.72 Y-10.42 Z1.1 F1800.0
M108 R30.0
M102
G1 X-14.4 Y-10.74 Z1.1 F1800.0
M108 R3.569
M103
G1 X-20.14 Y-10.74 Z1.1 F3000.0
M108 R30.0
M101
G1 X-20.94 Y-10.74 Z1.1 F3000.0
M108 R3.569
G1 X-20.84 Y-9.69 Z1.1 F1800.0
G1 X-22.79 Y-7.76 Z1.1 F1800.0
G1 X-22.79 Y-7.51 Z1.1 F1800.0
G1 X-20.84 Y-5.58 Z1.1 F1800.0
G1 X-20.84 Y-5.33 Z1.1 F1800.0
G1 X-22.79 Y-3.4 Z1.1 F1800.0
G1 X-22.79 Y-3.15 Z1.1 F1800.0
G1 X-20.73 Y-1.22 Z1.1 F1800.0
G1 X-20.73 Y-0.96 Z1.1 F1800.0
G1 X-20.94 Y-0.6 Z1.1 F1800.0
G1 X-17.02 Y-0.6 Z1.1 F1800.0
G1 X-18.66 Y-3.15 Z1.1 F1800.0
G1 X-18.66 Y-3.4 Z1.1 F1800.0
G1 X-20.61 Y-5.33 Z1.1 F1800.0
G1 X-20.61 Y-5.58 Z1.1 F1800.0
G1 X-18.66 Y-7.51 Z1.1 F1800.0
G1 X-18.66 Y-7.76 Z1.1 F1800.0
G1 X-20.61 Y-9.69 Z1.1 F1800.0
G1 X-20.61 Y-9.95 Z1.1 F1800.0
G1 X-20.51 Y-10.3 Z1.1 F1800.0
G1 X-20.07 Y-10.74 Z1.1 F1800.0
G1 X-19.71 Y-10.49 Z1.1 F1800.0
G1 X-19.2 Y-10.63 Z1.1 F1800.0
M108 R30.0
M102
G1 X-18.76 Y-10.74 Z1.1 F1800.0
M108 R3.569
M103
G1 X-24.51 Y-10.74 Z1.1 F3000.0
M108 R30.0
M101
G1 X-25.31 Y-10.74 Z1.1 F3000.0
M108 R3.569
G1 X-25.2 Y-9.69 Z1.1 F1800.0
G1 X-27.16 Y-7.76 Z1.1 F1800.0
G1 X-27.16 Y-7.51 Z1.1 F1800.0
G1 X-25.2 Y-5.58 Z1.1 F1800.0
G1 X-25.2 Y-5.33 Z1.1 F1800.0
G1 X-27.16 Y-3.4 Z1.1 F1800.0
G1 X-27.16 Y-3.15 Z1.1 F1800.0
G1 X-25.09 Y-1.22 Z1.1 F1800.0
G1 X-25.09 Y-0.96 Z1.1 F1800.0
G1 X-25.74 Y-0.6 Z1.1 F1800.0
G1 X-21.38 Y-0.6 Z1.1 F1800.0
G1 X-23.02 Y-3.15 Z1.1 F1800.0
G1 X-23.02 Y-3.4 Z1.1 F1800.0
G1 X-24.97 Y-5.33 Z1.1 F1800.0
G1 X-24.97 Y-5.58 Z1.1 F1800.0
G1 X-23.02 Y-7.51 Z1.1 F1800.0
G1 X-23.02 Y-7.76 Z1.1 F1800.0
G1 X-24.97 Y-9.69 Z1.1 F1800.0
G1 X-24.97 Y-9.95 Z1.1 F1800.0
G1 X-24.87 Y-10.3 Z1.1 F1800.0
G1 X-24.44 Y-10.74 Z1.1 F1800.0
G1 X-24.0 Y-10.3 Z1.1 F1800.0
G1 X-23.56 Y-10.3 Z1.1 F1800.0
G1 X-23.44 Y-10.42 Z1.1 F1800.0
M108 R30.0
M102
G1 X-23.13 Y-10.74 Z1.1 F1800.0
M108 R3.569
M103
G1 X-28.87 Y-10.74 Z1.1 F3000.0
M108 R30.0
M101
G1 X-29.67 Y-10.74 Z1.1 F3000.0
M108 R3.569
G1 X-29.57 Y-9.69 Z1.1 F1800.0
G1 X-31.52 Y-7.76 Z1.1 F1800.0
G1 X-31.52 Y-7.51 Z1.1 F1800.0
G1 X-29.57 Y-5.58 Z1.1 F1800.0
G1 X-29.57 Y-5.33 Z1.1 F1800.0
G1 X-31.52 Y-3.4 Z1.1 F1800.0
G1 X-31.52 Y-3.15 Z1.1 F1800.0
G1 X-29.45 Y-1.22 Z1.1 F1800.0
G1 X-29.45 Y-0.96 Z1.1 F1800.0
G1 X-29.67 Y-0.6 Z1.1 F1800.0
G1 X-26.18 Y-0.6 Z1.1 F1800.0
G1 X-27.39 Y-3.15 Z1.1 F1800.0
G1 X-27.39 Y-3.4 Z1.1 F1800.0
G1 X-29.34 Y-5.33 Z1.1 F1800.0
G1 X-29.34 Y-5.58 Z1.1 F1800.0
G1 X-27.39 Y-7.51 Z1.1 F1800.0
G1 X-27.39 Y-7.76 Z1.1 F1800.0
G1 X-29.34 Y-9.69 Z1.1 F1800.0
G1 X-29.34 Y-9.95 Z1.1 F1800.0
G1 X-29.23 Y-10.3 Z1.1 F1800.0
G1 X-28.8 Y-10.74 Z1.1 F1800.0
G1 X-28.36 Y-10.3 Z1.1 F1800.0
G1 X-27.93 Y-10.3 Z1.1 F1800.0
G1 X-27.81 Y-10.42 Z1.1 F1800.0
M108 R30.0
M102
G1 X-27.49 Y-10.74 Z1.1 F1800.0
M108 R3.569
M103
G1 X-33.23 Y-10.74 Z1.1 F3000.0
M108 R30.0
M101
G1 X-34.03 Y-10.74 Z1.1 F3000.0
M108 R3.569
G1 X-33.93 Y-9.69 Z1.1 F1800.0
G1 X-35.88 Y-7.76 Z1.1 F1800.0
G1 X-35.88 Y-7.51 Z1.1 F1800.0
G1 X-33.93 Y-5.58 Z1.1 F1800.0
G1 X-33.93 Y-5.33 Z1.1 F1800.0
G1 X-35.88 Y-3.4 Z1.1 F1800.0
G1 X-35.88 Y-3.15 Z1.1 F1800.0
G1 X-33.82 Y-1.22 Z1.1 F1800.0
G1 X-33.82 Y-0.96 Z1.1 F1800.0
G1 X-34.47 Y-0.6 Z1.1 F1800.0
G1 X-30.11 Y-0.6 Z1.1 F1800.0
G1 X-31.75 Y-3.15 Z1.1 F1800.0
G1 X-31.75 Y-3.4 Z1.1 F1800.0
G1 X-33.7 Y-5.33 Z1.1 F1800.0
G1 X-33.7 Y-5.58 Z1.1 F1800.0
G1 X-31.75 Y-7.51 Z1.1 F1800.0
G1 X-31.75 Y-7.76 Z1.1 F1800.0
G1 X-33.7 Y-9.69 Z1.1 F1800.0
G1 X-33.7 Y-9.95 Z1.1 F1800.0
G1 X-33.6 Y-10.3 Z1.1 F1800.0
G1 X-33.16 Y-10.74 Z1.1 F1800.0
G1 X-32.8 Y-10.49 Z1.1 F1800.0
G1 X-32.73 Y-10.74 Z1.1 F1800.0
G1 X-32.31 Y-10.61 Z1.1 F1800.0
G1 X-32.28 Y-10.62 Z1.1 F1800.0
M108 R30.0
M102
G1 X-31.85 Y-10.74 Z1.1 F1800.0
M108 R3.569
M103
G1 X-37.6 Y-10.74 Z1.1 F3000.0
M108 R30.0
M101
