(** This GCode was generated by ReplicatorG 0034 **)
(*  using Skeinforge (35)  *)
(*  for a Single headed Thing-O-Matic  *)
(*  on 2012/04/21 15:33:40 (-0400) *)
(<alteration>)
(**** beginning of start.gcode ****)
(This file is for a MakerBot Thing-O-Matic)
(**** begin initialization commands ****)
G21 (set units to mm)
G90 (set positioning to absolute)
M108 R5.0 (set extruder speed)
M103 (Make sure extruder is off)
M104 S225 T0 (set extruder temperature)
M109 S120 T0 (set heated-build-platform temperature)
(**** end initialization commands ****)
(**** begin homing ****)
G162 Z F1000 (home Z axis maximum)
G92 Z10 (set Z to 0)
G1 Z0.0 (move z down 10)
G162 Z F150 (home Z axis maximum)
G161 X Y F2500 (home XY axes minimum)
M132 X Y Z A B (Recall stored home offsets for XYZAB axis)
(**** end homing ****)
(**** begin pre-wipe commands ****)
( Some people have had problems with the nozzle hitting )
( bolts or wipers during this pre-extrusion warmup.     )
( If this happens to you, you can change the values for )
( the X and Y positions in the following code.          )
( The goal is to have the toolhead wipe its initial     )
( extrusion near the edge of the platform, [anchor it]  )
( so as not to have it interfere with the print.        )
( This file can be found in:                            )
( replicatorg/skein_engines/skeinforge-##/skeinforge_application/ )
( prefs/<profile name [e.g. Thingomatic-ABP-Mk7]>/alterations )
G1 X25.0 Y-60.0 Z10.0 F3300.0 (move to waiting position)
M6 T0 (wait for toolhead parts, nozzle, HBP, etc., to reach temperature)
G0 X25 Y-57 (Position Nozzle)
G0 Z0.6     (Position Height)
M108 R4.0   (Set Extruder Speed)
M101        (Start Extruder)
G4 P1500    (Create Anchor)
(**** end pre-wipe commands ****)
(**** end of start.gcode ****)
(</alteration>)
(<creation> skeinforge </creation>)
(<version> 10.11.05 </version>)
(<extruderInitialization>)
(<craftTypeName> extrusion </craftTypeName>)
M105
(<bridgeWidthMultiplier> 1.0 </bridgeWidthMultiplier>)
(<decimalPlacesCarried> 3 </decimalPlacesCarried>)
(<layerThickness> 0.32 </layerThickness>)
(<threadSequenceString> loops perimeter infill </threadSequenceString>)
(<operatingFeedRatePerSecond> 30.0 </operatingFeedRatePerSecond>)
(<operatingFlowRate> 3.56914845556 </operatingFlowRate>)
(<orbitalFeedRatePerSecond> 15.0 </orbitalFeedRatePerSecond>)
(<travelFeedRatePerSecond> 50.0 </travelFeedRatePerSecond>)
(<perimeterWidth> 0.393 </perimeterWidth>)
(<profileName> ABS </profileName>)
(<procedureDone> carve,bottom </procedureDone>)
(<procedureDone> preface </procedureDone>)
(<procedureDone> inset </procedureDone>)
(<procedureDone> fill </procedureDone>)
(<procedureDone> speed </procedureDone>)
(<procedureDone> raft </procedureDone>)
(<procedureDone> jitter </procedureDone>)
(<procedureDone> comb </procedureDone>)
(<procedureDone> cool </procedureDone>)
(<procedureDone> outline </procedureDone>)
(<procedureDone> reversal </procedureDone>)
(<procedureDone> export </procedureDone>)
(</extruderInitialization>)
(<extrusion>)
;M113 S1.0
M108 R3.569
(<layer> 0.46 )
(<surroundingLoop>)
(<boundaryPerimeter>)
(<boundaryPoint> X21.267 Y8.616 Z0.46 </boundaryPoint>)
(<boundaryPoint> X10.061 Y8.616 Z0.46 </boundaryPoint>)
(<boundaryPoint> X10.061 Y-17.532 Z0.46 </boundaryPoint>)
(<boundaryPoint> X-17.532 Y-17.532 Z0.46 </boundaryPoint>)
(<boundaryPoint> X-17.532 Y10.061 Z0.46 </boundaryPoint>)
(<boundaryPoint> X8.616 Y10.061 Z0.46 </boundaryPoint>)
(<boundaryPoint> X8.616 Y21.267 Z0.46 </boundaryPoint>)
(<boundaryPoint> X-21.267 Y21.267 Z0.46 </boundaryPoint>)
(<boundaryPoint> X-21.267 Y-21.267 Z0.46 </boundaryPoint>)
(<boundaryPoint> X21.267 Y-21.267 Z0.46 </boundaryPoint>)
(<loop> outer )
M108 R2.141
G1 X23.07 Y-23.07 Z0.46 F1080.0
M101
G1 X-23.07 Y-23.07 Z0.46 F1080.0
G1 X-23.07 Y23.07 Z0.46 F1080.0
G1 X23.07 Y23.07 Z0.46 F1080.0
G1 X23.07 Y-22.8 Z0.46 F1080.0
M108 R30.0
M102
G1 X23.07 Y-23.07 Z0.46 F1080.0
M108 R2.141
M103
G1 X11.03 Y-0.8 Z0.46 F3000.0
M108 R30.0
M101
G1 X10.65 Y-0.09 Z0.46 F3000.0
M108 R2.141
G1 X10.65 Y-18.12 Z0.46 F1080.0
G1 X-18.12 Y-18.12 Z0.46 F1080.0
G1 X-18.12 Y10.65 Z0.46 F1080.0
G1 X8.03 Y10.65 Z0.46 F1080.0
G1 X8.03 Y20.68 Z0.46 F1080.0
G1 X-20.68 Y20.68 Z0.46 F1080.0
G1 X-20.68 Y-20.68 Z0.46 F1080.0
G1 X20.68 Y-20.68 Z0.46 F1080.0
G1 X20.68 Y8.03 Z0.46 F1080.0
G1 X10.65 Y8.03 Z0.46 F1080.0
G1 X10.65 Y0.0 Z0.46 F1080.0
G1 X10.65 Y-0.09 Z0.46 F1080.0
M103
(</loop>)
(<perimeter> outer )
G1 X10.26 Y0.0 Z0.46 F3000.0
M101
G1 X10.26 Y-17.73 Z0.46 F1080.0
G1 X-17.73 Y-17.73 Z0.46 F1080.0
G1 X-17.73 Y10.26 Z0.46 F1080.0
G1 X8.42 Y10.26 Z0.46 F1080.0
G1 X8.42 Y21.07 Z0.46 F1080.0
G1 X-21.07 Y21.07 Z0.46 F1080.0
G1 X-21.07 Y-21.07 Z0.46 F1080.0
G1 X21.07 Y-21.07 Z0.46 F1080.0
G1 X21.07 Y8.42 Z0.46 F1080.0
G1 X10.26 Y8.42 Z0.46 F1080.0
G1 X10.26 Y0.27 Z0.46 F1080.0
M108 R30.0
M102
G1 X10.26 Y0.0 Z0.46 F1080.0
M108 R2.141
M103
(</perimeter>)
(</boundaryPerimeter>)
G1 X10.98 Y-19.94 Z0.46 F1800.0
M108 R30.0
M101
G1 X11.0 Y-20.42 Z0.46 F1800.0
M108 R2.141
G1 X11.0 Y7.77 Z0.46 F1080.0
M103
G1 X11.39 Y7.77 Z0.46 F1800.0
M101
G1 X11.39 Y-20.42 Z0.46 F1080.0
M103
G1 X11.78 Y-20.42 Z0.46 F1800.0
M101
G1 X11.78 Y7.77 Z0.46 F1080.0
M103
G1 X12.17 Y7.77 Z0.46 F1800.0
M101
G1 X12.17 Y-20.42 Z0.46 F1080.0
M103
G1 X12.57 Y-20.42 Z0.46 F1800.0
M101
G1 X12.57 Y7.77 Z0.46 F1080.0
M103
G1 X12.96 Y7.77 Z0.46 F1800.0
M101
G1 X12.96 Y-20.42 Z0.46 F1080.0
M103
G1 X13.35 Y-20.42 Z0.46 F1800.0
M101
G1 X13.35 Y7.77 Z0.46 F1080.0
M103
G1 X13.74 Y7.77 Z0.46 F1800.0
M101
G1 X13.74 Y-20.42 Z0.46 F1080.0
M103
G1 X14.14 Y-20.42 Z0.46 F1800.0
M101
G1 X14.14 Y7.77 Z0.46 F1080.0
M103
G1 X14.53 Y7.77 Z0.46 F1800.0
M101
G1 X14.53 Y-20.42 Z0.46 F1080.0
M103
G1 X14.92 Y-20.42 Z0.46 F1800.0
M101
G1 X14.92 Y7.77 Z0.46 F1080.0
M103
G1 X15.32 Y7.77 Z0.46 F1800.0
M101
G1 X15.32 Y-20.42 Z0.46 F1080.0
M103
G1 X15.71 Y-20.42 Z0.46 F1800.0
M101
G1 X15.71 Y7.77 Z0.46 F1080.0
M103
G1 X16.1 Y7.77 Z0.46 F1800.0
M101
G1 X16.1 Y-20.42 Z0.46 F1080.0
M103
G1 X16.49 Y-20.42 Z0.46 F1800.0
M101
G1 X16.49 Y7.77 Z0.46 F1080.0
M103
G1 X16.89 Y7.77 Z0.46 F1800.0
M101
G1 X16.89 Y-20.42 Z0.46 F1080.0
M103
G1 X17.28 Y-20.42 Z0.46 F1800.0
M101
G1 X17.28 Y7.77 Z0.46 F1080.0
M103
G1 X17.67 Y7.77 Z0.46 F1800.0
M101
G1 X17.67 Y-20.42 Z0.46 F1080.0
M103
G1 X18.06 Y-20.42 Z0.46 F1800.0
M101
G1 X18.06 Y7.77 Z0.46 F1080.0
M103
G1 X18.46 Y7.77 Z0.46 F1800.0
M101
G1 X18.46 Y-20.42 Z0.46 F1080.0
M103
G1 X18.85 Y-20.42 Z0.46 F1800.0
M101
G1 X18.85 Y7.77 Z0.46 F1080.0
M103
G1 X19.24 Y7.77 Z0.46 F1800.0
M101
G1 X19.24 Y-20.42 Z0.46 F1080.0
M103
G1 X19.64 Y-20.42 Z0.46 F1800.0
M101
G1 X19.64 Y7.77 Z0.46 F1080.0
M103
G1 X20.03 Y7.77 Z0.46 F1800.0
M101
G1 X20.03 Y-20.42 Z0.46 F1080.0
M103
G1 X20.42 Y-20.42 Z0.46 F1800.0
M101
G1 X20.42 Y7.5 Z0.46 F1080.0
M108 R30.0
M102
G1 X20.42 Y7.77 Z0.46 F1080.0
M108 R2.141
M103
G1 X16.93 Y8.34 Z0.46 F3000.0
G1 X10.2 Y8.48 Z0.46 F3000.0
G1 X10.2 Y-17.67 Z0.46 F3000.0
G1 X-17.67 Y-17.67 Z0.46 F3000.0
G1 X-17.67 Y10.2 Z0.46 F3000.0
G1 X8.48 Y10.2 Z0.46 F3000.0
G1 X8.34 Y10.63 Z0.46 F3000.0
G1 X7.92 Y10.76 Z0.46 F1800.0
M108 R30.0
M101
G1 X7.46 Y10.91 Z0.46 F1800.0
M108 R2.141
G1 X7.46 Y20.42 Z0.46 F1080.0
M103
G1 X7.07 Y20.42 Z0.46 F1800.0
M101
G1 X7.07 Y10.91 Z0.46 F1080.0
G1 X6.68 Y10.91 Z0.46 F1080.0
G1 X6.68 Y20.42 Z0.46 F1080.0
M103
G1 X6.28 Y20.42 Z0.46 F1800.0
M101
G1 X6.28 Y10.91 Z0.46 F1080.0
G1 X5.89 Y10.91 Z0.46 F1080.0
G1 X5.89 Y20.42 Z0.46 F1080.0
M103
G1 X5.5 Y20.42 Z0.46 F1800.0
M101
G1 X5.5 Y10.91 Z0.46 F1080.0
G1 X5.11 Y10.91 Z0.46 F1080.0
G1 X5.11 Y20.42 Z0.46 F1080.0
M103
G1 X4.71 Y20.42 Z0.46 F1800.0
M101
G1 X4.71 Y10.91 Z0.46 F1080.0
G1 X4.32 Y10.91 Z0.46 F1080.0
G1 X4.32 Y20.42 Z0.46 F1080.0
M103
G1 X3.93 Y20.42 Z0.46 F1800.0
M101
G1 X3.93 Y10.91 Z0.46 F1080.0
G1 X3.53 Y10.91 Z0.46 F1080.0
G1 X3.53 Y20.42 Z0.46 F1080.0
M103
G1 X3.14 Y20.42 Z0.46 F1800.0
M101
G1 X3.14 Y10.91 Z0.46 F1080.0
G1 X2.75 Y10.91 Z0.46 F1080.0
G1 X2.75 Y20.42 Z0.46 F1080.0
M103
G1 X2.36 Y20.42 Z0.46 F1800.0
M101
G1 X2.36 Y10.91 Z0.46 F1080.0
G1 X1.96 Y10.91 Z0.46 F1080.0
G1 X1.96 Y20.42 Z0.46 F1080.0
M103
G1 X1.57 Y20.42 Z0.46 F1800.0
M101
G1 X1.57 Y10.91 Z0.46 F1080.0
G1 X1.18 Y10.91 Z0.46 F1080.0
G1 X1.18 Y20.42 Z0.46 F1080.0
M103
G1 X0.79 Y20.42 Z0.46 F1800.0
M101
G1 X0.79 Y10.91 Z0.46 F1080.0
G1 X0.39 Y10.91 Z0.46 F1080.0
G1 X0.39 Y20.42 Z0.46 F1080.0
M103
G1 X0.0 Y20.42 Z0.46 F1800.0
M101
G1 X0.0 Y10.91 Z0.46 F1080.0
G1 X-0.39 Y10.91 Z0.46 F1080.0
G1 X-0.39 Y20.42 Z0.46 F1080.0
M103
G1 X-0.79 Y20.42 Z0.46 F1800.0
M101
G1 X-0.79 Y10.91 Z0.46 F1080.0
G1 X-1.18 Y10.91 Z0.46 F1080.0
G1 X-1.18 Y20.42 Z0.46 F1080.0
M103
G1 X-1.57 Y20.42 Z0.46 F1800.0
M101
G1 X-1.57 Y10.91 Z0.46 F1080.0
G1 X-1.96 Y10.91 Z0.46 F1080.0
G1 X-1.96 Y20.42 Z0.46 F1080.0
M103
G1 X-2.36 Y20.42 Z0.46 F1800.0
M101
G1 X-2.36 Y10.91 Z0.46 F1080.0
G1 X-2.75 Y10.91 Z0.46 F1080.0
G1 X-2.75 Y20.42 Z0.46 F1080.0
M103
G1 X-3.14 Y20.42 Z0.46 F1800.0
M101
G1 X-3.14 Y10.91 Z0.46 F1080.0
G1 X-3.53 Y10.91 Z0.46 F1080.0
G1 X-3.53 Y20.42 Z0.46 F1080.0
M103
G1 X-3.93 Y20.42 Z0.46 F1800.0
M101
G1 X-3.93 Y10.91 Z0.46 F1080.0
G1 X-4.32 Y10.91 Z0.46 F1080.0
G1 X-4.32 Y20.42 Z0.46 F1080.0
M103
G1 X-4.71 Y20.42 Z0.46 F1800.0
M101
G1 X-4.71 Y10.91 Z0.46 F1080.0
G1 X-5.11 Y10.91 Z0.46 F1080.0
G1 X-5.11 Y20.42 Z0.46 F1080.0
M103
G1 X-5.5 Y20.42 Z0.46 F1800.0
M101
G1 X-5.5 Y10.91 Z0.46 F1080.0
G1 X-5.89 Y10.91 Z0.46 F1080.0
G1 X-5.89 Y20.42 Z0.46 F1080.0
M103
G1 X-6.28 Y20.42 Z0.46 F1800.0
M101
G1 X-6.28 Y10.91 Z0.46 F1080.0
G1 X-6.68 Y10.91 Z0.46 F1080.0
G1 X-6.68 Y20.42 Z0.46 F1080.0
M103
G1 X-7.07 Y20.42 Z0.46 F1800.0
M101
G1 X-7.07 Y10.91 Z0.46 F1080.0
G1 X-7.46 Y10.91 Z0.46 F1080.0
G1 X-7.46 Y20.42 Z0.46 F1080.0
M103
G1 X-7.85 Y20.42 Z0.46 F1800.0
M101
G1 X-7.85 Y10.91 Z0.46 F1080.0
G1 X-8.25 Y10.91 Z0.46 F1080.0
G1 X-8.25 Y20.42 Z0.46 F1080.0
M103
G1 X-8.64 Y20.42 Z0.46 F1800.0
M101
G1 X-8.64 Y10.91 Z0.46 F1080.0
G1 X-9.03 Y10.91 Z0.46 F1080.0
G1 X-9.03 Y20.42 Z0.46 F1080.0
M103
G1 X-9.43 Y20.42 Z0.46 F1800.0
M101
G1 X-9.43 Y10.91 Z0.46 F1080.0
G1 X-9.82 Y10.91 Z0.46 F1080.0
G1 X-9.82 Y20.42 Z0.46 F1080.0
M103
G1 X-10.21 Y20.42 Z0.46 F1800.0
M101
G1 X-10.21 Y10.91 Z0.46 F1080.0
G1 X-10.6 Y10.91 Z0.46 F1080.0
G1 X-10.6 Y20.42 Z0.46 F1080.0
M103
G1 X-11.0 Y20.42 Z0.46 F1800.0
M101
G1 X-11.0 Y10.91 Z0.46 F1080.0
G1 X-11.39 Y10.91 Z0.46 F1080.0
G1 X-11.39 Y20.42 Z0.46 F1080.0
M103
G1 X-11.78 Y20.42 Z0.46 F1800.0
M101
G1 X-11.78 Y10.91 Z0.46 F1080.0
G1 X-12.17 Y10.91 Z0.46 F1080.0
G1 X-12.17 Y20.42 Z0.46 F1080.0
M103
G1 X-12.57 Y20.42 Z0.46 F1800.0
M101
G1 X-12.57 Y10.91 Z0.46 F1080.0
G1 X-12.96 Y10.91 Z0.46 F1080.0
G1 X-12.96 Y20.42 Z0.46 F1080.0
M103
G1 X-13.35 Y20.42 Z0.46 F1800.0
M101
G1 X-13.35 Y10.91 Z0.46 F1080.0
G1 X-13.74 Y10.91 Z0.46 F1080.0
G1 X-13.74 Y20.42 Z0.46 F1080.0
M103
G1 X-14.14 Y20.42 Z0.46 F1800.0
M101
G1 X-14.14 Y10.91 Z0.46 F1080.0
G1 X-14.53 Y10.91 Z0.46 F1080.0
G1 X-14.53 Y20.42 Z0.46 F1080.0
M103
G1 X-14.92 Y20.42 Z0.46 F1800.0
M101
G1 X-14.92 Y10.91 Z0.46 F1080.0
G1 X-15.32 Y10.91 Z0.46 F1080.0
G1 X-15.32 Y20.42 Z0.46 F1080.0
M103
G1 X-15.71 Y20.42 Z0.46 F1800.0
M101
G1 X-15.71 Y10.91 Z0.46 F1080.0
G1 X-16.1 Y10.91 Z0.46 F1080.0
G1 X-16.1 Y20.42 Z0.46 F1080.0
M103
G1 X-16.49 Y20.42 Z0.46 F1800.0
M101
G1 X-16.49 Y10.91 Z0.46 F1080.0
G1 X-16.89 Y10.91 Z0.46 F1080.0
G1 X-16.89 Y20.42 Z0.46 F1080.0
M103
G1 X-17.28 Y20.42 Z0.46 F1800.0
M101
G1 X-17.28 Y10.91 Z0.46 F1080.0
G1 X-17.67 Y10.91 Z0.46 F1080.0
G1 X-17.67 Y20.42 Z0.46 F1080.0
M103
G1 X-18.06 Y20.42 Z0.46 F1800.0
M101
G1 X-18.06 Y11.18 Z0.46 F1080.0
M108 R30.0
M102
G1 X-18.06 Y10.91 Z0.46 F1080.0
M108 R2.141
M103
G1 X-18.44 Y19.94 Z0.46 F1800.0
M108 R30.0
M101
G1 X-18.46 Y20.42 Z0.46 F1800.0
M108 R2.141
G1 X-18.46 Y-20.42 Z0.46 F1080.0
M103
G1 X-18.85 Y-20.42 Z0.46 F1800.0
M101
G1 X-18.85 Y20.42 Z0.46 F1080.0
M103
G1 X-19.24 Y20.42 Z0.46 F1800.0
M101
G1 X-19.24 Y-20.42 Z0.46 F1080.0
M103
G1 X-19.64 Y-20.42 Z0.46 F1800.0
M101
G1 X-19.64 Y20.42 Z0.46 F1080.0
M103
G1 X-20.03 Y20.42 Z0.46 F1800.0
M101
G1 X-20.03 Y-20.42 Z0.46 F1080.0
M103
G1 X-20.42 Y-20.42 Z0.46 F1800.0
M101
G1 X-20.42 Y20.15 Z0.46 F1080.0
M108 R30.0
M102
G1 X-20.42 Y20.42 Z0.46 F1080.0
M108 R2.141
M103
G1 X-18.09 Y-17.9 Z0.46 F1800.0
M108 R30.0
M101
G1 X-18.06 Y-18.38 Z0.46 F1800.0
M108 R2.141
G1 X-18.06 Y-20.42 Z0.46 F1080.0
M103
G1 X-17.67 Y-20.42 Z0.46 F1800.0
M101
G1 X-17.67 Y-18.38 Z0.46 F1080.0
G1 X-17.28 Y-18.38 Z0.46 F1080.0
G1 X-17.28 Y-20.42 Z0.46 F1080.0
M103
G1 X-16.89 Y-20.42 Z0.46 F1800.0
M101
G1 X-16.89 Y-18.38 Z0.46 F1080.0
G1 X-16.49 Y-18.38 Z0.46 F1080.0
G1 X-16.49 Y-20.42 Z0.46 F1080.0
M103
G1 X-16.1 Y-20.42 Z0.46 F1800.0
M101
G1 X-16.1 Y-18.38 Z0.46 F1080.0
G1 X-15.71 Y-18.38 Z0.46 F1080.0
G1 X-15.71 Y-20.42 Z0.46 F1080.0
M103
G1 X-15.32 Y-20.42 Z0.46 F1800.0
M101
G1 X-15.32 Y-18.38 Z0.46 F1080.0
G1 X-14.92 Y-18.38 Z0.46 F1080.0
G1 X-14.92 Y-20.42 Z0.46 F1080.0
M103
G1 X-14.53 Y-20.42 Z0.46 F1800.0
M101
G1 X-14.53 Y-18.38 Z0.46 F1080.0
G1 X-14.14 Y-18.38 Z0.46 F1080.0
G1 X-14.14 Y-20.42 Z0.46 F1080.0
M103
G1 X-13.74 Y-20.42 Z0.46 F1800.0
M101
G1 X-13.74 Y-18.38 Z0.46 F1080.0
G1 X-13.35 Y-18.38 Z0.46 F1080.0
G1 X-13.35 Y-20.42 Z0.46 F1080.0
M103
G1 X-12.96 Y-20.42 Z0.46 F1800.0
M101
G1 X-12.96 Y-18.38 Z0.46 F1080.0
G1 X-12.57 Y-18.38 Z0.46 F1080.0
G1 X-12.57 Y-20.42 Z0.46 F1080.0
M103
G1 X-12.17 Y-20.42 Z0.46 F1800.0
M101
G1 X-12.17 Y-18.38 Z0.46 F1080.0
G1 X-11.78 Y-18.38 Z0.46 F1080.0
G1 X-11.78 Y-20.42 Z0.46 F1080.0
M103
G1 X-11.39 Y-20.42 Z0.46 F1800.0
M101
G1 X-11.39 Y-18.38 Z0.46 F1080.0
G1 X-11.0 Y-18.38 Z0.46 F1080.0
G1 X-11.0 Y-20.42 Z0.46 F1080.0
M103
G1 X-10.6 Y-20.42 Z0.46 F1800.0
M101
G1 X-10.6 Y-18.38 Z0.46 F1080.0
G1 X-10.21 Y-18.38 Z0.46 F1080.0
G1 X-10.21 Y-20.42 Z0.46 F1080.0
M103
G1 X-9.82 Y-20.42 Z0.46 F1800.0
M101
G1 X-9.82 Y-18.38 Z0.46 F1080.0
G1 X-9.43 Y-18.38 Z0.46 F1080.0
G1 X-9.43 Y-20.42 Z0.46 F1080.0
M103
G1 X-9.03 Y-20.42 Z0.46 F1800.0
M101
G1 X-9.03 Y-18.38 Z0.46 F1080.0
G1 X-8.64 Y-18.38 Z0.46 F1080.0
G1 X-8.64 Y-20.42 Z0.46 F1080.0
M103
G1 X-8.25 Y-20.42 Z0.46 F1800.0
M101
G1 X-8.25 Y-18.38 Z0.46 F1080.0
G1 X-7.85 Y-18.38 Z0.46 F1080.0
G1 X-7.85 Y-20.42 Z0.46 F1080.0
M103
G1 X-7.46 Y-20.42 Z0.46 F1800.0
M101
G1 X-7.46 Y-18.38 Z0.46 F1080.0
G1 X-7.07 Y-18.38 Z0.46 F1080.0
G1 X-7.07 Y-20.42 Z0.46 F1080.0
M103
G1 X-6.68 Y-20.42 Z0.46 F1800.0
M101
G1 X-6.68 Y-18.38 Z0.46 F1080.0
G1 X-6.28 Y-18.38 Z0.46 F1080.0
G1 X-6.28 Y-20.42 Z0.46 F1080.0
M103
G1 X-5.89 Y-20.42 Z0.46 F1800.0
M101
G1 X-5.89 Y-18.38 Z0.46 F1080.0
G1 X-5.5 Y-18.38 Z0.46 F1080.0
G1 X-5.5 Y-20.42 Z0.46 F1080.0
M103
G1 X-5.11 Y-20.42 Z0.46 F1800.0
M101
G1 X-5.11 Y-18.38 Z0.46 F1080.0
G1 X-4.71 Y-18.38 Z0.46 F1080.0
G1 X-4.71 Y-20.42 Z0.46 F1080.0
M103
G1 X-4.32 Y-20.42 Z0.46 F1800.0
M101
G1 X-4.32 Y-18.38 Z0.46 F1080.0
G1 X-3.93 Y-18.38 Z0.46 F1080.0
G1 X-3.93 Y-20.42 Z0.46 F1080.0
M103
G1 X-3.53 Y-20.42 Z0.46 F1800.0
M101
G1 X-3.53 Y-18.38 Z0.46 F1080.0
G1 X-3.14 Y-18.38 Z0.46 F1080.0
G1 X-3.14 Y-20.42 Z0.46 F1080.0
M103
G1 X-2.75 Y-20.42 Z0.46 F1800.0
M101
G1 X-2.75 Y-18.38 Z0.46 F1080.0
G1 X-2.36 Y-18.38 Z0.46 F1080.0
G1 X-2.36 Y-20.42 Z0.46 F1080.0
M103
G1 X-1.96 Y-20.42 Z0.46 F1800.0
M101
G1 X-1.96 Y-18.38 Z0.46 F1080.0
G1 X-1.57 Y-18.38 Z0.46 F1080.0
G1 X-1.57 Y-20.42 Z0.46 F1080.0
M103
G1 X-1.18 Y-20.42 Z0.46 F1800.0
M101
G1 X-1.18 Y-18.38 Z0.46 F1080.0
G1 X-0.79 Y-18.38 Z0.46 F1080.0
G1 X-0.79 Y-20.42 Z0.46 F1080.0
M103
G1 X-0.39 Y-20.42 Z0.46 F1800.0
M101
G1 X-0.39 Y-18.38 Z0.46 F1080.0
G1 X-0.0 Y-18.38 Z0.46 F1080.0
G1 X-0.0 Y-20.42 Z0.46 F1080.0
M103
G1 X0.39 Y-20.42 Z0.46 F1800.0
M101
G1 X0.39 Y-18.38 Z0.46 F1080.0
G1 X0.79 Y-18.38 Z0.46 F1080.0
G1 X0.79 Y-20.42 Z0.46 F1080.0
M103
G1 X1.18 Y-20.42 Z0.46 F1800.0
M101
G1 X1.18 Y-18.38 Z0.46 F1080.0
G1 X1.57 Y-18.38 Z0.46 F1080.0
G1 X1.57 Y-20.42 Z0.46 F1080.0
M103
G1 X1.96 Y-20.42 Z0.46 F1800.0
M101
G1 X1.96 Y-18.38 Z0.46 F1080.0
G1 X2.36 Y-18.38 Z0.46 F1080.0
G1 X2.36 Y-20.42 Z0.46 F1080.0
M103
G1 X2.75 Y-20.42 Z0.46 F1800.0
M101
G1 X2.75 Y-18.38 Z0.46 F1080.0
G1 X3.14 Y-18.38 Z0.46 F1080.0
G1 X3.14 Y-20.42 Z0.46 F1080.0
M103
G1 X3.53 Y-20.42 Z0.46 F1800.0
M101
G1 X3.53 Y-18.38 Z0.46 F1080.0
G1 X3.93 Y-18.38 Z0.46 F1080.0
G1 X3.93 Y-20.42 Z0.46 F1080.0
M103
G1 X4.32 Y-20.42 Z0.46 F1800.0
M101
G1 X4.32 Y-18.38 Z0.46 F1080.0
G1 X4.71 Y-18.38 Z0.46 F1080.0
G1 X4.71 Y-20.42 Z0.46 F1080.0
M103
G1 X5.11 Y-20.42 Z0.46 F1800.0
M101
G1 X5.11 Y-18.38 Z0.46 F1080.0
G1 X5.5 Y-18.38 Z0.46 F1080.0
G1 X5.5 Y-20.42 Z0.46 F1080.0
M103
G1 X5.89 Y-20.42 Z0.46 F1800.0
M101
G1 X5.89 Y-18.38 Z0.46 F1080.0
G1 X6.28 Y-18.38 Z0.46 F1080.0
G1 X6.28 Y-20.42 Z0.46 F1080.0
M103
G1 X6.68 Y-20.42 Z0.46 F1800.0
M101
G1 X6.68 Y-18.38 Z0.46 F1080.0
G1 X7.07 Y-18.38 Z0.46 F1080.0
G1 X7.07 Y-20.42 Z0.46 F1080.0
M103
G1 X7.46 Y-20.42 Z0.46 F1800.0
M101
G1 X7.46 Y-18.38 Z0.46 F1080.0
G1 X7.85 Y-18.38 Z0.46 F1080.0
G1 X7.85 Y-20.42 Z0.46 F1080.0
M103
G1 X8.25 Y-20.42 Z0.46 F1800.0
M101
G1 X8.25 Y-18.38 Z0.46 F1080.0
G1 X8.64 Y-18.38 Z0.46 F1080.0
G1 X8.64 Y-20.42 Z0.46 F1080.0
M103
G1 X9.03 Y-20.42 Z0.46 F1800.0
M101
G1 X9.03 Y-18.38 Z0.46 F1080.0
G1 X9.43 Y-18.38 Z0.46 F1080.0
G1 X9.43 Y-20.42 Z0.46 F1080.0
M103
G1 X9.82 Y-20.42 Z0.46 F1800.0
M101
G1 X9.82 Y-18.38 Z0.46 F1080.0
G1 X10.21 Y-18.38 Z0.46 F1080.0
G1 X10.21 Y-20.42 Z0.46 F1080.0
M103
G1 X10.6 Y-20.42 Z0.46 F1800.0
M101
G1 X10.6 Y-18.38 Z0.46 F1080.0
M103
(</surroundingLoop>)
(</layer>)
(<layer> 0.78 )
(<surroundingLoop>)
(<boundaryPerimeter>)
(<boundaryPoint> X21.267 Y8.616 Z0.78 </boundaryPoint>)
(<boundaryPoint> X10.061 Y8.616 Z0.78 </boundaryPoint>)
(<boundaryPoint> X10.061 Y-17.532 Z0.78 </boundaryPoint>)
(<boundaryPoint> X-17.532 Y-17.532 Z0.78 </boundaryPoint>)
(<boundaryPoint> X-17.532 Y10.061 Z0.78 </boundaryPoint>)
(<boundaryPoint> X8.616 Y10.061 Z0.78 </boundaryPoint>)
(<boundaryPoint> X8.616 Y21.267 Z0.78 </boundaryPoint>)
(<boundaryPoint> X-21.267 Y21.267 Z0.78 </boundaryPoint>)
(<boundaryPoint> X-21.267 Y-21.267 Z0.78 </boundaryPoint>)
(<boundaryPoint> X21.267 Y-21.267 Z0.78 </boundaryPoint>)
(<loop> outer )
M108 R3.569
G1 X10.65 Y-17.91 Z0.78 F3000.0
M101
G1 X10.65 Y-18.12 Z0.78 F1800.0
G1 X-18.12 Y-18.12 Z0.78 F1800.0
G1 X-18.12 Y10.65 Z0.78 F1800.0
G1 X8.03 Y10.65 Z0.78 F1800.0
G1 X8.03 Y20.68 Z0.78 F1800.0
G1 X-20.68 Y20.68 Z0.78 F1800.0
G1 X-20.68 Y-20.68 Z0.78 F1800.0
G1 X20.68 Y-20.68 Z0.78 F1800.0
G1 X20.68 Y8.03 Z0.78 F1800.0
G1 X10.65 Y8.03 Z0.78 F1800.0
G1 X10.65 Y-17.91 Z0.78 F1800.0
M103
(</loop>)
(<perimeter> outer )
G1 X10.26 Y-17.73 Z0.78 F3000.0
M101
G1 X-17.73 Y-17.73 Z0.78 F1800.0
G1 X-17.73 Y10.26 Z0.78 F1800.0
G1 X8.42 Y10.26 Z0.78 F1800.0
G1 X8.42 Y21.07 Z0.78 F1800.0
G1 X-21.07 Y21.07 Z0.78 F1800.0
G1 X-21.07 Y-21.07 Z0.78 F1800.0
G1 X21.07 Y-21.07 Z0.78 F1800.0
G1 X21.07 Y8.42 Z0.78 F1800.0
G1 X10.26 Y8.42 Z0.78 F1800.0
G1 X10.26 Y-17.73 Z0.78 F1800.0
M103
(</perimeter>)
(</boundaryPerimeter>)
G1 X10.91 Y-18.06 Z0.78 F3000.0
M101
G1 X20.42 Y-18.06 Z0.78 F1800.0
M103
G1 X20.42 Y-17.67 Z0.78 F3000.0
M101
G1 X10.91 Y-17.67 Z0.78 F1800.0
G1 X10.91 Y-17.28 Z0.78 F1800.0
G1 X20.42 Y-17.28 Z0.78 F1800.0
M103
G1 X20.42 Y-16.89 Z0.78 F3000.0
M101
G1 X10.91 Y-16.89 Z0.78 F1800.0
G1 X10.91 Y-16.49 Z0.78 F1800.0
G1 X20.42 Y-16.49 Z0.78 F1800.0
M103
G1 X20.42 Y-16.1 Z0.78 F3000.0
M101
G1 X10.91 Y-16.1 Z0.78 F1800.0
G1 X10.91 Y-15.71 Z0.78 F1800.0
G1 X20.42 Y-15.71 Z0.78 F1800.0
M103
G1 X20.42 Y-15.32 Z0.78 F3000.0
M101
G1 X10.91 Y-15.32 Z0.78 F1800.0
G1 X10.91 Y-14.92 Z0.78 F1800.0
G1 X20.42 Y-14.92 Z0.78 F1800.0
M103
G1 X20.42 Y-14.53 Z0.78 F3000.0
M101
G1 X10.91 Y-14.53 Z0.78 F1800.0
G1 X10.91 Y-14.14 Z0.78 F1800.0
G1 X20.42 Y-14.14 Z0.78 F1800.0
M103
G1 X20.42 Y-13.74 Z0.78 F3000.0
M101
G1 X10.91 Y-13.74 Z0.78 F1800.0
G1 X10.91 Y-13.35 Z0.78 F1800.0
G1 X20.42 Y-13.35 Z0.78 F1800.0
M103
G1 X20.42 Y-12.96 Z0.78 F3000.0
M101
G1 X10.91 Y-12.96 Z0.78 F1800.0
G1 X10.91 Y-12.57 Z0.78 F1800.0
G1 X20.42 Y-12.57 Z0.78 F1800.0
M103
G1 X20.42 Y-12.17 Z0.78 F3000.0
M101
G1 X10.91 Y-12.17 Z0.78 F1800.0
G1 X10.91 Y-11.78 Z0.78 F1800.0
G1 X20.42 Y-11.78 Z0.78 F1800.0
M103
G1 X20.42 Y-11.39 Z0.78 F3000.0
M101
G1 X10.91 Y-11.39 Z0.78 F1800.0
G1 X10.91 Y-11.0 Z0.78 F1800.0
G1 X20.42 Y-11.0 Z0.78 F1800.0
M103
G1 X20.42 Y-10.6 Z0.78 F3000.0
M101
G1 X10.91 Y-10.6 Z0.78 F1800.0
G1 X10.91 Y-10.21 Z0.78 F1800.0
G1 X20.42 Y-10.21 Z0.78 F1800.0
M103
G1 X20.42 Y-9.82 Z0.78 F3000.0
M101
G1 X10.91 Y-9.82 Z0.78 F1800.0
G1 X10.91 Y-9.43 Z0.78 F1800.0
G1 X20.42 Y-9.43 Z0.78 F1800.0
M103
G1 X20.42 Y-9.03 Z0.78 F3000.0
M101
G1 X10.91 Y-9.03 Z0.78 F1800.0
G1 X10.91 Y-8.64 Z0.78 F1800.0
G1 X20.42 Y-8.64 Z0.78 F1800.0
M103
G1 X20.42 Y-8.25 Z0.78 F3000.0
M101
G1 X10.91 Y-8.25 Z0.78 F1800.0
G1 X10.91 Y-7.85 Z0.78 F1800.0
G1 X20.42 Y-7.85 Z0.78 F1800.0
M103
G1 X20.42 Y-7.46 Z0.78 F3000.0
M101
G1 X10.91 Y-7.46 Z0.78 F1800.0
G1 X10.91 Y-7.07 Z0.78 F1800.0
G1 X20.42 Y-7.07 Z0.78 F1800.0
M103
G1 X20.42 Y-6.68 Z0.78 F3000.0
M101
G1 X10.91 Y-6.68 Z0.78 F1800.0
G1 X10.91 Y-6.28 Z0.78 F1800.0
G1 X20.42 Y-6.28 Z0.78 F1800.0
M103
G1 X20.42 Y-5.89 Z0.78 F3000.0
M101
G1 X10.91 Y-5.89 Z0.78 F1800.0
G1 X10.91 Y-5.5 Z0.78 F1800.0
G1 X20.42 Y-5.5 Z0.78 F1800.0
M103
G1 X20.42 Y-5.11 Z0.78 F3000.0
M101
G1 X10.91 Y-5.11 Z0.78 F1800.0
G1 X10.91 Y-4.71 Z0.78 F1800.0
G1 X20.42 Y-4.71 Z0.78 F1800.0
M103
G1 X20.42 Y-4.32 Z0.78 F3000.0
M101
G1 X10.91 Y-4.32 Z0.78 F1800.0
G1 X10.91 Y-3.93 Z0.78 F1800.0
G1 X20.42 Y-3.93 Z0.78 F1800.0
M103
G1 X20.42 Y-3.53 Z0.78 F3000.0
M101
G1 X10.91 Y-3.53 Z0.78 F1800.0
G1 X10.91 Y-3.14 Z0.78 F1800.0
G1 X20.42 Y-3.14 Z0.78 F1800.0
M103
G1 X20.42 Y-2.75 Z0.78 F3000.0
M101
G1 X10.91 Y-2.75 Z0.78 F1800.0
G1 X10.91 Y-2.36 Z0.78 F1800.0
G1 X20.42 Y-2.36 Z0.78 F1800.0
M103
G1 X20.42 Y-1.96 Z0.78 F3000.0
M101
G1 X10.91 Y-1.96 Z0.78 F1800.0
G1 X10.91 Y-1.57 Z0.78 F1800.0
G1 X20.42 Y-1.57 Z0.78 F1800.0
M103
G1 X20.42 Y-1.18 Z0.78 F3000.0
M101
G1 X10.91 Y-1.18 Z0.78 F1800.0
G1 X10.91 Y-0.79 Z0.78 F1800.0
G1 X20.42 Y-0.79 Z0.78 F1800.0
M103
G1 X20.42 Y-0.39 Z0.78 F3000.0
M101
G1 X10.91 Y-0.39 Z0.78 F1800.0
G1 X10.91 Y-0.0 Z0.78 F1800.0
G1 X20.42 Y-0.0 Z0.78 F1800.0
M103
G1 X20.42 Y0.39 Z0.78 F3000.0
M101
G1 X10.91 Y0.39 Z0.78 F1800.0
G1 X10.91 Y0.79 Z0.78 F1800.0
G1 X20.42 Y0.79 Z0.78 F1800.0
M103
G1 X20.42 Y1.18 Z0.78 F3000.0
M101
G1 X10.91 Y1.18 Z0.78 F1800.0
G1 X10.91 Y1.57 Z0.78 F1800.0
G1 X20.42 Y1.57 Z0.78 F1800.0
M103
G1 X20.42 Y1.96 Z0.78 F3000.0
M101
G1 X10.91 Y1.96 Z0.78 F1800.0
G1 X10.91 Y2.36 Z0.78 F1800.0
G1 X20.42 Y2.36 Z0.78 F1800.0
M103
G1 X20.42 Y2.75 Z0.78 F3000.0
M101
G1 X10.91 Y2.75 Z0.78 F1800.0
G1 X10.91 Y3.14 Z0.78 F1800.0
G1 X20.42 Y3.14 Z0.78 F1800.0
M103
G1 X20.42 Y3.53 Z0.78 F3000.0
M101
G1 X10.91 Y3.53 Z0.78 F1800.0
G1 X10.91 Y3.93 Z0.78 F1800.0
G1 X20.42 Y3.93 Z0.78 F1800.0
M103
G1 X20.42 Y4.32 Z0.78 F3000.0
M101
G1 X10.91 Y4.32 Z0.78 F1800.0
G1 X10.91 Y4.71 Z0.78 F1800.0
G1 X20.42 Y4.71 Z0.78 F1800.0
M103
G1 X20.42 Y5.11 Z0.78 F3000.0
M101
G1 X10.91 Y5.11 Z0.78 F1800.0
G1 X10.91 Y5.5 Z0.78 F1800.0
G1 X20.42 Y5.5 Z0.78 F1800.0
M103
G1 X20.42 Y5.89 Z0.78 F3000.0
M101
G1 X10.91 Y5.89 Z0.78 F1800.0
G1 X10.91 Y6.28 Z0.78 F1800.0
G1 X20.42 Y6.28 Z0.78 F1800.0
M103
G1 X20.42 Y6.68 Z0.78 F3000.0
M101
G1 X10.91 Y6.68 Z0.78 F1800.0
G1 X10.91 Y7.07 Z0.78 F1800.0
G1 X20.42 Y7.07 Z0.78 F1800.0
M103
G1 X20.42 Y7.46 Z0.78 F3000.0
M101
G1 X11.36 Y7.46 Z0.78 F1800.0
M108 R30.0
M102
G1 X10.91 Y7.46 Z0.78 F1800.0
M108 R3.569
M103
G1 X10.34 Y8.41 Z0.78 F3000.0
G1 X10.2 Y-17.67 Z0.78 F3000.0
G1 X-17.67 Y-17.67 Z0.78 F3000.0
G1 X-17.67 Y10.2 Z0.78 F3000.0
G1 X8.6 Y10.34 Z0.78 F3000.0
G1 X8.4 Y10.5 Z0.78 F3000.0
M108 R30.0
M101
G1 X7.77 Y11.0 Z0.78 F3000.0
M108 R3.569
G1 X-20.42 Y11.0 Z0.78 F1800.0
M103
G1 X-20.42 Y10.6 Z0.78 F3000.0
M101
G1 X-18.38 Y10.6 Z0.78 F1800.0
G1 X-18.38 Y10.21 Z0.78 F1800.0
G1 X-20.42 Y10.21 Z0.78 F1800.0
M103
G1 X-20.42 Y9.82 Z0.78 F3000.0
M101
G1 X-18.38 Y9.82 Z0.78 F1800.0
G1 X-18.38 Y9.43 Z0.78 F1800.0
G1 X-20.42 Y9.43 Z0.78 F1800.0
M103
G1 X-20.42 Y9.03 Z0.78 F3000.0
M101
G1 X-18.38 Y9.03 Z0.78 F1800.0
G1 X-18.38 Y8.64 Z0.78 F1800.0
G1 X-20.42 Y8.64 Z0.78 F1800.0
M103
G1 X-20.42 Y8.25 Z0.78 F3000.0
M101
G1 X-18.38 Y8.25 Z0.78 F1800.0
G1 X-18.38 Y7.85 Z0.78 F1800.0
G1 X-20.42 Y7.85 Z0.78 F1800.0
M103
G1 X-20.42 Y7.46 Z0.78 F3000.0
M101
G1 X-18.38 Y7.46 Z0.78 F1800.0
G1 X-18.38 Y7.07 Z0.78 F1800.0
G1 X-20.42 Y7.07 Z0.78 F1800.0
M103
G1 X-20.42 Y6.68 Z0.78 F3000.0
M101
G1 X-18.38 Y6.68 Z0.78 F1800.0
G1 X-18.38 Y6.28 Z0.78 F1800.0
G1 X-20.42 Y6.28 Z0.78 F1800.0
M103
G1 X-20.42 Y5.89 Z0.78 F3000.0
M101
G1 X-18.38 Y5.89 Z0.78 F1800.0
G1 X-18.38 Y5.5 Z0.78 F1800.0
G1 X-20.42 Y5.5 Z0.78 F1800.0
M103
G1 X-20.42 Y5.11 Z0.78 F3000.0
M101
G1 X-18.38 Y5.11 Z0.78 F1800.0
G1 X-18.38 Y4.71 Z0.78 F1800.0
G1 X-20.42 Y4.71 Z0.78 F1800.0
M103
G1 X-20.42 Y4.32 Z0.78 F3000.0
M101
G1 X-18.38 Y4.32 Z0.78 F1800.0
G1 X-18.38 Y3.93 Z0.78 F1800.0
G1 X-20.42 Y3.93 Z0.78 F1800.0
M103
G1 X-20.42 Y3.53 Z0.78 F3000.0
M101
G1 X-18.38 Y3.53 Z0.78 F1800.0
G1 X-18.38 Y3.14 Z0.78 F1800.0
G1 X-20.42 Y3.14 Z0.78 F1800.0
M103
G1 X-20.42 Y2.75 Z0.78 F3000.0
M101
G1 X-18.38 Y2.75 Z0.78 F1800.0
G1 X-18.38 Y2.36 Z0.78 F1800.0
G1 X-20.42 Y2.36 Z0.78 F1800.0
M103
G1 X-20.42 Y1.96 Z0.78 F3000.0
M101
G1 X-18.38 Y1.96 Z0.78 F1800.0
G1 X-18.38 Y1.57 Z0.78 F1800.0
G1 X-20.42 Y1.57 Z0.78 F1800.0
M103
G1 X-20.42 Y1.18 Z0.78 F3000.0
M101
G1 X-18.38 Y1.18 Z0.78 F1800.0
G1 X-18.38 Y0.79 Z0.78 F1800.0
G1 X-20.42 Y0.79 Z0.78 F1800.0
M103
G1 X-20.42 Y0.39 Z0.78 F3000.0
M101
G1 X-18.38 Y0.39 Z0.78 F1800.0
G1 X-18.38 Y0.0 Z0.78 F1800.0
G1 X-20.42 Y0.0 Z0.78 F1800.0
M103
G1 X-20.42 Y-0.39 Z0.78 F3000.0
M101
G1 X-18.38 Y-0.39 Z0.78 F1800.0
G1 X-18.38 Y-0.79 Z0.78 F1800.0
G1 X-20.42 Y-0.79 Z0.78 F1800.0
M103
G1 X-20.42 Y-1.18 Z0.78 F3000.0
M101
G1 X-18.38 Y-1.18 Z0.78 F1800.0
G1 X-18.38 Y-1.57 Z0.78 F1800.0
G1 X-20.42 Y-1.57 Z0.78 F1800.0
M103
G1 X-20.42 Y-1.96 Z0.78 F3000.0
M101
G1 X-18.38 Y-1.96 Z0.78 F1800.0
G1 X-18.38 Y-2.36 Z0.78 F1800.0
G1 X-20.42 Y-2.36 Z0.78 F1800.0
M103
G1 X-20.42 Y-2.75 Z0.78 F3000.0
M101
G1 X-18.38 Y-2.75 Z0.78 F1800.0
G1 X-18.38 Y-3.14 Z0.78 F1800.0
G1 X-20.42 Y-3.14 Z0.78 F1800.0
M103
G1 X-20.42 Y-3.53 Z0.78 F3000.0
M101
G1 X-18.38 Y-3.53 Z0.78 F1800.0
G1 X-18.38 Y-3.93 Z0.78 F1800.0
G1 X-20.42 Y-3.93 Z0.78 F1800.0
M103
G1 X-20.42 Y-4.32 Z0.78 F3000.0
M101
G1 X-18.38 Y-4.32 Z0.78 F1800.0
G1 X-18.38 Y-4.71 Z0.78 F1800.0
G1 X-20.42 Y-4.71 Z0.78 F1800.0
M103
G1 X-20.42 Y-5.11 Z0.78 F3000.0
M101
G1 X-18.38 Y-5.11 Z0.78 F1800.0
G1 X-18.38 Y-5.5 Z0.78 F1800.0
G1 X-20.42 Y-5.5 Z0.78 F1800.0
M103
G1 X-20.42 Y-5.89 Z0.78 F3000.0
M101
G1 X-18.38 Y-5.89 Z0.78 F1800.0
G1 X-18.38 Y-6.28 Z0.78 F1800.0
G1 X-20.42 Y-6.28 Z0.78 F1800.0
M103
G1 X-20.42 Y-6.68 Z0.78 F3000.0
M101
G1 X-18.38 Y-6.68 Z0.78 F1800.0
G1 X-18.38 Y-7.07 Z0.78 F1800.0
G1 X-20.42 Y-7.07 Z0.78 F1800.0
M103
G1 X-20.42 Y-7.46 Z0.78 F3000.0
M101
G1 X-18.38 Y-7.46 Z0.78 F1800.0
G1 X-18.38 Y-7.85 Z0.78 F1800.0
G1 X-20.42 Y-7.85 Z0.78 F1800.0
M103
G1 X-20.42 Y-8.25 Z0.78 F3000.0
M101
G1 X-18.38 Y-8.25 Z0.78 F1800.0
G1 X-18.38 Y-8.64 Z0.78 F1800.0
G1 X-20.42 Y-8.64 Z0.78 F1800.0
M103
G1 X-20.42 Y-9.03 Z0.78 F3000.0
M101
G1 X-18.38 Y-9.03 Z0.78 F1800.0
G1 X-18.38 Y-9.43 Z0.78 F1800.0
G1 X-20.42 Y-9.43 Z0.78 F1800.0
M103
G1 X-20.42 Y-9.82 Z0.78 F3000.0
M101
G1 X-18.38 Y-9.82 Z0.78 F1800.0
G1 X-18.38 Y-10.21 Z0.78 F1800.0
G1 X-20.42 Y-10.21 Z0.78 F1800.0
M103
G1 X-20.42 Y-10.6 Z0.78 F3000.0
M101
G1 X-18.38 Y-10.6 Z0.78 F1800.0
G1 X-18.38 Y-11.0 Z0.78 F1800.0
G1 X-20.42 Y-11.0 Z0.78 F1800.0
M103
G1 X-20.42 Y-11.39 Z0.78 F3000.0
M101
G1 X-18.38 Y-11.39 Z0.78 F1800.0
G1 X-18.38 Y-11.78 Z0.78 F1800.0
G1 X-20.42 Y-11.78 Z0.78 F1800.0
M103
G1 X-20.42 Y-12.17 Z0.78 F3000.0
M101
G1 X-18.38 Y-12.17 Z0.78 F1800.0
G1 X-18.38 Y-12.57 Z0.78 F1800.0
G1 X-20.42 Y-12.57 Z0.78 F1800.0
M103
G1 X-20.42 Y-12.96 Z0.78 F3000.0
M101
G1 X-18.38 Y-12.96 Z0.78 F1800.0
G1 X-18.38 Y-13.35 Z0.78 F1800.0
G1 X-20.42 Y-13.35 Z0.78 F1800.0
M103
G1 X-20.42 Y-13.74 Z0.78 F3000.0
M101
G1 X-18.38 Y-13.74 Z0.78 F1800.0
G1 X-18.38 Y-14.14 Z0.78 F1800.0
G1 X-20.42 Y-14.14 Z0.78 F1800.0
M103
G1 X-20.42 Y-14.53 Z0.78 F3000.0
M101
G1 X-18.38 Y-14.53 Z0.78 F1800.0
G1 X-18.38 Y-14.92 Z0.78 F1800.0
G1 X-20.42 Y-14.92 Z0.78 F1800.0
M103
G1 X-20.42 Y-15.32 Z0.78 F3000.0
M101
G1 X-18.38 Y-15.32 Z0.78 F1800.0
G1 X-18.38 Y-15.71 Z0.78 F1800.0
G1 X-20.42 Y-15.71 Z0.78 F1800.0
M103
G1 X-20.42 Y-16.1 Z0.78 F3000.0
M101
G1 X-18.38 Y-16.1 Z0.78 F1800.0
G1 X-18.38 Y-16.49 Z0.78 F1800.0
G1 X-20.42 Y-16.49 Z0.78 F1800.0
M103
G1 X-20.42 Y-16.89 Z0.78 F3000.0
M101
G1 X-18.38 Y-16.89 Z0.78 F1800.0
G1 X-18.38 Y-17.28 Z0.78 F1800.0
G1 X-20.42 Y-17.28 Z0.78 F1800.0
M103
G1 X-20.42 Y-17.67 Z0.78 F3000.0
M101
G1 X-18.38 Y-17.67 Z0.78 F1800.0
G1 X-18.38 Y-18.06 Z0.78 F1800.0
G1 X-20.42 Y-18.06 Z0.78 F1800.0
M103
G1 X-20.42 Y-18.46 Z0.78 F3000.0
M101
G1 X20.42 Y-18.46 Z0.78 F1800.0
M103
G1 X20.42 Y-18.85 Z0.78 F3000.0
M101
G1 X-20.42 Y-18.85 Z0.78 F1800.0
M103
G1 X-20.42 Y-19.24 Z0.78 F3000.0
M101
G1 X20.42 Y-19.24 Z0.78 F1800.0
M103
G1 X20.42 Y-19.64 Z0.78 F3000.0
M101
G1 X-20.42 Y-19.64 Z0.78 F1800.0
M103
G1 X-20.42 Y-20.03 Z0.78 F3000.0
M101
G1 X20.42 Y-20.03 Z0.78 F1800.0
M103
G1 X20.42 Y-20.42 Z0.78 F3000.0
M101
G1 X-19.97 Y-20.42 Z0.78 F1800.0
M108 R30.0
M102
G1 X-20.42 Y-20.42 Z0.78 F1800.0
M108 R3.569
M103
G1 X-20.42 Y10.59 Z0.78 F3000.0
M108 R30.0
M101
G1 X-20.42 Y11.39 Z0.78 F3000.0
M108 R3.569
G1 X7.77 Y11.39 Z0.78 F1800.0
M103
G1 X7.77 Y11.78 Z0.78 F3000.0
M101
G1 X-20.42 Y11.78 Z0.78 F1800.0
M103
G1 X-20.42 Y12.17 Z0.78 F3000.0
M101
G1 X7.77 Y12.17 Z0.78 F1800.0
M103
G1 X7.77 Y12.57 Z0.78 F3000.0
M101
G1 X-20.42 Y12.57 Z0.78 F1800.0
M103
G1 X-20.42 Y12.96 Z0.78 F3000.0
M101
G1 X7.77 Y12.96 Z0.78 F1800.0
M103
G1 X7.77 Y13.35 Z0.78 F3000.0
M101
G1 X-20.42 Y13.35 Z0.78 F1800.0
M103
G1 X-20.42 Y13.74 Z0.78 F3000.0
M101
G1 X7.77 Y13.74 Z0.78 F1800.0
M103
G1 X7.77 Y14.14 Z0.78 F3000.0
M101
G1 X-20.42 Y14.14 Z0.78 F1800.0
M103
G1 X-20.42 Y14.53 Z0.78 F3000.0
M101
G1 X7.77 Y14.53 Z0.78 F1800.0
M103
G1 X7.77 Y14.92 Z0.78 F3000.0
M101
G1 X-20.42 Y14.92 Z0.78 F1800.0
M103
G1 X-20.42 Y15.32 Z0.78 F3000.0
M101
G1 X7.77 Y15.32 Z0.78 F1800.0
M103
G1 X7.77 Y15.71 Z0.78 F3000.0
M101
G1 X-20.42 Y15.71 Z0.78 F1800.0
M103
G1 X-20.42 Y16.1 Z0.78 F3000.0
M101
G1 X7.77 Y16.1 Z0.78 F1800.0
M103
G1 X7.77 Y16.49 Z0.78 F3000.0
M101
G1 X-20.42 Y16.49 Z0.78 F1800.0
M103
G1 X-20.42 Y16.89 Z0.78 F3000.0
M101
G1 X7.77 Y16.89 Z0.78 F1800.0
M103
G1 X7.77 Y17.28 Z0.78 F3000.0
M101
G1 X-20.42 Y17.28 Z0.78 F1800.0
M103
G1 X-20.42 Y17.67 Z0.78 F3000.0
M101
G1 X7.77 Y17.67 Z0.78 F1800.0
M103
G1 X7.77 Y18.06 Z0.78 F3000.0
M101
G1 X-20.42 Y18.06 Z0.78 F1800.0
M103
G1 X-20.42 Y18.46 Z0.78 F3000.0
M101
G1 X7.77 Y18.46 Z0.78 F1800.0
M103
G1 X7.77 Y18.85 Z0.78 F3000.0
M101
G1 X-20.42 Y18.85 Z0.78 F1800.0
M103
G1 X-20.42 Y19.24 Z0.78 F3000.0
M101
G1 X7.77 Y19.24 Z0.78 F1800.0
M103
G1 X7.77 Y19.64 Z0.78 F3000.0
M101
G1 X-20.42 Y19.64 Z0.78 F1800.0
M103
G1 X-20.42 Y20.03 Z0.78 F3000.0
M101
G1 X7.77 Y20.03 Z0.78 F1800.0
M103
G1 X7.77 Y20.42 Z0.78 F3000.0
M101
G1 X-20.42 Y20.42 Z0.78 F1800.0
M103
(</surroundingLoop>)
(</layer>)
(<operatingLayerEnd> </operatingLayerEnd>)
(<layer> 1.1 )
(<surroundingLoop>)
(<boundaryPerimeter>)
(<boundaryPoint> X21.267 Y8.616 Z1.1 </boundaryPoint>)
(<boundaryPoint> X10.061 Y8.616 Z1.1 </boundaryPoint>)
(<boundaryPoint> X10.061 Y-17.532 Z1.1 </boundaryPoint>)
(<boundaryPoint> X-17.532 Y-17.532 Z1.1 </boundaryPoint>)
(<boundaryPoint> X-17.532 Y10.061 Z1.1 </boundaryPoint>)
(<boundaryPoint> X8.616 Y10.061 Z1.1 </boundaryPoint>)
(<boundaryPoint> X8.616 Y21.267 Z1.1 </boundaryPoint>)
(<boundaryPoint> X-21.267 Y21.267 Z1.1 </boundaryPoint>)
(<boundaryPoint> X-21.267 Y-21.267 Z1.1 </boundaryPoint>)
(<boundaryPoint> X21.267 Y-21.267 Z1.1 </boundaryPoint>)
(<loop> outer )
G1 X-20.68 Y20.14 Z1.1 F3000.0
M101
G1 X-20.68 Y-20.68 Z1.1 F1800.0
G1 X20.68 Y-20.68 Z1.1 F1800.0
G1 X20.68 Y8.03 Z1.1 F1800.0
G1 X10.65 Y8.03 Z1.1 F1800.0
G1 X10.65 Y-18.12 Z1.1 F1800.0
G1 X-18.12 Y-18.12 Z1.1 F1800.0
G1 X-18.12 Y10.65 Z1.1 F1800.0
G1 X8.03 Y10.65 Z1.1 F1800.0
G1 X8.03 Y20.68 Z1.1 F1800.0
G1 X-20.68 Y20.68 Z1.1 F1800.0
G1 X-20.68 Y20.42 Z1.1 F1800.0
G1 X-20.68 Y20.14 Z1.1 F1800.0
M103
(</loop>)
(<perimeter> outer )
G1 X-21.07 Y20.14 Z1.1 F3000.0
M101
G1 X-21.07 Y-21.07 Z1.1 F1800.0
G1 X21.07 Y-21.07 Z1.1 F1800.0
G1 X21.07 Y8.42 Z1.1 F1800.0
G1 X10.26 Y8.42 Z1.1 F1800.0
G1 X10.26 Y-17.73 Z1.1 F1800.0
G1 X-17.73 Y-17.73 Z1.1 F1800.0
G1 X-17.73 Y10.26 Z1.1 F1800.0
G1 X8.42 Y10.26 Z1.1 F1800.0
G1 X8.42 Y21.07 Z1.1 F1800.0
G1 X-21.07 Y21.07 Z1.1 F1800.0
G1 X-21.07 Y20.59 Z1.1 F1800.0
M108 R30.0
M102
G1 X-21.07 Y20.42 Z1.1 F1800.0
G1 X-21.07 Y20.14 Z1.1 F1800.0
M108 R3.569
M103
(</perimeter>)
(</boundaryPerimeter>)
G1 X-20.09 Y-19.62 Z1.1 F3000.0
M108 R30.0
M101
G1 X-20.07 Y-20.42 Z1.1 F3000.0
M108 R3.569
G1 X-20.07 Y19.97 Z1.1 F1800.0
M108 R30.0
M102
G1 X-20.07 Y20.42 Z1.1 F1800.0
M108 R3.569
M103
G1 X-19.56 Y20.42 Z1.1 F3000.0
M108 R30.0
M101
G1 X-18.76 Y20.42 Z1.1 F3000.0
M108 R3.569
G1 X-18.71 Y-18.17 Z1.1 F1800.0
G1 X-19.2 Y-19.99 Z1.1 F1800.0
G1 X-18.76 Y-20.42 Z1.1 F1800.0
G1 X-18.33 Y-19.99 Z1.1 F1800.0
G1 X-17.89 Y-18.38 Z1.1 F1800.0
G1 X-15.71 Y-18.38 Z1.1 F1800.0
G1 X-17.45 Y-19.99 Z1.1 F1800.0
G1 X-17.02 Y-19.99 Z1.1 F1800.0
G1 X-16.58 Y-20.42 Z1.1 F1800.0
G1 X-16.14 Y-19.99 Z1.1 F1800.0
G1 X-15.71 Y-20.42 Z1.1 F1800.0
G1 X-15.27 Y-19.99 Z1.1 F1800.0
G1 X-15.27 Y-18.38 Z1.1 F1800.0
G1 X-13.96 Y-18.38 Z1.1 F1800.0
G1 X-14.84 Y-19.99 Z1.1 F1800.0
G1 X-14.4 Y-20.42 Z1.1 F1800.0
G1 X-13.96 Y-19.99 Z1.1 F1800.0
G1 X-13.53 Y-18.38 Z1.1 F1800.0
G1 X-11.78 Y-18.38 Z1.1 F1800.0
G1 X-13.09 Y-19.99 Z1.1 F1800.0
G1 X-12.65 Y-19.99 Z1.1 F1800.0
G1 X-12.22 Y-20.42 Z1.1 F1800.0
G1 X-11.78 Y-19.99 Z1.1 F1800.0
G1 X-11.35 Y-18.38 Z1.1 F1800.0
G1 X-9.6 Y-18.38 Z1.1 F1800.0
G1 X-10.91 Y-19.99 Z1.1 F1800.0
G1 X-10.04 Y-20.42 Z1.1 F1800.0
G1 X-9.6 Y-19.99 Z1.1 F1800.0
G1 X-9.16 Y-18.38 Z1.1 F1800.0
G1 X-7.42 Y-18.38 Z1.1 F1800.0
G1 X-8.73 Y-19.99 Z1.1 F1800.0
G1 X-7.85 Y-20.42 Z1.1 F1800.0
G1 X-7.42 Y-19.99 Z1.1 F1800.0
G1 X-6.98 Y-18.38 Z1.1 F1800.0
G1 X-5.24 Y-18.38 Z1.1 F1800.0
G1 X-6.11 Y-19.99 Z1.1 F1800.0
G1 X-5.67 Y-20.42 Z1.1 F1800.0
G1 X-5.24 Y-19.99 Z1.1 F1800.0
G1 X-4.8 Y-18.38 Z1.1 F1800.0
G1 X-3.05 Y-18.38 Z1.1 F1800.0
G1 X-4.36 Y-19.99 Z1.1 F1800.0
G1 X-3.93 Y-19.99 Z1.1 F1800.0
G1 X-3.49 Y-20.42 Z1.1 F1800.0
G1 X-3.05 Y-19.99 Z1.1 F1800.0
G1 X-2.62 Y-18.38 Z1.1 F1800.0
G1 X-0.87 Y-18.38 Z1.1 F1800.0
G1 X-2.18 Y-19.99 Z1.1 F1800.0
G1 X-1.31 Y-20.42 Z1.1 F1800.0
G1 X-0.87 Y-19.99 Z1.1 F1800.0
G1 X-0.44 Y-18.38 Z1.1 F1800.0
G1 X1.31 Y-18.38 Z1.1 F1800.0
G1 X-0.0 Y-19.99 Z1.1 F1800.0
G1 X0.87 Y-20.42 Z1.1 F1800.0
G1 X1.31 Y-19.99 Z1.1 F1800.0
G1 X1.75 Y-18.38 Z1.1 F1800.0
G1 X3.93 Y-18.38 Z1.1 F1800.0
G1 X2.18 Y-19.99 Z1.1 F1800.0
G1 X2.62 Y-19.99 Z1.1 F1800.0
G1 X3.05 Y-20.42 Z1.1 F1800.0
G1 X3.49 Y-19.99 Z1.1 F1800.0
G1 X3.93 Y-20.42 Z1.1 F1800.0
G1 X4.36 Y-19.99 Z1.1 F1800.0
G1 X4.36 Y-18.38 Z1.1 F1800.0
G1 X5.67 Y-18.38 Z1.1 F1800.0
G1 X4.8 Y-19.99 Z1.1 F1800.0
G1 X5.24 Y-20.42 Z1.1 F1800.0
G1 X5.67 Y-19.99 Z1.1 F1800.0
G1 X6.11 Y-18.38 Z1.1 F1800.0
G1 X7.85 Y-18.38 Z1.1 F1800.0
G1 X6.55 Y-19.99 Z1.1 F1800.0
G1 X6.98 Y-19.99 Z1.1 F1800.0
G1 X7.42 Y-20.42 Z1.1 F1800.0
G1 X7.85 Y-19.99 Z1.1 F1800.0
G1 X8.29 Y-18.38 Z1.1 F1800.0
G1 X10.47 Y-18.38 Z1.1 F1800.0
G1 X10.04 Y-19.99 Z1.1 F1800.0
G1 X9.92 Y-20.1 Z1.1 F1800.0
M108 R30.0
M102
G1 X9.6 Y-20.42 Z1.1 F1800.0
M108 R3.569
M103
G1 X10.98 Y-20.42 Z1.1 F3000.0
M108 R30.0
M101
G1 X11.78 Y-20.42 Z1.1 F3000.0
M108 R3.569
G1 X11.78 Y7.32 Z1.1 F1800.0
M108 R30.0
M102
G1 X11.78 Y7.77 Z1.1 F1800.0
M108 R3.569
M103
G1 X13.16 Y7.77 Z1.1 F3000.0
M108 R30.0
M101
G1 X13.96 Y7.77 Z1.1 F3000.0
M108 R3.569
G1 X13.53 Y7.34 Z1.1 F1800.0
G1 X13.09 Y7.34 Z1.1 F1800.0
G1 X12.65 Y7.77 Z1.1 F1800.0
G1 X12.22 Y7.34 Z1.1 F1800.0
G1 X12.11 Y5.33 Z1.1 F1800.0
G1 X14.07 Y3.4 Z1.1 F1800.0
G1 X14.07 Y3.15 Z1.1 F1800.0
G1 X12.11 Y1.22 Z1.1 F1800.0
G1 X12.11 Y0.96 Z1.1 F1800.0
G1 X14.07 Y-0.96 Z1.1 F1800.0
G1 X14.07 Y-1.22 Z1.1 F1800.0
G1 X12.11 Y-3.15 Z1.1 F1800.0
G1 X12.11 Y-3.4 Z1.1 F1800.0
G1 X14.07 Y-5.33 Z1.1 F1800.0
G1 X14.07 Y-5.58 Z1.1 F1800.0
G1 X12.11 Y-7.51 Z1.1 F1800.0
G1 X12.11 Y-7.76 Z1.1 F1800.0
G1 X14.07 Y-9.69 Z1.1 F1800.0
G1 X14.07 Y-9.95 Z1.1 F1800.0
G1 X12.11 Y-11.87 Z1.1 F1800.0
G1 X12.11 Y-12.13 Z1.1 F1800.0
G1 X14.07 Y-14.05 Z1.1 F1800.0
G1 X14.07 Y-14.31 Z1.1 F1800.0
G1 X12.11 Y-16.24 Z1.1 F1800.0
G1 X12.11 Y-16.49 Z1.1 F1800.0
G1 X14.07 Y-18.42 Z1.1 F1800.0
G1 X13.99 Y-19.97 Z1.1 F1800.0
M108 R30.0
M102
G1 X13.96 Y-20.42 Z1.1 F1800.0
M108 R3.569
M103
G1 X15.34 Y-20.42 Z1.1 F3000.0
M108 R30.0
M101
G1 X16.14 Y-20.42 Z1.1 F3000.0
M108 R3.569
G1 X15.71 Y-19.99 Z1.1 F1800.0
G1 X15.27 Y-19.99 Z1.1 F1800.0
G1 X14.84 Y-20.42 Z1.1 F1800.0
G1 X14.3 Y-18.67 Z1.1 F1800.0
G1 X14.3 Y-18.42 Z1.1 F1800.0
G1 X16.25 Y-16.49 Z1.1 F1800.0
G1 X16.25 Y-16.24 Z1.1 F1800.0
G1 X14.3 Y-14.31 Z1.1 F1800.0
G1 X14.3 Y-14.05 Z1.1 F1800.0
G1 X16.25 Y-12.13 Z1.1 F1800.0
G1 X16.25 Y-11.87 Z1.1 F1800.0
G1 X14.3 Y-9.95 Z1.1 F1800.0
G1 X14.3 Y-9.69 Z1.1 F1800.0
G1 X16.25 Y-7.76 Z1.1 F1800.0
G1 X16.25 Y-7.51 Z1.1 F1800.0
G1 X14.3 Y-5.58 Z1.1 F1800.0
G1 X14.3 Y-5.33 Z1.1 F1800.0
G1 X16.25 Y-3.4 Z1.1 F1800.0
G1 X16.25 Y-3.15 Z1.1 F1800.0
G1 X14.3 Y-1.22 Z1.1 F1800.0
G1 X14.3 Y-0.96 Z1.1 F1800.0
G1 X16.25 Y0.96 Z1.1 F1800.0
G1 X16.25 Y1.22 Z1.1 F1800.0
G1 X14.3 Y3.15 Z1.1 F1800.0
G1 X14.3 Y3.4 Z1.1 F1800.0
G1 X16.25 Y5.33 Z1.1 F1800.0
G1 X16.16 Y7.32 Z1.1 F1800.0
M108 R30.0
M102
G1 X16.14 Y7.77 Z1.1 F1800.0
M108 R3.569
M103
G1 X17.53 Y7.77 Z1.1 F3000.0
M108 R30.0
M101
G1 X18.33 Y7.77 Z1.1 F3000.0
M108 R3.569
G1 X17.89 Y7.34 Z1.1 F1800.0
G1 X17.45 Y7.34 Z1.1 F1800.0
G1 X17.02 Y7.77 Z1.1 F1800.0
G1 X16.48 Y5.58 Z1.1 F1800.0
G1 X16.48 Y5.33 Z1.1 F1800.0
G1 X18.43 Y3.4 Z1.1 F1800.0
G1 X18.43 Y3.15 Z1.1 F1800.0
G1 X16.48 Y1.22 Z1.1 F1800.0
G1 X16.48 Y0.96 Z1.1 F1800.0
G1 X18.43 Y-0.96 Z1.1 F1800.0
G1 X18.43 Y-1.22 Z1.1 F1800.0
G1 X16.48 Y-3.15 Z1.1 F1800.0
G1 X16.48 Y-3.4 Z1.1 F1800.0
G1 X18.43 Y-5.33 Z1.1 F1800.0
G1 X18.43 Y-5.58 Z1.1 F1800.0
G1 X16.48 Y-7.51 Z1.1 F1800.0
G1 X16.48 Y-7.76 Z1.1 F1800.0
G1 X18.43 Y-9.69 Z1.1 F1800.0
G1 X18.43 Y-9.95 Z1.1 F1800.0
G1 X16.48 Y-11.87 Z1.1 F1800.0
G1 X16.48 Y-12.13 Z1.1 F1800.0
G1 X18.43 Y-14.05 Z1.1 F1800.0
G1 X18.43 Y-14.31 Z1.1 F1800.0
G1 X16.48 Y-16.24 Z1.1 F1800.0
G1 X16.48 Y-16.49 Z1.1 F1800.0
G1 X18.43 Y-18.42 Z1.1 F1800.0
G1 X18.35 Y-19.97 Z1.1 F1800.0
M108 R30.0
M102
G1 X18.33 Y-20.42 Z1.1 F1800.0
M108 R3.569
M103
G1 X19.27 Y-20.42 Z1.1 F3000.0
M108 R30.0
M101
G1 X20.07 Y-20.42 Z1.1 F3000.0
M108 R3.569
G1 X19.64 Y-19.99 Z1.1 F1800.0
G1 X19.2 Y-19.99 Z1.1 F1800.0
G1 X18.66 Y-18.67 Z1.1 F1800.0
G1 X18.66 Y3.4 Z1.1 F1800.0
G1 X19.2 Y7.34 Z1.1 F1800.0
G1 X19.64 Y7.34 Z1.1 F1800.0
G1 X19.75 Y7.45 Z1.1 F1800.0
M108 R30.0
M102
G1 X20.07 Y7.77 Z1.1 F1800.0
M108 R3.569
M103
G1 X16.66 Y8.34 Z1.1 F3000.0
G1 X10.2 Y8.48 Z1.1 F3000.0
G1 X10.2 Y-17.67 Z1.1 F3000.0
G1 X-17.67 Y-17.67 Z1.1 F3000.0
G1 X-17.67 Y10.2 Z1.1 F3000.0
G1 X8.48 Y10.2 Z1.1 F3000.0
G1 X8.34 Y10.61 Z1.1 F3000.0
G1 X8.18 Y10.66 Z1.1 F3000.0
M108 R30.0
M101
G1 X7.42 Y10.91 Z1.1 F3000.0
M108 R3.569
G1 X5.57 Y11.87 Z1.1 F1800.0
G1 X5.57 Y16.49 Z1.1 F1800.0
G1 X6.11 Y20.42 Z1.1 F1800.0
G1 X6.55 Y19.99 Z1.1 F1800.0
G1 X6.98 Y19.99 Z1.1 F1800.0
G1 X7.1 Y20.1 Z1.1 F1800.0
M108 R30.0
M102
G1 X7.42 Y20.42 Z1.1 F1800.0
M108 R3.569
M103
G1 X6.04 Y20.42 Z1.1 F3000.0
M108 R30.0
M101
G1 X5.24 Y20.42 Z1.1 F3000.0
M108 R3.569
G1 X5.2 Y20.26 Z1.1 F1800.0
G1 X3.93 Y19.99 Z1.1 F1800.0
G1 X3.39 Y18.67 Z1.1 F1800.0
G1 X3.39 Y18.42 Z1.1 F1800.0
G1 X5.34 Y16.49 Z1.1 F1800.0
G1 X5.34 Y16.24 Z1.1 F1800.0
G1 X3.39 Y14.31 Z1.1 F1800.0
G1 X3.39 Y14.05 Z1.1 F1800.0
G1 X5.34 Y12.13 Z1.1 F1800.0
G1 X5.34 Y11.87 Z1.1 F1800.0
G1 X6.55 Y10.91 Z1.1 F1800.0
G1 X2.62 Y10.91 Z1.1 F1800.0
G1 X1.21 Y11.87 Z1.1 F1800.0
G1 X1.21 Y12.13 Z1.1 F1800.0
G1 X3.16 Y14.05 Z1.1 F1800.0
G1 X3.16 Y14.31 Z1.1 F1800.0
G1 X1.21 Y16.24 Z1.1 F1800.0
G1 X1.21 Y16.49 Z1.1 F1800.0
G1 X3.16 Y18.42 Z1.1 F1800.0
G1 X3.08 Y19.97 Z1.1 F1800.0
M108 R30.0
M102
G1 X3.05 Y20.42 Z1.1 F1800.0
M108 R3.569
M103
G1 X1.67 Y20.42 Z1.1 F3000.0
M108 R30.0
M101
G1 X0.87 Y20.42 Z1.1 F3000.0
M108 R3.569
G1 X0.84 Y20.26 Z1.1 F1800.0
G1 X-0.44 Y19.99 Z1.1 F1800.0
G1 X-0.98 Y18.67 Z1.1 F1800.0
G1 X-0.98 Y18.42 Z1.1 F1800.0
G1 X0.98 Y16.49 Z1.1 F1800.0
G1 X0.98 Y16.24 Z1.1 F1800.0
G1 X-0.98 Y14.31 Z1.1 F1800.0
G1 X-0.98 Y14.05 Z1.1 F1800.0
G1 X0.98 Y12.13 Z1.1 F1800.0
G1 X0.98 Y11.87 Z1.1 F1800.0
G1 X2.18 Y10.91 Z1.1 F1800.0
G1 X-1.31 Y10.91 Z1.1 F1800.0
G1 X-3.16 Y11.87 Z1.1 F1800.0
G1 X-3.16 Y12.13 Z1.1 F1800.0
G1 X-1.21 Y14.05 Z1.1 F1800.0
G1 X-1.21 Y14.31 Z1.1 F1800.0
G1 X-3.16 Y16.24 Z1.1 F1800.0
G1 X-3.16 Y16.49 Z1.1 F1800.0
G1 X-1.21 Y18.42 Z1.1 F1800.0
G1 X-1.29 Y19.97 Z1.1 F1800.0
M108 R30.0
M102
G1 X-1.31 Y20.42 Z1.1 F1800.0
M108 R3.569
M103
G1 X-2.69 Y20.42 Z1.1 F3000.0
M108 R30.0
M101
G1 X-3.49 Y20.42 Z1.1 F3000.0
M108 R3.569
G1 X-3.52 Y20.26 Z1.1 F1800.0
G1 X-4.8 Y19.99 Z1.1 F1800.0
G1 X-5.34 Y18.67 Z1.1 F1800.0
G1 X-5.34 Y18.42 Z1.1 F1800.0
G1 X-3.39 Y16.49 Z1.1 F1800.0
G1 X-3.39 Y16.24 Z1.1 F1800.0
G1 X-5.34 Y14.31 Z1.1 F1800.0
G1 X-5.34 Y14.05 Z1.1 F1800.0
G1 X-3.39 Y12.13 Z1.1 F1800.0
G1 X-3.39 Y11.87 Z1.1 F1800.0
G1 X-2.18 Y10.91 Z1.1 F1800.0
G1 X-6.11 Y10.91 Z1.1 F1800.0
G1 X-7.52 Y11.87 Z1.1 F1800.0
G1 X-7.52 Y12.13 Z1.1 F1800.0
G1 X-5.57 Y14.05 Z1.1 F1800.0
G1 X-5.57 Y14.31 Z1.1 F1800.0
G1 X-7.52 Y16.24 Z1.1 F1800.0
G1 X-7.52 Y16.49 Z1.1 F1800.0
G1 X-5.57 Y18.42 Z1.1 F1800.0
G1 X-5.65 Y19.97 Z1.1 F1800.0
M108 R30.0
M102
G1 X-5.67 Y20.42 Z1.1 F1800.0
M108 R3.569
M103
G1 X-7.05 Y20.42 Z1.1 F3000.0
M108 R30.0
M101
G1 X-7.85 Y20.42 Z1.1 F3000.0
M108 R3.569
G1 X-7.89 Y20.26 Z1.1 F1800.0
G1 X-9.16 Y19.99 Z1.1 F1800.0
G1 X-9.7 Y18.67 Z1.1 F1800.0
G1 X-9.7 Y18.42 Z1.1 F1800.0
G1 X-7.75 Y16.49 Z1.1 F1800.0
G1 X-7.75 Y16.24 Z1.1 F1800.0
G1 X-9.7 Y14.31 Z1.1 F1800.0
G1 X-9.7 Y14.05 Z1.1 F1800.0
G1 X-7.75 Y12.13 Z1.1 F1800.0
G1 X-7.75 Y11.87 Z1.1 F1800.0
G1 X-6.55 Y10.91 Z1.1 F1800.0
G1 X-10.47 Y10.91 Z1.1 F1800.0
G1 X-11.88 Y11.87 Z1.1 F1800.0
G1 X-11.88 Y12.13 Z1.1 F1800.0
G1 X-9.93 Y14.05 Z1.1 F1800.0
G1 X-9.93 Y14.31 Z1.1 F1800.0
G1 X-11.88 Y16.24 Z1.1 F1800.0
G1 X-11.88 Y16.49 Z1.1 F1800.0
G1 X-9.93 Y18.42 Z1.1 F1800.0
G1 X-10.01 Y19.97 Z1.1 F1800.0
M108 R30.0
M102
G1 X-10.04 Y20.42 Z1.1 F1800.0
M108 R3.569
M103
G1 X-11.42 Y20.42 Z1.1 F3000.0
M108 R30.0
M101
G1 X-12.22 Y20.42 Z1.1 F3000.0
M108 R3.569
G1 X-12.25 Y20.26 Z1.1 F1800.0
G1 X-13.53 Y19.99 Z1.1 F1800.0
G1 X-14.07 Y18.67 Z1.1 F1800.0
G1 X-14.07 Y18.42 Z1.1 F1800.0
G1 X-12.11 Y16.49 Z1.1 F1800.0
G1 X-12.11 Y16.24 Z1.1 F1800.0
G1 X-14.07 Y14.31 Z1.1 F1800.0
G1 X-14.07 Y14.05 Z1.1 F1800.0
G1 X-12.11 Y12.13 Z1.1 F1800.0
G1 X-12.11 Y11.87 Z1.1 F1800.0
G1 X-10.91 Y10.91 Z1.1 F1800.0
G1 X-14.84 Y10.91 Z1.1 F1800.0
G1 X-16.25 Y11.87 Z1.1 F1800.0
G1 X-16.25 Y12.13 Z1.1 F1800.0
G1 X-14.3 Y14.05 Z1.1 F1800.0
G1 X-14.3 Y14.31 Z1.1 F1800.0
G1 X-16.25 Y16.24 Z1.1 F1800.0
G1 X-16.25 Y16.49 Z1.1 F1800.0
G1 X-14.3 Y18.42 Z1.1 F1800.0
G1 X-14.38 Y19.97 Z1.1 F1800.0
M108 R30.0
M102
G1 X-14.4 Y20.42 Z1.1 F1800.0
M108 R3.569
M103
G1 X-15.78 Y20.42 Z1.1 F3000.0
M108 R30.0
M101
G1 X-16.58 Y20.42 Z1.1 F3000.0
M108 R3.569
G1 X-17.02 Y19.99 Z1.1 F1800.0
G1 X-17.45 Y19.99 Z1.1 F1800.0
G1 X-17.89 Y20.42 Z1.1 F1800.0
G1 X-18.43 Y18.67 Z1.1 F1800.0
G1 X-18.43 Y18.42 Z1.1 F1800.0
G1 X-16.48 Y16.49 Z1.1 F1800.0
G1 X-16.48 Y16.24 Z1.1 F1800.0
G1 X-18.43 Y14.31 Z1.1 F1800.0
G1 X-18.43 Y14.05 Z1.1 F1800.0
G1 X-16.48 Y12.13 Z1.1 F1800.0
G1 X-16.48 Y11.87 Z1.1 F1800.0
G1 X-15.27 Y10.91 Z1.1 F1800.0
G1 X-18.33 Y10.91 Z1.1 F1800.0
M103
(</surroundingLoop>)
(</layer>)
(<layer> 1.42 )
(<surroundingLoop>)
(<boundaryPerimeter>)
(<boundaryPoint> X21.267 Y8.616 Z1.42 </boundaryPoint>)
(<boundaryPoint> X10.061 Y8.616 Z1.42 </boundaryPoint>)
(<boundaryPoint> X10.061 Y-17.532 Z1.42 </boundaryPoint>)
(<boundaryPoint> X-17.532 Y-17.532 Z1.42 </boundaryPoint>)
(<boundaryPoint> X-17.532 Y10.061 Z1.42 </boundaryPoint>)
(<boundaryPoint> X8.616 Y10.061 Z1.42 </boundaryPoint>)
(<boundaryPoint> X8.616 Y21.267 Z1.42 </boundaryPoint>)
(<boundaryPoint> X-21.267 Y21.267 Z1.42 </boundaryPoint>)
(<boundaryPoint> X-21.267 Y-21.267 Z1.42 </boundaryPoint>)
(<boundaryPoint> X21.267 Y-21.267 Z1.42 </boundaryPoint>)
(<loop> outer )
G1 X-18.12 Y10.63 Z1.42 F3000.0
M101
G1 X-18.12 Y10.65 Z1.42 F1800.0
G1 X8.03 Y10.65 Z1.42 F1800.0
G1 X8.03 Y20.68 Z1.42 F1800.0
G1 X-20.68 Y20.68 Z1.42 F1800.0
G1 X-20.68 Y-20.68 Z1.42 F1800.0
G1 X20.68 Y-20.68 Z1.42 F1800.0
G1 X20.68 Y8.03 Z1.42 F1800.0
G1 X10.65 Y8.03 Z1.42 F1800.0
G1 X10.65 Y-18.12 Z1.42 F1800.0
G1 X-18.12 Y-18.12 Z1.42 F1800.0
G1 X-18.12 Y10.63 Z1.42 F1800.0
M103
(</loop>)
(<perimeter> outer )
G1 X-17.73 Y10.26 Z1.42 F3000.0
M101
G1 X8.42 Y10.26 Z1.42 F1800.0
G1 X8.42 Y21.07 Z1.42 F1800.0
G1 X-21.07 Y21.07 Z1.42 F1800.0
G1 X-21.07 Y-21.07 Z1.42 F1800.0
G1 X21.07 Y-21.07 Z1.42 F1800.0
G1 X21.07 Y8.42 Z1.42 F1800.0
G1 X10.26 Y8.42 Z1.42 F1800.0
G1 X10.26 Y-17.73 Z1.42 F1800.0
G1 X-17.73 Y-17.73 Z1.42 F1800.0
G1 X-17.73 Y9.81 Z1.42 F1800.0
M108 R30.0
M102
G1 X-17.73 Y10.26 Z1.42 F1800.0
M108 R3.569
M103
(</perimeter>)
(</boundaryPerimeter>)
G1 X-19.95 Y13.32 Z1.42 F3000.0
M108 R30.0
M101
G1 X-20.42 Y13.96 Z1.42 F3000.0
M108 R3.569
G1 X-18.42 Y14.07 Z1.42 F1800.0
G1 X-16.49 Y12.11 Z1.42 F1800.0
G1 X-16.24 Y12.11 Z1.42 F1800.0
G1 X-14.31 Y14.07 Z1.42 F1800.0
G1 X-0.96 Y14.07 Z1.42 F1800.0
G1 X0.96 Y12.11 Z1.42 F1800.0
G1 X1.22 Y12.11 Z1.42 F1800.0
G1 X3.15 Y14.07 Z1.42 F1800.0
G1 X3.4 Y14.07 Z1.42 F1800.0
G1 X5.33 Y12.11 Z1.42 F1800.0
G1 X7.34 Y12.22 Z1.42 F1800.0
G1 X7.77 Y12.65 Z1.42 F1800.0
G1 X7.34 Y13.09 Z1.42 F1800.0
G1 X7.34 Y13.53 Z1.42 F1800.0
G1 X7.45 Y13.64 Z1.42 F1800.0
M108 R30.0
M102
G1 X7.77 Y13.96 Z1.42 F1800.0
M108 R3.569
M103
G1 X7.77 Y12.58 Z1.42 F3000.0
M108 R30.0
M101
G1 X7.77 Y11.78 Z1.42 F3000.0
M108 R3.569
G1 X-16.49 Y11.88 Z1.42 F1800.0
G1 X-19.99 Y12.22 Z1.42 F1800.0
G1 X-20.42 Y11.78 Z1.42 F1800.0
G1 X-20.26 Y11.75 Z1.42 F1800.0
G1 X-19.99 Y10.47 Z1.42 F1800.0
G1 X-18.38 Y10.47 Z1.42 F1800.0
G1 X-18.38 Y9.16 Z1.42 F1800.0
G1 X-19.99 Y10.04 Z1.42 F1800.0
G1 X-20.42 Y9.6 Z1.42 F1800.0
G1 X-20.11 Y9.04 Z1.42 F1800.0
G1 X-19.99 Y8.29 Z1.42 F1800.0
G1 X-18.38 Y8.73 Z1.42 F1800.0
G1 X-18.38 Y6.98 Z1.42 F1800.0
G1 X-19.99 Y7.85 Z1.42 F1800.0
G1 X-20.42 Y7.42 Z1.42 F1800.0
G1 X-19.99 Y6.98 Z1.42 F1800.0
G1 X-19.99 Y6.55 Z1.42 F1800.0
G1 X-18.38 Y6.55 Z1.42 F1800.0
G1 X-18.38 Y4.8 Z1.42 F1800.0
G1 X-19.99 Y5.67 Z1.42 F1800.0
G1 X-20.42 Y5.24 Z1.42 F1800.0
G1 X-19.99 Y4.8 Z1.42 F1800.0
G1 X-19.99 Y4.36 Z1.42 F1800.0
G1 X-20.42 Y3.93 Z1.42 F1800.0
G1 X-19.99 Y3.49 Z1.42 F1800.0
G1 X-18.38 Y4.36 Z1.42 F1800.0
G1 X-18.38 Y2.62 Z1.42 F1800.0
G1 X-20.42 Y3.05 Z1.42 F1800.0
G1 X-20.11 Y2.49 Z1.42 F1800.0
G1 X-19.99 Y1.75 Z1.42 F1800.0
G1 X-18.38 Y2.18 Z1.42 F1800.0
G1 X-18.38 Y0.44 Z1.42 F1800.0
G1 X-19.99 Y1.31 Z1.42 F1800.0
G1 X-20.42 Y0.87 Z1.42 F1800.0
G1 X-20.11 Y0.31 Z1.42 F1800.0
G1 X-19.99 Y-0.44 Z1.42 F1800.0
G1 X-18.81 Y-0.87 Z1.42 F1800.0
G1 X-18.38 Y0.0 Z1.42 F1800.0
G1 X-18.38 Y-1.75 Z1.42 F1800.0
G1 X-19.99 Y-0.87 Z1.42 F1800.0
G1 X-20.42 Y-1.31 Z1.42 F1800.0
G1 X-20.11 Y-1.87 Z1.42 F1800.0
G1 X-19.99 Y-2.62 Z1.42 F1800.0
G1 X-18.38 Y-2.18 Z1.42 F1800.0
G1 X-18.38 Y-3.93 Z1.42 F1800.0
G1 X-19.99 Y-3.05 Z1.42 F1800.0
G1 X-20.42 Y-3.49 Z1.42 F1800.0
G1 X-19.99 Y-3.93 Z1.42 F1800.0
G1 X-19.99 Y-4.36 Z1.42 F1800.0
G1 X-20.42 Y-4.8 Z1.42 F1800.0
G1 X-18.38 Y-4.36 Z1.42 F1800.0
G1 X-18.38 Y-6.11 Z1.42 F1800.0
G1 X-20.42 Y-5.67 Z1.42 F1800.0
G1 X-20.11 Y-6.24 Z1.42 F1800.0
G1 X-19.99 Y-6.98 Z1.42 F1800.0
G1 X-18.38 Y-6.55 Z1.42 F1800.0
G1 X-18.38 Y-8.29 Z1.42 F1800.0
G1 X-19.99 Y-7.42 Z1.42 F1800.0
G1 X-20.42 Y-7.85 Z1.42 F1800.0
G1 X-20.26 Y-7.89 Z1.42 F1800.0
G1 X-19.99 Y-9.16 Z1.42 F1800.0
G1 X-18.81 Y-9.6 Z1.42 F1800.0
G1 X-18.38 Y-8.73 Z1.42 F1800.0
G1 X-18.38 Y-10.47 Z1.42 F1800.0
G1 X-19.99 Y-9.6 Z1.42 F1800.0
G1 X-20.42 Y-10.04 Z1.42 F1800.0
G1 X-20.11 Y-10.6 Z1.42 F1800.0
G1 X-19.99 Y-11.35 Z1.42 F1800.0
G1 X-18.38 Y-10.91 Z1.42 F1800.0
G1 X-18.38 Y-12.65 Z1.42 F1800.0
G1 X-19.99 Y-11.78 Z1.42 F1800.0
G1 X-20.42 Y-12.22 Z1.42 F1800.0
G1 X-19.99 Y-12.65 Z1.42 F1800.0
G1 X-19.99 Y-13.09 Z1.42 F1800.0
G1 X-18.38 Y-13.09 Z1.42 F1800.0
G1 X-18.38 Y-14.84 Z1.42 F1800.0
G1 X-19.99 Y-13.96 Z1.42 F1800.0
G1 X-20.42 Y-14.4 Z1.42 F1800.0
G1 X-19.99 Y-14.84 Z1.42 F1800.0
G1 X-19.99 Y-15.27 Z1.42 F1800.0
G1 X-18.38 Y-15.27 Z1.42 F1800.0
G1 X-18.38 Y-18.33 Z1.42 F1800.0
G1 X-20.42 Y-17.89 Z1.42 F1800.0
G1 X-19.99 Y-17.45 Z1.42 F1800.0
G1 X-19.99 Y-17.02 Z1.42 F1800.0
G1 X-20.1 Y-16.9 Z1.42 F1800.0
M108 R30.0
M102
G1 X-20.42 Y-16.58 Z1.42 F1800.0
M108 R3.569
M103
G1 X-20.42 Y-17.96 Z1.42 F3000.0
M108 R30.0
M101
G1 X-20.42 Y-18.76 Z1.42 F3000.0
M108 R3.569
G1 X19.97 Y-18.76 Z1.42 F1800.0
M108 R30.0
M102
G1 X20.42 Y-18.76 Z1.42 F1800.0
M108 R3.569
M103
G1 X20.42 Y-19.27 Z1.42 F3000.0
M108 R30.0
M101
G1 X20.42 Y-20.07 Z1.42 F3000.0
M108 R3.569
G1 X-19.97 Y-20.07 Z1.42 F1800.0
M108 R30.0
M102
G1 X-20.42 Y-20.07 Z1.42 F1800.0
M108 R3.569
M103
G1 X10.11 Y-18.37 Z1.42 F3000.0
M108 R30.0
M101
G1 X10.91 Y-18.33 Z1.42 F3000.0
M108 R3.569
G1 X10.91 Y-15.27 Z1.42 F1800.0
G1 X11.87 Y-16.48 Z1.42 F1800.0
G1 X12.13 Y-16.48 Z1.42 F1800.0
G1 X14.05 Y-18.43 Z1.42 F1800.0
G1 X14.31 Y-18.43 Z1.42 F1800.0
G1 X16.24 Y-16.48 Z1.42 F1800.0
G1 X16.49 Y-16.48 Z1.42 F1800.0
G1 X18.42 Y-18.43 Z1.42 F1800.0
G1 X18.67 Y-18.43 Z1.42 F1800.0
G1 X20.42 Y-17.89 Z1.42 F1800.0
G1 X19.99 Y-17.45 Z1.42 F1800.0
G1 X19.99 Y-17.02 Z1.42 F1800.0
G1 X20.1 Y-16.9 Z1.42 F1800.0
M108 R30.0
M102
G1 X20.42 Y-16.58 Z1.42 F1800.0
M108 R3.569
M103
G1 X20.42 Y-15.2 Z1.42 F3000.0
M108 R30.0
M101
G1 X20.42 Y-14.4 Z1.42 F3000.0
M108 R3.569
G1 X18.42 Y-14.3 Z1.42 F1800.0
G1 X16.49 Y-16.25 Z1.42 F1800.0
G1 X16.24 Y-16.25 Z1.42 F1800.0
G1 X14.31 Y-14.3 Z1.42 F1800.0
G1 X14.05 Y-14.3 Z1.42 F1800.0
G1 X12.13 Y-16.25 Z1.42 F1800.0
G1 X11.87 Y-16.25 Z1.42 F1800.0
G1 X10.91 Y-14.4 Z1.42 F1800.0
G1 X10.91 Y-10.91 Z1.42 F1800.0
G1 X11.87 Y-12.11 Z1.42 F1800.0
G1 X12.13 Y-12.11 Z1.42 F1800.0
G1 X14.05 Y-14.07 Z1.42 F1800.0
G1 X14.31 Y-14.07 Z1.42 F1800.0
G1 X16.24 Y-12.11 Z1.42 F1800.0
G1 X16.49 Y-12.11 Z1.42 F1800.0
G1 X18.42 Y-14.07 Z1.42 F1800.0
G1 X18.67 Y-14.07 Z1.42 F1800.0
G1 X19.99 Y-13.53 Z1.42 F1800.0
G1 X20.42 Y-13.09 Z1.42 F1800.0
G1 X20.11 Y-12.78 Z1.42 F1800.0
G1 X20.42 Y-12.65 Z1.42 F1800.0
G1 X20.36 Y-12.51 Z1.42 F1800.0
M108 R30.0
M102
G1 X20.26 Y-12.25 Z1.42 F1800.0
G1 X20.42 Y-12.22 Z1.42 F1800.0
M108 R3.569
M103
G1 X20.42 Y-10.84 Z1.42 F3000.0
M108 R30.0
M101
G1 X20.42 Y-10.04 Z1.42 F3000.0
M108 R3.569
G1 X18.42 Y-9.93 Z1.42 F1800.0
G1 X16.49 Y-11.88 Z1.42 F1800.0
G1 X16.24 Y-11.88 Z1.42 F1800.0
G1 X14.31 Y-9.93 Z1.42 F1800.0
G1 X14.05 Y-9.93 Z1.42 F1800.0
G1 X12.13 Y-11.88 Z1.42 F1800.0
G1 X11.87 Y-11.88 Z1.42 F1800.0
G1 X10.91 Y-10.47 Z1.42 F1800.0
G1 X10.91 Y-6.55 Z1.42 F1800.0
G1 X11.87 Y-7.75 Z1.42 F1800.0
G1 X12.13 Y-7.75 Z1.42 F1800.0
G1 X14.05 Y-9.7 Z1.42 F1800.0
G1 X14.31 Y-9.7 Z1.42 F1800.0
G1 X16.24 Y-7.75 Z1.42 F1800.0
G1 X16.49 Y-7.75 Z1.42 F1800.0
G1 X18.42 Y-9.7 Z1.42 F1800.0
G1 X18.67 Y-9.7 Z1.42 F1800.0
G1 X19.99 Y-9.16 Z1.42 F1800.0
G1 X20.42 Y-8.73 Z1.42 F1800.0
G1 X20.11 Y-8.42 Z1.42 F1800.0
G1 X20.42 Y-8.29 Z1.42 F1800.0
G1 X20.36 Y-8.15 Z1.42 F1800.0
M108 R30.0
M102
G1 X20.26 Y-7.89 Z1.42 F1800.0
G1 X20.42 Y-7.85 Z1.42 F1800.0
M108 R3.569
M103
G1 X20.42 Y-6.47 Z1.42 F3000.0
M108 R30.0
M101
G1 X20.42 Y-5.67 Z1.42 F3000.0
M108 R3.569
G1 X18.42 Y-5.57 Z1.42 F1800.0
G1 X16.49 Y-7.52 Z1.42 F1800.0
G1 X16.24 Y-7.52 Z1.42 F1800.0
G1 X14.31 Y-5.57 Z1.42 F1800.0
G1 X14.05 Y-5.57 Z1.42 F1800.0
G1 X12.13 Y-7.52 Z1.42 F1800.0
G1 X11.87 Y-7.52 Z1.42 F1800.0
G1 X10.91 Y-5.67 Z1.42 F1800.0
G1 X10.91 Y-2.18 Z1.42 F1800.0
G1 X11.87 Y-3.39 Z1.42 F1800.0
G1 X12.13 Y-3.39 Z1.42 F1800.0
G1 X14.05 Y-5.34 Z1.42 F1800.0
G1 X14.31 Y-5.34 Z1.42 F1800.0
G1 X16.24 Y-3.39 Z1.42 F1800.0
G1 X16.49 Y-3.39 Z1.42 F1800.0
G1 X18.42 Y-5.34 Z1.42 F1800.0
G1 X18.67 Y-5.34 Z1.42 F1800.0
G1 X19.99 Y-4.8 Z1.42 F1800.0
G1 X20.42 Y-4.36 Z1.42 F1800.0
G1 X20.11 Y-4.06 Z1.42 F1800.0
G1 X20.42 Y-3.93 Z1.42 F1800.0
G1 X20.36 Y-3.78 Z1.42 F1800.0
M108 R30.0
M102
G1 X20.26 Y-3.52 Z1.42 F1800.0
G1 X20.42 Y-3.49 Z1.42 F1800.0
M108 R3.569
M103
G1 X20.42 Y-2.11 Z1.42 F3000.0
M108 R30.0
M101
G1 X20.42 Y-1.31 Z1.42 F3000.0
M108 R3.569
G1 X18.42 Y-1.21 Z1.42 F1800.0
G1 X16.49 Y-3.16 Z1.42 F1800.0
G1 X16.24 Y-3.16 Z1.42 F1800.0
G1 X14.31 Y-1.21 Z1.42 F1800.0
G1 X14.05 Y-1.21 Z1.42 F1800.0
G1 X12.13 Y-3.16 Z1.42 F1800.0
G1 X11.87 Y-3.16 Z1.42 F1800.0
G1 X10.91 Y-1.31 Z1.42 F1800.0
G1 X10.91 Y2.18 Z1.42 F1800.0
G1 X11.87 Y0.98 Z1.42 F1800.0
G1 X12.13 Y0.98 Z1.42 F1800.0
G1 X14.05 Y-0.98 Z1.42 F1800.0
G1 X14.31 Y-0.98 Z1.42 F1800.0
G1 X16.24 Y0.98 Z1.42 F1800.0
G1 X16.49 Y0.98 Z1.42 F1800.0
G1 X18.42 Y-0.98 Z1.42 F1800.0
G1 X18.67 Y-0.98 Z1.42 F1800.0
G1 X19.99 Y-0.44 Z1.42 F1800.0
G1 X20.42 Y-0.0 Z1.42 F1800.0
G1 X20.11 Y0.31 Z1.42 F1800.0
G1 X20.42 Y0.44 Z1.42 F1800.0
G1 X20.36 Y0.58 Z1.42 F1800.0
M108 R30.0
M102
G1 X20.26 Y0.84 Z1.42 F1800.0
G1 X20.42 Y0.87 Z1.42 F1800.0
M108 R3.569
M103
G1 X20.42 Y2.25 Z1.42 F3000.0
M108 R30.0
M101
G1 X20.42 Y3.05 Z1.42 F3000.0
M108 R3.569
G1 X18.42 Y3.16 Z1.42 F1800.0
G1 X16.49 Y1.21 Z1.42 F1800.0
G1 X16.24 Y1.21 Z1.42 F1800.0
G1 X14.31 Y3.16 Z1.42 F1800.0
G1 X14.05 Y3.16 Z1.42 F1800.0
G1 X12.13 Y1.21 Z1.42 F1800.0
G1 X11.87 Y1.21 Z1.42 F1800.0
G1 X10.91 Y2.62 Z1.42 F1800.0
G1 X10.91 Y6.55 Z1.42 F1800.0
G1 X11.87 Y5.34 Z1.42 F1800.0
G1 X12.13 Y5.34 Z1.42 F1800.0
G1 X14.05 Y3.39 Z1.42 F1800.0
G1 X14.31 Y3.39 Z1.42 F1800.0
G1 X16.24 Y5.34 Z1.42 F1800.0
G1 X16.49 Y5.34 Z1.42 F1800.0
G1 X18.42 Y3.39 Z1.42 F1800.0
G1 X18.67 Y3.39 Z1.42 F1800.0
G1 X19.99 Y3.93 Z1.42 F1800.0
G1 X20.42 Y4.36 Z1.42 F1800.0
G1 X20.11 Y4.67 Z1.42 F1800.0
G1 X20.42 Y4.8 Z1.42 F1800.0
G1 X20.36 Y4.95 Z1.42 F1800.0
M108 R30.0
M102
G1 X20.26 Y5.2 Z1.42 F1800.0
G1 X20.42 Y5.24 Z1.42 F1800.0
M108 R3.569
M103
G1 X20.42 Y6.62 Z1.42 F3000.0
M108 R30.0
M101
G1 X20.42 Y7.42 Z1.42 F3000.0
M108 R3.569
G1 X19.99 Y6.98 Z1.42 F1800.0
G1 X19.99 Y6.55 Z1.42 F1800.0
G1 X20.42 Y6.11 Z1.42 F1800.0
G1 X16.49 Y5.57 Z1.42 F1800.0
G1 X11.87 Y5.57 Z1.42 F1800.0
G1 X11.11 Y7.02 Z1.42 F1800.0
M108 R30.0
M102
G1 X10.91 Y7.42 Z1.42 F1800.0
M108 R3.569
M103
G1 X10.48 Y8.34 Z1.42 F3000.0
G1 X10.2 Y8.48 Z1.42 F3000.0
G1 X10.2 Y-17.67 Z1.42 F3000.0
G1 X-17.67 Y-17.67 Z1.42 F3000.0
G1 X-17.67 Y10.2 Z1.42 F3000.0
G1 X8.48 Y10.2 Z1.42 F3000.0
G1 X8.34 Y13.79 Z1.42 F3000.0
G1 X7.96 Y15.37 Z1.42 F3000.0
M108 R30.0
M101
G1 X7.77 Y16.14 Z1.42 F3000.0
M108 R3.569
G1 X5.33 Y16.25 Z1.42 F1800.0
G1 X3.4 Y14.3 Z1.42 F1800.0
G1 X3.15 Y14.3 Z1.42 F1800.0
G1 X1.22 Y16.25 Z1.42 F1800.0
G1 X0.96 Y16.25 Z1.42 F1800.0
G1 X-0.96 Y14.3 Z1.42 F1800.0
G1 X-1.22 Y14.3 Z1.42 F1800.0
G1 X-3.15 Y16.25 Z1.42 F1800.0
G1 X-3.4 Y16.25 Z1.42 F1800.0
G1 X-5.33 Y14.3 Z1.42 F1800.0
G1 X-5.58 Y14.3 Z1.42 F1800.0
G1 X-7.51 Y16.25 Z1.42 F1800.0
G1 X-7.76 Y16.25 Z1.42 F1800.0
G1 X-9.69 Y14.3 Z1.42 F1800.0
G1 X-9.95 Y14.3 Z1.42 F1800.0
G1 X-11.87 Y16.25 Z1.42 F1800.0
G1 X-12.13 Y16.25 Z1.42 F1800.0
G1 X-14.05 Y14.3 Z1.42 F1800.0
G1 X-14.31 Y14.3 Z1.42 F1800.0
G1 X-16.24 Y16.25 Z1.42 F1800.0
G1 X-16.49 Y16.25 Z1.42 F1800.0
G1 X-18.42 Y14.3 Z1.42 F1800.0
G1 X-18.67 Y14.3 Z1.42 F1800.0
G1 X-20.42 Y14.84 Z1.42 F1800.0
G1 X-19.99 Y15.27 Z1.42 F1800.0
G1 X-19.99 Y15.71 Z1.42 F1800.0
G1 X-20.1 Y15.83 Z1.42 F1800.0
M108 R30.0
M102
G1 X-20.42 Y16.14 Z1.42 F1800.0
M108 R3.569
M103
G1 X-20.42 Y17.53 Z1.42 F3000.0
M108 R30.0
M101
G1 X-20.42 Y18.33 Z1.42 F3000.0
M108 R3.569
G1 X-18.42 Y18.43 Z1.42 F1800.0
G1 X-16.49 Y16.48 Z1.42 F1800.0
G1 X-16.24 Y16.48 Z1.42 F1800.0
G1 X-14.31 Y18.43 Z1.42 F1800.0
G1 X-14.05 Y18.43 Z1.42 F1800.0
G1 X-12.13 Y16.48 Z1.42 F1800.0
G1 X-11.87 Y16.48 Z1.42 F1800.0
G1 X-9.95 Y18.43 Z1.42 F1800.0
G1 X-9.69 Y18.43 Z1.42 F1800.0
G1 X-7.76 Y16.48 Z1.42 F1800.0
G1 X-7.51 Y16.48 Z1.42 F1800.0
G1 X-5.58 Y18.43 Z1.42 F1800.0
G1 X-5.33 Y18.43 Z1.42 F1800.0
G1 X-3.4 Y16.48 Z1.42 F1800.0
G1 X-3.15 Y16.48 Z1.42 F1800.0
G1 X-1.22 Y18.43 Z1.42 F1800.0
G1 X-0.96 Y18.43 Z1.42 F1800.0
G1 X0.96 Y16.48 Z1.42 F1800.0
G1 X1.22 Y16.48 Z1.42 F1800.0
G1 X3.15 Y18.43 Z1.42 F1800.0
G1 X3.4 Y18.43 Z1.42 F1800.0
G1 X5.33 Y16.48 Z1.42 F1800.0
G1 X5.58 Y16.48 Z1.42 F1800.0
G1 X7.77 Y17.02 Z1.42 F1800.0
G1 X7.34 Y17.45 Z1.42 F1800.0
G1 X7.34 Y17.89 Z1.42 F1800.0
G1 X7.45 Y18.01 Z1.42 F1800.0
M108 R30.0
M102
G1 X7.77 Y18.33 Z1.42 F1800.0
M108 R3.569
M103
G1 X7.77 Y19.27 Z1.42 F3000.0
M108 R30.0
M101
G1 X7.77 Y20.07 Z1.42 F3000.0
M108 R3.569
G1 X7.34 Y19.64 Z1.42 F1800.0
G1 X7.34 Y19.2 Z1.42 F1800.0
G1 X3.4 Y18.66 Z1.42 F1800.0
G1 X-18.67 Y18.66 Z1.42 F1800.0
G1 X-19.99 Y19.2 Z1.42 F1800.0
G1 X-19.99 Y19.64 Z1.42 F1800.0
G1 X-20.42 Y20.07 Z1.42 F1800.0
M103
(</surroundingLoop>)
(</layer>)
(<layer> 1.74 )
(<surroundingLoop>)
(<boundaryPerimeter>)
(<boundaryPoint> X21.267 Y8.616 Z1.74 </boundaryPoint>)
(<boundaryPoint> X10.061 Y8.616 Z1.74 </boundaryPoint>)
(<boundaryPoint> X10.061 Y-17.532 Z1.74 </boundaryPoint>)
(<boundaryPoint> X-17.532 Y-17.532 Z1.74 </boundaryPoint>)
(<boundaryPoint> X-17.532 Y10.061 Z1.74 </boundaryPoint>)
(<boundaryPoint> X8.616 Y10.061 Z1.74 </boundaryPoint>)
(<boundaryPoint> X8.616 Y21.267 Z1.74 </boundaryPoint>)
(<boundaryPoint> X-21.267 Y21.267 Z1.74 </boundaryPoint>)
(<boundaryPoint> X-21.267 Y-21.267 Z1.74 </boundaryPoint>)
(<boundaryPoint> X21.267 Y-21.267 Z1.74 </boundaryPoint>)
(<loop> outer )
G1 X-20.68 Y20.39 Z1.74 F3000.0
M101
G1 X-20.68 Y20.07 Z1.74 F1800.0
G1 X-20.68 Y-20.68 Z1.74 F1800.0
G1 X20.68 Y-20.68 Z1.74 F1800.0
G1 X20.68 Y8.03 Z1.74 F1800.0
G1 X10.65 Y8.03 Z1.74 F1800.0
G1 X10.65 Y-18.12 Z1.74 F1800.0
G1 X-18.12 Y-18.12 Z1.74 F1800.0
G1 X-18.12 Y10.65 Z1.74 F1800.0
G1 X8.03 Y10.65 Z1.74 F1800.0
G1 X8.03 Y20.68 Z1.74 F1800.0
G1 X-20.68 Y20.68 Z1.74 F1800.0
G1 X-20.68 Y20.39 Z1.74 F1800.0
M103
(</loop>)
(<perimeter> outer )
G1 X-21.07 Y20.39 Z1.74 F3000.0
M101
G1 X-21.07 Y20.07 Z1.74 F1800.0
G1 X-21.07 Y-21.07 Z1.74 F1800.0
G1 X21.07 Y-21.07 Z1.74 F1800.0
G1 X21.07 Y8.42 Z1.74 F1800.0
G1 X10.26 Y8.42 Z1.74 F1800.0
G1 X10.26 Y-17.73 Z1.74 F1800.0
G1 X-17.73 Y-17.73 Z1.74 F1800.0
G1 X-17.73 Y10.26 Z1.74 F1800.0
G1 X8.42 Y10.26 Z1.74 F1800.0
G1 X8.42 Y21.07 Z1.74 F1800.0
G1 X-21.07 Y21.07 Z1.74 F1800.0
G1 X-21.07 Y20.84 Z1.74 F1800.0
M108 R30.0
M102
G1 X-21.07 Y20.39 Z1.74 F1800.0
M108 R3.569
M103
(</perimeter>)
(</boundaryPerimeter>)
G1 X-20.09 Y-19.62 Z1.74 F3000.0
M108 R30.0
M101
G1 X-20.07 Y-20.42 Z1.74 F3000.0
M108 R3.569
G1 X-20.07 Y19.97 Z1.74 F1800.0
M108 R30.0
M102
G1 X-20.07 Y20.42 Z1.74 F1800.0
M108 R3.569
M103
G1 X-19.56 Y20.42 Z1.74 F3000.0
M108 R30.0
M101
G1 X-18.76 Y20.42 Z1.74 F3000.0
M108 R3.569
G1 X-18.71 Y-18.17 Z1.74 F1800.0
G1 X-19.2 Y-19.99 Z1.74 F1800.0
G1 X-18.76 Y-20.42 Z1.74 F1800.0
G1 X-18.33 Y-19.99 Z1.74 F1800.0
G1 X-17.89 Y-18.38 Z1.74 F1800.0
G1 X-15.71 Y-18.38 Z1.74 F1800.0
G1 X-17.45 Y-19.99 Z1.74 F1800.0
G1 X-17.02 Y-19.99 Z1.74 F1800.0
G1 X-16.58 Y-20.42 Z1.74 F1800.0
G1 X-16.14 Y-19.99 Z1.74 F1800.0
G1 X-15.71 Y-20.42 Z1.74 F1800.0
G1 X-15.27 Y-19.99 Z1.74 F1800.0
G1 X-15.27 Y-18.38 Z1.74 F1800.0
G1 X-13.96 Y-18.38 Z1.74 F1800.0
G1 X-14.84 Y-19.99 Z1.74 F1800.0
G1 X-14.4 Y-20.42 Z1.74 F1800.0
G1 X-13.96 Y-19.99 Z1.74 F1800.0
G1 X-13.53 Y-18.38 Z1.74 F1800.0
G1 X-11.78 Y-18.38 Z1.74 F1800.0
G1 X-13.09 Y-19.99 Z1.74 F1800.0
G1 X-12.65 Y-19.99 Z1.74 F1800.0
G1 X-12.22 Y-20.42 Z1.74 F1800.0
G1 X-11.78 Y-19.99 Z1.74 F1800.0
G1 X-11.35 Y-18.38 Z1.74 F1800.0
G1 X-9.6 Y-18.38 Z1.74 F1800.0
G1 X-10.91 Y-19.99 Z1.74 F1800.0
G1 X-10.04 Y-20.42 Z1.74 F1800.0
G1 X-9.6 Y-19.99 Z1.74 F1800.0
G1 X-9.16 Y-18.38 Z1.74 F1800.0
G1 X-7.42 Y-18.38 Z1.74 F1800.0
G1 X-8.73 Y-19.99 Z1.74 F1800.0
G1 X-7.85 Y-20.42 Z1.74 F1800.0
G1 X-7.42 Y-19.99 Z1.74 F1800.0
G1 X-6.98 Y-18.38 Z1.74 F1800.0
G1 X-5.24 Y-18.38 Z1.74 F1800.0
G1 X-6.11 Y-19.99 Z1.74 F1800.0
G1 X-5.67 Y-20.42 Z1.74 F1800.0
G1 X-5.24 Y-19.99 Z1.74 F1800.0
G1 X-4.8 Y-18.38 Z1.74 F1800.0
G1 X-3.05 Y-18.38 Z1.74 F1800.0
G1 X-4.36 Y-19.99 Z1.74 F1800.0
G1 X-3.93 Y-19.99 Z1.74 F1800.0
G1 X-3.49 Y-20.42 Z1.74 F1800.0
G1 X-3.05 Y-19.99 Z1.74 F1800.0
G1 X-2.62 Y-18.38 Z1.74 F1800.0
G1 X-0.87 Y-18.38 Z1.74 F1800.0
G1 X-2.18 Y-19.99 Z1.74 F1800.0
G1 X-1.31 Y-20.42 Z1.74 F1800.0
G1 X-0.87 Y-19.99 Z1.74 F1800.0
G1 X-0.44 Y-18.38 Z1.74 F1800.0
G1 X1.31 Y-18.38 Z1.74 F1800.0
G1 X-0.0 Y-19.99 Z1.74 F1800.0
G1 X0.87 Y-20.42 Z1.74 F1800.0
G1 X1.31 Y-19.99 Z1.74 F1800.0
G1 X1.75 Y-18.38 Z1.74 F1800.0
G1 X3.93 Y-18.38 Z1.74 F1800.0
G1 X2.18 Y-19.99 Z1.74 F1800.0
G1 X2.62 Y-19.99 Z1.74 F1800.0
G1 X3.05 Y-20.42 Z1.74 F1800.0
G1 X3.49 Y-19.99 Z1.74 F1800.0
G1 X3.93 Y-20.42 Z1.74 F1800.0
G1 X4.36 Y-19.99 Z1.74 F1800.0
G1 X4.36 Y-18.38 Z1.74 F1800.0
G1 X5.67 Y-18.38 Z1.74 F1800.0
G1 X4.8 Y-19.99 Z1.74 F1800.0
G1 X5.24 Y-20.42 Z1.74 F1800.0
G1 X5.67 Y-19.99 Z1.74 F1800.0
G1 X6.11 Y-18.38 Z1.74 F1800.0
G1 X7.85 Y-18.38 Z1.74 F1800.0
G1 X6.55 Y-19.99 Z1.74 F1800.0
G1 X6.98 Y-19.99 Z1.74 F1800.0
G1 X7.42 Y-20.42 Z1.74 F1800.0
G1 X7.85 Y-19.99 Z1.74 F1800.0
G1 X8.29 Y-18.38 Z1.74 F1800.0
G1 X10.47 Y-18.38 Z1.74 F1800.0
G1 X10.04 Y-19.99 Z1.74 F1800.0
G1 X9.92 Y-20.1 Z1.74 F1800.0
M108 R30.0
M102
G1 X9.6 Y-20.42 Z1.74 F1800.0
M108 R3.569
M103
G1 X10.98 Y-20.42 Z1.74 F3000.0
M108 R30.0
M101
G1 X11.78 Y-20.42 Z1.74 F3000.0
M108 R3.569
G1 X11.78 Y7.32 Z1.74 F1800.0
M108 R30.0
M102
G1 X11.78 Y7.77 Z1.74 F1800.0
M108 R3.569
M103
G1 X13.16 Y7.77 Z1.74 F3000.0
M108 R30.0
M101
G1 X13.96 Y7.77 Z1.74 F3000.0
M108 R3.569
G1 X13.53 Y7.34 Z1.74 F1800.0
G1 X13.09 Y7.34 Z1.74 F1800.0
G1 X12.65 Y7.77 Z1.74 F1800.0
G1 X12.22 Y7.34 Z1.74 F1800.0
G1 X12.11 Y5.33 Z1.74 F1800.0
G1 X14.07 Y3.4 Z1.74 F1800.0
G1 X14.07 Y3.15 Z1.74 F1800.0
G1 X12.11 Y1.22 Z1.74 F1800.0
G1 X12.11 Y0.96 Z1.74 F1800.0
G1 X14.07 Y-0.96 Z1.74 F1800.0
G1 X14.07 Y-1.22 Z1.74 F1800.0
G1 X12.11 Y-3.15 Z1.74 F1800.0
G1 X12.11 Y-3.4 Z1.74 F1800.0
G1 X14.07 Y-5.33 Z1.74 F1800.0
G1 X14.07 Y-5.58 Z1.74 F1800.0
G1 X12.11 Y-7.51 Z1.74 F1800.0
G1 X12.11 Y-7.76 Z1.74 F1800.0
G1 X14.07 Y-9.69 Z1.74 F1800.0
G1 X14.07 Y-9.95 Z1.74 F1800.0
G1 X12.11 Y-11.87 Z1.74 F1800.0
G1 X12.11 Y-12.13 Z1.74 F1800.0
G1 X14.07 Y-14.05 Z1.74 F1800.0
G1 X14.07 Y-14.31 Z1.74 F1800.0
G1 X12.11 Y-16.24 Z1.74 F1800.0
G1 X12.11 Y-16.49 Z1.74 F1800.0
G1 X14.07 Y-18.42 Z1.74 F1800.0
G1 X13.99 Y-19.97 Z1.74 F1800.0
M108 R30.0
M102
G1 X13.96 Y-20.42 Z1.74 F1800.0
M108 R3.569
M103
G1 X15.34 Y-20.42 Z1.74 F3000.0
M108 R30.0
M101
G1 X16.14 Y-20.42 Z1.74 F3000.0
M108 R3.569
G1 X15.71 Y-19.99 Z1.74 F1800.0
G1 X15.27 Y-19.99 Z1.74 F1800.0
G1 X14.84 Y-20.42 Z1.74 F1800.0
G1 X14.3 Y-18.67 Z1.74 F1800.0
G1 X14.3 Y-18.42 Z1.74 F1800.0
G1 X16.25 Y-16.49 Z1.74 F1800.0
G1 X16.25 Y-16.24 Z1.74 F1800.0
G1 X14.3 Y-14.31 Z1.74 F1800.0
G1 X14.3 Y-14.05 Z1.74 F1800.0
G1 X16.25 Y-12.13 Z1.74 F1800.0
G1 X16.25 Y-11.87 Z1.74 F1800.0
G1 X14.3 Y-9.95 Z1.74 F1800.0
G1 X14.3 Y-9.69 Z1.74 F1800.0
G1 X16.25 Y-7.76 Z1.74 F1800.0
G1 X16.25 Y-7.51 Z1.74 F1800.0
G1 X14.3 Y-5.58 Z1.74 F1800.0
G1 X14.3 Y-5.33 Z1.74 F1800.0
G1 X16.25 Y-3.4 Z1.74 F1800.0
G1 X16.25 Y-3.15 Z1.74 F1800.0
G1 X14.3 Y-1.22 Z1.74 F1800.0
G1 X14.3 Y-0.96 Z1.74 F1800.0
G1 X16.25 Y0.96 Z1.74 F1800.0
G1 X16.25 Y1.22 Z1.74 F1800.0
G1 X14.3 Y3.15 Z1.74 F1800.0
G1 X14.3 Y3.4 Z1.74 F1800.0
G1 X16.25 Y5.33 Z1.74 F1800.0
G1 X16.16 Y7.32 Z1.74 F1800.0
M108 R30.0
M102
G1 X16.14 Y7.77 Z1.74 F1800.0
M108 R3.569
M103
G1 X17.53 Y7.77 Z1.74 F3000.0
M108 R30.0
M101
G1 X18.33 Y7.77 Z1.74 F3000.0
M108 R3.569
G1 X17.89 Y7.34 Z1.74 F1800.0
G1 X17.45 Y7.34 Z1.74 F1800.0
G1 X17.02 Y7.77 Z1.74 F1800.0
G1 X16.48 Y5.58 Z1.74 F1800.0
G1 X16.48 Y5.33 Z1.74 F1800.0
G1 X18.43 Y3.4 Z1.74 F1800.0
G1 X18.43 Y3.15 Z1.74 F1800.0
G1 X16.48 Y1.22 Z1.74 F1800.0
G1 X16.48 Y0.96 Z1.74 F1800.0
G1 X18.43 Y-0.96 Z1.74 F1800.0
G1 X18.43 Y-1.22 Z1.74 F1800.0
G1 X16.48 Y-3.15 Z1.74 F1800.0
G1 X16.48 Y-3.4 Z1.74 F1800.0
G1 X18.43 Y-5.33 Z1.74 F1800.0
G1 X18.43 Y-5.58 Z1.74 F1800.0
G1 X16.48 Y-7.51 Z1.74 F1800.0
G1 X16.48 Y-7.76 Z1.74 F1800.0
G1 X18.43 Y-9.69 Z1.74 F1800.0
G1 X18.43 Y-9.95 Z1.74 F1800.0
G1 X16.48 Y-11.87 Z1.74 F1800.0
G1 X16.48 Y-12.13 Z1.74 F1800.0
G1 X18.43 Y-14.05 Z1.74 F1800.0
G1 X18.43 Y-14.31 Z1.74 F1800.0
G1 X16.48 Y-16.24 Z1.74 F1800.0
G1 X16.48 Y-16.49 Z1.74 F1800.0
G1 X18.43 Y-18.42 Z1.74 F1800.0
G1 X18.35 Y-19.97 Z1.74 F1800.0
M108 R30.0
M102
G1 X18.33 Y-20.42 Z1.74 F1800.0
M108 R3.569
M103
G1 X19.27 Y-20.42 Z1.74 F3000.0
M108 R30.0
M101
G1 X20.07 Y-20.42 Z1.74 F3000.0
M108 R3.569
G1 X19.64 Y-19.99 Z1.74 F1800.0
G1 X19.2 Y-19.99 Z1.74 F1800.0
G1 X18.66 Y-18.67 Z1.74 F1800.0
G1 X18.66 Y3.4 Z1.74 F1800.0
G1 X19.2 Y7.34 Z1.74 F1800.0
G1 X19.64 Y7.34 Z1.74 F1800.0
G1 X19.75 Y7.45 Z1.74 F1800.0
M108 R30.0
M102
G1 X20.07 Y7.77 Z1.74 F1800.0
M108 R3.569
M103
G1 X16.66 Y8.34 Z1.74 F3000.0
G1 X10.2 Y8.48 Z1.74 F3000.0
G1 X10.2 Y-17.67 Z1.74 F3000.0
G1 X-17.67 Y-17.67 Z1.74 F3000.0
G1 X-17.67 Y10.2 Z1.74 F3000.0
G1 X8.48 Y10.2 Z1.74 F3000.0
G1 X8.34 Y10.61 Z1.74 F3000.0
G1 X8.18 Y10.66 Z1.74 F3000.0
M108 R30.0
M101
G1 X7.42 Y10.91 Z1.74 F3000.0
M108 R3.569
G1 X5.57 Y11.87 Z1.74 F1800.0
G1 X5.57 Y16.49 Z1.74 F1800.0
G1 X6.11 Y20.42 Z1.74 F1800.0
G1 X6.55 Y19.99 Z1.74 F1800.0
G1 X6.98 Y19.99 Z1.74 F1800.0
G1 X7.1 Y20.1 Z1.74 F1800.0
M108 R30.0
M102
G1 X7.42 Y20.42 Z1.74 F1800.0
M108 R3.569
M103
G1 X6.04 Y20.42 Z1.74 F3000.0
M108 R30.0
M101
G1 X5.24 Y20.42 Z1.74 F3000.0
M108 R3.569
G1 X5.2 Y20.26 Z1.74 F1800.0
G1 X3.93 Y19.99 Z1.74 F1800.0
G1 X3.39 Y18.67 Z1.74 F1800.0
G1 X3.39 Y18.42 Z1.74 F1800.0
G1 X5.34 Y16.49 Z1.74 F1800.0
G1 X5.34 Y16.24 Z1.74 F1800.0
G1 X3.39 Y14.31 Z1.74 F1800.0
G1 X3.39 Y14.05 Z1.74 F1800.0
G1 X5.34 Y12.13 Z1.74 F1800.0
G1 X5.34 Y11.87 Z1.74 F1800.0
G1 X6.55 Y10.91 Z1.74 F1800.0
G1 X2.62 Y10.91 Z1.74 F1800.0
G1 X1.21 Y11.87 Z1.74 F1800.0
G1 X1.21 Y12.13 Z1.74 F1800.0
G1 X3.16 Y14.05 Z1.74 F1800.0
G1 X3.16 Y14.31 Z1.74 F1800.0
G1 X1.21 Y16.24 Z1.74 F1800.0
G1 X1.21 Y16.49 Z1.74 F1800.0
G1 X3.16 Y18.42 Z1.74 F1800.0
G1 X3.08 Y19.97 Z1.74 F1800.0
M108 R30.0
M102
G1 X3.05 Y20.42 Z1.74 F1800.0
M108 R3.569
M103
G1 X1.67 Y20.42 Z1.74 F3000.0
M108 R30.0
M101
G1 X0.87 Y20.42 Z1.74 F3000.0
M108 R3.569
G1 X0.84 Y20.26 Z1.74 F1800.0
G1 X-0.44 Y19.99 Z1.74 F1800.0
G1 X-0.98 Y18.67 Z1.74 F1800.0
G1 X-0.98 Y18.42 Z1.74 F1800.0
G1 X0.98 Y16.49 Z1.74 F1800.0
G1 X0.98 Y16.24 Z1.74 F1800.0
G1 X-0.98 Y14.31 Z1.74 F1800.0
G1 X-0.98 Y14.05 Z1.74 F1800.0
G1 X0.98 Y12.13 Z1.74 F1800.0
G1 X0.98 Y11.87 Z1.74 F1800.0
G1 X2.18 Y10.91 Z1.74 F1800.0
G1 X-1.31 Y10.91 Z1.74 F1800.0
G1 X-3.16 Y11.87 Z1.74 F1800.0
G1 X-3.16 Y12.13 Z1.74 F1800.0
G1 X-1.21 Y14.05 Z1.74 F1800.0
G1 X-1.21 Y14.31 Z1.74 F1800.0
G1 X-3.16 Y16.24 Z1.74 F1800.0
G1 X-3.16 Y16.49 Z1.74 F1800.0
G1 X-1.21 Y18.42 Z1.74 F1800.0
G1 X-1.29 Y19.97 Z1.74 F1800.0
M108 R30.0
M102
G1 X-1.31 Y20.42 Z1.74 F1800.0
M108 R3.569
M103
G1 X-2.69 Y20.42 Z1.74 F3000.0
M108 R30.0
M101
G1 X-3.49 Y20.42 Z1.74 F3000.0
M108 R3.569
G1 X-3.52 Y20.26 Z1.74 F1800.0
G1 X-4.8 Y19.99 Z1.74 F1800.0
G1 X-5.34 Y18.67 Z1.74 F1800.0
G1 X-5.34 Y18.42 Z1.74 F1800.0
G1 X-3.39 Y16.49 Z1.74 F1800.0
G1 X-3.39 Y16.24 Z1.74 F1800.0
G1 X-5.34 Y14.31 Z1.74 F1800.0
G1 X-5.34 Y14.05 Z1.74 F1800.0
G1 X-3.39 Y12.13 Z1.74 F1800.0
G1 X-3.39 Y11.87 Z1.74 F1800.0
G1 X-2.18 Y10.91 Z1.74 F1800.0
G1 X-6.11 Y10.91 Z1.74 F1800.0
G1 X-7.52 Y11.87 Z1.74 F1800.0
G1 X-7.52 Y12.13 Z1.74 F1800.0
G1 X-5.57 Y14.05 Z1.74 F1800.0
G1 X-5.57 Y14.31 Z1.74 F1800.0
G1 X-7.52 Y16.24 Z1.74 F1800.0
G1 X-7.52 Y16.49 Z1.74 F1800.0
G1 X-5.57 Y18.42 Z1.74 F1800.0
G1 X-5.65 Y19.97 Z1.74 F1800.0
M108 R30.0
M102
G1 X-5.67 Y20.42 Z1.74 F1800.0
M108 R3.569
M103
G1 X-7.05 Y20.42 Z1.74 F3000.0
M108 R30.0
M101
G1 X-7.85 Y20.42 Z1.74 F3000.0
M108 R3.569
G1 X-7.89 Y20.26 Z1.74 F1800.0
G1 X-9.16 Y19.99 Z1.74 F1800.0
G1 X-9.7 Y18.67 Z1.74 F1800.0
G1 X-9.7 Y18.42 Z1.74 F1800.0
G1 X-7.75 Y16.49 Z1.74 F1800.0
G1 X-7.75 Y16.24 Z1.74 F1800.0
G1 X-9.7 Y14.31 Z1.74 F1800.0
G1 X-9.7 Y14.05 Z1.74 F1800.0
G1 X-7.75 Y12.13 Z1.74 F1800.0
G1 X-7.75 Y11.87 Z1.74 F1800.0
G1 X-6.55 Y10.91 Z1.74 F1800.0
G1 X-10.47 Y10.91 Z1.74 F1800.0
G1 X-11.88 Y11.87 Z1.74 F1800.0
G1 X-11.88 Y12.13 Z1.74 F1800.0
G1 X-9.93 Y14.05 Z1.74 F1800.0
G1 X-9.93 Y14.31 Z1.74 F1800.0
G1 X-11.88 Y16.24 Z1.74 F1800.0
G1 X-11.88 Y16.49 Z1.74 F1800.0
G1 X-9.93 Y18.42 Z1.74 F1800.0
G1 X-10.01 Y19.97 Z1.74 F1800.0
M108 R30.0
M102
G1 X-10.04 Y20.42 Z1.74 F1800.0
M108 R3.569
M103
G1 X-11.42 Y20.42 Z1.74 F3000.0
M108 R30.0
M101
G1 X-12.22 Y20.42 Z1.74 F3000.0
M108 R3.569
G1 X-12.25 Y20.26 Z1.74 F1800.0
G1 X-13.53 Y19.99 Z1.74 F1800.0
G1 X-14.07 Y18.67 Z1.74 F1800.0
G1 X-14.07 Y18.42 Z1.74 F1800.0
G1 X-12.11 Y16.49 Z1.74 F1800.0
G1 X-12.11 Y16.24 Z1.74 F1800.0
G1 X-14.07 Y14.31 Z1.74 F1800.0
G1 X-14.07 Y14.05 Z1.74 F1800.0
G1 X-12.11 Y12.13 Z1.74 F1800.0
G1 X-12.11 Y11.87 Z1.74 F1800.0
G1 X-10.91 Y10.91 Z1.74 F1800.0
G1 X-14.84 Y10.91 Z1.74 F1800.0
G1 X-16.25 Y11.87 Z1.74 F1800.0
G1 X-16.25 Y12.13 Z1.74 F1800.0
G1 X-14.3 Y14.05 Z1.74 F1800.0
G1 X-14.3 Y14.31 Z1.74 F1800.0
G1 X-16.25 Y16.24 Z1.74 F1800.0
G1 X-16.25 Y16.49 Z1.74 F1800.0
G1 X-14.3 Y18.42 Z1.74 F1800.0
G1 X-14.38 Y19.97 Z1.74 F1800.0
M108 R30.0
M102
G1 X-14.4 Y20.42 Z1.74 F1800.0
M108 R3.569
M103
G1 X-15.78 Y20.42 Z1.74 F3000.0
M108 R30.0
M101
G1 X-16.58 Y20.42 Z1.74 F3000.0
M108 R3.569
G1 X-17.02 Y19.99 Z1.74 F1800.0
G1 X-17.45 Y19.99 Z1.74 F1800.0
G1 X-17.89 Y20.42 Z1.74 F1800.0
G1 X-18.43 Y18.67 Z1.74 F1800.0
G1 X-18.43 Y18.42 Z1.74 F1800.0
G1 X-16.48 Y16.49 Z1.74 F1800.0
G1 X-16.48 Y16.24 Z1.74 F1800.0
G1 X-18.43 Y14.31 Z1.74 F1800.0
G1 X-18.43 Y14.05 Z1.74 F1800.0
G1 X-16.48 Y12.13 Z1.74 F1800.0
G1 X-16.48 Y11.87 Z1.74 F1800.0
G1 X-15.27 Y10.91 Z1.74 F1800.0
G1 X-17.88 Y10.91 Z1.74 F1800.0
M108 R30.0
M102
G1 X-18.33 Y10.91 Z1.74 F1800.0
M108 R3.569
M103
(</surroundingLoop>)
(</layer>)
(<layer> 2.06 )
(<surroundingLoop>)
(<boundaryPerimeter>)
(<boundaryPoint> X21.267 Y8.616 Z2.06 </boundaryPoint>)
(<boundaryPoint> X8.616 Y8.616 Z2.06 </boundaryPoint>)
(<boundaryPoint> X8.616 Y21.267 Z2.06 </boundaryPoint>)
(<boundaryPoint> X-21.267 Y21.267 Z2.06 </boundaryPoint>)
(<boundaryPoint> X-21.267 Y-21.267 Z2.06 </boundaryPoint>)
(<boundaryPoint> X21.267 Y-21.267 Z2.06 </boundaryPoint>)
(<loop> outer )
G1 X-19.89 Y10.8 Z1.95 F3000.0
M108 R30.0
M101
G1 X-20.68 Y10.74 Z2.06 F3000.0
M108 R3.569
G1 X-20.68 Y-20.68 Z2.06 F1800.0
G1 X20.68 Y-20.68 Z2.06 F1800.0
G1 X20.68 Y8.03 Z2.06 F1800.0
G1 X8.03 Y8.03 Z2.06 F1800.0
G1 X8.03 Y20.68 Z2.06 F1800.0
G1 X-20.68 Y20.68 Z2.06 F1800.0
G1 X-20.68 Y10.91 Z2.06 F1800.0
G1 X-20.68 Y10.74 Z2.06 F1800.0
M103
(</loop>)
(<perimeter> outer )
G1 X-21.07 Y10.91 Z2.06 F3000.0
M101
G1 X-21.07 Y-21.07 Z2.06 F1800.0
G1 X21.07 Y-21.07 Z2.06 F1800.0
G1 X21.07 Y8.42 Z2.06 F1800.0
G1 X8.42 Y8.42 Z2.06 F1800.0
G1 X8.42 Y21.07 Z2.06 F1800.0
G1 X-21.07 Y21.07 Z2.06 F1800.0
G1 X-21.07 Y11.36 Z2.06 F1800.0
M108 R30.0
M102
G1 X-21.07 Y10.91 Z2.06 F1800.0
M108 R3.569
M103
(</perimeter>)
(</boundaryPerimeter>)
G1 X-20.9 Y10.68 Z2.06 F3000.0
M108 R30.0
M101
G1 X-20.42 Y10.04 Z2.06 F3000.0
M108 R3.569
G1 X7.77 Y10.04 Z2.06 F1800.0
M103
G1 X7.77 Y9.6 Z2.06 F3000.0
M101
G1 X-20.42 Y9.6 Z2.06 F1800.0
M103
G1 X-20.42 Y9.16 Z2.06 F3000.0
M101
G1 X7.77 Y9.16 Z2.06 F1800.0
M103
G1 X7.77 Y8.73 Z2.06 F3000.0
M101
G1 X-20.42 Y8.73 Z2.06 F1800.0
M103
G1 X-20.42 Y8.29 Z2.06 F3000.0
M101
G1 X7.77 Y8.29 Z2.06 F1800.0
M103
G1 X7.77 Y7.85 Z2.06 F3000.0
M101
G1 X-20.42 Y7.85 Z2.06 F1800.0
M103
G1 X-20.42 Y7.42 Z2.06 F3000.0
M101
G1 X20.42 Y7.42 Z2.06 F1800.0
M103
G1 X20.42 Y6.98 Z2.06 F3000.0
M101
G1 X-20.42 Y6.98 Z2.06 F1800.0
M103
G1 X-20.42 Y6.55 Z2.06 F3000.0
M101
G1 X20.42 Y6.55 Z2.06 F1800.0
M103
G1 X20.42 Y6.11 Z2.06 F3000.0
M101
G1 X-20.42 Y6.11 Z2.06 F1800.0
M103
G1 X-20.42 Y5.67 Z2.06 F3000.0
M101
G1 X20.42 Y5.67 Z2.06 F1800.0
M103
G1 X20.42 Y5.24 Z2.06 F3000.0
M101
G1 X-20.42 Y5.24 Z2.06 F1800.0
M103
G1 X-20.42 Y4.8 Z2.06 F3000.0
M101
G1 X20.42 Y4.8 Z2.06 F1800.0
M103
G1 X20.42 Y4.36 Z2.06 F3000.0
M101
G1 X-20.42 Y4.36 Z2.06 F1800.0
M103
G1 X-20.42 Y3.93 Z2.06 F3000.0
M101
G1 X20.42 Y3.93 Z2.06 F1800.0
M103
G1 X20.42 Y3.49 Z2.06 F3000.0
M101
G1 X-20.42 Y3.49 Z2.06 F1800.0
M103
G1 X-20.42 Y3.05 Z2.06 F3000.0
M101
G1 X20.42 Y3.05 Z2.06 F1800.0
M103
G1 X20.42 Y2.62 Z2.06 F3000.0
M101
G1 X-20.42 Y2.62 Z2.06 F1800.0
M103
G1 X-20.42 Y2.18 Z2.06 F3000.0
M101
G1 X20.42 Y2.18 Z2.06 F1800.0
M103
G1 X20.42 Y1.75 Z2.06 F3000.0
M101
G1 X-20.42 Y1.75 Z2.06 F1800.0
M103
G1 X-20.42 Y1.31 Z2.06 F3000.0
M101
G1 X20.42 Y1.31 Z2.06 F1800.0
M103
G1 X20.42 Y0.87 Z2.06 F3000.0
M101
G1 X-20.42 Y0.87 Z2.06 F1800.0
M103
G1 X-20.42 Y0.44 Z2.06 F3000.0
M101
G1 X20.42 Y0.44 Z2.06 F1800.0
M103
G1 X20.42 Y-0.0 Z2.06 F3000.0
M101
G1 X-20.42 Y0.0 Z2.06 F1800.0
M103
G1 X-20.42 Y-0.44 Z2.06 F3000.0
M101
G1 X20.42 Y-0.44 Z2.06 F1800.0
M103
G1 X20.42 Y-0.87 Z2.06 F3000.0
M101
G1 X-20.42 Y-0.87 Z2.06 F1800.0
M103
G1 X-20.42 Y-1.31 Z2.06 F3000.0
M101
G1 X20.42 Y-1.31 Z2.06 F1800.0
M103
G1 X20.42 Y-1.75 Z2.06 F3000.0
M101
G1 X-20.42 Y-1.75 Z2.06 F1800.0
M103
G1 X-20.42 Y-2.18 Z2.06 F3000.0
M101
G1 X20.42 Y-2.18 Z2.06 F1800.0
M103
G1 X20.42 Y-2.62 Z2.06 F3000.0
M101
G1 X-20.42 Y-2.62 Z2.06 F1800.0
M103
G1 X-20.42 Y-3.05 Z2.06 F3000.0
M101
G1 X20.42 Y-3.05 Z2.06 F1800.0
M103
G1 X20.42 Y-3.49 Z2.06 F3000.0
M101
G1 X-20.42 Y-3.49 Z2.06 F1800.0
M103
G1 X-20.42 Y-3.93 Z2.06 F3000.0
M101
G1 X20.42 Y-3.93 Z2.06 F1800.0
M103
G1 X20.42 Y-4.36 Z2.06 F3000.0
M101
G1 X-20.42 Y-4.36 Z2.06 F1800.0
M103
G1 X-20.42 Y-4.8 Z2.06 F3000.0
M101
G1 X20.42 Y-4.8 Z2.06 F1800.0
M103
G1 X20.42 Y-5.24 Z2.06 F3000.0
M101
G1 X-20.42 Y-5.24 Z2.06 F1800.0
M103
G1 X-20.42 Y-5.67 Z2.06 F3000.0
M101
G1 X20.42 Y-5.67 Z2.06 F1800.0
M103
G1 X20.42 Y-6.11 Z2.06 F3000.0
M101
G1 X-20.42 Y-6.11 Z2.06 F1800.0
M103
G1 X-20.42 Y-6.55 Z2.06 F3000.0
M101
G1 X20.42 Y-6.55 Z2.06 F1800.0
M103
G1 X20.42 Y-6.98 Z2.06 F3000.0
M101
G1 X-20.42 Y-6.98 Z2.06 F1800.0
M103
G1 X-20.42 Y-7.42 Z2.06 F3000.0
M101
G1 X20.42 Y-7.42 Z2.06 F1800.0
M103
G1 X20.42 Y-7.85 Z2.06 F3000.0
M101
G1 X-20.42 Y-7.85 Z2.06 F1800.0
M103
G1 X-20.42 Y-8.29 Z2.06 F3000.0
M101
G1 X20.42 Y-8.29 Z2.06 F1800.0
M103
G1 X20.42 Y-8.73 Z2.06 F3000.0
M101
G1 X-20.42 Y-8.73 Z2.06 F1800.0
M103
G1 X-20.42 Y-9.16 Z2.06 F3000.0
M101
G1 X20.42 Y-9.16 Z2.06 F1800.0
M103
G1 X20.42 Y-9.6 Z2.06 F3000.0
M101
G1 X-20.42 Y-9.6 Z2.06 F1800.0
M103
G1 X-20.42 Y-10.04 Z2.06 F3000.0
M101
G1 X20.42 Y-10.04 Z2.06 F1800.0
M103
G1 X20.42 Y-10.47 Z2.06 F3000.0
M101
G1 X-20.42 Y-10.47 Z2.06 F1800.0
M103
G1 X-20.42 Y-10.91 Z2.06 F3000.0
M101
G1 X20.42 Y-10.91 Z2.06 F1800.0
M103
G1 X20.42 Y-11.35 Z2.06 F3000.0
M101
G1 X-20.42 Y-11.35 Z2.06 F1800.0
M103
G1 X-20.42 Y-11.78 Z2.06 F3000.0
M101
G1 X20.42 Y-11.78 Z2.06 F1800.0
M103
G1 X20.42 Y-12.22 Z2.06 F3000.0
M101
G1 X-20.42 Y-12.22 Z2.06 F1800.0
M103
G1 X-20.42 Y-12.65 Z2.06 F3000.0
M101
G1 X20.42 Y-12.65 Z2.06 F1800.0
M103
G1 X20.42 Y-13.09 Z2.06 F3000.0
M101
G1 X-20.42 Y-13.09 Z2.06 F1800.0
M103
G1 X-20.42 Y-13.53 Z2.06 F3000.0
M101
G1 X20.42 Y-13.53 Z2.06 F1800.0
M103
G1 X20.42 Y-13.96 Z2.06 F3000.0
M101
G1 X-20.42 Y-13.96 Z2.06 F1800.0
M103
G1 X-20.42 Y-14.4 Z2.06 F3000.0
M101
G1 X20.42 Y-14.4 Z2.06 F1800.0
M103
G1 X20.42 Y-14.84 Z2.06 F3000.0
M101
G1 X-20.42 Y-14.84 Z2.06 F1800.0
M103
G1 X-20.42 Y-15.27 Z2.06 F3000.0
M101
G1 X20.42 Y-15.27 Z2.06 F1800.0
M103
G1 X20.42 Y-15.71 Z2.06 F3000.0
M101
G1 X-20.42 Y-15.71 Z2.06 F1800.0
M103
G1 X-20.42 Y-16.14 Z2.06 F3000.0
M101
G1 X20.42 Y-16.14 Z2.06 F1800.0
M103
G1 X20.42 Y-16.58 Z2.06 F3000.0
M101
G1 X-20.42 Y-16.58 Z2.06 F1800.0
M103
G1 X-20.42 Y-17.02 Z2.06 F3000.0
M101
G1 X20.42 Y-17.02 Z2.06 F1800.0
M103
G1 X20.42 Y-17.45 Z2.06 F3000.0
M101
G1 X19.99 Y-17.89 Z2.06 F1800.0
G1 X18.67 Y-18.43 Z2.06 F1800.0
G1 X-16.49 Y-18.43 Z2.06 F1800.0
G1 X-19.99 Y-17.89 Z2.06 F1800.0
G1 X-20.1 Y-17.77 Z2.06 F1800.0
M108 R30.0
M102
G1 X-20.42 Y-17.45 Z2.06 F1800.0
M108 R3.569
M103
G1 X-20.42 Y-17.96 Z2.06 F3000.0
M108 R30.0
M101
G1 X-20.42 Y-18.76 Z2.06 F3000.0
M108 R3.569
G1 X19.97 Y-18.76 Z2.06 F1800.0
M108 R30.0
M102
G1 X20.42 Y-18.76 Z2.06 F1800.0
M108 R3.569
M103
G1 X20.42 Y-19.27 Z2.06 F3000.0
M108 R30.0
M101
G1 X20.42 Y-20.07 Z2.06 F3000.0
M108 R3.569
G1 X-19.97 Y-20.07 Z2.06 F1800.0
M108 R30.0
M102
G1 X-20.42 Y-20.07 Z2.06 F1800.0
M108 R3.569
M103
G1 X7.24 Y11.18 Z2.06 F3000.0
M108 R30.0
M101
G1 X7.77 Y11.78 Z2.06 F3000.0
M108 R3.569
G1 X-12.13 Y12.0 Z2.06 F1800.0
G1 X-19.97 Y11.79 Z2.06 F1800.0
M108 R30.0
M102
G1 X-20.42 Y11.78 Z2.06 F1800.0
M108 R3.569
M103
G1 X-20.42 Y13.16 Z2.06 F3000.0
M108 R30.0
M101
G1 X-20.42 Y13.96 Z2.06 F3000.0
M108 R3.569
G1 X-18.42 Y14.07 Z2.06 F1800.0
G1 X-16.49 Y12.11 Z2.06 F1800.0
G1 X-16.24 Y12.11 Z2.06 F1800.0
G1 X-14.31 Y14.07 Z2.06 F1800.0
G1 X-0.96 Y14.07 Z2.06 F1800.0
G1 X0.96 Y12.11 Z2.06 F1800.0
G1 X1.22 Y12.11 Z2.06 F1800.0
G1 X3.15 Y14.07 Z2.06 F1800.0
G1 X3.4 Y14.07 Z2.06 F1800.0
G1 X5.33 Y12.11 Z2.06 F1800.0
G1 X7.34 Y12.22 Z2.06 F1800.0
G1 X7.77 Y12.65 Z2.06 F1800.0
G1 X7.34 Y13.09 Z2.06 F1800.0
G1 X7.34 Y13.53 Z2.06 F1800.0
G1 X7.45 Y13.64 Z2.06 F1800.0
M108 R30.0
M102
G1 X7.77 Y13.96 Z2.06 F1800.0
M108 R3.569
M103
G1 X7.77 Y15.34 Z2.06 F3000.0
M108 R30.0
M101
G1 X7.77 Y16.14 Z2.06 F3000.0
M108 R3.569
G1 X5.33 Y16.25 Z2.06 F1800.0
G1 X3.4 Y14.3 Z2.06 F1800.0
G1 X3.15 Y14.3 Z2.06 F1800.0
G1 X1.22 Y16.25 Z2.06 F1800.0
G1 X0.96 Y16.25 Z2.06 F1800.0
G1 X-0.96 Y14.3 Z2.06 F1800.0
G1 X-1.22 Y14.3 Z2.06 F1800.0
G1 X-3.15 Y16.25 Z2.06 F1800.0
G1 X-3.4 Y16.25 Z2.06 F1800.0
G1 X-5.33 Y14.3 Z2.06 F1800.0
G1 X-5.58 Y14.3 Z2.06 F1800.0
G1 X-7.51 Y16.25 Z2.06 F1800.0
G1 X-7.76 Y16.25 Z2.06 F1800.0
G1 X-9.69 Y14.3 Z2.06 F1800.0
G1 X-9.95 Y14.3 Z2.06 F1800.0
G1 X-11.87 Y16.25 Z2.06 F1800.0
G1 X-12.13 Y16.25 Z2.06 F1800.0
G1 X-14.05 Y14.3 Z2.06 F1800.0
G1 X-14.31 Y14.3 Z2.06 F1800.0
G1 X-16.24 Y16.25 Z2.06 F1800.0
G1 X-16.49 Y16.25 Z2.06 F1800.0
G1 X-18.42 Y14.3 Z2.06 F1800.0
G1 X-18.67 Y14.3 Z2.06 F1800.0
G1 X-20.42 Y14.84 Z2.06 F1800.0
G1 X-19.99 Y15.27 Z2.06 F1800.0
G1 X-19.99 Y15.71 Z2.06 F1800.0
G1 X-20.1 Y15.83 Z2.06 F1800.0
M108 R30.0
M102
G1 X-20.42 Y16.14 Z2.06 F1800.0
M108 R3.569
M103
G1 X-20.42 Y17.53 Z2.06 F3000.0
M108 R30.0
M101
G1 X-20.42 Y18.33 Z2.06 F3000.0
M108 R3.569
G1 X-18.42 Y18.43 Z2.06 F1800.0
G1 X-16.49 Y16.48 Z2.06 F1800.0
G1 X-16.24 Y16.48 Z2.06 F1800.0
G1 X-14.31 Y18.43 Z2.06 F1800.0
G1 X-14.05 Y18.43 Z2.06 F1800.0
G1 X-12.13 Y16.48 Z2.06 F1800.0
G1 X-11.87 Y16.48 Z2.06 F1800.0
G1 X-9.95 Y18.43 Z2.06 F1800.0
G1 X-9.69 Y18.43 Z2.06 F1800.0
G1 X-7.76 Y16.48 Z2.06 F1800.0
G1 X-7.51 Y16.48 Z2.06 F1800.0
G1 X-5.58 Y18.43 Z2.06 F1800.0
G1 X-5.33 Y18.43 Z2.06 F1800.0
G1 X-3.4 Y16.48 Z2.06 F1800.0
G1 X-3.15 Y16.48 Z2.06 F1800.0
G1 X-1.22 Y18.43 Z2.06 F1800.0
G1 X-0.96 Y18.43 Z2.06 F1800.0
G1 X0.96 Y16.48 Z2.06 F1800.0
G1 X1.22 Y16.48 Z2.06 F1800.0
G1 X3.15 Y18.43 Z2.06 F1800.0
G1 X3.4 Y18.43 Z2.06 F1800.0
G1 X5.33 Y16.48 Z2.06 F1800.0
G1 X5.58 Y16.48 Z2.06 F1800.0
G1 X7.77 Y17.02 Z2.06 F1800.0
G1 X7.34 Y17.45 Z2.06 F1800.0
G1 X7.34 Y17.89 Z2.06 F1800.0
G1 X7.45 Y18.01 Z2.06 F1800.0
M108 R30.0
M102
G1 X7.77 Y18.33 Z2.06 F1800.0
M108 R3.569
M103
G1 X7.77 Y19.27 Z2.06 F3000.0
M108 R30.0
M101
G1 X7.77 Y20.07 Z2.06 F3000.0
M108 R3.569
G1 X7.34 Y19.64 Z2.06 F1800.0
G1 X7.34 Y19.2 Z2.06 F1800.0
G1 X3.4 Y18.66 Z2.06 F1800.0
G1 X-18.67 Y18.66 Z2.06 F1800.0
G1 X-19.99 Y19.2 Z2.06 F1800.0
G1 X-19.99 Y19.64 Z2.06 F1800.0
G1 X-20.42 Y20.07 Z2.06 F1800.0
M103
(</surroundingLoop>)
(</layer>)
(<layer> 2.38 )
(<surroundingLoop>)
(<boundaryPerimeter>)
(<boundaryPoint> X21.267 Y8.616 Z2.38 </boundaryPoint>)
(<boundaryPoint> X8.616 Y8.616 Z2.38 </boundaryPoint>)
(<boundaryPoint> X8.616 Y21.267 Z2.38 </boundaryPoint>)
(<boundaryPoint> X-21.267 Y21.267 Z2.38 </boundaryPoint>)
(<boundaryPoint> X-21.267 Y-21.267 Z2.38 </boundaryPoint>)
(<boundaryPoint> X21.267 Y-21.267 Z2.38 </boundaryPoint>)
(<loop> outer )
G1 X-20.68 Y20.21 Z2.38 F3000.0
M101
G1 X-20.68 Y20.07 Z2.38 F1800.0
G1 X-20.68 Y-20.68 Z2.38 F1800.0
G1 X20.68 Y-20.68 Z2.38 F1800.0
G1 X20.68 Y8.03 Z2.38 F1800.0
G1 X8.03 Y8.03 Z2.38 F1800.0
G1 X8.03 Y20.68 Z2.38 F1800.0
G1 X-20.68 Y20.68 Z2.38 F1800.0
G1 X-20.68 Y20.21 Z2.38 F1800.0
M103
(</loop>)
(<perimeter> outer )
G1 X-21.07 Y20.07 Z2.38 F3000.0
M101
G1 X-21.07 Y-21.07 Z2.38 F1800.0
G1 X21.07 Y-21.07 Z2.38 F1800.0
G1 X21.07 Y8.42 Z2.38 F1800.0
G1 X8.42 Y8.42 Z2.38 F1800.0
G1 X8.42 Y21.07 Z2.38 F1800.0
G1 X-21.07 Y21.07 Z2.38 F1800.0
G1 X-21.07 Y20.52 Z2.38 F1800.0
M108 R30.0
M102
G1 X-21.07 Y20.07 Z2.38 F1800.0
M108 R3.569
M103
(</perimeter>)
(</boundaryPerimeter>)
G1 X-20.09 Y-19.62 Z2.38 F3000.0
M108 R30.0
M101
G1 X-20.07 Y-20.42 Z2.38 F3000.0
M108 R3.569
G1 X-20.07 Y19.97 Z2.38 F1800.0
M108 R30.0
M102
G1 X-20.07 Y20.42 Z2.38 F1800.0
M108 R3.569
M103
G1 X-19.56 Y20.42 Z2.38 F3000.0
M108 R30.0
M101
G1 X-18.76 Y20.42 Z2.38 F3000.0
M108 R3.569
G1 X-18.76 Y-19.97 Z2.38 F1800.0
M108 R30.0
M102
G1 X-18.76 Y-20.42 Z2.38 F1800.0
M108 R3.569
M103
G1 X-18.25 Y-20.42 Z2.38 F3000.0
M108 R30.0
M101
G1 X-17.45 Y-20.42 Z2.38 F3000.0
M108 R3.569
G1 X-17.89 Y-19.99 Z2.38 F1800.0
G1 X-18.43 Y-16.49 Z2.38 F1800.0
G1 X-18.43 Y18.67 Z2.38 F1800.0
G1 X-17.89 Y19.99 Z2.38 F1800.0
G1 X-17.45 Y20.42 Z2.38 F1800.0
M103
G1 X-17.02 Y20.42 Z2.38 F3000.0
M101
G1 X-17.02 Y-20.42 Z2.38 F1800.0
M103
G1 X-16.58 Y-20.42 Z2.38 F3000.0
M101
G1 X-16.58 Y20.42 Z2.38 F1800.0
M103
G1 X-16.14 Y20.42 Z2.38 F3000.0
M101
G1 X-16.14 Y-20.42 Z2.38 F1800.0
M103
G1 X-15.71 Y-20.42 Z2.38 F3000.0
M101
G1 X-15.71 Y20.42 Z2.38 F1800.0
M103
G1 X-15.27 Y20.42 Z2.38 F3000.0
M101
G1 X-15.27 Y-20.42 Z2.38 F1800.0
M103
G1 X-14.84 Y-20.42 Z2.38 F3000.0
M101
G1 X-14.84 Y20.42 Z2.38 F1800.0
M103
G1 X-14.4 Y20.42 Z2.38 F3000.0
M101
G1 X-14.4 Y-20.42 Z2.38 F1800.0
M103
G1 X-13.96 Y-20.42 Z2.38 F3000.0
M101
G1 X-13.96 Y20.42 Z2.38 F1800.0
M103
G1 X-13.53 Y20.42 Z2.38 F3000.0
M101
G1 X-13.53 Y-20.42 Z2.38 F1800.0
M103
G1 X-13.09 Y-20.42 Z2.38 F3000.0
M101
G1 X-13.09 Y20.42 Z2.38 F1800.0
M103
G1 X-12.65 Y20.42 Z2.38 F3000.0
M101
G1 X-12.65 Y-20.42 Z2.38 F1800.0
M103
G1 X-12.22 Y-20.42 Z2.38 F3000.0
M101
G1 X-12.22 Y20.42 Z2.38 F1800.0
M103
G1 X-11.78 Y20.42 Z2.38 F3000.0
M101
G1 X-11.78 Y-20.42 Z2.38 F1800.0
M103
G1 X-11.35 Y-20.42 Z2.38 F3000.0
M101
G1 X-11.35 Y20.42 Z2.38 F1800.0
M103
G1 X-10.91 Y20.42 Z2.38 F3000.0
M101
G1 X-10.91 Y-20.42 Z2.38 F1800.0
M103
G1 X-10.47 Y-20.42 Z2.38 F3000.0
M101
G1 X-10.47 Y20.42 Z2.38 F1800.0
M103
G1 X-10.04 Y20.42 Z2.38 F3000.0
M101
G1 X-10.04 Y-20.42 Z2.38 F1800.0
M103
G1 X-9.6 Y-20.42 Z2.38 F3000.0
M101
G1 X-9.6 Y20.42 Z2.38 F1800.0
M103
G1 X-9.16 Y20.42 Z2.38 F3000.0
M101
G1 X-9.16 Y-20.42 Z2.38 F1800.0
M103
G1 X-8.73 Y-20.42 Z2.38 F3000.0
M101
G1 X-8.73 Y20.42 Z2.38 F1800.0
M103
G1 X-8.29 Y20.42 Z2.38 F3000.0
M101
G1 X-8.29 Y-20.42 Z2.38 F1800.0
M103
G1 X-7.85 Y-20.42 Z2.38 F3000.0
M101
G1 X-7.85 Y20.42 Z2.38 F1800.0
M103
G1 X-7.42 Y20.42 Z2.38 F3000.0
M101
G1 X-7.42 Y-20.42 Z2.38 F1800.0
M103
G1 X-6.98 Y-20.42 Z2.38 F3000.0
M101
G1 X-6.98 Y20.42 Z2.38 F1800.0
M103
G1 X-6.55 Y20.42 Z2.38 F3000.0
M101
G1 X-6.55 Y-20.42 Z2.38 F1800.0
M103
G1 X-6.11 Y-20.42 Z2.38 F3000.0
M101
G1 X-6.11 Y20.42 Z2.38 F1800.0
M103
G1 X-5.67 Y20.42 Z2.38 F3000.0
M101
G1 X-5.67 Y-20.42 Z2.38 F1800.0
M103
G1 X-5.24 Y-20.42 Z2.38 F3000.0
M101
G1 X-5.24 Y20.42 Z2.38 F1800.0
M103
G1 X-4.8 Y20.42 Z2.38 F3000.0
M101
G1 X-4.8 Y-20.42 Z2.38 F1800.0
M103
G1 X-4.36 Y-20.42 Z2.38 F3000.0
M101
G1 X-4.36 Y20.42 Z2.38 F1800.0
M103
G1 X-3.93 Y20.42 Z2.38 F3000.0
M101
G1 X-3.93 Y-20.42 Z2.38 F1800.0
M103
G1 X-3.49 Y-20.42 Z2.38 F3000.0
M101
G1 X-3.49 Y20.42 Z2.38 F1800.0
M103
G1 X-3.05 Y20.42 Z2.38 F3000.0
M101
G1 X-3.05 Y-20.42 Z2.38 F1800.0
M103
G1 X-2.62 Y-20.42 Z2.38 F3000.0
M101
G1 X-2.62 Y20.42 Z2.38 F1800.0
M103
G1 X-2.18 Y20.42 Z2.38 F3000.0
M101
G1 X-2.18 Y-20.42 Z2.38 F1800.0
M103
G1 X-1.75 Y-20.42 Z2.38 F3000.0
M101
G1 X-1.75 Y20.42 Z2.38 F1800.0
M103
G1 X-1.31 Y20.42 Z2.38 F3000.0
M101
G1 X-1.31 Y-20.42 Z2.38 F1800.0
M103
G1 X-0.87 Y-20.42 Z2.38 F3000.0
M101
G1 X-0.87 Y20.42 Z2.38 F1800.0
M103
G1 X-0.44 Y20.42 Z2.38 F3000.0
M101
G1 X-0.44 Y-20.42 Z2.38 F1800.0
M103
G1 X-0.0 Y-20.42 Z2.38 F3000.0
M101
G1 X0.0 Y20.42 Z2.38 F1800.0
M103
G1 X0.44 Y20.42 Z2.38 F3000.0
M101
G1 X0.44 Y-20.42 Z2.38 F1800.0
M103
G1 X0.87 Y-20.42 Z2.38 F3000.0
M101
G1 X0.87 Y20.42 Z2.38 F1800.0
M103
G1 X1.31 Y20.42 Z2.38 F3000.0
M101
G1 X1.31 Y-20.42 Z2.38 F1800.0
M103
G1 X1.75 Y-20.42 Z2.38 F3000.0
M101
G1 X1.75 Y20.42 Z2.38 F1800.0
M103
G1 X2.18 Y20.42 Z2.38 F3000.0
M101
G1 X2.18 Y-20.42 Z2.38 F1800.0
M103
G1 X2.62 Y-20.42 Z2.38 F3000.0
M101
G1 X2.62 Y20.42 Z2.38 F1800.0
M103
G1 X3.05 Y20.42 Z2.38 F3000.0
M101
G1 X3.05 Y-20.42 Z2.38 F1800.0
M103
G1 X3.49 Y-20.42 Z2.38 F3000.0
M101
G1 X3.49 Y20.42 Z2.38 F1800.0
M103
G1 X3.93 Y20.42 Z2.38 F3000.0
M101
G1 X3.93 Y-20.42 Z2.38 F1800.0
M103
G1 X4.36 Y-20.42 Z2.38 F3000.0
M101
G1 X4.36 Y20.42 Z2.38 F1800.0
M103
G1 X4.8 Y20.42 Z2.38 F3000.0
M101
G1 X4.8 Y-20.42 Z2.38 F1800.0
M103
G1 X5.24 Y-20.42 Z2.38 F3000.0
M101
G1 X5.24 Y20.42 Z2.38 F1800.0
M103
G1 X5.67 Y20.42 Z2.38 F3000.0
M101
G1 X5.67 Y-20.42 Z2.38 F1800.0
M103
G1 X6.11 Y-20.42 Z2.38 F3000.0
M101
G1 X6.11 Y20.42 Z2.38 F1800.0
M103
G1 X6.55 Y20.42 Z2.38 F3000.0
M101
G1 X6.55 Y-20.42 Z2.38 F1800.0
M103
G1 X6.98 Y-20.42 Z2.38 F3000.0
M101
G1 X6.98 Y20.42 Z2.38 F1800.0
M103
G1 X7.42 Y20.42 Z2.38 F3000.0
M101
G1 X7.42 Y-20.42 Z2.38 F1800.0
M103
G1 X7.85 Y-20.42 Z2.38 F3000.0
M101
G1 X7.85 Y7.77 Z2.38 F1800.0
M103
G1 X8.29 Y7.77 Z2.38 F3000.0
M101
G1 X8.29 Y-20.42 Z2.38 F1800.0
M103
G1 X8.73 Y-20.42 Z2.38 F3000.0
M101
G1 X8.73 Y7.77 Z2.38 F1800.0
M103
G1 X9.16 Y7.77 Z2.38 F3000.0
M101
G1 X9.16 Y-20.42 Z2.38 F1800.0
M103
G1 X9.6 Y-20.42 Z2.38 F3000.0
M101
G1 X9.6 Y7.77 Z2.38 F1800.0
M103
G1 X10.04 Y7.77 Z2.38 F3000.0
M101
G1 X10.04 Y-19.97 Z2.38 F1800.0
M108 R30.0
M102
G1 X10.04 Y-20.42 Z2.38 F1800.0
M108 R3.569
M103
G1 X10.98 Y-20.42 Z2.38 F3000.0
M108 R30.0
M101
G1 X11.78 Y-20.42 Z2.38 F3000.0
M108 R3.569
G1 X11.78 Y7.32 Z2.38 F1800.0
M108 R30.0
M102
G1 X11.78 Y7.77 Z2.38 F1800.0
M108 R3.569
M103
G1 X13.16 Y7.77 Z2.38 F3000.0
M108 R30.0
M101
G1 X13.96 Y7.77 Z2.38 F3000.0
M108 R3.569
G1 X13.53 Y7.34 Z2.38 F1800.0
G1 X13.09 Y7.34 Z2.38 F1800.0
G1 X12.65 Y7.77 Z2.38 F1800.0
G1 X12.22 Y7.34 Z2.38 F1800.0
G1 X12.11 Y5.33 Z2.38 F1800.0
G1 X14.07 Y3.4 Z2.38 F1800.0
G1 X14.07 Y3.15 Z2.38 F1800.0
G1 X12.11 Y1.22 Z2.38 F1800.0
G1 X12.11 Y0.96 Z2.38 F1800.0
G1 X14.07 Y-0.96 Z2.38 F1800.0
G1 X14.07 Y-1.22 Z2.38 F1800.0
G1 X12.11 Y-3.15 Z2.38 F1800.0
G1 X12.11 Y-3.4 Z2.38 F1800.0
G1 X14.07 Y-5.33 Z2.38 F1800.0
G1 X14.07 Y-5.58 Z2.38 F1800.0
G1 X12.11 Y-7.51 Z2.38 F1800.0
G1 X12.11 Y-7.76 Z2.38 F1800.0
G1 X14.07 Y-9.69 Z2.38 F1800.0
G1 X14.07 Y-9.95 Z2.38 F1800.0
G1 X12.11 Y-11.87 Z2.38 F1800.0
G1 X12.11 Y-12.13 Z2.38 F1800.0
G1 X14.07 Y-14.05 Z2.38 F1800.0
G1 X14.07 Y-14.31 Z2.38 F1800.0
G1 X12.11 Y-16.24 Z2.38 F1800.0
G1 X12.11 Y-16.49 Z2.38 F1800.0
G1 X14.07 Y-18.42 Z2.38 F1800.0
G1 X13.99 Y-19.97 Z2.38 F1800.0
M108 R30.0
M102
G1 X13.96 Y-20.42 Z2.38 F1800.0
M108 R3.569
M103
G1 X15.34 Y-20.42 Z2.38 F3000.0
M108 R30.0
M101
G1 X16.14 Y-20.42 Z2.38 F3000.0
M108 R3.569
G1 X15.71 Y-19.99 Z2.38 F1800.0
G1 X15.27 Y-19.99 Z2.38 F1800.0
G1 X14.84 Y-20.42 Z2.38 F1800.0
G1 X14.3 Y-18.67 Z2.38 F1800.0
G1 X14.3 Y-18.42 Z2.38 F1800.0
G1 X16.25 Y-16.49 Z2.38 F1800.0
G1 X16.25 Y-16.24 Z2.38 F1800.0
G1 X14.3 Y-14.31 Z2.38 F1800.0
G1 X14.3 Y-14.05 Z2.38 F1800.0
G1 X16.25 Y-12.13 Z2.38 F1800.0
G1 X16.25 Y-11.87 Z2.38 F1800.0
G1 X14.3 Y-9.95 Z2.38 F1800.0
G1 X14.3 Y-9.69 Z2.38 F1800.0
G1 X16.25 Y-7.76 Z2.38 F1800.0
G1 X16.25 Y-7.51 Z2.38 F1800.0
G1 X14.3 Y-5.58 Z2.38 F1800.0
G1 X14.3 Y-5.33 Z2.38 F1800.0
G1 X16.25 Y-3.4 Z2.38 F1800.0
G1 X16.25 Y-3.15 Z2.38 F1800.0
G1 X14.3 Y-1.22 Z2.38 F1800.0
G1 X14.3 Y-0.96 Z2.38 F1800.0
G1 X16.25 Y0.96 Z2.38 F1800.0
G1 X16.25 Y1.22 Z2.38 F1800.0
G1 X14.3 Y3.15 Z2.38 F1800.0
G1 X14.3 Y3.4 Z2.38 F1800.0
G1 X16.25 Y5.33 Z2.38 F1800.0
G1 X16.16 Y7.32 Z2.38 F1800.0
M108 R30.0
M102
G1 X16.14 Y7.77 Z2.38 F1800.0
M108 R3.569
M103
G1 X17.53 Y7.77 Z2.38 F3000.0
M108 R30.0
M101
G1 X18.33 Y7.77 Z2.38 F3000.0
M108 R3.569
G1 X17.89 Y7.34 Z2.38 F1800.0
G1 X17.45 Y7.34 Z2.38 F1800.0
G1 X17.02 Y7.77 Z2.38 F1800.0
G1 X16.48 Y5.58 Z2.38 F1800.0
G1 X16.48 Y5.33 Z2.38 F1800.0
G1 X18.43 Y3.4 Z2.38 F1800.0
G1 X18.43 Y3.15 Z2.38 F1800.0
G1 X16.48 Y1.22 Z2.38 F1800.0
G1 X16.48 Y0.96 Z2.38 F1800.0
G1 X18.43 Y-0.96 Z2.38 F1800.0
G1 X18.43 Y-1.22 Z2.38 F1800.0
G1 X16.48 Y-3.15 Z2.38 F1800.0
G1 X16.48 Y-3.4 Z2.38 F1800.0
G1 X18.43 Y-5.33 Z2.38 F1800.0
G1 X18.43 Y-5.58 Z2.38 F1800.0
G1 X16.48 Y-7.51 Z2.38 F1800.0
G1 X16.48 Y-7.76 Z2.38 F1800.0
G1 X18.43 Y-9.69 Z2.38 F1800.0
G1 X18.43 Y-9.95 Z2.38 F1800.0
G1 X16.48 Y-11.87 Z2.38 F1800.0
G1 X16.48 Y-12.13 Z2.38 F1800.0
G1 X18.43 Y-14.05 Z2.38 F1800.0
G1 X18.43 Y-14.31 Z2.38 F1800.0
G1 X16.48 Y-16.24 Z2.38 F1800.0
G1 X16.48 Y-16.49 Z2.38 F1800.0
G1 X18.43 Y-18.42 Z2.38 F1800.0
G1 X18.35 Y-19.97 Z2.38 F1800.0
M108 R30.0
M102
G1 X18.33 Y-20.42 Z2.38 F1800.0
M108 R3.569
M103
G1 X19.27 Y-20.42 Z2.38 F3000.0
M108 R30.0
M101
G1 X20.07 Y-20.42 Z2.38 F3000.0
M108 R3.569
G1 X19.64 Y-19.99 Z2.38 F1800.0
G1 X19.2 Y-19.99 Z2.38 F1800.0
G1 X18.66 Y-18.67 Z2.38 F1800.0
G1 X18.66 Y3.4 Z2.38 F1800.0
G1 X19.2 Y7.34 Z2.38 F1800.0
G1 X19.64 Y7.34 Z2.38 F1800.0
G1 X20.07 Y7.77 Z2.38 F1800.0
M103
(</surroundingLoop>)
(</layer>)
(<layer> 2.7 )
(<surroundingLoop>)
(<boundaryPerimeter>)
(<boundaryPoint> X21.267 Y8.616 Z2.7 </boundaryPoint>)
(<boundaryPoint> X8.616 Y8.616 Z2.7 </boundaryPoint>)
(<boundaryPoint> X8.616 Y21.267 Z2.7 </boundaryPoint>)
(<boundaryPoint> X-21.267 Y21.267 Z2.7 </boundaryPoint>)
(<boundaryPoint> X-21.267 Y-21.267 Z2.7 </boundaryPoint>)
(<boundaryPoint> X21.267 Y-21.267 Z2.7 </boundaryPoint>)
(<loop> outer )
G1 X19.72 Y8.03 Z2.7 F3000.0
M101
G1 X8.03 Y8.03 Z2.7 F1800.0
G1 X8.03 Y20.68 Z2.7 F1800.0
G1 X-20.68 Y20.68 Z2.7 F1800.0
G1 X-20.68 Y-20.68 Z2.7 F1800.0
G1 X20.68 Y-20.68 Z2.7 F1800.0
G1 X20.68 Y8.03 Z2.7 F1800.0
G1 X20.07 Y8.03 Z2.7 F1800.0
G1 X19.72 Y8.03 Z2.7 F1800.0
M103
(</loop>)
(<perimeter> outer )
G1 X19.72 Y8.42 Z2.7 F3000.0
M101
G1 X8.42 Y8.42 Z2.7 F1800.0
G1 X8.42 Y21.07 Z2.7 F1800.0
G1 X-21.07 Y21.07 Z2.7 F1800.0
G1 X-21.07 Y-21.07 Z2.7 F1800.0
G1 X21.07 Y-21.07 Z2.7 F1800.0
G1 X21.07 Y8.42 Z2.7 F1800.0
G1 X20.17 Y8.42 Z2.7 F1800.0
M108 R30.0
M102
G1 X20.07 Y8.42 Z2.7 F1800.0
G1 X19.72 Y8.42 Z2.7 F1800.0
M108 R3.569
M103
(</perimeter>)
(</boundaryPerimeter>)
G1 X-19.62 Y7.48 Z2.7 F3000.0
M108 R30.0
M101
G1 X-20.42 Y7.46 Z2.7 F3000.0
M108 R3.569
G1 X20.42 Y7.46 Z2.7 F1800.0
M103
G1 X20.42 Y7.07 Z2.7 F3000.0
M101
G1 X-20.42 Y7.07 Z2.7 F1800.0
M103
G1 X-20.42 Y6.68 Z2.7 F3000.0
M101
G1 X20.42 Y6.68 Z2.7 F1800.0
M103
G1 X20.42 Y6.28 Z2.7 F3000.0
M101
G1 X-20.42 Y6.28 Z2.7 F1800.0
M103
G1 X-20.42 Y5.89 Z2.7 F3000.0
M101
G1 X20.42 Y5.89 Z2.7 F1800.0
M103
G1 X20.42 Y5.5 Z2.7 F3000.0
M101
G1 X-20.42 Y5.5 Z2.7 F1800.0
M103
G1 X-20.42 Y5.11 Z2.7 F3000.0
M101
G1 X20.42 Y5.11 Z2.7 F1800.0
M103
G1 X20.42 Y4.71 Z2.7 F3000.0
M101
G1 X-20.42 Y4.71 Z2.7 F1800.0
M103
G1 X-20.42 Y4.32 Z2.7 F3000.0
M101
G1 X20.42 Y4.32 Z2.7 F1800.0
M103
G1 X20.42 Y3.93 Z2.7 F3000.0
M101
G1 X-20.42 Y3.93 Z2.7 F1800.0
M103
G1 X-20.42 Y3.53 Z2.7 F3000.0
M101
G1 X20.42 Y3.53 Z2.7 F1800.0
M103
G1 X20.42 Y3.14 Z2.7 F3000.0
M101
G1 X-20.42 Y3.14 Z2.7 F1800.0
M103
G1 X-20.42 Y2.75 Z2.7 F3000.0
M101
G1 X20.42 Y2.75 Z2.7 F1800.0
M103
G1 X20.42 Y2.36 Z2.7 F3000.0
M101
G1 X-20.42 Y2.36 Z2.7 F1800.0
M103
G1 X-20.42 Y1.96 Z2.7 F3000.0
M101
G1 X20.42 Y1.96 Z2.7 F1800.0
M103
G1 X20.42 Y1.57 Z2.7 F3000.0
M101
G1 X-20.42 Y1.57 Z2.7 F1800.0
M103
G1 X-20.42 Y1.18 Z2.7 F3000.0
M101
G1 X20.42 Y1.18 Z2.7 F1800.0
M103
G1 X20.42 Y0.79 Z2.7 F3000.0
M101
G1 X-20.42 Y0.79 Z2.7 F1800.0
M103
G1 X-20.42 Y0.39 Z2.7 F3000.0
M101
G1 X20.42 Y0.39 Z2.7 F1800.0
M103
G1 X20.42 Y-0.0 Z2.7 F3000.0
M101
G1 X-20.42 Y0.0 Z2.7 F1800.0
M103
G1 X-20.42 Y-0.39 Z2.7 F3000.0
M101
G1 X20.42 Y-0.39 Z2.7 F1800.0
M103
G1 X20.42 Y-0.79 Z2.7 F3000.0
M101
G1 X-20.42 Y-0.79 Z2.7 F1800.0
M103
G1 X-20.42 Y-1.18 Z2.7 F3000.0
M101
G1 X20.42 Y-1.18 Z2.7 F1800.0
M103
G1 X20.42 Y-1.57 Z2.7 F3000.0
M101
G1 X-20.42 Y-1.57 Z2.7 F1800.0
M103
G1 X-20.42 Y-1.96 Z2.7 F3000.0
M101
G1 X20.42 Y-1.96 Z2.7 F1800.0
M103
G1 X20.42 Y-2.36 Z2.7 F3000.0
M101
G1 X-20.42 Y-2.36 Z2.7 F1800.0
M103
G1 X-20.42 Y-2.75 Z2.7 F3000.0
M101
G1 X20.42 Y-2.75 Z2.7 F1800.0
M103
G1 X20.42 Y-3.14 Z2.7 F3000.0
M101
G1 X-20.42 Y-3.14 Z2.7 F1800.0
M103
G1 X-20.42 Y-3.53 Z2.7 F3000.0
M101
G1 X20.42 Y-3.53 Z2.7 F1800.0
M103
G1 X20.42 Y-3.93 Z2.7 F3000.0
M101
G1 X-20.42 Y-3.93 Z2.7 F1800.0
M103
G1 X-20.42 Y-4.32 Z2.7 F3000.0
M101
G1 X20.42 Y-4.32 Z2.7 F1800.0
M103
G1 X20.42 Y-4.71 Z2.7 F3000.0
M101
G1 X-20.42 Y-4.71 Z2.7 F1800.0
M103
G1 X-20.42 Y-5.11 Z2.7 F3000.0
M101
G1 X20.42 Y-5.11 Z2.7 F1800.0
M103
G1 X20.42 Y-5.5 Z2.7 F3000.0
M101
G1 X-20.42 Y-5.5 Z2.7 F1800.0
M103
G1 X-20.42 Y-5.89 Z2.7 F3000.0
M101
G1 X20.42 Y-5.89 Z2.7 F1800.0
M103
G1 X20.42 Y-6.28 Z2.7 F3000.0
M101
G1 X-20.42 Y-6.28 Z2.7 F1800.0
M103
G1 X-20.42 Y-6.68 Z2.7 F3000.0
M101
G1 X20.42 Y-6.68 Z2.7 F1800.0
M103
G1 X20.42 Y-7.07 Z2.7 F3000.0
M101
G1 X-20.42 Y-7.07 Z2.7 F1800.0
M103
G1 X-20.42 Y-7.46 Z2.7 F3000.0
M101
G1 X20.42 Y-7.46 Z2.7 F1800.0
M103
G1 X20.42 Y-7.85 Z2.7 F3000.0
M101
G1 X-20.42 Y-7.85 Z2.7 F1800.0
M103
G1 X-20.42 Y-8.25 Z2.7 F3000.0
M101
G1 X20.42 Y-8.25 Z2.7 F1800.0
M103
G1 X20.42 Y-8.64 Z2.7 F3000.0
M101
G1 X-20.42 Y-8.64 Z2.7 F1800.0
M103
G1 X-20.42 Y-9.03 Z2.7 F3000.0
M101
G1 X20.42 Y-9.03 Z2.7 F1800.0
M103
G1 X20.42 Y-9.43 Z2.7 F3000.0
M101
G1 X-20.42 Y-9.43 Z2.7 F1800.0
M103
G1 X-20.42 Y-9.82 Z2.7 F3000.0
M101
G1 X20.42 Y-9.82 Z2.7 F1800.0
M103
G1 X20.42 Y-10.21 Z2.7 F3000.0
M101
G1 X-20.42 Y-10.21 Z2.7 F1800.0
M103
G1 X-20.42 Y-10.6 Z2.7 F3000.0
M101
G1 X20.42 Y-10.6 Z2.7 F1800.0
M103
G1 X20.42 Y-11.0 Z2.7 F3000.0
M101
G1 X-20.42 Y-11.0 Z2.7 F1800.0
M103
G1 X-20.42 Y-11.39 Z2.7 F3000.0
M101
G1 X20.42 Y-11.39 Z2.7 F1800.0
M103
G1 X20.42 Y-11.78 Z2.7 F3000.0
M101
G1 X-20.42 Y-11.78 Z2.7 F1800.0
M103
G1 X-20.42 Y-12.17 Z2.7 F3000.0
M101
G1 X20.42 Y-12.17 Z2.7 F1800.0
M103
G1 X20.42 Y-12.57 Z2.7 F3000.0
M101
G1 X-20.42 Y-12.57 Z2.7 F1800.0
M103
G1 X-20.42 Y-12.96 Z2.7 F3000.0
M101
G1 X20.42 Y-12.96 Z2.7 F1800.0
M103
G1 X20.42 Y-13.35 Z2.7 F3000.0
M101
G1 X-20.42 Y-13.35 Z2.7 F1800.0
M103
G1 X-20.42 Y-13.74 Z2.7 F3000.0
M101
G1 X20.42 Y-13.74 Z2.7 F1800.0
M103
G1 X20.42 Y-14.14 Z2.7 F3000.0
M101
G1 X-20.42 Y-14.14 Z2.7 F1800.0
M103
G1 X-20.42 Y-14.53 Z2.7 F3000.0
M101
G1 X20.42 Y-14.53 Z2.7 F1800.0
M103
G1 X20.42 Y-14.92 Z2.7 F3000.0
M101
G1 X-20.42 Y-14.92 Z2.7 F1800.0
M103
G1 X-20.42 Y-15.32 Z2.7 F3000.0
M101
G1 X20.42 Y-15.32 Z2.7 F1800.0
M103
G1 X20.42 Y-15.71 Z2.7 F3000.0
M101
G1 X-20.42 Y-15.71 Z2.7 F1800.0
M103
G1 X-20.42 Y-16.1 Z2.7 F3000.0
M101
G1 X20.42 Y-16.1 Z2.7 F1800.0
M103
G1 X20.42 Y-16.49 Z2.7 F3000.0
M101
G1 X-20.42 Y-16.49 Z2.7 F1800.0
M103
G1 X-20.42 Y-16.89 Z2.7 F3000.0
M101
G1 X20.42 Y-16.89 Z2.7 F1800.0
M103
G1 X20.42 Y-17.28 Z2.7 F3000.0
M101
G1 X-20.42 Y-17.28 Z2.7 F1800.0
M103
G1 X-20.42 Y-17.67 Z2.7 F3000.0
M101
G1 X20.42 Y-17.67 Z2.7 F1800.0
M103
G1 X20.42 Y-18.06 Z2.7 F3000.0
M101
G1 X-20.42 Y-18.06 Z2.7 F1800.0
M103
G1 X-20.42 Y-18.46 Z2.7 F3000.0
M101
G1 X20.42 Y-18.46 Z2.7 F1800.0
M103
G1 X20.42 Y-18.85 Z2.7 F3000.0
M101
G1 X-20.42 Y-18.85 Z2.7 F1800.0
M103
G1 X-20.42 Y-19.24 Z2.7 F3000.0
M101
G1 X20.42 Y-19.24 Z2.7 F1800.0
M103
G1 X20.42 Y-19.64 Z2.7 F3000.0
M101
G1 X-20.42 Y-19.64 Z2.7 F1800.0
M103
G1 X-20.42 Y-20.03 Z2.7 F3000.0
M101
G1 X20.42 Y-20.03 Z2.7 F1800.0
M103
G1 X20.42 Y-20.42 Z2.7 F3000.0
M101
G1 X-19.97 Y-20.42 Z2.7 F1800.0
M108 R30.0
M102
G1 X-20.42 Y-20.42 Z2.7 F1800.0
M108 R3.569
M103
G1 X7.21 Y7.29 Z2.7 F3000.0
M108 R30.0
M101
G1 X7.77 Y7.85 Z2.7 F3000.0
M108 R3.569
G1 X-20.42 Y7.85 Z2.7 F1800.0
M103
G1 X-20.42 Y8.25 Z2.7 F3000.0
M101
G1 X7.77 Y8.25 Z2.7 F1800.0
M103
G1 X7.77 Y8.64 Z2.7 F3000.0
M101
G1 X-20.42 Y8.64 Z2.7 F1800.0
M103
G1 X-20.42 Y9.03 Z2.7 F3000.0
M101
G1 X7.77 Y9.03 Z2.7 F1800.0
M103
G1 X7.77 Y9.43 Z2.7 F3000.0
M101
G1 X-20.42 Y9.43 Z2.7 F1800.0
M103
G1 X-20.42 Y9.82 Z2.7 F3000.0
M101
G1 X7.77 Y9.82 Z2.7 F1800.0
M103
G1 X7.77 Y10.21 Z2.7 F3000.0
M101
G1 X-20.42 Y10.21 Z2.7 F1800.0
M103
G1 X-20.42 Y10.6 Z2.7 F3000.0
M101
G1 X7.77 Y10.6 Z2.7 F1800.0
M103
G1 X7.77 Y11.0 Z2.7 F3000.0
M101
G1 X-20.42 Y11.0 Z2.7 F1800.0
M103
G1 X-20.42 Y11.39 Z2.7 F3000.0
M101
G1 X7.77 Y11.39 Z2.7 F1800.0
M103
G1 X7.77 Y11.78 Z2.7 F3000.0
M101
G1 X-20.42 Y11.78 Z2.7 F1800.0
M103
G1 X-20.42 Y12.17 Z2.7 F3000.0
M101
G1 X7.77 Y12.17 Z2.7 F1800.0
M103
G1 X7.77 Y12.57 Z2.7 F3000.0
M101
G1 X-20.42 Y12.57 Z2.7 F1800.0
M103
G1 X-20.42 Y12.96 Z2.7 F3000.0
M101
G1 X7.77 Y12.96 Z2.7 F1800.0
M103
G1 X7.77 Y13.35 Z2.7 F3000.0
M101
G1 X-20.42 Y13.35 Z2.7 F1800.0
M103
G1 X-20.42 Y13.74 Z2.7 F3000.0
M101
G1 X7.77 Y13.74 Z2.7 F1800.0
M103
G1 X7.77 Y14.14 Z2.7 F3000.0
M101
G1 X-20.42 Y14.14 Z2.7 F1800.0
M103
G1 X-20.42 Y14.53 Z2.7 F3000.0
M101
G1 X7.77 Y14.53 Z2.7 F1800.0
M103
G1 X7.77 Y14.92 Z2.7 F3000.0
M101
G1 X-20.42 Y14.92 Z2.7 F1800.0
M103
G1 X-20.42 Y15.32 Z2.7 F3000.0
M101
G1 X7.77 Y15.32 Z2.7 F1800.0
M103
G1 X7.77 Y15.71 Z2.7 F3000.0
M101
G1 X-20.42 Y15.71 Z2.7 F1800.0
M103
G1 X-20.42 Y16.1 Z2.7 F3000.0
M101
G1 X7.77 Y16.1 Z2.7 F1800.0
M103
G1 X7.77 Y16.49 Z2.7 F3000.0
M101
G1 X-20.42 Y16.49 Z2.7 F1800.0
M103
G1 X-20.42 Y16.89 Z2.7 F3000.0
M101
G1 X7.77 Y16.89 Z2.7 F1800.0
M103
G1 X7.77 Y17.28 Z2.7 F3000.0
M101
G1 X-20.42 Y17.28 Z2.7 F1800.0
M103
G1 X-20.42 Y17.67 Z2.7 F3000.0
M101
G1 X7.77 Y17.67 Z2.7 F1800.0
M103
G1 X7.77 Y18.06 Z2.7 F3000.0
M101
G1 X-20.42 Y18.06 Z2.7 F1800.0
M103
G1 X-20.42 Y18.46 Z2.7 F3000.0
M101
G1 X7.77 Y18.46 Z2.7 F1800.0
M103
G1 X7.77 Y18.85 Z2.7 F3000.0
M101
G1 X-20.42 Y18.85 Z2.7 F1800.0
M103
G1 X-20.42 Y19.24 Z2.7 F3000.0
M101
G1 X7.77 Y19.24 Z2.7 F1800.0
M103
G1 X7.77 Y19.64 Z2.7 F3000.0
M101
G1 X-20.42 Y19.64 Z2.7 F1800.0
M103
G1 X-20.42 Y20.03 Z2.7 F3000.0
M101
G1 X7.77 Y20.03 Z2.7 F1800.0
M103
G1 X7.77 Y20.42 Z2.7 F3000.0
M101
G1 X-20.42 Y20.42 Z2.7 F1800.0
M103
(</surroundingLoop>)
(</layer>)
(<layer> 3.02 )
(<surroundingLoop>)
(<boundaryPerimeter>)
(<boundaryPoint> X21.267 Y8.616 Z3.02 </boundaryPoint>)
(<boundaryPoint> X8.616 Y8.616 Z3.02 </boundaryPoint>)
(<boundaryPoint> X8.616 Y21.267 Z3.02 </boundaryPoint>)
(<boundaryPoint> X-21.267 Y21.267 Z3.02 </boundaryPoint>)
(<boundaryPoint> X-21.267 Y-21.267 Z3.02 </boundaryPoint>)
(<boundaryPoint> X21.267 Y-21.267 Z3.02 </boundaryPoint>)
(<loop> outer )
G1 X-20.68 Y20.37 Z3.02 F3000.0
M101
G1 X-20.68 Y-20.68 Z3.02 F1800.0
G1 X20.68 Y-20.68 Z3.02 F1800.0
G1 X20.68 Y8.03 Z3.02 F1800.0
G1 X8.03 Y8.03 Z3.02 F1800.0
G1 X8.03 Y20.68 Z3.02 F1800.0
G1 X-20.68 Y20.68 Z3.02 F1800.0
G1 X-20.68 Y20.42 Z3.02 F1800.0
G1 X-20.68 Y20.37 Z3.02 F1800.0
M103
(</loop>)
(<perimeter> outer )
G1 X-21.07 Y20.42 Z3.02 F3000.0
M101
G1 X-21.07 Y-21.07 Z3.02 F1800.0
G1 X21.07 Y-21.07 Z3.02 F1800.0
G1 X21.07 Y8.42 Z3.02 F1800.0
G1 X8.42 Y8.42 Z3.02 F1800.0
G1 X8.42 Y21.07 Z3.02 F1800.0
G1 X-21.07 Y21.07 Z3.02 F1800.0
G1 X-21.07 Y20.87 Z3.02 F1800.0
M108 R30.0
M102
G1 X-21.07 Y20.42 Z3.02 F1800.0
M108 R3.569
M103
(</perimeter>)
(</boundaryPerimeter>)
G1 X-20.43 Y-19.62 Z3.02 F3000.0
M108 R30.0
M101
G1 X-20.42 Y-20.42 Z3.02 F3000.0
M108 R3.569
G1 X-20.42 Y20.42 Z3.02 F1800.0
M103
G1 X-20.03 Y20.42 Z3.02 F3000.0
M101
G1 X-20.03 Y-20.42 Z3.02 F1800.0
M103
G1 X-19.64 Y-20.42 Z3.02 F3000.0
M101
G1 X-19.64 Y20.42 Z3.02 F1800.0
M103
G1 X-19.24 Y20.42 Z3.02 F3000.0
M101
G1 X-19.24 Y-20.42 Z3.02 F1800.0
M103
G1 X-18.85 Y-20.42 Z3.02 F3000.0
M101
G1 X-18.85 Y20.42 Z3.02 F1800.0
M103
G1 X-18.46 Y20.42 Z3.02 F3000.0
M101
G1 X-18.46 Y-20.42 Z3.02 F1800.0
M103
G1 X-18.06 Y-20.42 Z3.02 F3000.0
M101
G1 X-18.06 Y20.42 Z3.02 F1800.0
M103
G1 X-17.67 Y20.42 Z3.02 F3000.0
M101
G1 X-17.67 Y-20.42 Z3.02 F1800.0
M103
G1 X-17.28 Y-20.42 Z3.02 F3000.0
M101
G1 X-17.28 Y20.42 Z3.02 F1800.0
M103
G1 X-16.89 Y20.42 Z3.02 F3000.0
M101
G1 X-16.89 Y-20.42 Z3.02 F1800.0
M103
G1 X-16.49 Y-20.42 Z3.02 F3000.0
M101
G1 X-16.49 Y20.42 Z3.02 F1800.0
M103
G1 X-16.1 Y20.42 Z3.02 F3000.0
M101
G1 X-16.1 Y-20.42 Z3.02 F1800.0
M103
G1 X-15.71 Y-20.42 Z3.02 F3000.0
M101
G1 X-15.71 Y20.42 Z3.02 F1800.0
M103
G1 X-15.32 Y20.42 Z3.02 F3000.0
M101
G1 X-15.32 Y-20.42 Z3.02 F1800.0
M103
G1 X-14.92 Y-20.42 Z3.02 F3000.0
M101
G1 X-14.92 Y20.42 Z3.02 F1800.0
M103
