(** This GCode was generated by ReplicatorG 0034 **)
(*  using Skeinforge (35)  *)
(*  for a Single headed Thing-O-Matic  *)
(*  on 2012/04/22 19:38:48 (-0400) *)
(<alteration>)
(**** beginning of start.gcode ****)
(This file is for a MakerBot Thing-O-Matic)
(**** begin initialization commands ****)
G21 (set units to mm)
G90 (set positioning to absolute)
M108 R5.0 (set extruder speed)
M103 (Make sure extruder is off)
M104 S225 T0 (set extruder temperature)
M109 S120 T0 (set heated-build-platform temperature)
(**** end initialization commands ****)
(**** begin homing ****)
G162 Z F1000 (home Z axis maximum)
G92 Z10 (set Z to 0)
G1 Z0.0 (move z down 10)
G162 Z F150 (home Z axis maximum)
G161 X Y F2500 (home XY axes minimum)
M132 X Y Z A B (Recall stored home offsets for XYZAB axis)
(**** end homing ****)
(**** begin pre-wipe commands ****)
( Some people have had problems with the nozzle hitting )
( bolts or wipers during this pre-extrusion warmup.     )
( If this happens to you, you can change the values for )
( the X and Y positions in the following code.          )
( The goal is to have the toolhead wipe its initial     )
( extrusion near the edge of the platform, [anchor it]  )
( so as not to have it interfere with the print.        )
( This file can be found in:                            )
( replicatorg/skein_engines/skeinforge-##/skeinforge_application/ )
( prefs/<profile name [e.g. Thingomatic-ABP-Mk7]>/alterations )
G1 X25.0 Y-60.0 Z10.0 F3300.0 (move to waiting position)
M6 T0 (wait for toolhead parts, nozzle, HBP, etc., to reach temperature)
G0 X25 Y-57 (Position Nozzle)
G0 Z0.6     (Position Height)
M108 R4.0   (Set Extruder Speed)
M101        (Start Extruder)
G4 P1500    (Create Anchor)
(**** end pre-wipe commands ****)
(**** end of start.gcode ****)
(</alteration>)
(<creation> skeinforge </creation>)
(<version> 10.11.05 </version>)
(<extruderInitialization>)
(<craftTypeName> extrusion </craftTypeName>)
M105
(<bridgeWidthMultiplier> 1.0 </bridgeWidthMultiplier>)
(<decimalPlacesCarried> 3 </decimalPlacesCarried>)
(<layerThickness> 0.32 </layerThickness>)
(<threadSequenceString> loops perimeter infill </threadSequenceString>)
(<operatingFeedRatePerSecond> 30.0 </operatingFeedRatePerSecond>)
(<operatingFlowRate> 3.56914845556 </operatingFlowRate>)
(<orbitalFeedRatePerSecond> 15.0 </orbitalFeedRatePerSecond>)
(<travelFeedRatePerSecond> 50.0 </travelFeedRatePerSecond>)
(<perimeterWidth> 0.393 </perimeterWidth>)
(<profileName> ABS </profileName>)
(<procedureDone> carve,bottom </procedureDone>)
(<procedureDone> preface </procedureDone>)
(<procedureDone> inset </procedureDone>)
(<procedureDone> fill </procedureDone>)
(<procedureDone> speed </procedureDone>)
(<procedureDone> raft </procedureDone>)
(<procedureDone> jitter </procedureDone>)
(<procedureDone> comb </procedureDone>)
(<procedureDone> cool </procedureDone>)
(<procedureDone> outline </procedureDone>)
(<procedureDone> reversal </procedureDone>)
(<procedureDone> export </procedureDone>)
(</extruderInitialization>)
(<extrusion>)
;M113 S1.0
M108 R3.569
(<layer> 0.46 )
(<surroundingLoop>)
(<boundaryPerimeter>)
(<boundaryPoint> X27.593 Y11.617 Z0.46 </boundaryPoint>)
(<boundaryPoint> X-27.593 Y11.617 Z0.46 </boundaryPoint>)
(<boundaryPoint> X-27.593 Y-11.617 Z0.46 </boundaryPoint>)
(<boundaryPoint> X27.593 Y-11.617 Z0.46 </boundaryPoint>)
(<loop> inner )
M108 R2.141
G1 X29.4 Y-13.42 Z0.46 F1080.0
M101
G1 X-29.4 Y-13.42 Z0.46 F1080.0
G1 X-29.4 Y13.42 Z0.46 F1080.0
G1 X29.4 Y13.42 Z0.46 F1080.0
G1 X29.4 Y-13.15 Z0.46 F1080.0
M108 R30.0
M102
G1 X29.4 Y-13.42 Z0.46 F1080.0
M108 R2.141
M103
G1 X-8.38 Y-0.35 Z0.46 F3000.0
M108 R30.0
M101
G1 X-9.13 Y-0.09 Z0.46 F3000.0
M108 R2.141
G1 X-9.65 Y-2.18 Z0.46 F1080.0
G1 X-11.13 Y-3.86 Z0.46 F1080.0
G1 X-13.23 Y-4.65 Z0.46 F1080.0
G1 X-15.46 Y-4.38 Z0.46 F1080.0
G1 X-17.3 Y-3.11 Z0.46 F1080.0
G1 X-18.35 Y-1.12 Z0.46 F1080.0
G1 X-18.35 Y1.12 Z0.46 F1080.0
G1 X-17.3 Y3.11 Z0.46 F1080.0
G1 X-15.46 Y4.38 Z0.46 F1080.0
G1 X-13.23 Y4.65 Z0.46 F1080.0
G1 X-11.13 Y3.86 Z0.46 F1080.0
G1 X-9.65 Y2.18 Z0.46 F1080.0
G1 X-9.15 Y0.17 Z0.46 F1080.0
M108 R30.0
M102
G1 X-9.11 Y0.0 Z0.46 F1080.0
G1 X-9.13 Y-0.09 Z0.46 F1080.0
M108 R2.141
M103
(</loop>)
(<loop> inner )
G1 X8.45 Y-0.0 Z0.46 F3000.0
M108 R30.0
M101
G1 X9.25 Y0.0 Z0.46 F3000.0
M108 R2.141
G1 X9.25 Y1.12 Z0.46 F1080.0
G1 X10.29 Y3.11 Z0.46 F1080.0
G1 X12.14 Y4.38 Z0.46 F1080.0
G1 X14.36 Y4.65 Z0.46 F1080.0
G1 X16.46 Y3.86 Z0.46 F1080.0
G1 X17.95 Y2.18 Z0.46 F1080.0
G1 X18.48 Y-0.0 Z0.46 F1080.0
G1 X17.95 Y-2.18 Z0.46 F1080.0
G1 X16.46 Y-3.86 Z0.46 F1080.0
G1 X14.36 Y-4.65 Z0.46 F1080.0
G1 X12.14 Y-4.38 Z0.46 F1080.0
G1 X10.29 Y-3.11 Z0.46 F1080.0
G1 X9.25 Y-1.12 Z0.46 F1080.0
G1 X9.25 Y-0.27 Z0.46 F1080.0
M108 R30.0
M102
G1 X9.25 Y0.0 Z0.46 F1080.0
M108 R2.141
M103
(</loop>)
(<loop> outer )
G1 X9.25 Y10.23 Z0.46 F3000.0
M108 R30.0
M101
G1 X9.25 Y11.03 Z0.46 F3000.0
M108 R2.141
G1 X-27.0 Y11.03 Z0.46 F1080.0
G1 X-27.0 Y-11.03 Z0.46 F1080.0
G1 X27.0 Y-11.03 Z0.46 F1080.0
G1 X27.0 Y11.03 Z0.46 F1080.0
G1 X9.25 Y11.03 Z0.46 F1080.0
M103
(</loop>)
(<perimeter> outer )
G1 X9.25 Y11.42 Z0.46 F3000.0
M101
G1 X-27.4 Y11.42 Z0.46 F1080.0
G1 X-27.4 Y-11.42 Z0.46 F1080.0
G1 X27.4 Y-11.42 Z0.46 F1080.0
G1 X27.4 Y11.42 Z0.46 F1080.0
G1 X9.52 Y11.42 Z0.46 F1080.0
M108 R30.0
M102
G1 X9.25 Y11.42 Z0.46 F1080.0
M108 R2.141
M103
(</perimeter>)
(</boundaryPerimeter>)
(<surroundingLoop>)
(<boundaryPerimeter>)
(<boundaryPoint> X12.35 Y3.815 Z0.46 </boundaryPoint>)
(<boundaryPoint> X14.288 Y4.05 Z0.46 </boundaryPoint>)
(<boundaryPoint> X16.114 Y3.358 Z0.46 </boundaryPoint>)
(<boundaryPoint> X17.409 Y1.896 Z0.46 </boundaryPoint>)
(<boundaryPoint> X17.877 Y-0.0 Z0.46 </boundaryPoint>)
(<boundaryPoint> X17.409 Y-1.896 Z0.46 </boundaryPoint>)
(<boundaryPoint> X16.114 Y-3.358 Z0.46 </boundaryPoint>)
(<boundaryPoint> X14.288 Y-4.05 Z0.46 </boundaryPoint>)
(<boundaryPoint> X12.35 Y-3.815 Z0.46 </boundaryPoint>)
(<boundaryPoint> X10.743 Y-2.706 Z0.46 </boundaryPoint>)
(<boundaryPoint> X9.835 Y-0.976 Z0.46 </boundaryPoint>)
(<boundaryPoint> X9.835 Y0.976 Z0.46 </boundaryPoint>)
(<boundaryPoint> X10.743 Y2.706 Z0.46 </boundaryPoint>)
(<perimeter> inner )
G1 X11.98 Y4.75 Z0.46 F3000.0
M108 R30.0
M101
G1 X12.28 Y4.0 Z0.46 F3000.0
M108 R2.141
G1 X14.31 Y4.25 Z0.46 F1080.0
G1 X16.23 Y3.53 Z0.46 F1080.0
G1 X17.59 Y1.99 Z0.46 F1080.0
G1 X18.08 Y-0.0 Z0.46 F1080.0
G1 X17.59 Y-1.99 Z0.46 F1080.0
G1 X16.23 Y-3.53 Z0.46 F1080.0
G1 X14.31 Y-4.25 Z0.46 F1080.0
G1 X12.28 Y-4.0 Z0.46 F1080.0
G1 X10.59 Y-2.84 Z0.46 F1080.0
G1 X9.64 Y-1.02 Z0.46 F1080.0
G1 X9.64 Y1.02 Z0.46 F1080.0
G1 X10.59 Y2.84 Z0.46 F1080.0
G1 X12.06 Y3.85 Z0.46 F1080.0
M108 R30.0
M102
G1 X12.28 Y4.0 Z0.46 F1080.0
M108 R2.141
M103
(</perimeter>)
(</boundaryPerimeter>)
(</surroundingLoop>)
(<surroundingLoop>)
(<boundaryPerimeter>)
(<boundaryPoint> X-16.85 Y-2.706 Z0.46 </boundaryPoint>)
(<boundaryPoint> X-17.758 Y-0.976 Z0.46 </boundaryPoint>)
(<boundaryPoint> X-17.758 Y0.976 Z0.46 </boundaryPoint>)
(<boundaryPoint> X-16.85 Y2.706 Z0.46 </boundaryPoint>)
(<boundaryPoint> X-15.243 Y3.815 Z0.46 </boundaryPoint>)
(<boundaryPoint> X-13.305 Y4.05 Z0.46 </boundaryPoint>)
(<boundaryPoint> X-11.479 Y3.358 Z0.46 </boundaryPoint>)
(<boundaryPoint> X-10.184 Y1.896 Z0.46 </boundaryPoint>)
(<boundaryPoint> X-9.716 Y-0.0 Z0.46 </boundaryPoint>)
(<boundaryPoint> X-10.184 Y-1.896 Z0.46 </boundaryPoint>)
(<boundaryPoint> X-11.479 Y-3.358 Z0.46 </boundaryPoint>)
(<boundaryPoint> X-13.305 Y-4.05 Z0.46 </boundaryPoint>)
(<boundaryPoint> X-15.243 Y-3.815 Z0.46 </boundaryPoint>)
(<perimeter> inner )
G1 X-8.73 Y0.14 Z0.46 F3000.0
M108 R30.0
M101
G1 X-9.51 Y-0.0 Z0.46 F3000.0
M108 R2.141
G1 X-10.01 Y-1.99 Z0.46 F1080.0
G1 X-11.36 Y-3.53 Z0.46 F1080.0
G1 X-13.28 Y-4.25 Z0.46 F1080.0
G1 X-15.32 Y-4.0 Z0.46 F1080.0
G1 X-17.0 Y-2.84 Z0.46 F1080.0
G1 X-17.95 Y-1.02 Z0.46 F1080.0
G1 X-17.95 Y1.02 Z0.46 F1080.0
G1 X-17.0 Y2.84 Z0.46 F1080.0
G1 X-15.32 Y4.0 Z0.46 F1080.0
G1 X-13.28 Y4.25 Z0.46 F1080.0
G1 X-11.36 Y3.53 Z0.46 F1080.0
G1 X-10.01 Y1.99 Z0.46 F1080.0
G1 X-9.51 Y-0.0 Z0.46 F1080.0
M103
(</perimeter>)
(</boundaryPerimeter>)
(</surroundingLoop>)
G1 X-9.03 Y-0.75 Z0.46 F1800.0
M101
G1 X-9.03 Y-10.77 Z0.46 F1080.0
G1 X-9.43 Y-10.77 Z0.46 F1080.0
G1 X-9.43 Y-2.31 Z0.46 F1080.0
G1 X-9.82 Y-2.76 Z0.46 F1080.0
G1 X-9.82 Y-10.77 Z0.46 F1080.0
G1 X-10.21 Y-10.77 Z0.46 F1080.0
G1 X-10.21 Y-3.2 Z0.46 F1080.0
G1 X-10.6 Y-3.64 Z0.46 F1080.0
G1 X-10.6 Y-10.77 Z0.46 F1080.0
G1 X-11.0 Y-10.77 Z0.46 F1080.0
G1 X-11.0 Y-4.08 Z0.46 F1080.0
G1 X-11.39 Y-4.23 Z0.46 F1080.0
G1 X-11.39 Y-10.77 Z0.46 F1080.0
G1 X-11.78 Y-10.77 Z0.46 F1080.0
G1 X-11.78 Y-4.38 Z0.46 F1080.0
M103
G1 X-12.17 Y-4.52 Z0.46 F1800.0
M101
G1 X-12.17 Y-10.77 Z0.46 F1080.0
G1 X-12.57 Y-10.77 Z0.46 F1080.0
G1 X-12.57 Y-4.67 Z0.46 F1080.0
M103
G1 X-12.96 Y-4.82 Z0.46 F1800.0
M101
G1 X-12.96 Y-10.77 Z0.46 F1080.0
G1 X-13.35 Y-10.77 Z0.46 F1080.0
G1 X-13.35 Y-4.89 Z0.46 F1080.0
M103
G1 X-13.74 Y-4.85 Z0.46 F1800.0
M101
G1 X-13.74 Y-10.77 Z0.46 F1080.0
G1 X-14.14 Y-10.77 Z0.46 F1080.0
G1 X-14.14 Y-4.8 Z0.46 F1080.0
M103
G1 X-14.53 Y-4.75 Z0.46 F1800.0
M101
G1 X-14.53 Y-10.77 Z0.46 F1080.0
G1 X-14.92 Y-10.77 Z0.46 F1080.0
G1 X-14.92 Y-4.71 Z0.46 F1080.0
M103
G1 X-15.32 Y-4.66 Z0.46 F1800.0
M101
G1 X-15.32 Y-10.77 Z0.46 F1080.0
G1 X-15.71 Y-10.77 Z0.46 F1080.0
G1 X-15.71 Y-4.52 Z0.46 F1080.0
M103
G1 X-16.1 Y-4.25 Z0.46 F1800.0
M101
G1 X-16.1 Y-10.77 Z0.46 F1080.0
G1 X-16.49 Y-10.77 Z0.46 F1080.0
G1 X-16.49 Y-3.98 Z0.46 F1080.0
G1 X-16.89 Y-3.71 Z0.46 F1080.0
G1 X-16.89 Y-10.77 Z0.46 F1080.0
G1 X-17.28 Y-10.77 Z0.46 F1080.0
G1 X-17.28 Y-3.44 Z0.46 F1080.0
M103
G1 X-17.67 Y-2.96 Z0.46 F1800.0
M101
G1 X-17.67 Y-10.77 Z0.46 F1080.0
G1 X-18.06 Y-10.77 Z0.46 F1080.0
G1 X-18.06 Y-2.21 Z0.46 F1080.0
M103
G1 X-18.46 Y-1.46 Z0.46 F1800.0
M101
G1 X-18.46 Y-10.77 Z0.46 F1080.0
G1 X-18.85 Y-10.77 Z0.46 F1080.0
G1 X-18.85 Y10.77 Z0.46 F1080.0
G1 X-18.46 Y10.77 Z0.46 F1080.0
G1 X-18.46 Y1.46 Z0.46 F1080.0
M103
G1 X-18.06 Y2.21 Z0.46 F1800.0
M101
G1 X-18.06 Y10.77 Z0.46 F1080.0
G1 X-17.67 Y10.77 Z0.46 F1080.0
G1 X-17.67 Y2.96 Z0.46 F1080.0
M103
G1 X-17.28 Y3.44 Z0.46 F1800.0
M101
G1 X-17.28 Y10.77 Z0.46 F1080.0
G1 X-16.89 Y10.77 Z0.46 F1080.0
G1 X-16.89 Y3.71 Z0.46 F1080.0
G1 X-16.49 Y3.98 Z0.46 F1080.0
G1 X-16.49 Y10.77 Z0.46 F1080.0
G1 X-16.1 Y10.77 Z0.46 F1080.0
G1 X-16.1 Y4.25 Z0.46 F1080.0
M103
G1 X-15.71 Y4.52 Z0.46 F1800.0
M101
G1 X-15.71 Y10.77 Z0.46 F1080.0
G1 X-15.32 Y10.77 Z0.46 F1080.0
G1 X-15.32 Y4.66 Z0.46 F1080.0
M103
G1 X-14.92 Y4.71 Z0.46 F1800.0
M101
G1 X-14.92 Y10.77 Z0.46 F1080.0
G1 X-14.53 Y10.77 Z0.46 F1080.0
G1 X-14.53 Y4.75 Z0.46 F1080.0
M103
G1 X-14.14 Y4.8 Z0.46 F1800.0
M101
G1 X-14.14 Y10.77 Z0.46 F1080.0
G1 X-13.74 Y10.77 Z0.46 F1080.0
G1 X-13.74 Y4.85 Z0.46 F1080.0
M103
G1 X-13.35 Y4.89 Z0.46 F1800.0
M101
G1 X-13.35 Y10.77 Z0.46 F1080.0
G1 X-12.96 Y10.77 Z0.46 F1080.0
G1 X-12.96 Y4.82 Z0.46 F1080.0
M103
G1 X-12.57 Y4.67 Z0.46 F1800.0
M101
G1 X-12.57 Y10.77 Z0.46 F1080.0
G1 X-12.17 Y10.77 Z0.46 F1080.0
G1 X-12.17 Y4.52 Z0.46 F1080.0
M103
G1 X-11.78 Y4.38 Z0.46 F1800.0
M101
G1 X-11.78 Y10.77 Z0.46 F1080.0
G1 X-11.39 Y10.77 Z0.46 F1080.0
G1 X-11.39 Y4.23 Z0.46 F1080.0
G1 X-11.0 Y4.08 Z0.46 F1080.0
G1 X-11.0 Y10.77 Z0.46 F1080.0
G1 X-10.6 Y10.77 Z0.46 F1080.0
G1 X-10.6 Y3.64 Z0.46 F1080.0
G1 X-10.21 Y3.2 Z0.46 F1080.0
G1 X-10.21 Y10.77 Z0.46 F1080.0
G1 X-9.82 Y10.77 Z0.46 F1080.0
G1 X-9.82 Y2.76 Z0.46 F1080.0
G1 X-9.43 Y2.31 Z0.46 F1080.0
G1 X-9.43 Y10.5 Z0.46 F1080.0
M108 R30.0
M102
G1 X-9.43 Y10.77 Z0.46 F1080.0
M108 R2.141
M103
G1 X-18.76 Y10.77 Z0.46 F1800.0
M108 R30.0
M101
G1 X-19.24 Y10.77 Z0.46 F1800.0
M108 R2.141
G1 X-19.24 Y-10.77 Z0.46 F1080.0
G1 X-19.64 Y-10.77 Z0.46 F1080.0
G1 X-19.64 Y10.77 Z0.46 F1080.0
G1 X-20.03 Y10.77 Z0.46 F1080.0
G1 X-20.03 Y-10.77 Z0.46 F1080.0
G1 X-20.42 Y-10.77 Z0.46 F1080.0
G1 X-20.42 Y10.77 Z0.46 F1080.0
G1 X-20.81 Y10.77 Z0.46 F1080.0
G1 X-20.81 Y-10.77 Z0.46 F1080.0
G1 X-21.21 Y-10.77 Z0.46 F1080.0
G1 X-21.21 Y10.77 Z0.46 F1080.0
G1 X-21.6 Y10.77 Z0.46 F1080.0
G1 X-21.6 Y-10.77 Z0.46 F1080.0
G1 X-21.99 Y-10.77 Z0.46 F1080.0
G1 X-21.99 Y10.77 Z0.46 F1080.0
G1 X-22.38 Y10.77 Z0.46 F1080.0
G1 X-22.38 Y-10.77 Z0.46 F1080.0
G1 X-22.78 Y-10.77 Z0.46 F1080.0
G1 X-22.78 Y10.77 Z0.46 F1080.0
G1 X-23.17 Y10.77 Z0.46 F1080.0
G1 X-23.17 Y-10.77 Z0.46 F1080.0
G1 X-23.56 Y-10.77 Z0.46 F1080.0
G1 X-23.56 Y10.77 Z0.46 F1080.0
G1 X-23.96 Y10.77 Z0.46 F1080.0
G1 X-23.96 Y-10.77 Z0.46 F1080.0
G1 X-24.35 Y-10.77 Z0.46 F1080.0
G1 X-24.35 Y10.77 Z0.46 F1080.0
G1 X-24.74 Y10.77 Z0.46 F1080.0
G1 X-24.74 Y-10.77 Z0.46 F1080.0
G1 X-25.13 Y-10.77 Z0.46 F1080.0
G1 X-25.13 Y10.77 Z0.46 F1080.0
G1 X-25.53 Y10.77 Z0.46 F1080.0
G1 X-25.53 Y-10.77 Z0.46 F1080.0
G1 X-25.92 Y-10.77 Z0.46 F1080.0
G1 X-25.92 Y10.77 Z0.46 F1080.0
G1 X-26.31 Y10.77 Z0.46 F1080.0
G1 X-26.31 Y-10.77 Z0.46 F1080.0
G1 X-26.7 Y-10.77 Z0.46 F1080.0
G1 X-26.7 Y10.5 Z0.46 F1080.0
M108 R30.0
M102
G1 X-26.7 Y10.77 Z0.46 F1080.0
M108 R2.141
M103
G1 X8.58 Y-1.11 Z0.46 F1800.0
M108 R30.0
M101
G1 X9.03 Y-1.26 Z0.46 F1800.0
M108 R2.141
G1 X9.03 Y-10.77 Z0.46 F1080.0
G1 X8.64 Y-10.77 Z0.46 F1080.0
G1 X8.64 Y10.77 Z0.46 F1080.0
G1 X8.25 Y10.77 Z0.46 F1080.0
G1 X8.25 Y-10.77 Z0.46 F1080.0
G1 X7.85 Y-10.77 Z0.46 F1080.0
G1 X7.85 Y10.77 Z0.46 F1080.0
G1 X7.46 Y10.77 Z0.46 F1080.0
G1 X7.46 Y-10.77 Z0.46 F1080.0
G1 X7.07 Y-10.77 Z0.46 F1080.0
G1 X7.07 Y10.77 Z0.46 F1080.0
G1 X6.68 Y10.77 Z0.46 F1080.0
G1 X6.68 Y-10.77 Z0.46 F1080.0
G1 X6.28 Y-10.77 Z0.46 F1080.0
G1 X6.28 Y10.77 Z0.46 F1080.0
G1 X5.89 Y10.77 Z0.46 F1080.0
G1 X5.89 Y-10.77 Z0.46 F1080.0
G1 X5.5 Y-10.77 Z0.46 F1080.0
G1 X5.5 Y10.77 Z0.46 F1080.0
G1 X5.11 Y10.77 Z0.46 F1080.0
G1 X5.11 Y-10.77 Z0.46 F1080.0
G1 X4.71 Y-10.77 Z0.46 F1080.0
G1 X4.71 Y10.77 Z0.46 F1080.0
G1 X4.32 Y10.77 Z0.46 F1080.0
G1 X4.32 Y-10.77 Z0.46 F1080.0
G1 X3.93 Y-10.77 Z0.46 F1080.0
G1 X3.93 Y10.77 Z0.46 F1080.0
G1 X3.53 Y10.77 Z0.46 F1080.0
G1 X3.53 Y-10.77 Z0.46 F1080.0
G1 X3.14 Y-10.77 Z0.46 F1080.0
G1 X3.14 Y10.77 Z0.46 F1080.0
G1 X2.75 Y10.77 Z0.46 F1080.0
G1 X2.75 Y-10.77 Z0.46 F1080.0
G1 X2.36 Y-10.77 Z0.46 F1080.0
G1 X2.36 Y10.77 Z0.46 F1080.0
G1 X1.96 Y10.77 Z0.46 F1080.0
G1 X1.96 Y-10.77 Z0.46 F1080.0
G1 X1.57 Y-10.77 Z0.46 F1080.0
G1 X1.57 Y10.77 Z0.46 F1080.0
G1 X1.18 Y10.77 Z0.46 F1080.0
G1 X1.18 Y-10.77 Z0.46 F1080.0
G1 X0.79 Y-10.77 Z0.46 F1080.0
G1 X0.79 Y10.77 Z0.46 F1080.0
G1 X0.39 Y10.77 Z0.46 F1080.0
G1 X0.39 Y-10.77 Z0.46 F1080.0
G1 X-0.0 Y-10.77 Z0.46 F1080.0
G1 X0.0 Y10.77 Z0.46 F1080.0
G1 X-0.39 Y10.77 Z0.46 F1080.0
G1 X-0.39 Y-10.77 Z0.46 F1080.0
G1 X-0.79 Y-10.77 Z0.46 F1080.0
G1 X-0.79 Y10.77 Z0.46 F1080.0
G1 X-1.18 Y10.77 Z0.46 F1080.0
G1 X-1.18 Y-10.77 Z0.46 F1080.0
G1 X-1.57 Y-10.77 Z0.46 F1080.0
G1 X-1.57 Y10.77 Z0.46 F1080.0
G1 X-1.96 Y10.77 Z0.46 F1080.0
G1 X-1.96 Y-10.77 Z0.46 F1080.0
G1 X-2.36 Y-10.77 Z0.46 F1080.0
G1 X-2.36 Y10.77 Z0.46 F1080.0
G1 X-2.75 Y10.77 Z0.46 F1080.0
G1 X-2.75 Y-10.77 Z0.46 F1080.0
G1 X-3.14 Y-10.77 Z0.46 F1080.0
G1 X-3.14 Y10.77 Z0.46 F1080.0
G1 X-3.53 Y10.77 Z0.46 F1080.0
G1 X-3.53 Y-10.77 Z0.46 F1080.0
G1 X-3.93 Y-10.77 Z0.46 F1080.0
G1 X-3.93 Y10.77 Z0.46 F1080.0
G1 X-4.32 Y10.77 Z0.46 F1080.0
G1 X-4.32 Y-10.77 Z0.46 F1080.0
G1 X-4.71 Y-10.77 Z0.46 F1080.0
G1 X-4.71 Y10.77 Z0.46 F1080.0
G1 X-5.11 Y10.77 Z0.46 F1080.0
G1 X-5.11 Y-10.77 Z0.46 F1080.0
G1 X-5.5 Y-10.77 Z0.46 F1080.0
G1 X-5.5 Y10.77 Z0.46 F1080.0
G1 X-5.89 Y10.77 Z0.46 F1080.0
G1 X-5.89 Y-10.77 Z0.46 F1080.0
G1 X-6.28 Y-10.77 Z0.46 F1080.0
G1 X-6.28 Y10.77 Z0.46 F1080.0
G1 X-6.68 Y10.77 Z0.46 F1080.0
G1 X-6.68 Y-10.77 Z0.46 F1080.0
G1 X-7.07 Y-10.77 Z0.46 F1080.0
G1 X-7.07 Y10.77 Z0.46 F1080.0
G1 X-7.46 Y10.77 Z0.46 F1080.0
G1 X-7.46 Y-10.77 Z0.46 F1080.0
G1 X-7.85 Y-10.77 Z0.46 F1080.0
G1 X-7.85 Y10.77 Z0.46 F1080.0
G1 X-8.25 Y10.77 Z0.46 F1080.0
G1 X-8.25 Y-10.77 Z0.46 F1080.0
G1 X-8.64 Y-10.77 Z0.46 F1080.0
G1 X-8.64 Y10.77 Z0.46 F1080.0
G1 X-9.03 Y10.77 Z0.46 F1080.0
G1 X-9.03 Y1.02 Z0.46 F1080.0
M108 R30.0
M102
G1 X-9.03 Y0.75 Z0.46 F1080.0
M108 R2.141
M103
G1 X9.73 Y3.3 Z0.46 F1800.0
M108 R30.0
M101
G1 X10.21 Y3.36 Z0.46 F1800.0
M108 R2.141
G1 X10.21 Y10.77 Z0.46 F1080.0
G1 X9.82 Y10.77 Z0.46 F1080.0
G1 X9.82 Y2.76 Z0.46 F1080.0
G1 X9.43 Y2.01 Z0.46 F1080.0
G1 X9.43 Y10.77 Z0.46 F1080.0
G1 X9.03 Y10.77 Z0.46 F1080.0
G1 X9.03 Y1.53 Z0.46 F1080.0
M108 R30.0
M102
G1 X9.03 Y1.26 Z0.46 F1080.0
M108 R2.141
M103
G1 X11.47 Y4.09 Z0.46 F1800.0
M108 R30.0
M101
G1 X11.78 Y4.45 Z0.46 F1800.0
M108 R2.141
G1 X11.78 Y10.77 Z0.46 F1080.0
G1 X11.39 Y10.77 Z0.46 F1080.0
G1 X11.39 Y4.18 Z0.46 F1080.0
G1 X11.0 Y3.91 Z0.46 F1080.0
G1 X11.0 Y10.77 Z0.46 F1080.0
G1 X10.6 Y10.77 Z0.46 F1080.0
G1 X10.6 Y3.91 Z0.46 F1080.0
M108 R30.0
M102
G1 X10.6 Y3.64 Z0.46 F1080.0
M108 R2.141
M103
G1 X12.14 Y4.47 Z0.46 F1800.0
M108 R30.0
M101
G1 X12.57 Y4.69 Z0.46 F1800.0
M108 R2.141
G1 X12.57 Y10.77 Z0.46 F1080.0
G1 X12.17 Y10.77 Z0.46 F1080.0
G1 X12.17 Y4.91 Z0.46 F1080.0
M108 R30.0
M102
G1 X12.17 Y4.64 Z0.46 F1080.0
M108 R2.141
M103
G1 X12.88 Y4.73 Z0.46 F1800.0
M108 R30.0
M101
G1 X13.35 Y4.79 Z0.46 F1800.0
M108 R2.141
G1 X13.35 Y10.77 Z0.46 F1080.0
G1 X12.96 Y10.77 Z0.46 F1080.0
G1 X12.96 Y5.01 Z0.46 F1080.0
M108 R30.0
M102
G1 X12.96 Y4.74 Z0.46 F1080.0
M108 R2.141
M103
G1 X13.66 Y4.83 Z0.46 F1800.0
M108 R30.0
M101
G1 X14.14 Y4.88 Z0.46 F1800.0
M108 R2.141
G1 X14.14 Y10.77 Z0.46 F1080.0
G1 X13.74 Y10.77 Z0.46 F1080.0
G1 X13.74 Y5.11 Z0.46 F1080.0
M108 R30.0
M102
G1 X13.74 Y4.84 Z0.46 F1080.0
M108 R2.141
M103
G1 X14.45 Y4.76 Z0.46 F1800.0
M108 R30.0
M101
G1 X14.92 Y4.71 Z0.46 F1800.0
M108 R2.141
G1 X14.92 Y10.77 Z0.46 F1080.0
G1 X14.53 Y10.77 Z0.46 F1080.0
G1 X14.53 Y5.13 Z0.46 F1080.0
M108 R30.0
M102
G1 X14.53 Y4.86 Z0.46 F1080.0
M108 R2.141
M103
G1 X15.26 Y4.59 Z0.46 F1800.0
M108 R30.0
M101
G1 X15.71 Y4.42 Z0.46 F1800.0
M108 R2.141
G1 X15.71 Y10.77 Z0.46 F1080.0
G1 X15.32 Y10.77 Z0.46 F1080.0
G1 X15.32 Y4.83 Z0.46 F1080.0
M108 R30.0
M102
G1 X15.32 Y4.56 Z0.46 F1080.0
M108 R2.141
M103
G1 X17.68 Y2.72 Z0.46 F1800.0
M108 R30.0
M101
G1 X18.06 Y2.43 Z0.46 F1800.0
M108 R2.141
G1 X18.06 Y10.77 Z0.46 F1080.0
G1 X17.67 Y10.77 Z0.46 F1080.0
G1 X17.67 Y2.87 Z0.46 F1080.0
G1 X17.28 Y3.32 Z0.46 F1080.0
G1 X17.28 Y10.77 Z0.46 F1080.0
G1 X16.89 Y10.77 Z0.46 F1080.0
G1 X16.89 Y3.76 Z0.46 F1080.0
G1 X16.49 Y4.12 Z0.46 F1080.0
G1 X16.49 Y10.77 Z0.46 F1080.0
G1 X16.1 Y10.77 Z0.46 F1080.0
G1 X16.1 Y4.54 Z0.46 F1080.0
M108 R30.0
M102
G1 X16.1 Y4.27 Z0.46 F1080.0
M108 R2.141
M103
G1 X26.43 Y-10.38 Z0.46 F1800.0
M108 R30.0
M101
G1 X26.7 Y-10.77 Z0.46 F1800.0
M108 R2.141
G1 X26.7 Y10.77 Z0.46 F1080.0
G1 X26.31 Y10.77 Z0.46 F1080.0
G1 X26.31 Y-10.77 Z0.46 F1080.0
G1 X25.92 Y-10.77 Z0.46 F1080.0
G1 X25.92 Y10.77 Z0.46 F1080.0
G1 X25.53 Y10.77 Z0.46 F1080.0
G1 X25.53 Y-10.77 Z0.46 F1080.0
G1 X25.13 Y-10.77 Z0.46 F1080.0
G1 X25.13 Y10.77 Z0.46 F1080.0
G1 X24.74 Y10.77 Z0.46 F1080.0
G1 X24.74 Y-10.77 Z0.46 F1080.0
G1 X24.35 Y-10.77 Z0.46 F1080.0
G1 X24.35 Y10.77 Z0.46 F1080.0
G1 X23.96 Y10.77 Z0.46 F1080.0
G1 X23.96 Y-10.77 Z0.46 F1080.0
G1 X23.56 Y-10.77 Z0.46 F1080.0
G1 X23.56 Y10.77 Z0.46 F1080.0
G1 X23.17 Y10.77 Z0.46 F1080.0
G1 X23.17 Y-10.77 Z0.46 F1080.0
G1 X22.78 Y-10.77 Z0.46 F1080.0
G1 X22.78 Y10.77 Z0.46 F1080.0
G1 X22.38 Y10.77 Z0.46 F1080.0
G1 X22.38 Y-10.77 Z0.46 F1080.0
G1 X21.99 Y-10.77 Z0.46 F1080.0
G1 X21.99 Y10.77 Z0.46 F1080.0
G1 X21.6 Y10.77 Z0.46 F1080.0
G1 X21.6 Y-10.77 Z0.46 F1080.0
G1 X21.21 Y-10.77 Z0.46 F1080.0
G1 X21.21 Y10.77 Z0.46 F1080.0
G1 X20.81 Y10.77 Z0.46 F1080.0
G1 X20.81 Y-10.77 Z0.46 F1080.0
G1 X20.42 Y-10.77 Z0.46 F1080.0
G1 X20.42 Y10.77 Z0.46 F1080.0
G1 X20.03 Y10.77 Z0.46 F1080.0
G1 X20.03 Y-10.77 Z0.46 F1080.0
G1 X19.64 Y-10.77 Z0.46 F1080.0
G1 X19.64 Y10.77 Z0.46 F1080.0
G1 X19.24 Y10.77 Z0.46 F1080.0
G1 X19.24 Y-10.77 Z0.46 F1080.0
G1 X18.85 Y-10.77 Z0.46 F1080.0
G1 X18.85 Y10.77 Z0.46 F1080.0
G1 X18.46 Y10.77 Z0.46 F1080.0
G1 X18.46 Y1.45 Z0.46 F1080.0
M108 R30.0
M102
G1 X18.46 Y1.18 Z0.46 F1080.0
M108 R2.141
M103
G1 X17.65 Y-2.02 Z0.46 F3000.0
G1 X16.01 Y-4.04 Z0.46 F1800.0
M108 R30.0
M101
G1 X15.71 Y-4.42 Z0.46 F1800.0
M108 R2.141
G1 X15.71 Y-10.77 Z0.46 F1080.0
G1 X16.1 Y-10.77 Z0.46 F1080.0
G1 X16.1 Y-4.27 Z0.46 F1080.0
G1 X16.49 Y-4.12 Z0.46 F1080.0
G1 X16.49 Y-10.77 Z0.46 F1080.0
G1 X16.89 Y-10.77 Z0.46 F1080.0
G1 X16.89 Y-3.76 Z0.46 F1080.0
G1 X17.28 Y-3.32 Z0.46 F1080.0
G1 X17.28 Y-10.77 Z0.46 F1080.0
G1 X17.67 Y-10.77 Z0.46 F1080.0
G1 X17.67 Y-2.87 Z0.46 F1080.0
G1 X18.06 Y-2.43 Z0.46 F1080.0
G1 X18.06 Y-10.77 Z0.46 F1080.0
G1 X18.46 Y-10.77 Z0.46 F1080.0
G1 X18.46 Y-1.45 Z0.46 F1080.0
M108 R30.0
M102
G1 X18.46 Y-1.18 Z0.46 F1080.0
M108 R2.141
M103
G1 X15.26 Y-4.37 Z0.46 F1800.0
M108 R30.0
M101
G1 X14.92 Y-4.71 Z0.46 F1800.0
M108 R2.141
G1 X14.92 Y-10.77 Z0.46 F1080.0
G1 X15.32 Y-10.77 Z0.46 F1080.0
G1 X15.32 Y-4.83 Z0.46 F1080.0
M108 R30.0
M102
G1 X15.32 Y-4.56 Z0.46 F1080.0
M108 R2.141
M103
G1 X13.83 Y-4.73 Z0.46 F1800.0
M108 R30.0
M101
G1 X13.35 Y-4.79 Z0.46 F1800.0
M108 R2.141
G1 X13.35 Y-10.77 Z0.46 F1080.0
G1 X13.74 Y-10.77 Z0.46 F1080.0
G1 X13.74 Y-4.84 Z0.46 F1080.0
G1 X14.14 Y-4.88 Z0.46 F1080.0
G1 X14.14 Y-10.77 Z0.46 F1080.0
G1 X14.53 Y-10.77 Z0.46 F1080.0
G1 X14.53 Y-5.13 Z0.46 F1080.0
M108 R30.0
M102
G1 X14.53 Y-4.86 Z0.46 F1080.0
M108 R2.141
M103
G1 X13.04 Y-4.73 Z0.46 F1800.0
M108 R30.0
M101
G1 X12.57 Y-4.69 Z0.46 F1800.0
M108 R2.141
G1 X12.57 Y-10.77 Z0.46 F1080.0
G1 X12.96 Y-10.77 Z0.46 F1080.0
G1 X12.96 Y-5.01 Z0.46 F1080.0
M108 R30.0
M102
G1 X12.96 Y-4.74 Z0.46 F1080.0
M108 R2.141
M103
G1 X10.64 Y-3.58 Z0.46 F1800.0
M108 R30.0
M101
G1 X10.21 Y-3.36 Z0.46 F1800.0
M108 R2.141
G1 X10.21 Y-10.77 Z0.46 F1080.0
G1 X10.6 Y-10.77 Z0.46 F1080.0
G1 X10.6 Y-3.64 Z0.46 F1080.0
G1 X11.0 Y-3.91 Z0.46 F1080.0
G1 X11.0 Y-10.77 Z0.46 F1080.0
G1 X11.39 Y-10.77 Z0.46 F1080.0
G1 X11.39 Y-4.18 Z0.46 F1080.0
G1 X11.78 Y-4.45 Z0.46 F1080.0
G1 X11.78 Y-10.77 Z0.46 F1080.0
G1 X12.17 Y-10.77 Z0.46 F1080.0
G1 X12.17 Y-4.91 Z0.46 F1080.0
M108 R30.0
M102
G1 X12.17 Y-4.64 Z0.46 F1080.0
M108 R2.141
M103
G1 X9.77 Y-2.34 Z0.46 F1800.0
M108 R30.0
M101
G1 X9.43 Y-2.01 Z0.46 F1800.0
M108 R2.141
G1 X9.43 Y-10.77 Z0.46 F1080.0
G1 X9.82 Y-10.77 Z0.46 F1080.0
G1 X9.82 Y-2.76 Z0.46 F1080.0
M103
(</surroundingLoop>)
(</layer>)
(<layer> 0.78 )
(<surroundingLoop>)
(<boundaryPerimeter>)
(<boundaryPoint> X27.593 Y11.617 Z0.78 </boundaryPoint>)
(<boundaryPoint> X-27.593 Y11.617 Z0.78 </boundaryPoint>)
(<boundaryPoint> X-27.593 Y-11.617 Z0.78 </boundaryPoint>)
(<boundaryPoint> X27.593 Y-11.617 Z0.78 </boundaryPoint>)
(<loop> inner )
M108 R3.569
G1 X10.14 Y-2.83 Z0.78 F3000.0
M101
G1 X10.04 Y-2.64 Z0.78 F1800.0
G1 X9.25 Y-1.12 Z0.78 F1800.0
G1 X9.25 Y1.12 Z0.78 F1800.0
G1 X10.29 Y3.11 Z0.78 F1800.0
G1 X12.14 Y4.38 Z0.78 F1800.0
G1 X14.36 Y4.65 Z0.78 F1800.0
G1 X16.46 Y3.86 Z0.78 F1800.0
G1 X17.95 Y2.18 Z0.78 F1800.0
G1 X18.48 Y-0.0 Z0.78 F1800.0
G1 X17.95 Y-2.18 Z0.78 F1800.0
G1 X16.46 Y-3.86 Z0.78 F1800.0
G1 X14.36 Y-4.65 Z0.78 F1800.0
G1 X12.14 Y-4.38 Z0.78 F1800.0
G1 X10.4 Y-3.18 Z0.78 F1800.0
M108 R30.0
M102
G1 X10.29 Y-3.11 Z0.78 F1800.0
G1 X10.14 Y-2.83 Z0.78 F1800.0
M108 R3.569
M103
(</loop>)
(<loop> inner )
G1 X-8.32 Y-0.12 Z0.78 F3000.0
M108 R30.0
M101
G1 X-9.11 Y0.0 Z0.78 F3000.0
M108 R3.569
G1 X-9.65 Y-2.18 Z0.78 F1800.0
G1 X-11.13 Y-3.86 Z0.78 F1800.0
G1 X-13.23 Y-4.65 Z0.78 F1800.0
G1 X-15.46 Y-4.38 Z0.78 F1800.0
G1 X-17.3 Y-3.11 Z0.78 F1800.0
G1 X-18.35 Y-1.12 Z0.78 F1800.0
G1 X-18.35 Y1.12 Z0.78 F1800.0
G1 X-17.3 Y3.11 Z0.78 F1800.0
G1 X-15.46 Y4.38 Z0.78 F1800.0
G1 X-13.23 Y4.65 Z0.78 F1800.0
G1 X-11.13 Y3.86 Z0.78 F1800.0
G1 X-9.65 Y2.18 Z0.78 F1800.0
G1 X-9.22 Y0.44 Z0.78 F1800.0
M108 R30.0
M102
G1 X-9.11 Y0.0 Z0.78 F1800.0
M108 R3.569
M103
(</loop>)
(<loop> outer )
G1 X-9.11 Y10.23 Z0.78 F3000.0
M108 R30.0
M101
G1 X-9.11 Y11.03 Z0.78 F3000.0
M108 R3.569
G1 X-27.0 Y11.03 Z0.78 F1800.0
G1 X-27.0 Y-11.03 Z0.78 F1800.0
G1 X27.0 Y-11.03 Z0.78 F1800.0
G1 X27.0 Y11.03 Z0.78 F1800.0
G1 X-9.11 Y11.03 Z0.78 F1800.0
M103
(</loop>)
(<perimeter> outer )
G1 X-9.11 Y11.42 Z0.78 F3000.0
M101
G1 X-27.4 Y11.42 Z0.78 F1800.0
G1 X-27.4 Y-11.42 Z0.78 F1800.0
G1 X27.4 Y-11.42 Z0.78 F1800.0
G1 X27.4 Y11.42 Z0.78 F1800.0
G1 X-8.66 Y11.42 Z0.78 F1800.0
M108 R30.0
M102
G1 X-9.11 Y11.42 Z0.78 F1800.0
M108 R3.569
M103
(</perimeter>)
(</boundaryPerimeter>)
(<surroundingLoop>)
(<boundaryPerimeter>)
(<boundaryPoint> X-16.85 Y-2.706 Z0.78 </boundaryPoint>)
(<boundaryPoint> X-17.758 Y-0.976 Z0.78 </boundaryPoint>)
(<boundaryPoint> X-17.758 Y0.976 Z0.78 </boundaryPoint>)
(<boundaryPoint> X-16.85 Y2.706 Z0.78 </boundaryPoint>)
(<boundaryPoint> X-15.243 Y3.815 Z0.78 </boundaryPoint>)
(<boundaryPoint> X-13.305 Y4.05 Z0.78 </boundaryPoint>)
(<boundaryPoint> X-11.479 Y3.358 Z0.78 </boundaryPoint>)
(<boundaryPoint> X-10.184 Y1.896 Z0.78 </boundaryPoint>)
(<boundaryPoint> X-9.716 Y-0.0 Z0.78 </boundaryPoint>)
(<boundaryPoint> X-10.184 Y-1.896 Z0.78 </boundaryPoint>)
(<boundaryPoint> X-11.479 Y-3.358 Z0.78 </boundaryPoint>)
(<boundaryPoint> X-13.305 Y-4.05 Z0.78 </boundaryPoint>)
(<boundaryPoint> X-15.243 Y-3.815 Z0.78 </boundaryPoint>)
(<perimeter> inner )
G1 X-11.72 Y4.52 Z0.78 F3000.0
M108 R30.0
M101
G1 X-12.01 Y3.77 Z0.78 F3000.0
M108 R3.569
G1 X-11.36 Y3.53 Z0.78 F1800.0
G1 X-10.01 Y1.99 Z0.78 F1800.0
G1 X-9.51 Y-0.0 Z0.78 F1800.0
G1 X-10.01 Y-1.99 Z0.78 F1800.0
G1 X-11.36 Y-3.53 Z0.78 F1800.0
G1 X-13.28 Y-4.25 Z0.78 F1800.0
G1 X-15.32 Y-4.0 Z0.78 F1800.0
G1 X-17.0 Y-2.84 Z0.78 F1800.0
G1 X-17.95 Y-1.02 Z0.78 F1800.0
G1 X-17.95 Y1.02 Z0.78 F1800.0
G1 X-17.0 Y2.84 Z0.78 F1800.0
G1 X-15.32 Y4.0 Z0.78 F1800.0
G1 X-13.28 Y4.25 Z0.78 F1800.0
G1 X-12.43 Y3.93 Z0.78 F1800.0
M108 R30.0
M102
G1 X-12.01 Y3.77 Z0.78 F1800.0
M108 R3.569
M103
(</perimeter>)
(</boundaryPerimeter>)
(</surroundingLoop>)
(<surroundingLoop>)
(<boundaryPerimeter>)
(<boundaryPoint> X12.35 Y3.815 Z0.78 </boundaryPoint>)
(<boundaryPoint> X14.288 Y4.05 Z0.78 </boundaryPoint>)
(<boundaryPoint> X16.114 Y3.358 Z0.78 </boundaryPoint>)
(<boundaryPoint> X17.409 Y1.896 Z0.78 </boundaryPoint>)
(<boundaryPoint> X17.877 Y-0.0 Z0.78 </boundaryPoint>)
(<boundaryPoint> X17.409 Y-1.896 Z0.78 </boundaryPoint>)
(<boundaryPoint> X16.114 Y-3.358 Z0.78 </boundaryPoint>)
(<boundaryPoint> X14.288 Y-4.05 Z0.78 </boundaryPoint>)
(<boundaryPoint> X12.35 Y-3.815 Z0.78 </boundaryPoint>)
(<boundaryPoint> X10.743 Y-2.706 Z0.78 </boundaryPoint>)
(<boundaryPoint> X9.835 Y-0.976 Z0.78 </boundaryPoint>)
(<boundaryPoint> X9.835 Y0.976 Z0.78 </boundaryPoint>)
(<boundaryPoint> X10.743 Y2.706 Z0.78 </boundaryPoint>)
(<perimeter> inner )
G1 X8.85 Y1.13 Z0.78 F3000.0
M108 R30.0
M101
G1 X9.64 Y1.02 Z0.78 F3000.0
M108 R3.569
G1 X10.59 Y2.84 Z0.78 F1800.0
G1 X12.28 Y4.0 Z0.78 F1800.0
G1 X14.31 Y4.25 Z0.78 F1800.0
G1 X16.23 Y3.53 Z0.78 F1800.0
G1 X17.59 Y1.99 Z0.78 F1800.0
G1 X18.08 Y-0.0 Z0.78 F1800.0
G1 X17.59 Y-1.99 Z0.78 F1800.0
G1 X16.23 Y-3.53 Z0.78 F1800.0
G1 X14.31 Y-4.25 Z0.78 F1800.0
G1 X12.28 Y-4.0 Z0.78 F1800.0
G1 X10.59 Y-2.84 Z0.78 F1800.0
G1 X9.64 Y-1.02 Z0.78 F1800.0
G1 X9.64 Y0.57 Z0.78 F1800.0
M108 R30.0
M102
G1 X9.64 Y1.02 Z0.78 F1800.0
M108 R3.569
M103
(</perimeter>)
(</boundaryPerimeter>)
(</surroundingLoop>)
G1 X-8.43 Y1.55 Z0.78 F3000.0
M108 R30.0
M101
G1 X-9.23 Y1.57 Z0.78 F3000.0
M108 R3.569
G1 X9.19 Y1.57 Z0.78 F1800.0
M103
G1 X9.4 Y1.96 Z0.78 F3000.0
M101
G1 X-9.33 Y1.96 Z0.78 F1800.0
M103
G1 X-9.46 Y2.36 Z0.78 F3000.0
M101
G1 X9.61 Y2.36 Z0.78 F1800.0
G1 X9.81 Y2.75 Z0.78 F1800.0
G1 X-9.81 Y2.75 Z0.78 F1800.0
G1 X-10.16 Y3.14 Z0.78 F1800.0
G1 X10.02 Y3.14 Z0.78 F1800.0
M103
G1 X10.46 Y3.53 Z0.78 F3000.0
M101
G1 X-10.51 Y3.53 Z0.78 F1800.0
G1 X-10.86 Y3.93 Z0.78 F1800.0
G1 X11.03 Y3.93 Z0.78 F1800.0
G1 X11.59 Y4.32 Z0.78 F1800.0
G1 X-11.18 Y4.32 Z0.78 F1800.0
M108 R30.0
M102
G1 X-11.63 Y4.32 Z0.78 F1800.0
M108 R3.569
M103
G1 X-11.92 Y4.43 Z0.78 F3000.0
M108 R30.0
M101
G1 X-12.67 Y4.71 Z0.78 F3000.0
M108 R3.569
G1 X12.28 Y4.71 Z0.78 F1800.0
M108 R30.0
M102
G1 X12.73 Y4.71 Z0.78 F1800.0
M108 R3.569
M103
G1 X14.12 Y4.71 Z0.78 F3000.0
M108 R30.0
M101
G1 X14.92 Y4.71 Z0.78 F3000.0
M108 R3.569
G1 X26.75 Y4.71 Z0.78 F1800.0
G1 X26.75 Y4.32 Z0.78 F1800.0
G1 X15.96 Y4.32 Z0.78 F1800.0
M103
G1 X16.74 Y3.93 Z0.78 F3000.0
M101
G1 X26.75 Y3.93 Z0.78 F1800.0
G1 X26.75 Y3.53 Z0.78 F1800.0
G1 X17.09 Y3.53 Z0.78 F1800.0
G1 X17.43 Y3.14 Z0.78 F1800.0
G1 X26.75 Y3.14 Z0.78 F1800.0
G1 X26.75 Y2.75 Z0.78 F1800.0
G1 X17.78 Y2.75 Z0.78 F1800.0
G1 X18.13 Y2.36 Z0.78 F1800.0
G1 X26.75 Y2.36 Z0.78 F1800.0
G1 X26.75 Y1.96 Z0.78 F1800.0
G1 X18.26 Y1.96 Z0.78 F1800.0
M103
G1 X18.36 Y1.57 Z0.78 F3000.0
M101
G1 X26.75 Y1.57 Z0.78 F1800.0
G1 X26.75 Y1.18 Z0.78 F1800.0
G1 X18.46 Y1.18 Z0.78 F1800.0
M103
G1 X18.55 Y0.79 Z0.78 F3000.0
M101
G1 X26.75 Y0.79 Z0.78 F1800.0
G1 X26.75 Y0.39 Z0.78 F1800.0
G1 X18.65 Y0.39 Z0.78 F1800.0
M103
G1 X18.75 Y-0.0 Z0.78 F3000.0
M101
G1 X26.75 Y-0.0 Z0.78 F1800.0
G1 X26.75 Y-0.39 Z0.78 F1800.0
G1 X18.65 Y-0.39 Z0.78 F1800.0
M103
G1 X18.55 Y-0.79 Z0.78 F3000.0
M101
G1 X26.75 Y-0.79 Z0.78 F1800.0
G1 X26.75 Y-1.18 Z0.78 F1800.0
G1 X18.46 Y-1.18 Z0.78 F1800.0
M103
G1 X18.36 Y-1.57 Z0.78 F3000.0
M101
G1 X26.75 Y-1.57 Z0.78 F1800.0
G1 X26.75 Y-1.96 Z0.78 F1800.0
G1 X18.26 Y-1.96 Z0.78 F1800.0
M103
G1 X18.13 Y-2.36 Z0.78 F3000.0
M101
G1 X26.75 Y-2.36 Z0.78 F1800.0
G1 X26.75 Y-2.75 Z0.78 F1800.0
G1 X17.78 Y-2.75 Z0.78 F1800.0
G1 X17.43 Y-3.14 Z0.78 F1800.0
G1 X26.75 Y-3.14 Z0.78 F1800.0
G1 X26.75 Y-3.53 Z0.78 F1800.0
G1 X17.09 Y-3.53 Z0.78 F1800.0
G1 X16.74 Y-3.93 Z0.78 F1800.0
G1 X26.75 Y-3.93 Z0.78 F1800.0
G1 X26.75 Y-4.32 Z0.78 F1800.0
G1 X16.41 Y-4.32 Z0.78 F1800.0
M108 R30.0
M102
G1 X15.96 Y-4.32 Z0.78 F1800.0
M108 R3.569
M103
G1 X15.67 Y-4.43 Z0.78 F3000.0
M108 R30.0
M101
G1 X14.92 Y-4.71 Z0.78 F3000.0
M108 R3.569
G1 X26.75 Y-4.71 Z0.78 F1800.0
G1 X26.75 Y-5.11 Z0.78 F1800.0
G1 X-26.75 Y-5.11 Z0.78 F1800.0
G1 X-26.75 Y-5.5 Z0.78 F1800.0
G1 X26.75 Y-5.5 Z0.78 F1800.0
G1 X26.75 Y-5.89 Z0.78 F1800.0
G1 X-26.75 Y-5.89 Z0.78 F1800.0
G1 X-26.75 Y-6.28 Z0.78 F1800.0
G1 X26.75 Y-6.28 Z0.78 F1800.0
G1 X26.75 Y-6.68 Z0.78 F1800.0
G1 X-26.75 Y-6.68 Z0.78 F1800.0
G1 X-26.75 Y-7.07 Z0.78 F1800.0
G1 X26.75 Y-7.07 Z0.78 F1800.0
G1 X26.75 Y-7.46 Z0.78 F1800.0
G1 X-26.75 Y-7.46 Z0.78 F1800.0
G1 X-26.75 Y-7.85 Z0.78 F1800.0
G1 X26.75 Y-7.85 Z0.78 F1800.0
G1 X26.75 Y-8.25 Z0.78 F1800.0
G1 X-26.75 Y-8.25 Z0.78 F1800.0
G1 X-26.75 Y-8.64 Z0.78 F1800.0
G1 X26.75 Y-8.64 Z0.78 F1800.0
G1 X26.75 Y-9.03 Z0.78 F1800.0
G1 X-26.75 Y-9.03 Z0.78 F1800.0
G1 X-26.75 Y-9.43 Z0.78 F1800.0
G1 X26.75 Y-9.43 Z0.78 F1800.0
G1 X26.75 Y-9.82 Z0.78 F1800.0
G1 X-26.75 Y-9.82 Z0.78 F1800.0
G1 X-26.75 Y-10.21 Z0.78 F1800.0
G1 X26.75 Y-10.21 Z0.78 F1800.0
G1 X26.75 Y-10.6 Z0.78 F1800.0
G1 X-26.3 Y-10.6 Z0.78 F1800.0
M108 R30.0
M102
G1 X-26.75 Y-10.6 Z0.78 F1800.0
M108 R3.569
M103
G1 X-18.76 Y-2.53 Z0.78 F3000.0
M108 R30.0
M101
G1 X-18.19 Y-1.96 Z0.78 F3000.0
M108 R3.569
G1 X-26.75 Y-1.96 Z0.78 F1800.0
G1 X-26.75 Y-2.36 Z0.78 F1800.0
G1 X-17.99 Y-2.36 Z0.78 F1800.0
G1 X-17.78 Y-2.75 Z0.78 F1800.0
G1 X-26.75 Y-2.75 Z0.78 F1800.0
G1 X-26.75 Y-3.14 Z0.78 F1800.0
G1 X-17.58 Y-3.14 Z0.78 F1800.0
M103
G1 X-17.14 Y-3.53 Z0.78 F3000.0
M101
G1 X-26.75 Y-3.53 Z0.78 F1800.0
G1 X-26.75 Y-3.93 Z0.78 F1800.0
G1 X-16.57 Y-3.93 Z0.78 F1800.0
G1 X-16.0 Y-4.32 Z0.78 F1800.0
G1 X-26.75 Y-4.32 Z0.78 F1800.0
G1 X-26.75 Y-4.71 Z0.78 F1800.0
G1 X-15.31 Y-4.71 Z0.78 F1800.0
M108 R30.0
M102
G1 X-14.86 Y-4.71 Z0.78 F1800.0
M108 R3.569
M103
G1 X-13.47 Y-4.71 Z0.78 F3000.0
M108 R30.0
M101
G1 X-12.67 Y-4.71 Z0.78 F3000.0
M108 R3.569
G1 X12.28 Y-4.71 Z0.78 F1800.0
M108 R30.0
M102
G1 X12.73 Y-4.71 Z0.78 F1800.0
M108 R3.569
M103
G1 X12.35 Y-4.58 Z0.78 F3000.0
M108 R30.0
M101
G1 X11.59 Y-4.32 Z0.78 F3000.0
M108 R3.569
G1 X-11.63 Y-4.32 Z0.78 F1800.0
M103
G1 X-10.86 Y-3.93 Z0.78 F3000.0
M101
G1 X11.03 Y-3.93 Z0.78 F1800.0
G1 X10.46 Y-3.53 Z0.78 F1800.0
G1 X-10.51 Y-3.53 Z0.78 F1800.0
G1 X-10.16 Y-3.14 Z0.78 F1800.0
G1 X10.02 Y-3.14 Z0.78 F1800.0
G1 X9.81 Y-2.75 Z0.78 F1800.0
G1 X-9.81 Y-2.75 Z0.78 F1800.0
G1 X-9.46 Y-2.36 Z0.78 F1800.0
G1 X9.61 Y-2.36 Z0.78 F1800.0
G1 X9.4 Y-1.96 Z0.78 F1800.0
G1 X-9.33 Y-1.96 Z0.78 F1800.0
M103
G1 X-9.23 Y-1.57 Z0.78 F3000.0
M101
G1 X9.19 Y-1.57 Z0.78 F1800.0
M103
G1 X8.99 Y-1.18 Z0.78 F3000.0
M101
G1 X-9.14 Y-1.18 Z0.78 F1800.0
M103
G1 X-9.04 Y-0.79 Z0.78 F3000.0
M101
G1 X8.99 Y-0.79 Z0.78 F1800.0
G1 X8.99 Y-0.39 Z0.78 F1800.0
G1 X-8.94 Y-0.39 Z0.78 F1800.0
M103
G1 X-8.85 Y0.0 Z0.78 F3000.0
M101
G1 X8.99 Y-0.0 Z0.78 F1800.0
G1 X8.99 Y0.39 Z0.78 F1800.0
G1 X-8.94 Y0.39 Z0.78 F1800.0
M103
G1 X-9.04 Y0.79 Z0.78 F3000.0
M101
G1 X8.99 Y0.79 Z0.78 F1800.0
G1 X8.99 Y1.18 Z0.78 F1800.0
G1 X-8.69 Y1.18 Z0.78 F1800.0
M108 R30.0
M102
G1 X-9.14 Y1.18 Z0.78 F1800.0
M108 R3.569
M103
G1 X25.97 Y10.4 Z0.78 F3000.0
M108 R30.0
M101
G1 X26.75 Y10.6 Z0.78 F3000.0
M108 R3.569
G1 X-26.75 Y10.6 Z0.78 F1800.0
G1 X-26.75 Y10.21 Z0.78 F1800.0
G1 X26.75 Y10.21 Z0.78 F1800.0
G1 X26.75 Y9.82 Z0.78 F1800.0
G1 X-26.75 Y9.82 Z0.78 F1800.0
G1 X-26.75 Y9.43 Z0.78 F1800.0
G1 X26.75 Y9.43 Z0.78 F1800.0
G1 X26.75 Y9.03 Z0.78 F1800.0
G1 X-26.75 Y9.03 Z0.78 F1800.0
G1 X-26.75 Y8.64 Z0.78 F1800.0
G1 X26.75 Y8.64 Z0.78 F1800.0
G1 X26.75 Y8.25 Z0.78 F1800.0
G1 X-26.75 Y8.25 Z0.78 F1800.0
G1 X-26.75 Y7.85 Z0.78 F1800.0
G1 X26.75 Y7.85 Z0.78 F1800.0
G1 X26.75 Y7.46 Z0.78 F1800.0
G1 X-26.75 Y7.46 Z0.78 F1800.0
G1 X-26.75 Y7.07 Z0.78 F1800.0
G1 X26.75 Y7.07 Z0.78 F1800.0
G1 X26.75 Y6.68 Z0.78 F1800.0
G1 X-26.75 Y6.68 Z0.78 F1800.0
G1 X-26.75 Y6.28 Z0.78 F1800.0
G1 X26.75 Y6.28 Z0.78 F1800.0
G1 X26.75 Y5.89 Z0.78 F1800.0
G1 X-26.75 Y5.89 Z0.78 F1800.0
G1 X-26.75 Y5.5 Z0.78 F1800.0
G1 X26.75 Y5.5 Z0.78 F1800.0
G1 X26.75 Y5.11 Z0.78 F1800.0
G1 X-26.75 Y5.11 Z0.78 F1800.0
G1 X-26.75 Y4.71 Z0.78 F1800.0
G1 X-15.31 Y4.71 Z0.78 F1800.0
M108 R30.0
M102
G1 X-14.86 Y4.71 Z0.78 F1800.0
M108 R3.569
M103
G1 X-15.24 Y4.58 Z0.78 F3000.0
M108 R30.0
M101
G1 X-16.0 Y4.32 Z0.78 F3000.0
M108 R3.569
G1 X-26.75 Y4.32 Z0.78 F1800.0
G1 X-26.75 Y3.93 Z0.78 F1800.0
G1 X-16.57 Y3.93 Z0.78 F1800.0
G1 X-17.14 Y3.53 Z0.78 F1800.0
G1 X-26.75 Y3.53 Z0.78 F1800.0
G1 X-26.75 Y3.14 Z0.78 F1800.0
G1 X-17.58 Y3.14 Z0.78 F1800.0
G1 X-17.78 Y2.75 Z0.78 F1800.0
G1 X-26.75 Y2.75 Z0.78 F1800.0
G1 X-26.75 Y2.36 Z0.78 F1800.0
G1 X-17.99 Y2.36 Z0.78 F1800.0
G1 X-18.19 Y1.96 Z0.78 F1800.0
G1 X-26.75 Y1.96 Z0.78 F1800.0
G1 X-26.75 Y1.57 Z0.78 F1800.0
G1 X-18.4 Y1.57 Z0.78 F1800.0
M103
G1 X-18.6 Y1.18 Z0.78 F3000.0
M101
G1 X-26.75 Y1.18 Z0.78 F1800.0
G1 X-26.75 Y0.79 Z0.78 F1800.0
G1 X-18.6 Y0.79 Z0.78 F1800.0
G1 X-18.6 Y0.39 Z0.78 F1800.0
G1 X-26.75 Y0.39 Z0.78 F1800.0
G1 X-26.75 Y0.0 Z0.78 F1800.0
G1 X-18.6 Y0.0 Z0.78 F1800.0
G1 X-18.6 Y-0.39 Z0.78 F1800.0
G1 X-26.75 Y-0.39 Z0.78 F1800.0
G1 X-26.75 Y-0.79 Z0.78 F1800.0
G1 X-18.6 Y-0.79 Z0.78 F1800.0
G1 X-18.6 Y-1.18 Z0.78 F1800.0
G1 X-26.75 Y-1.18 Z0.78 F1800.0
G1 X-26.75 Y-1.57 Z0.78 F1800.0
G1 X-18.85 Y-1.57 Z0.78 F1800.0
M108 R30.0
M102
G1 X-18.4 Y-1.57 Z0.78 F1800.0
M108 R3.569
M103
(</surroundingLoop>)
(</layer>)
(<operatingLayerEnd> </operatingLayerEnd>)
(<layer> 1.1 )
(<surroundingLoop>)
(<boundaryPerimeter>)
(<boundaryPoint> X27.593 Y11.617 Z1.1 </boundaryPoint>)
(<boundaryPoint> X-27.593 Y11.617 Z1.1 </boundaryPoint>)
(<boundaryPoint> X-27.593 Y-11.617 Z1.1 </boundaryPoint>)
(<boundaryPoint> X27.593 Y-11.617 Z1.1 </boundaryPoint>)
(<loop> inner )
G1 X-22.14 Y-1.34 Z1.04 F3000.0
M108 R30.0
M101
G1 X-22.94 Y-1.29 Z1.1 F3000.0
M108 R3.569
G1 X-22.94 Y5.41 Z1.1 F1800.0
G1 X-4.78 Y5.41 Z1.1 F1800.0
G1 X-4.78 Y-7.11 Z1.1 F1800.0
G1 X-22.94 Y-7.11 Z1.1 F1800.0
G1 X-22.94 Y-1.74 Z1.1 F1800.0
M108 R30.0
M102
G1 X-22.94 Y-1.57 Z1.1 F1800.0
G1 X-22.94 Y-1.29 Z1.1 F1800.0
M108 R3.569
M103
(</loop>)
(<loop> inner )
G1 X-22.63 Y-1.29 Z1.1 F3000.0
G1 X-22.49 Y-6.66 Z1.1 F3000.0
G1 X-5.23 Y-6.66 Z1.1 F3000.0
G1 X-5.1 Y-1.29 Z1.1 F3000.0
G1 X3.85 Y-1.29 Z1.1 F3000.0
M108 R30.0
M101
G1 X4.65 Y-1.29 Z1.1 F3000.0
M108 R3.569
G1 X4.65 Y5.41 Z1.1 F1800.0
G1 X22.81 Y5.41 Z1.1 F1800.0
G1 X22.81 Y-7.11 Z1.1 F1800.0
G1 X4.65 Y-7.11 Z1.1 F1800.0
G1 X4.65 Y-1.74 Z1.1 F1800.0
M108 R30.0
M102
G1 X4.65 Y-1.57 Z1.1 F1800.0
G1 X4.65 Y-1.29 Z1.1 F1800.0
M108 R3.569
M103
(</loop>)
(<loop> outer )
G1 X4.65 Y-10.23 Z1.1 F3000.0
M108 R30.0
M101
G1 X4.65 Y-11.03 Z1.1 F3000.0
M108 R3.569
G1 X27.0 Y-11.03 Z1.1 F1800.0
G1 X27.0 Y11.03 Z1.1 F1800.0
G1 X-27.0 Y11.03 Z1.1 F1800.0
G1 X-27.0 Y-11.03 Z1.1 F1800.0
G1 X4.65 Y-11.03 Z1.1 F1800.0
M103
(</loop>)
(<perimeter> outer )
G1 X4.65 Y-11.42 Z1.1 F3000.0
M101
G1 X27.4 Y-11.42 Z1.1 F1800.0
G1 X27.4 Y11.42 Z1.1 F1800.0
G1 X-27.4 Y11.42 Z1.1 F1800.0
G1 X-27.4 Y-11.42 Z1.1 F1800.0
G1 X4.2 Y-11.42 Z1.1 F1800.0
M108 R30.0
M102
G1 X4.65 Y-11.42 Z1.1 F1800.0
M108 R3.569
M103
(</perimeter>)
(</boundaryPerimeter>)
(<surroundingLoop>)
(<boundaryPerimeter>)
(<boundaryPoint> X22.223 Y-6.517 Z1.1 </boundaryPoint>)
(<boundaryPoint> X5.243 Y-6.517 Z1.1 </boundaryPoint>)
(<boundaryPoint> X5.243 Y4.817 Z1.1 </boundaryPoint>)
(<boundaryPoint> X22.223 Y4.817 Z1.1 </boundaryPoint>)
(<perimeter> inner )
G1 X4.98 Y-7.51 Z1.1 F3000.0
M108 R30.0
M101
G1 X5.05 Y-6.71 Z1.1 F3000.0
M108 R3.569
G1 X5.05 Y5.01 Z1.1 F1800.0
G1 X22.42 Y5.01 Z1.1 F1800.0
G1 X22.42 Y-6.71 Z1.1 F1800.0
G1 X5.5 Y-6.71 Z1.1 F1800.0
M108 R30.0
M102
G1 X5.05 Y-6.71 Z1.1 F1800.0
M108 R3.569
M103
(</perimeter>)
(</boundaryPerimeter>)
(</surroundingLoop>)
(<surroundingLoop>)
(<boundaryPerimeter>)
(<boundaryPoint> X-5.37 Y-6.517 Z1.1 </boundaryPoint>)
(<boundaryPoint> X-22.35 Y-6.517 Z1.1 </boundaryPoint>)
(<boundaryPoint> X-22.35 Y4.817 Z1.1 </boundaryPoint>)
(<boundaryPoint> X-5.37 Y4.817 Z1.1 </boundaryPoint>)
(<perimeter> inner )
G1 X-4.37 Y-6.71 Z1.1 F3000.0
M108 R30.0
M101
G1 X-5.17 Y-6.71 Z1.1 F3000.0
M108 R3.569
G1 X-22.55 Y-6.71 Z1.1 F1800.0
G1 X-22.55 Y5.01 Z1.1 F1800.0
G1 X-5.17 Y5.01 Z1.1 F1800.0
G1 X-5.17 Y-6.26 Z1.1 F1800.0
M108 R30.0
M102
G1 X-5.17 Y-6.71 Z1.1 F1800.0
M108 R3.569
M103
(</perimeter>)
(</boundaryPerimeter>)
(</surroundingLoop>)
G1 X1.45 Y10.03 Z1.1 F3000.0
M108 R30.0
M101
G1 X1.75 Y10.77 Z1.1 F3000.0
M108 R3.569
G1 X-0.44 Y10.77 Z1.1 F1800.0
G1 X-0.98 Y9.95 Z1.1 F1800.0
G1 X-0.98 Y9.69 Z1.1 F1800.0
G1 X0.98 Y7.76 Z1.1 F1800.0
G1 X0.98 Y7.51 Z1.1 F1800.0
G1 X-0.98 Y5.58 Z1.1 F1800.0
G1 X-0.98 Y5.33 Z1.1 F1800.0
G1 X0.98 Y3.4 Z1.1 F1800.0
G1 X0.98 Y3.15 Z1.1 F1800.0
G1 X-0.98 Y1.22 Z1.1 F1800.0
G1 X-0.98 Y0.96 Z1.1 F1800.0
G1 X0.98 Y-0.96 Z1.1 F1800.0
G1 X0.98 Y-1.22 Z1.1 F1800.0
G1 X-0.98 Y-3.15 Z1.1 F1800.0
G1 X-0.98 Y-3.4 Z1.1 F1800.0
G1 X0.98 Y-5.33 Z1.1 F1800.0
G1 X0.98 Y-5.58 Z1.1 F1800.0
G1 X-0.98 Y-7.51 Z1.1 F1800.0
G1 X-0.98 Y-7.76 Z1.1 F1800.0
G1 X0.98 Y-9.69 Z1.1 F1800.0
G1 X0.98 Y-9.95 Z1.1 F1800.0
G1 X1.75 Y-10.77 Z1.1 F1800.0
G1 X-2.62 Y-10.77 Z1.1 F1800.0
G1 X-3.16 Y-9.95 Z1.1 F1800.0
G1 X-3.16 Y-9.69 Z1.1 F1800.0
G1 X-1.21 Y-7.76 Z1.1 F1800.0
G1 X-1.21 Y-7.51 Z1.1 F1800.0
G1 X-3.16 Y-5.58 Z1.1 F1800.0
G1 X-3.16 Y-5.33 Z1.1 F1800.0
G1 X-1.21 Y-3.4 Z1.1 F1800.0
G1 X-1.21 Y-3.15 Z1.1 F1800.0
G1 X-3.16 Y-1.22 Z1.1 F1800.0
G1 X-3.16 Y-0.96 Z1.1 F1800.0
G1 X-1.21 Y0.96 Z1.1 F1800.0
G1 X-1.21 Y1.22 Z1.1 F1800.0
G1 X-3.16 Y3.15 Z1.1 F1800.0
G1 X-3.16 Y3.4 Z1.1 F1800.0
G1 X-1.21 Y5.33 Z1.1 F1800.0
G1 X-1.21 Y5.58 Z1.1 F1800.0
G1 X-3.16 Y7.51 Z1.1 F1800.0
G1 X-3.16 Y7.76 Z1.1 F1800.0
G1 X-1.21 Y9.69 Z1.1 F1800.0
G1 X-1.21 Y9.95 Z1.1 F1800.0
G1 X-0.87 Y10.77 Z1.1 F1800.0
G1 X-4.36 Y10.77 Z1.1 F1800.0
G1 X-5.34 Y9.95 Z1.1 F1800.0
G1 X-5.34 Y9.69 Z1.1 F1800.0
G1 X-3.39 Y7.76 Z1.1 F1800.0
G1 X-3.39 Y-5.58 Z1.1 F1800.0
G1 X-4.46 Y-7.63 Z1.1 F1800.0
G1 X-3.39 Y-9.69 Z1.1 F1800.0
G1 X-3.39 Y-9.95 Z1.1 F1800.0
G1 X-3.05 Y-10.77 Z1.1 F1800.0
G1 X-6.55 Y-10.77 Z1.1 F1800.0
G1 X-7.52 Y-9.95 Z1.1 F1800.0
G1 X-7.52 Y-9.69 Z1.1 F1800.0
G1 X-5.45 Y-7.76 Z1.1 F1800.0
G1 X-5.45 Y-7.51 Z1.1 F1800.0
G1 X-5.67 Y-7.36 Z1.1 F1800.0
G1 X-5.89 Y-7.69 Z1.1 F1800.0
M108 R30.0
M102
G1 X-5.92 Y-7.72 Z1.1 F1800.0
G1 X-6.11 Y-7.36 Z1.1 F1800.0
M108 R3.569
M103
G1 X-7.49 Y-7.36 Z1.1 F3000.0
M108 R30.0
M101
G1 X-8.29 Y-7.36 Z1.1 F3000.0
M108 R3.569
G1 X-9.24 Y-7.61 Z1.1 F1800.0
G1 X-9.7 Y-7.51 Z1.1 F1800.0
G1 X-9.7 Y-7.76 Z1.1 F1800.0
G1 X-7.75 Y-9.69 Z1.1 F1800.0
G1 X-7.75 Y-9.95 Z1.1 F1800.0
G1 X-6.98 Y-10.77 Z1.1 F1800.0
G1 X-10.47 Y-10.77 Z1.1 F1800.0
G1 X-11.88 Y-9.95 Z1.1 F1800.0
G1 X-11.88 Y-9.69 Z1.1 F1800.0
G1 X-9.93 Y-7.76 Z1.1 F1800.0
G1 X-9.93 Y-7.51 Z1.1 F1800.0
G1 X-10.04 Y-7.36 Z1.1 F1800.0
G1 X-10.24 Y-7.51 Z1.1 F1800.0
M108 R30.0
M102
G1 X-10.39 Y-7.61 Z1.1 F1800.0
G1 X-10.47 Y-7.36 Z1.1 F1800.0
M108 R3.569
M103
G1 X-11.85 Y-7.36 Z1.1 F3000.0
M108 R30.0
M101
G1 X-12.65 Y-7.36 Z1.1 F3000.0
M108 R3.569
G1 X-13.61 Y-7.61 Z1.1 F1800.0
G1 X-14.07 Y-7.51 Z1.1 F1800.0
G1 X-14.07 Y-7.76 Z1.1 F1800.0
G1 X-12.11 Y-9.69 Z1.1 F1800.0
G1 X-12.11 Y-9.95 Z1.1 F1800.0
G1 X-11.35 Y-10.77 Z1.1 F1800.0
G1 X-14.84 Y-10.77 Z1.1 F1800.0
G1 X-16.25 Y-9.95 Z1.1 F1800.0
G1 X-16.25 Y-9.69 Z1.1 F1800.0
G1 X-14.3 Y-7.76 Z1.1 F1800.0
G1 X-14.3 Y-7.51 Z1.1 F1800.0
G1 X-14.4 Y-7.36 Z1.1 F1800.0
G1 X-14.6 Y-7.51 Z1.1 F1800.0
M108 R30.0
M102
G1 X-14.76 Y-7.61 Z1.1 F1800.0
G1 X-14.84 Y-7.36 Z1.1 F1800.0
M108 R3.569
M103
G1 X-16.22 Y-7.36 Z1.1 F3000.0
M108 R30.0
M101
G1 X-17.02 Y-7.36 Z1.1 F3000.0
M108 R3.569
G1 X-17.97 Y-7.61 Z1.1 F1800.0
G1 X-18.43 Y-7.51 Z1.1 F1800.0
G1 X-18.43 Y-7.76 Z1.1 F1800.0
G1 X-16.48 Y-9.69 Z1.1 F1800.0
G1 X-16.48 Y-9.95 Z1.1 F1800.0
G1 X-15.71 Y-10.77 Z1.1 F1800.0
G1 X-19.64 Y-10.77 Z1.1 F1800.0
G1 X-20.61 Y-9.95 Z1.1 F1800.0
G1 X-20.61 Y-9.69 Z1.1 F1800.0
G1 X-18.66 Y-7.76 Z1.1 F1800.0
G1 X-18.66 Y-7.51 Z1.1 F1800.0
G1 X-18.76 Y-7.36 Z1.1 F1800.0
G1 X-18.97 Y-7.51 Z1.1 F1800.0
M108 R30.0
M102
G1 X-19.12 Y-7.61 Z1.1 F1800.0
G1 X-19.2 Y-7.36 Z1.1 F1800.0
M108 R3.569
M103
G1 X-20.58 Y-7.36 Z1.1 F3000.0
M108 R30.0
M101
G1 X-21.38 Y-7.36 Z1.1 F3000.0
M108 R3.569
G1 X-22.33 Y-7.61 Z1.1 F1800.0
G1 X-22.79 Y-7.51 Z1.1 F1800.0
G1 X-22.79 Y-7.76 Z1.1 F1800.0
G1 X-20.84 Y-9.69 Z1.1 F1800.0
G1 X-20.84 Y-9.95 Z1.1 F1800.0
G1 X-20.07 Y-10.77 Z1.1 F1800.0
G1 X-24.44 Y-10.77 Z1.1 F1800.0
G1 X-24.97 Y-9.95 Z1.1 F1800.0
G1 X-24.97 Y-9.69 Z1.1 F1800.0
G1 X-23.02 Y-7.76 Z1.1 F1800.0
G1 X-23.02 Y-7.51 Z1.1 F1800.0
G1 X-23.13 Y-7.36 Z1.1 F1800.0
G1 X-24.97 Y-5.58 Z1.1 F1800.0
G1 X-24.97 Y7.76 Z1.1 F1800.0
G1 X-23.02 Y9.69 Z1.1 F1800.0
G1 X-23.02 Y9.95 Z1.1 F1800.0
G1 X-21.82 Y10.77 Z1.1 F1800.0
G1 X-25.74 Y10.77 Z1.1 F1800.0
G1 X-25.2 Y7.76 Z1.1 F1800.0
G1 X-25.2 Y-9.95 Z1.1 F1800.0
G1 X-24.87 Y-10.77 Z1.1 F1800.0
G1 X-26.62 Y-10.77 Z1.1 F1800.0
G1 X-26.62 Y10.76 Z1.1 F1800.0
M108 R30.0
M102
G1 X-26.62 Y10.77 Z1.1 F1800.0
G1 X-26.18 Y10.77 Z1.1 F1800.0
M108 R3.569
M103
G1 X-20.43 Y10.77 Z1.1 F3000.0
M108 R30.0
M101
G1 X-19.64 Y10.77 Z1.1 F3000.0
M108 R3.569
G1 X-21.38 Y10.77 Z1.1 F1800.0
G1 X-22.79 Y9.95 Z1.1 F1800.0
G1 X-22.79 Y9.69 Z1.1 F1800.0
G1 X-20.84 Y7.76 Z1.1 F1800.0
G1 X-20.94 Y6.1 Z1.1 F1800.0
G1 X-21.06 Y5.98 Z1.1 F1800.0
M108 R30.0
M102
G1 X-21.38 Y5.66 Z1.1 F1800.0
M108 R3.569
M103
G1 X-20.0 Y5.66 Z1.1 F3000.0
M108 R30.0
M101
G1 X-19.2 Y5.66 Z1.1 F3000.0
M108 R3.569
G1 X-19.64 Y6.1 Z1.1 F1800.0
G1 X-20.07 Y6.1 Z1.1 F1800.0
G1 X-20.61 Y7.51 Z1.1 F1800.0
G1 X-20.61 Y7.76 Z1.1 F1800.0
G1 X-18.54 Y9.69 Z1.1 F1800.0
G1 X-18.54 Y9.95 Z1.1 F1800.0
G1 X-19.2 Y10.77 Z1.1 F1800.0
G1 X-15.27 Y10.77 Z1.1 F1800.0
G1 X-16.48 Y7.76 Z1.1 F1800.0
G1 X-16.58 Y6.1 Z1.1 F1800.0
G1 X-16.7 Y5.98 Z1.1 F1800.0
M108 R30.0
M102
G1 X-17.02 Y5.66 Z1.1 F1800.0
M108 R3.569
M103
G1 X-15.64 Y5.66 Z1.1 F3000.0
M108 R30.0
M101
G1 X-14.84 Y5.66 Z1.1 F3000.0
M108 R3.569
G1 X-15.27 Y6.1 Z1.1 F1800.0
G1 X-15.71 Y6.1 Z1.1 F1800.0
G1 X-16.14 Y5.66 Z1.1 F1800.0
G1 X-16.25 Y7.76 Z1.1 F1800.0
G1 X-14.18 Y9.69 Z1.1 F1800.0
G1 X-14.18 Y9.95 Z1.1 F1800.0
G1 X-14.84 Y10.77 Z1.1 F1800.0
G1 X-10.91 Y10.77 Z1.1 F1800.0
G1 X-12.11 Y7.76 Z1.1 F1800.0
G1 X-12.22 Y6.1 Z1.1 F1800.0
G1 X-12.34 Y5.98 Z1.1 F1800.0
M108 R30.0
M102
G1 X-12.65 Y5.66 Z1.1 F1800.0
M108 R3.569
M103
G1 X-11.27 Y5.66 Z1.1 F3000.0
M108 R30.0
M101
G1 X-10.47 Y5.66 Z1.1 F3000.0
M108 R3.569
G1 X-11.35 Y6.1 Z1.1 F1800.0
G1 X-11.88 Y7.51 Z1.1 F1800.0
G1 X-11.88 Y7.76 Z1.1 F1800.0
G1 X-9.82 Y9.69 Z1.1 F1800.0
G1 X-9.82 Y9.95 Z1.1 F1800.0
G1 X-10.47 Y10.77 Z1.1 F1800.0
G1 X-6.98 Y10.77 Z1.1 F1800.0
G1 X-7.75 Y7.76 Z1.1 F1800.0
G1 X-7.85 Y6.1 Z1.1 F1800.0
G1 X-7.97 Y5.98 Z1.1 F1800.0
M108 R30.0
M102
G1 X-8.29 Y5.66 Z1.1 F1800.0
M108 R3.569
M103
G1 X-6.91 Y5.66 Z1.1 F3000.0
M108 R30.0
M101
G1 X-6.11 Y5.66 Z1.1 F3000.0
M108 R3.569
G1 X-6.55 Y6.1 Z1.1 F1800.0
G1 X-6.98 Y6.1 Z1.1 F1800.0
G1 X-7.52 Y7.51 Z1.1 F1800.0
G1 X-7.52 Y7.76 Z1.1 F1800.0
G1 X-5.57 Y9.69 Z1.1 F1800.0
G1 X-5.57 Y9.95 Z1.1 F1800.0
G1 X-4.8 Y10.77 Z1.1 F1800.0
G1 X-6.1 Y10.77 Z1.1 F1800.0
M108 R30.0
M102
G1 X-6.55 Y10.77 Z1.1 F1800.0
M108 R3.569
M103
G1 X4.0 Y-10.06 Z1.1 F3000.0
M108 R30.0
M101
G1 X4.36 Y-10.77 Z1.1 F3000.0
M108 R3.569
G1 X2.18 Y-10.77 Z1.1 F1800.0
G1 X1.21 Y-9.95 Z1.1 F1800.0
G1 X1.21 Y-9.69 Z1.1 F1800.0
G1 X3.16 Y-7.76 Z1.1 F1800.0
G1 X3.16 Y-7.51 Z1.1 F1800.0
G1 X1.21 Y-5.58 Z1.1 F1800.0
G1 X1.21 Y7.76 Z1.1 F1800.0
G1 X3.27 Y9.69 Z1.1 F1800.0
G1 X3.27 Y9.95 Z1.1 F1800.0
G1 X2.18 Y10.77 Z1.1 F1800.0
G1 X6.11 Y10.77 Z1.1 F1800.0
G1 X5.34 Y7.76 Z1.1 F1800.0
G1 X5.24 Y6.1 Z1.1 F1800.0
G1 X5.12 Y5.98 Z1.1 F1800.0
M108 R30.0
M102
G1 X4.8 Y5.66 Z1.1 F1800.0
M108 R3.569
M103
G1 X6.18 Y5.66 Z1.1 F3000.0
M108 R30.0
M101
G1 X6.98 Y5.66 Z1.1 F3000.0
M108 R3.569
G1 X6.55 Y6.1 Z1.1 F1800.0
G1 X6.11 Y6.1 Z1.1 F1800.0
G1 X5.57 Y7.51 Z1.1 F1800.0
G1 X5.57 Y7.76 Z1.1 F1800.0
G1 X7.64 Y9.69 Z1.1 F1800.0
G1 X7.64 Y9.95 Z1.1 F1800.0
G1 X6.55 Y10.77 Z1.1 F1800.0
G1 X10.47 Y10.77 Z1.1 F1800.0
G1 X9.7 Y7.76 Z1.1 F1800.0
G1 X9.6 Y6.1 Z1.1 F1800.0
G1 X9.48 Y5.98 Z1.1 F1800.0
M108 R30.0
M102
G1 X9.16 Y5.66 Z1.1 F1800.0
M108 R3.569
M103
G1 X10.55 Y5.66 Z1.1 F3000.0
M108 R30.0
M101
G1 X11.35 Y5.66 Z1.1 F3000.0
M108 R3.569
G1 X10.91 Y6.1 Z1.1 F1800.0
G1 X10.47 Y6.1 Z1.1 F1800.0
G1 X10.04 Y5.66 Z1.1 F1800.0
G1 X9.93 Y7.76 Z1.1 F1800.0
G1 X12.0 Y9.69 Z1.1 F1800.0
G1 X12.0 Y9.95 Z1.1 F1800.0
G1 X10.91 Y10.77 Z1.1 F1800.0
G1 X14.84 Y10.77 Z1.1 F1800.0
G1 X14.07 Y7.76 Z1.1 F1800.0
G1 X13.96 Y6.1 Z1.1 F1800.0
G1 X13.85 Y5.98 Z1.1 F1800.0
M108 R30.0
M102
G1 X13.53 Y5.66 Z1.1 F1800.0
M108 R3.569
M103
G1 X14.91 Y5.66 Z1.1 F3000.0
M108 R30.0
M101
G1 X15.71 Y5.66 Z1.1 F3000.0
M108 R3.569
G1 X15.27 Y6.1 Z1.1 F1800.0
G1 X14.84 Y6.1 Z1.1 F1800.0
G1 X14.3 Y7.51 Z1.1 F1800.0
G1 X14.3 Y7.76 Z1.1 F1800.0
G1 X16.36 Y9.69 Z1.1 F1800.0
G1 X16.36 Y9.95 Z1.1 F1800.0
G1 X15.27 Y10.77 Z1.1 F1800.0
G1 X19.64 Y10.77 Z1.1 F1800.0
G1 X18.43 Y7.76 Z1.1 F1800.0
G1 X18.33 Y6.1 Z1.1 F1800.0
G1 X18.21 Y5.98 Z1.1 F1800.0
M108 R30.0
M102
G1 X17.89 Y5.66 Z1.1 F1800.0
M108 R3.569
M103
G1 X19.27 Y5.66 Z1.1 F3000.0
M108 R30.0
M101
G1 X20.07 Y5.66 Z1.1 F3000.0
M108 R3.569
G1 X19.64 Y6.1 Z1.1 F1800.0
G1 X19.2 Y6.1 Z1.1 F1800.0
G1 X18.76 Y5.66 Z1.1 F1800.0
G1 X18.66 Y7.76 Z1.1 F1800.0
G1 X20.73 Y9.69 Z1.1 F1800.0
G1 X20.73 Y9.95 Z1.1 F1800.0
G1 X20.07 Y10.77 Z1.1 F1800.0
G1 X23.56 Y10.77 Z1.1 F1800.0
G1 X22.79 Y7.76 Z1.1 F1800.0
G1 X22.69 Y6.1 Z1.1 F1800.0
G1 X22.57 Y5.98 Z1.1 F1800.0
M108 R30.0
M102
G1 X22.25 Y5.66 Z1.1 F1800.0
M108 R3.569
M103
G1 X26.41 Y-10.0 Z1.1 F3000.0
M108 R30.0
M101
G1 X26.62 Y-10.77 Z1.1 F3000.0
M108 R3.569
G1 X26.18 Y-10.77 Z1.1 F1800.0
G1 X25.2 Y-7.76 Z1.1 F1800.0
G1 X25.2 Y5.58 Z1.1 F1800.0
G1 X26.62 Y10.77 Z1.1 F1800.0
G1 X24.0 Y10.77 Z1.1 F1800.0
G1 X25.09 Y9.95 Z1.1 F1800.0
G1 X25.09 Y9.69 Z1.1 F1800.0
G1 X23.02 Y7.76 Z1.1 F1800.0
G1 X23.02 Y7.51 Z1.1 F1800.0
G1 X24.97 Y5.58 Z1.1 F1800.0
G1 X24.97 Y-7.76 Z1.1 F1800.0
G1 X25.74 Y-10.77 Z1.1 F1800.0
G1 X21.82 Y-10.77 Z1.1 F1800.0
G1 X22.91 Y-9.95 Z1.1 F1800.0
G1 X22.91 Y-9.69 Z1.1 F1800.0
G1 X20.84 Y-7.76 Z1.1 F1800.0
G1 X20.84 Y-7.51 Z1.1 F1800.0
G1 X20.94 Y-7.36 Z1.1 F1800.0
G1 X21.3 Y-7.61 Z1.1 F1800.0
G1 X21.38 Y-7.36 Z1.1 F1800.0
G1 X21.8 Y-7.49 Z1.1 F1800.0
G1 X21.82 Y-7.49 Z1.1 F1800.0
M108 R30.0
M102
G1 X22.25 Y-7.36 Z1.1 F1800.0
M108 R3.569
M103
G1 X20.87 Y-7.36 Z1.1 F3000.0
M108 R30.0
M101
G1 X20.07 Y-7.36 Z1.1 F3000.0
M108 R3.569
G1 X20.15 Y-7.61 Z1.1 F1800.0
G1 X20.61 Y-7.51 Z1.1 F1800.0
G1 X20.61 Y-7.76 Z1.1 F1800.0
G1 X21.38 Y-10.77 Z1.1 F1800.0
G1 X17.45 Y-10.77 Z1.1 F1800.0
G1 X18.54 Y-9.95 Z1.1 F1800.0
G1 X18.54 Y-9.69 Z1.1 F1800.0
G1 X16.48 Y-7.76 Z1.1 F1800.0
G1 X16.48 Y-7.51 Z1.1 F1800.0
G1 X16.58 Y-7.36 Z1.1 F1800.0
G1 X16.94 Y-7.61 Z1.1 F1800.0
G1 X17.02 Y-7.36 Z1.1 F1800.0
G1 X17.43 Y-7.49 Z1.1 F1800.0
G1 X17.46 Y-7.49 Z1.1 F1800.0
M108 R30.0
M102
G1 X17.89 Y-7.36 Z1.1 F1800.0
M108 R3.569
M103
G1 X16.51 Y-7.36 Z1.1 F3000.0
M108 R30.0
M101
G1 X15.71 Y-7.36 Z1.1 F3000.0
M108 R3.569
G1 X15.79 Y-7.61 Z1.1 F1800.0
G1 X16.25 Y-7.51 Z1.1 F1800.0
G1 X16.25 Y-7.76 Z1.1 F1800.0
G1 X17.02 Y-10.77 Z1.1 F1800.0
G1 X13.53 Y-10.77 Z1.1 F1800.0
G1 X14.18 Y-9.95 Z1.1 F1800.0
G1 X14.18 Y-9.69 Z1.1 F1800.0
G1 X12.11 Y-7.76 Z1.1 F1800.0
G1 X12.11 Y-7.51 Z1.1 F1800.0
G1 X12.22 Y-7.36 Z1.1 F1800.0
G1 X12.57 Y-7.61 Z1.1 F1800.0
G1 X12.65 Y-7.36 Z1.1 F1800.0
G1 X13.07 Y-7.49 Z1.1 F1800.0
G1 X13.09 Y-7.49 Z1.1 F1800.0
M108 R30.0
M102
G1 X13.53 Y-7.36 Z1.1 F1800.0
M108 R3.569
M103
G1 X12.15 Y-7.36 Z1.1 F3000.0
M108 R30.0
M101
G1 X11.35 Y-7.36 Z1.1 F3000.0
M108 R3.569
G1 X11.42 Y-7.61 Z1.1 F1800.0
G1 X11.88 Y-7.51 Z1.1 F1800.0
G1 X11.88 Y-7.76 Z1.1 F1800.0
G1 X13.09 Y-10.77 Z1.1 F1800.0
G1 X8.73 Y-10.77 Z1.1 F1800.0
G1 X9.82 Y-9.95 Z1.1 F1800.0
G1 X9.82 Y-9.69 Z1.1 F1800.0
G1 X7.75 Y-7.76 Z1.1 F1800.0
G1 X7.75 Y-7.51 Z1.1 F1800.0
G1 X7.85 Y-7.36 Z1.1 F1800.0
G1 X8.21 Y-7.61 Z1.1 F1800.0
G1 X8.29 Y-7.36 Z1.1 F1800.0
G1 X8.71 Y-7.49 Z1.1 F1800.0
G1 X8.73 Y-7.49 Z1.1 F1800.0
M108 R30.0
M102
G1 X9.16 Y-7.36 Z1.1 F1800.0
M108 R3.569
M103
G1 X7.78 Y-7.36 Z1.1 F3000.0
M108 R30.0
M101
G1 X6.98 Y-7.36 Z1.1 F3000.0
M108 R3.569
G1 X7.06 Y-7.61 Z1.1 F1800.0
G1 X7.52 Y-7.51 Z1.1 F1800.0
G1 X7.52 Y-7.76 Z1.1 F1800.0
G1 X8.29 Y-10.77 Z1.1 F1800.0
G1 X4.8 Y-10.77 Z1.1 F1800.0
G1 X5.45 Y-9.95 Z1.1 F1800.0
G1 X5.45 Y-9.69 Z1.1 F1800.0
G1 X3.39 Y-7.76 Z1.1 F1800.0
G1 X3.39 Y-7.51 Z1.1 F1800.0
G1 X4.8 Y-7.36 Z1.1 F1800.0
M103
(</surroundingLoop>)
(</layer>)
(<layer> 1.42 )
(<surroundingLoop>)
(<boundaryPerimeter>)
(<boundaryPoint> X27.593 Y11.617 Z1.42 </boundaryPoint>)
(<boundaryPoint> X-27.593 Y11.617 Z1.42 </boundaryPoint>)
(<boundaryPoint> X-27.593 Y-11.617 Z1.42 </boundaryPoint>)
(<boundaryPoint> X27.593 Y-11.617 Z1.42 </boundaryPoint>)
(<loop> inner )
G1 X4.68 Y-7.11 Z1.42 F3000.0
M101
G1 X4.65 Y-7.11 Z1.42 F1800.0
G1 X4.65 Y5.41 Z1.42 F1800.0
G1 X22.81 Y5.41 Z1.42 F1800.0
G1 X22.81 Y-7.11 Z1.42 F1800.0
G1 X5.13 Y-7.11 Z1.42 F1800.0
M108 R30.0
M102
G1 X4.68 Y-7.11 Z1.42 F1800.0
M108 R3.569
M103
(</loop>)
(<loop> inner )
G1 X-3.98 Y-7.11 Z1.42 F3000.0
M108 R30.0
M101
G1 X-4.78 Y-7.11 Z1.42 F3000.0
M108 R3.569
G1 X-22.94 Y-7.11 Z1.42 F1800.0
G1 X-22.94 Y5.41 Z1.42 F1800.0
G1 X-4.78 Y5.41 Z1.42 F1800.0
G1 X-4.78 Y-6.66 Z1.42 F1800.0
M108 R30.0
M102
G1 X-4.78 Y-7.11 Z1.42 F1800.0
M108 R3.569
M103
(</loop>)
(<loop> outer )
G1 X-4.78 Y-10.23 Z1.42 F3000.0
M108 R30.0
M101
G1 X-4.78 Y-11.03 Z1.42 F3000.0
M108 R3.569
G1 X27.0 Y-11.03 Z1.42 F1800.0
G1 X27.0 Y11.03 Z1.42 F1800.0
G1 X-27.0 Y11.03 Z1.42 F1800.0
G1 X-27.0 Y-11.03 Z1.42 F1800.0
G1 X-4.78 Y-11.03 Z1.42 F1800.0
M103
(</loop>)
(<perimeter> outer )
G1 X-4.78 Y-11.42 Z1.42 F3000.0
M101
G1 X27.4 Y-11.42 Z1.42 F1800.0
G1 X27.4 Y11.42 Z1.42 F1800.0
G1 X-27.4 Y11.42 Z1.42 F1800.0
G1 X-27.4 Y-11.42 Z1.42 F1800.0
G1 X-5.23 Y-11.42 Z1.42 F1800.0
M108 R30.0
M102
G1 X-4.78 Y-11.42 Z1.42 F1800.0
M108 R3.569
M103
(</perimeter>)
(</boundaryPerimeter>)
(<surroundingLoop>)
(<boundaryPerimeter>)
(<boundaryPoint> X-5.37 Y-6.517 Z1.42 </boundaryPoint>)
(<boundaryPoint> X-22.35 Y-6.517 Z1.42 </boundaryPoint>)
(<boundaryPoint> X-22.35 Y4.817 Z1.42 </boundaryPoint>)
(<boundaryPoint> X-5.37 Y4.817 Z1.42 </boundaryPoint>)
(<perimeter> inner )
G1 X-5.11 Y-7.51 Z1.42 F3000.0
M108 R30.0
M101
G1 X-5.17 Y-6.71 Z1.42 F3000.0
M108 R3.569
G1 X-22.55 Y-6.71 Z1.42 F1800.0
G1 X-22.55 Y5.01 Z1.42 F1800.0
G1 X-5.17 Y5.01 Z1.42 F1800.0
G1 X-5.17 Y-6.26 Z1.42 F1800.0
M108 R30.0
M102
G1 X-5.17 Y-6.71 Z1.42 F1800.0
M108 R3.569
M103
(</perimeter>)
(</boundaryPerimeter>)
(</surroundingLoop>)
(<surroundingLoop>)
(<boundaryPerimeter>)
(<boundaryPoint> X22.223 Y-6.517 Z1.42 </boundaryPoint>)
(<boundaryPoint> X5.243 Y-6.517 Z1.42 </boundaryPoint>)
(<boundaryPoint> X5.243 Y4.817 Z1.42 </boundaryPoint>)
(<boundaryPoint> X22.223 Y4.817 Z1.42 </boundaryPoint>)
(<perimeter> inner )
G1 X4.25 Y-6.71 Z1.42 F3000.0
M108 R30.0
M101
G1 X5.05 Y-6.71 Z1.42 F3000.0
M108 R3.569
G1 X5.05 Y5.01 Z1.42 F1800.0
G1 X22.42 Y5.01 Z1.42 F1800.0
G1 X22.42 Y-6.71 Z1.42 F1800.0
G1 X5.5 Y-6.71 Z1.42 F1800.0
M108 R30.0
M102
G1 X5.05 Y-6.71 Z1.42 F1800.0
M108 R3.569
M103
(</perimeter>)
(</boundaryPerimeter>)
(</surroundingLoop>)
G1 X-3.73 Y-6.56 Z1.42 F3000.0
M108 R30.0
M101
G1 X-4.53 Y-6.55 Z1.42 F3000.0
M108 R3.569
G1 X-4.09 Y-6.11 Z1.42 F1800.0
G1 X-4.53 Y-5.67 Z1.42 F1800.0
G1 X-4.09 Y-5.24 Z1.42 F1800.0
G1 X-3.4 Y-5.57 Z1.42 F1800.0
G1 X-3.15 Y-5.57 Z1.42 F1800.0
G1 X-1.22 Y-7.52 Z1.42 F1800.0
G1 X-0.96 Y-7.52 Z1.42 F1800.0
G1 X0.96 Y-5.57 Z1.42 F1800.0
G1 X1.22 Y-5.57 Z1.42 F1800.0
G1 X3.15 Y-7.52 Z1.42 F1800.0
G1 X3.4 Y-7.52 Z1.42 F1800.0
G1 X4.4 Y-6.98 Z1.42 F1800.0
G1 X4.4 Y-2.62 Z1.42 F1800.0
G1 X1.22 Y-5.34 Z1.42 F1800.0
G1 X0.96 Y-5.34 Z1.42 F1800.0
G1 X-0.96 Y-3.39 Z1.42 F1800.0
G1 X-1.22 Y-3.39 Z1.42 F1800.0
G1 X-3.15 Y-5.34 Z1.42 F1800.0
G1 X-3.4 Y-5.34 Z1.42 F1800.0
G1 X-4.09 Y-4.8 Z1.42 F1800.0
G1 X-4.21 Y-4.68 Z1.42 F1800.0
M108 R30.0
M102
G1 X-4.53 Y-4.36 Z1.42 F1800.0
M108 R3.569
M103
G1 X-4.53 Y-2.98 Z1.42 F3000.0
M108 R30.0
M101
G1 X-4.53 Y-2.18 Z1.42 F3000.0
M108 R3.569
G1 X-4.09 Y-1.75 Z1.42 F1800.0
G1 X-4.53 Y-1.31 Z1.42 F1800.0
G1 X-4.09 Y-0.87 Z1.42 F1800.0
G1 X-3.4 Y-1.21 Z1.42 F1800.0
G1 X-3.15 Y-1.21 Z1.42 F1800.0
G1 X-1.22 Y-3.16 Z1.42 F1800.0
G1 X-0.96 Y-3.16 Z1.42 F1800.0
G1 X0.96 Y-1.21 Z1.42 F1800.0
G1 X1.22 Y-1.21 Z1.42 F1800.0
G1 X4.4 Y-2.18 Z1.42 F1800.0
G1 X4.4 Y1.75 Z1.42 F1800.0
G1 X1.22 Y-0.98 Z1.42 F1800.0
G1 X0.96 Y-0.98 Z1.42 F1800.0
G1 X-0.96 Y0.98 Z1.42 F1800.0
G1 X-1.22 Y0.98 Z1.42 F1800.0
G1 X-3.15 Y-0.98 Z1.42 F1800.0
G1 X-3.4 Y-0.98 Z1.42 F1800.0
G1 X-4.09 Y-0.44 Z1.42 F1800.0
G1 X-4.21 Y-0.32 Z1.42 F1800.0
M108 R30.0
M102
G1 X-4.53 Y0.0 Z1.42 F1800.0
M108 R3.569
M103
G1 X-4.53 Y1.38 Z1.42 F3000.0
M108 R30.0
M101
G1 X-4.53 Y2.18 Z1.42 F3000.0
M108 R3.569
G1 X-4.09 Y2.62 Z1.42 F1800.0
G1 X-4.53 Y3.05 Z1.42 F1800.0
G1 X-4.09 Y3.49 Z1.42 F1800.0
G1 X-3.4 Y3.16 Z1.42 F1800.0
G1 X-3.15 Y3.16 Z1.42 F1800.0
G1 X-1.22 Y1.21 Z1.42 F1800.0
G1 X-0.96 Y1.21 Z1.42 F1800.0
G1 X0.96 Y3.16 Z1.42 F1800.0
G1 X1.22 Y3.16 Z1.42 F1800.0
G1 X4.4 Y2.18 Z1.42 F1800.0
G1 X4.4 Y5.24 Z1.42 F1800.0
G1 X1.22 Y3.39 Z1.42 F1800.0
G1 X0.96 Y3.39 Z1.42 F1800.0
G1 X-0.96 Y5.34 Z1.42 F1800.0
G1 X-1.22 Y5.34 Z1.42 F1800.0
G1 X-3.15 Y3.39 Z1.42 F1800.0
G1 X-3.4 Y3.39 Z1.42 F1800.0
G1 X-4.09 Y3.93 Z1.42 F1800.0
G1 X-4.21 Y4.05 Z1.42 F1800.0
M108 R30.0
M102
G1 X-4.53 Y4.36 Z1.42 F1800.0
M108 R3.569
M103
G1 X25.96 Y10.32 Z1.42 F3000.0
M108 R30.0
M101
G1 X26.75 Y10.47 Z1.42 F3000.0
M108 R3.569
G1 X26.75 Y10.04 Z1.42 F1800.0
G1 X25.22 Y9.93 Z1.42 F1800.0
G1 X-23.04 Y9.93 Z1.42 F1800.0
G1 X-26.75 Y10.47 Z1.42 F1800.0
G1 X-26.75 Y8.29 Z1.42 F1800.0
G1 X-25.22 Y7.75 Z1.42 F1800.0
G1 X-24.96 Y7.75 Z1.42 F1800.0
G1 X-23.04 Y9.7 Z1.42 F1800.0
G1 X-22.78 Y9.7 Z1.42 F1800.0
G1 X-20.85 Y7.75 Z1.42 F1800.0
G1 X-20.6 Y7.75 Z1.42 F1800.0
G1 X-18.67 Y9.7 Z1.42 F1800.0
G1 X-18.42 Y9.7 Z1.42 F1800.0
G1 X-16.49 Y7.75 Z1.42 F1800.0
G1 X-16.24 Y7.75 Z1.42 F1800.0
G1 X-14.31 Y9.7 Z1.42 F1800.0
G1 X-14.05 Y9.7 Z1.42 F1800.0
G1 X-12.13 Y7.75 Z1.42 F1800.0
G1 X-11.87 Y7.75 Z1.42 F1800.0
G1 X-9.95 Y9.7 Z1.42 F1800.0
G1 X-9.69 Y9.7 Z1.42 F1800.0
G1 X-7.76 Y7.75 Z1.42 F1800.0
G1 X-7.51 Y7.75 Z1.42 F1800.0
G1 X-5.58 Y9.7 Z1.42 F1800.0
G1 X-5.33 Y9.7 Z1.42 F1800.0
G1 X-3.4 Y7.75 Z1.42 F1800.0
G1 X-3.15 Y7.75 Z1.42 F1800.0
G1 X-1.22 Y9.7 Z1.42 F1800.0
G1 X-0.96 Y9.7 Z1.42 F1800.0
G1 X0.96 Y7.75 Z1.42 F1800.0
G1 X1.22 Y7.75 Z1.42 F1800.0
G1 X3.15 Y9.7 Z1.42 F1800.0
G1 X3.4 Y9.7 Z1.42 F1800.0
G1 X5.33 Y7.75 Z1.42 F1800.0
G1 X5.58 Y7.75 Z1.42 F1800.0
G1 X7.51 Y9.7 Z1.42 F1800.0
G1 X7.76 Y9.7 Z1.42 F1800.0
G1 X9.69 Y7.75 Z1.42 F1800.0
G1 X9.95 Y7.75 Z1.42 F1800.0
G1 X11.87 Y9.7 Z1.42 F1800.0
G1 X12.13 Y9.7 Z1.42 F1800.0
G1 X14.05 Y7.75 Z1.42 F1800.0
G1 X14.31 Y7.75 Z1.42 F1800.0
G1 X16.24 Y9.7 Z1.42 F1800.0
G1 X16.49 Y9.7 Z1.42 F1800.0
G1 X18.42 Y7.75 Z1.42 F1800.0
G1 X18.67 Y7.75 Z1.42 F1800.0
G1 X20.6 Y9.7 Z1.42 F1800.0
G1 X20.85 Y9.7 Z1.42 F1800.0
G1 X22.78 Y7.75 Z1.42 F1800.0
G1 X23.04 Y7.75 Z1.42 F1800.0
G1 X24.96 Y9.7 Z1.42 F1800.0
G1 X26.75 Y9.6 Z1.42 F1800.0
G1 X26.75 Y6.11 Z1.42 F1800.0
G1 X25.22 Y5.57 Z1.42 F1800.0
G1 X24.96 Y5.57 Z1.42 F1800.0
G1 X23.04 Y7.52 Z1.42 F1800.0
G1 X0.96 Y7.52 Z1.42 F1800.0
G1 X-0.96 Y5.57 Z1.42 F1800.0
G1 X-1.22 Y5.57 Z1.42 F1800.0
G1 X-3.15 Y7.52 Z1.42 F1800.0
G1 X-25.22 Y7.52 Z1.42 F1800.0
G1 X-26.75 Y7.85 Z1.42 F1800.0
G1 X-26.75 Y3.93 Z1.42 F1800.0
G1 X-25.22 Y3.39 Z1.42 F1800.0
G1 X-24.96 Y3.39 Z1.42 F1800.0
G1 X-23.2 Y5.24 Z1.42 F1800.0
G1 X-23.2 Y1.75 Z1.42 F1800.0
G1 X-24.96 Y3.16 Z1.42 F1800.0
G1 X-25.22 Y3.16 Z1.42 F1800.0
G1 X-26.75 Y3.49 Z1.42 F1800.0
G1 X-26.75 Y-0.44 Z1.42 F1800.0
G1 X-25.22 Y-0.98 Z1.42 F1800.0
G1 X-24.96 Y-0.98 Z1.42 F1800.0
G1 X-23.2 Y1.31 Z1.42 F1800.0
G1 X-23.2 Y-2.62 Z1.42 F1800.0
G1 X-24.96 Y-1.21 Z1.42 F1800.0
G1 X-25.22 Y-1.21 Z1.42 F1800.0
G1 X-26.75 Y-0.87 Z1.42 F1800.0
G1 X-26.75 Y-4.8 Z1.42 F1800.0
G1 X-25.22 Y-5.34 Z1.42 F1800.0
G1 X-24.96 Y-5.34 Z1.42 F1800.0
G1 X-23.2 Y-3.05 Z1.42 F1800.0
G1 X-23.2 Y-6.98 Z1.42 F1800.0
G1 X-24.96 Y-5.57 Z1.42 F1800.0
G1 X-25.22 Y-5.57 Z1.42 F1800.0
G1 X-26.75 Y-5.24 Z1.42 F1800.0
G1 X-26.75 Y-9.16 Z1.42 F1800.0
G1 X-25.22 Y-9.7 Z1.42 F1800.0
G1 X-24.96 Y-9.7 Z1.42 F1800.0
G1 X-23.04 Y-7.64 Z1.42 F1800.0
G1 X-22.78 Y-7.64 Z1.42 F1800.0
G1 X-20.85 Y-9.7 Z1.42 F1800.0
G1 X-20.6 Y-9.7 Z1.42 F1800.0
G1 X-18.67 Y-7.64 Z1.42 F1800.0
G1 X-18.42 Y-7.64 Z1.42 F1800.0
G1 X-16.49 Y-9.7 Z1.42 F1800.0
G1 X-16.24 Y-9.7 Z1.42 F1800.0
G1 X-14.31 Y-7.64 Z1.42 F1800.0
G1 X-14.05 Y-7.64 Z1.42 F1800.0
G1 X-12.13 Y-9.7 Z1.42 F1800.0
G1 X-11.87 Y-9.7 Z1.42 F1800.0
G1 X-9.95 Y-7.64 Z1.42 F1800.0
G1 X-9.69 Y-7.64 Z1.42 F1800.0
G1 X-7.76 Y-9.7 Z1.42 F1800.0
G1 X-7.51 Y-9.7 Z1.42 F1800.0
G1 X-5.58 Y-7.64 Z1.42 F1800.0
G1 X-5.33 Y-7.64 Z1.42 F1800.0
G1 X-3.4 Y-9.7 Z1.42 F1800.0
G1 X-3.15 Y-9.7 Z1.42 F1800.0
G1 X-1.22 Y-7.75 Z1.42 F1800.0
G1 X-0.96 Y-7.75 Z1.42 F1800.0
G1 X0.96 Y-9.7 Z1.42 F1800.0
G1 X1.22 Y-9.7 Z1.42 F1800.0
G1 X3.15 Y-7.75 Z1.42 F1800.0
G1 X3.4 Y-7.75 Z1.42 F1800.0
G1 X5.33 Y-9.7 Z1.42 F1800.0
G1 X5.58 Y-9.7 Z1.42 F1800.0
G1 X7.51 Y-7.64 Z1.42 F1800.0
G1 X7.76 Y-7.64 Z1.42 F1800.0
G1 X9.69 Y-9.7 Z1.42 F1800.0
G1 X9.95 Y-9.7 Z1.42 F1800.0
G1 X11.87 Y-7.64 Z1.42 F1800.0
G1 X12.13 Y-7.64 Z1.42 F1800.0
G1 X14.05 Y-9.7 Z1.42 F1800.0
G1 X14.31 Y-9.7 Z1.42 F1800.0
G1 X16.24 Y-7.64 Z1.42 F1800.0
G1 X16.49 Y-7.64 Z1.42 F1800.0
G1 X18.42 Y-9.7 Z1.42 F1800.0
G1 X18.67 Y-9.7 Z1.42 F1800.0
G1 X20.6 Y-7.64 Z1.42 F1800.0
G1 X20.85 Y-7.64 Z1.42 F1800.0
G1 X22.78 Y-9.7 Z1.42 F1800.0
G1 X23.04 Y-9.7 Z1.42 F1800.0
G1 X24.96 Y-7.75 Z1.42 F1800.0
G1 X25.22 Y-7.75 Z1.42 F1800.0
G1 X26.75 Y-7.42 Z1.42 F1800.0
G1 X26.75 Y-10.47 Z1.42 F1800.0
G1 X23.04 Y-9.93 Z1.42 F1800.0
G1 X-25.22 Y-9.93 Z1.42 F1800.0
G1 X-26.75 Y-9.6 Z1.42 F1800.0
G1 X-26.75 Y-10.02 Z1.42 F1800.0
M108 R30.0
M102
G1 X-26.75 Y-10.47 Z1.42 F1800.0
M108 R3.569
M103
G1 X-13.47 Y-6.79 Z1.42 F3000.0
G1 X-5.23 Y-6.66 Z1.42 F3000.0
G1 X-5.1 Y-4.11 Z1.42 F3000.0
G1 X4.97 Y-0.95 Z1.42 F3000.0
G1 X5.11 Y4.96 Z1.42 F3000.0
G1 X22.36 Y4.96 Z1.42 F3000.0
G1 X22.47 Y4.29 Z1.42 F3000.0
M108 R30.0
M101
G1 X22.5 Y4.11 Z1.42 F3000.0
G1 X23.07 Y4.36 Z1.42 F3000.0
M108 R3.569
G1 X23.5 Y4.8 Z1.42 F1800.0
G1 X24.96 Y5.34 Z1.42 F1800.0
G1 X25.22 Y5.34 Z1.42 F1800.0
G1 X26.75 Y5.67 Z1.42 F1800.0
G1 X26.75 Y1.75 Z1.42 F1800.0
G1 X23.5 Y2.62 Z1.42 F1800.0
G1 X23.07 Y2.18 Z1.42 F1800.0
G1 X23.5 Y1.75 Z1.42 F1800.0
G1 X23.5 Y1.31 Z1.42 F1800.0
G1 X24.96 Y1.09 Z1.42 F1800.0
G1 X26.75 Y1.31 Z1.42 F1800.0
G1 X26.75 Y-1.31 Z1.42 F1800.0
G1 X23.5 Y0.44 Z1.42 F1800.0
G1 X23.07 Y-0.0 Z1.42 F1800.0
G1 X23.5 Y-0.44 Z1.42 F1800.0
G1 X23.5 Y-0.87 Z1.42 F1800.0
G1 X26.31 Y-1.75 Z1.42 F1800.0
G1 X26.75 Y-2.18 Z1.42 F1800.0
G1 X26.75 Y-2.62 Z1.42 F1800.0
G1 X23.5 Y-1.75 Z1.42 F1800.0
G1 X23.07 Y-2.18 Z1.42 F1800.0
G1 X23.5 Y-2.62 Z1.42 F1800.0
G1 X23.5 Y-3.05 Z1.42 F1800.0
G1 X25.09 Y-3.39 Z1.42 F1800.0
G1 X26.75 Y-3.05 Z1.42 F1800.0
G1 X26.75 Y-5.67 Z1.42 F1800.0
G1 X23.5 Y-3.93 Z1.42 F1800.0
G1 X23.07 Y-4.36 Z1.42 F1800.0
G1 X23.5 Y-4.8 Z1.42 F1800.0
G1 X23.5 Y-5.24 Z1.42 F1800.0
G1 X26.31 Y-6.11 Z1.42 F1800.0
G1 X26.75 Y-6.55 Z1.42 F1800.0
G1 X26.75 Y-6.98 Z1.42 F1800.0
G1 X25.22 Y-7.52 Z1.42 F1800.0
G1 X24.96 Y-7.52 Z1.42 F1800.0
G1 X23.5 Y-6.98 Z1.42 F1800.0
G1 X23.07 Y-6.55 Z1.42 F1800.0
M103
(</surroundingLoop>)
(</layer>)
(<layer> 1.74 )
(<surroundingLoop>)
(<boundaryPerimeter>)
(<boundaryPoint> X27.593 Y11.617 Z1.74 </boundaryPoint>)
(<boundaryPoint> X-27.593 Y11.617 Z1.74 </boundaryPoint>)
(<boundaryPoint> X-27.593 Y-11.617 Z1.74 </boundaryPoint>)
(<boundaryPoint> X27.593 Y-11.617 Z1.74 </boundaryPoint>)
(<loop> inner )
G1 X22.81 Y-6.22 Z1.74 F3000.0
M101
G1 X22.81 Y-6.55 Z1.74 F1800.0
G1 X22.81 Y-7.11 Z1.74 F1800.0
G1 X4.65 Y-7.11 Z1.74 F1800.0
G1 X4.65 Y5.41 Z1.74 F1800.0
G1 X22.81 Y5.41 Z1.74 F1800.0
G1 X22.81 Y-5.77 Z1.74 F1800.0
M108 R30.0
M102
G1 X22.81 Y-6.22 Z1.74 F1800.0
M108 R3.569
M103
(</loop>)
(<loop> inner )
G1 X22.5 Y-6.22 Z1.74 F3000.0
G1 X22.36 Y-6.66 Z1.74 F3000.0
G1 X5.11 Y-6.66 Z1.74 F3000.0
G1 X4.97 Y-6.22 Z1.74 F3000.0
G1 X-3.98 Y-6.22 Z1.74 F3000.0
M108 R30.0
M101
G1 X-4.78 Y-6.22 Z1.74 F3000.0
M108 R3.569
G1 X-4.78 Y-6.55 Z1.74 F1800.0
G1 X-4.78 Y-7.11 Z1.74 F1800.0
G1 X-22.94 Y-7.11 Z1.74 F1800.0
G1 X-22.94 Y5.41 Z1.74 F1800.0
G1 X-4.78 Y5.41 Z1.74 F1800.0
G1 X-4.78 Y-5.77 Z1.74 F1800.0
M108 R30.0
M102
G1 X-4.78 Y-6.22 Z1.74 F1800.0
M108 R3.569
M103
(</loop>)
(<loop> outer )
G1 X-4.78 Y-10.23 Z1.74 F3000.0
M108 R30.0
M101
G1 X-4.78 Y-11.03 Z1.74 F3000.0
M108 R3.569
G1 X27.0 Y-11.03 Z1.74 F1800.0
G1 X27.0 Y11.03 Z1.74 F1800.0
G1 X-27.0 Y11.03 Z1.74 F1800.0
G1 X-27.0 Y-11.03 Z1.74 F1800.0
G1 X-4.78 Y-11.03 Z1.74 F1800.0
M103
(</loop>)
(<perimeter> outer )
G1 X-4.78 Y-11.42 Z1.74 F3000.0
M101
G1 X27.4 Y-11.42 Z1.74 F1800.0
G1 X27.4 Y11.42 Z1.74 F1800.0
G1 X-27.4 Y11.42 Z1.74 F1800.0
G1 X-27.4 Y-11.42 Z1.74 F1800.0
G1 X-5.23 Y-11.42 Z1.74 F1800.0
M108 R30.0
M102
G1 X-4.78 Y-11.42 Z1.74 F1800.0
M108 R3.569
M103
(</perimeter>)
(</boundaryPerimeter>)
(<surroundingLoop>)
(<boundaryPerimeter>)
(<boundaryPoint> X-5.37 Y-6.517 Z1.74 </boundaryPoint>)
(<boundaryPoint> X-22.35 Y-6.517 Z1.74 </boundaryPoint>)
(<boundaryPoint> X-22.35 Y4.817 Z1.74 </boundaryPoint>)
(<boundaryPoint> X-5.37 Y4.817 Z1.74 </boundaryPoint>)
(<perimeter> inner )
G1 X-5.11 Y-7.51 Z1.74 F3000.0
M108 R30.0
M101
G1 X-5.17 Y-6.71 Z1.74 F3000.0
M108 R3.569
G1 X-22.55 Y-6.71 Z1.74 F1800.0
G1 X-22.55 Y5.01 Z1.74 F1800.0
G1 X-5.17 Y5.01 Z1.74 F1800.0
G1 X-5.17 Y-6.26 Z1.74 F1800.0
M108 R30.0
M102
G1 X-5.17 Y-6.71 Z1.74 F1800.0
M108 R3.569
M103
(</perimeter>)
(</boundaryPerimeter>)
(</surroundingLoop>)
(<surroundingLoop>)
(<boundaryPerimeter>)
(<boundaryPoint> X22.223 Y-6.517 Z1.74 </boundaryPoint>)
(<boundaryPoint> X5.243 Y-6.517 Z1.74 </boundaryPoint>)
(<boundaryPoint> X5.243 Y4.817 Z1.74 </boundaryPoint>)
(<boundaryPoint> X22.223 Y4.817 Z1.74 </boundaryPoint>)
(<perimeter> inner )
G1 X4.25 Y-6.71 Z1.74 F3000.0
M108 R30.0
M101
G1 X5.05 Y-6.71 Z1.74 F3000.0
M108 R3.569
G1 X5.05 Y5.01 Z1.74 F1800.0
G1 X22.42 Y5.01 Z1.74 F1800.0
G1 X22.42 Y-6.71 Z1.74 F1800.0
G1 X5.5 Y-6.71 Z1.74 F1800.0
M108 R30.0
M102
G1 X5.05 Y-6.71 Z1.74 F1800.0
M108 R3.569
M103
(</perimeter>)
(</boundaryPerimeter>)
(</surroundingLoop>)
G1 X6.22 Y-7.11 Z1.74 F3000.0
M108 R30.0
M101
G1 X6.98 Y-7.36 Z1.74 F3000.0
M108 R3.569
G1 X7.06 Y-7.61 Z1.74 F1800.0
G1 X7.52 Y-7.51 Z1.74 F1800.0
G1 X7.52 Y-7.76 Z1.74 F1800.0
G1 X8.29 Y-10.77 Z1.74 F1800.0
G1 X4.8 Y-10.77 Z1.74 F1800.0
G1 X5.45 Y-9.95 Z1.74 F1800.0
G1 X5.45 Y-9.69 Z1.74 F1800.0
G1 X3.39 Y-7.76 Z1.74 F1800.0
G1 X3.39 Y-7.51 Z1.74 F1800.0
G1 X4.35 Y-7.41 Z1.74 F1800.0
M108 R30.0
M102
G1 X4.8 Y-7.36 Z1.74 F1800.0
M108 R3.569
M103
G1 X4.47 Y-9.98 Z1.74 F3000.0
M108 R30.0
M101
G1 X4.36 Y-10.77 Z1.74 F3000.0
M108 R3.569
G1 X2.18 Y-10.77 Z1.74 F1800.0
G1 X1.21 Y-9.95 Z1.74 F1800.0
G1 X1.21 Y-9.69 Z1.74 F1800.0
G1 X3.16 Y-7.76 Z1.74 F1800.0
G1 X3.16 Y-7.51 Z1.74 F1800.0
G1 X1.21 Y-5.58 Z1.74 F1800.0
G1 X1.21 Y7.76 Z1.74 F1800.0
G1 X3.27 Y9.69 Z1.74 F1800.0
G1 X3.27 Y9.95 Z1.74 F1800.0
G1 X2.18 Y10.77 Z1.74 F1800.0
G1 X6.11 Y10.77 Z1.74 F1800.0
G1 X5.34 Y7.76 Z1.74 F1800.0
G1 X5.24 Y6.1 Z1.74 F1800.0
G1 X5.12 Y5.98 Z1.74 F1800.0
M108 R30.0
M102
G1 X4.8 Y5.66 Z1.74 F1800.0
M108 R3.569
M103
G1 X6.18 Y5.66 Z1.74 F3000.0
M108 R30.0
M101
G1 X6.98 Y5.66 Z1.74 F3000.0
M108 R3.569
G1 X6.55 Y6.1 Z1.74 F1800.0
G1 X6.11 Y6.1 Z1.74 F1800.0
G1 X5.57 Y7.51 Z1.74 F1800.0
G1 X5.57 Y7.76 Z1.74 F1800.0
G1 X7.64 Y9.69 Z1.74 F1800.0
G1 X7.64 Y9.95 Z1.74 F1800.0
G1 X6.55 Y10.77 Z1.74 F1800.0
G1 X10.47 Y10.77 Z1.74 F1800.0
G1 X9.7 Y7.76 Z1.74 F1800.0
G1 X9.6 Y6.1 Z1.74 F1800.0
G1 X9.48 Y5.98 Z1.74 F1800.0
M108 R30.0
M102
G1 X9.16 Y5.66 Z1.74 F1800.0
M108 R3.569
M103
G1 X10.55 Y5.66 Z1.74 F3000.0
M108 R30.0
M101
G1 X11.35 Y5.66 Z1.74 F3000.0
M108 R3.569
G1 X10.91 Y6.1 Z1.74 F1800.0
G1 X10.47 Y6.1 Z1.74 F1800.0
G1 X10.04 Y5.66 Z1.74 F1800.0
G1 X9.93 Y7.76 Z1.74 F1800.0
G1 X12.0 Y9.69 Z1.74 F1800.0
G1 X12.0 Y9.95 Z1.74 F1800.0
G1 X10.91 Y10.77 Z1.74 F1800.0
G1 X14.84 Y10.77 Z1.74 F1800.0
G1 X14.07 Y7.76 Z1.74 F1800.0
G1 X13.96 Y6.1 Z1.74 F1800.0
G1 X13.85 Y5.98 Z1.74 F1800.0
M108 R30.0
M102
G1 X13.53 Y5.66 Z1.74 F1800.0
M108 R3.569
M103
G1 X14.91 Y5.66 Z1.74 F3000.0
M108 R30.0
M101
G1 X15.71 Y5.66 Z1.74 F3000.0
M108 R3.569
G1 X15.27 Y6.1 Z1.74 F1800.0
G1 X14.84 Y6.1 Z1.74 F1800.0
G1 X14.3 Y7.51 Z1.74 F1800.0
G1 X14.3 Y7.76 Z1.74 F1800.0
G1 X16.36 Y9.69 Z1.74 F1800.0
G1 X16.36 Y9.95 Z1.74 F1800.0
G1 X15.27 Y10.77 Z1.74 F1800.0
G1 X19.64 Y10.77 Z1.74 F1800.0
G1 X18.43 Y7.76 Z1.74 F1800.0
G1 X18.33 Y6.1 Z1.74 F1800.0
G1 X18.21 Y5.98 Z1.74 F1800.0
M108 R30.0
M102
G1 X17.89 Y5.66 Z1.74 F1800.0
M108 R3.569
M103
G1 X19.27 Y5.66 Z1.74 F3000.0
M108 R30.0
M101
G1 X20.07 Y5.66 Z1.74 F3000.0
M108 R3.569
G1 X19.64 Y6.1 Z1.74 F1800.0
G1 X19.2 Y6.1 Z1.74 F1800.0
G1 X18.76 Y5.66 Z1.74 F1800.0
G1 X18.66 Y7.76 Z1.74 F1800.0
G1 X20.73 Y9.69 Z1.74 F1800.0
G1 X20.73 Y9.95 Z1.74 F1800.0
G1 X20.07 Y10.77 Z1.74 F1800.0
G1 X23.56 Y10.77 Z1.74 F1800.0
G1 X22.79 Y7.76 Z1.74 F1800.0
G1 X22.69 Y6.1 Z1.74 F1800.0
G1 X22.57 Y5.98 Z1.74 F1800.0
M108 R30.0
M102
G1 X22.25 Y5.66 Z1.74 F1800.0
M108 R3.569
M103
G1 X26.41 Y-10.0 Z1.74 F3000.0
M108 R30.0
M101
G1 X26.62 Y-10.77 Z1.74 F3000.0
M108 R3.569
G1 X26.18 Y-10.77 Z1.74 F1800.0
G1 X25.2 Y-7.76 Z1.74 F1800.0
G1 X25.2 Y5.58 Z1.74 F1800.0
G1 X26.62 Y10.77 Z1.74 F1800.0
G1 X24.0 Y10.77 Z1.74 F1800.0
G1 X25.09 Y9.95 Z1.74 F1800.0
G1 X25.09 Y9.69 Z1.74 F1800.0
G1 X23.02 Y7.76 Z1.74 F1800.0
G1 X23.02 Y7.51 Z1.74 F1800.0
G1 X24.97 Y5.58 Z1.74 F1800.0
G1 X24.97 Y-7.76 Z1.74 F1800.0
G1 X25.74 Y-10.77 Z1.74 F1800.0
G1 X21.82 Y-10.77 Z1.74 F1800.0
G1 X22.91 Y-9.95 Z1.74 F1800.0
G1 X22.91 Y-9.69 Z1.74 F1800.0
G1 X20.84 Y-7.76 Z1.74 F1800.0
G1 X20.84 Y-7.51 Z1.74 F1800.0
G1 X20.94 Y-7.36 Z1.74 F1800.0
G1 X21.3 Y-7.61 Z1.74 F1800.0
G1 X21.38 Y-7.36 Z1.74 F1800.0
G1 X21.8 Y-7.49 Z1.74 F1800.0
G1 X21.82 Y-7.49 Z1.74 F1800.0
M108 R30.0
M102
G1 X22.25 Y-7.36 Z1.74 F1800.0
M108 R3.569
M103
G1 X20.87 Y-7.36 Z1.74 F3000.0
M108 R30.0
M101
G1 X20.07 Y-7.36 Z1.74 F3000.0
M108 R3.569
G1 X20.15 Y-7.61 Z1.74 F1800.0
G1 X20.61 Y-7.51 Z1.74 F1800.0
G1 X20.61 Y-7.76 Z1.74 F1800.0
G1 X21.38 Y-10.77 Z1.74 F1800.0
G1 X17.45 Y-10.77 Z1.74 F1800.0
G1 X18.54 Y-9.95 Z1.74 F1800.0
G1 X18.54 Y-9.69 Z1.74 F1800.0
G1 X16.48 Y-7.76 Z1.74 F1800.0
G1 X16.48 Y-7.51 Z1.74 F1800.0
G1 X16.58 Y-7.36 Z1.74 F1800.0
G1 X16.94 Y-7.61 Z1.74 F1800.0
G1 X17.02 Y-7.36 Z1.74 F1800.0
G1 X17.43 Y-7.49 Z1.74 F1800.0
G1 X17.46 Y-7.49 Z1.74 F1800.0
M108 R30.0
M102
G1 X17.89 Y-7.36 Z1.74 F1800.0
M108 R3.569
M103
G1 X16.51 Y-7.36 Z1.74 F3000.0
M108 R30.0
M101
G1 X15.71 Y-7.36 Z1.74 F3000.0
M108 R3.569
G1 X15.79 Y-7.61 Z1.74 F1800.0
G1 X16.25 Y-7.51 Z1.74 F1800.0
G1 X16.25 Y-7.76 Z1.74 F1800.0
G1 X17.02 Y-10.77 Z1.74 F1800.0
G1 X13.53 Y-10.77 Z1.74 F1800.0
G1 X14.18 Y-9.95 Z1.74 F1800.0
G1 X14.18 Y-9.69 Z1.74 F1800.0
G1 X12.11 Y-7.76 Z1.74 F1800.0
G1 X12.11 Y-7.51 Z1.74 F1800.0
G1 X12.22 Y-7.36 Z1.74 F1800.0
G1 X12.57 Y-7.61 Z1.74 F1800.0
G1 X12.65 Y-7.36 Z1.74 F1800.0
G1 X13.07 Y-7.49 Z1.74 F1800.0
G1 X13.09 Y-7.49 Z1.74 F1800.0
M108 R30.0
M102
G1 X13.53 Y-7.36 Z1.74 F1800.0
M108 R3.569
M103
G1 X12.15 Y-7.36 Z1.74 F3000.0
M108 R30.0
M101
G1 X11.35 Y-7.36 Z1.74 F3000.0
M108 R3.569
G1 X11.42 Y-7.61 Z1.74 F1800.0
G1 X11.88 Y-7.51 Z1.74 F1800.0
G1 X11.88 Y-7.76 Z1.74 F1800.0
G1 X13.09 Y-10.77 Z1.74 F1800.0
G1 X8.73 Y-10.77 Z1.74 F1800.0
G1 X9.82 Y-9.95 Z1.74 F1800.0
G1 X9.82 Y-9.69 Z1.74 F1800.0
G1 X7.75 Y-7.76 Z1.74 F1800.0
G1 X7.75 Y-7.51 Z1.74 F1800.0
G1 X7.85 Y-7.36 Z1.74 F1800.0
G1 X8.21 Y-7.61 Z1.74 F1800.0
G1 X8.29 Y-7.36 Z1.74 F1800.0
G1 X8.71 Y-7.49 Z1.74 F1800.0
G1 X8.73 Y-7.49 Z1.74 F1800.0
M108 R30.0
M102
G1 X9.16 Y-7.36 Z1.74 F1800.0
M108 R3.569
M103
G1 X8.82 Y-6.79 Z1.74 F3000.0
G1 X5.11 Y-6.66 Z1.74 F3000.0
G1 X4.97 Y2.22 Z1.74 F3000.0
G1 X2.03 Y10.02 Z1.74 F3000.0
M108 R30.0
M101
G1 X1.75 Y10.77 Z1.74 F3000.0
M108 R3.569
G1 X-0.44 Y10.77 Z1.74 F1800.0
G1 X-0.98 Y9.95 Z1.74 F1800.0
G1 X-0.98 Y9.69 Z1.74 F1800.0
G1 X0.98 Y7.76 Z1.74 F1800.0
G1 X0.98 Y7.51 Z1.74 F1800.0
G1 X-0.98 Y5.58 Z1.74 F1800.0
G1 X-0.98 Y5.33 Z1.74 F1800.0
G1 X0.98 Y3.4 Z1.74 F1800.0
G1 X0.98 Y3.15 Z1.74 F1800.0
G1 X-0.98 Y1.22 Z1.74 F1800.0
G1 X-0.98 Y0.96 Z1.74 F1800.0
G1 X0.98 Y-0.96 Z1.74 F1800.0
G1 X0.98 Y-1.22 Z1.74 F1800.0
G1 X-0.98 Y-3.15 Z1.74 F1800.0
G1 X-0.98 Y-3.4 Z1.74 F1800.0
G1 X0.98 Y-5.33 Z1.74 F1800.0
G1 X0.98 Y-5.58 Z1.74 F1800.0
G1 X-0.98 Y-7.51 Z1.74 F1800.0
G1 X-0.98 Y-7.76 Z1.74 F1800.0
G1 X0.98 Y-9.69 Z1.74 F1800.0
G1 X0.98 Y-9.95 Z1.74 F1800.0
G1 X1.75 Y-10.77 Z1.74 F1800.0
G1 X-2.62 Y-10.77 Z1.74 F1800.0
G1 X-3.16 Y-9.95 Z1.74 F1800.0
G1 X-3.16 Y-9.69 Z1.74 F1800.0
G1 X-1.21 Y-7.76 Z1.74 F1800.0
G1 X-1.21 Y-7.51 Z1.74 F1800.0
G1 X-3.16 Y-5.58 Z1.74 F1800.0
G1 X-3.16 Y-5.33 Z1.74 F1800.0
G1 X-1.21 Y-3.4 Z1.74 F1800.0
G1 X-1.21 Y-3.15 Z1.74 F1800.0
G1 X-3.16 Y-1.22 Z1.74 F1800.0
G1 X-3.16 Y-0.96 Z1.74 F1800.0
G1 X-1.21 Y0.96 Z1.74 F1800.0
G1 X-1.21 Y1.22 Z1.74 F1800.0
G1 X-3.16 Y3.15 Z1.74 F1800.0
G1 X-3.16 Y3.4 Z1.74 F1800.0
G1 X-1.21 Y5.33 Z1.74 F1800.0
G1 X-1.21 Y5.58 Z1.74 F1800.0
G1 X-3.16 Y7.51 Z1.74 F1800.0
G1 X-3.16 Y7.76 Z1.74 F1800.0
G1 X-1.21 Y9.69 Z1.74 F1800.0
G1 X-1.21 Y9.95 Z1.74 F1800.0
G1 X-0.87 Y10.77 Z1.74 F1800.0
G1 X-4.36 Y10.77 Z1.74 F1800.0
G1 X-5.34 Y9.95 Z1.74 F1800.0
G1 X-5.34 Y9.69 Z1.74 F1800.0
G1 X-3.39 Y7.76 Z1.74 F1800.0
G1 X-3.39 Y-5.58 Z1.74 F1800.0
G1 X-4.46 Y-7.63 Z1.74 F1800.0
G1 X-3.39 Y-9.69 Z1.74 F1800.0
G1 X-3.39 Y-9.95 Z1.74 F1800.0
G1 X-3.05 Y-10.77 Z1.74 F1800.0
G1 X-6.55 Y-10.77 Z1.74 F1800.0
G1 X-7.52 Y-9.95 Z1.74 F1800.0
G1 X-7.52 Y-9.69 Z1.74 F1800.0
G1 X-5.45 Y-7.76 Z1.74 F1800.0
G1 X-5.45 Y-7.51 Z1.74 F1800.0
G1 X-5.67 Y-7.36 Z1.74 F1800.0
G1 X-5.89 Y-7.69 Z1.74 F1800.0
M108 R30.0
M102
G1 X-5.92 Y-7.72 Z1.74 F1800.0
G1 X-6.11 Y-7.36 Z1.74 F1800.0
M108 R3.569
M103
G1 X-7.49 Y-7.36 Z1.74 F3000.0
M108 R30.0
M101
G1 X-8.29 Y-7.36 Z1.74 F3000.0
M108 R3.569
G1 X-9.24 Y-7.61 Z1.74 F1800.0
G1 X-9.7 Y-7.51 Z1.74 F1800.0
G1 X-9.7 Y-7.76 Z1.74 F1800.0
G1 X-7.75 Y-9.69 Z1.74 F1800.0
G1 X-7.75 Y-9.95 Z1.74 F1800.0
G1 X-6.98 Y-10.77 Z1.74 F1800.0
G1 X-10.47 Y-10.77 Z1.74 F1800.0
G1 X-11.88 Y-9.95 Z1.74 F1800.0
G1 X-11.88 Y-9.69 Z1.74 F1800.0
G1 X-9.93 Y-7.76 Z1.74 F1800.0
G1 X-9.93 Y-7.51 Z1.74 F1800.0
G1 X-10.04 Y-7.36 Z1.74 F1800.0
G1 X-10.24 Y-7.51 Z1.74 F1800.0
M108 R30.0
M102
G1 X-10.39 Y-7.61 Z1.74 F1800.0
G1 X-10.47 Y-7.36 Z1.74 F1800.0
M108 R3.569
M103
G1 X-11.85 Y-7.36 Z1.74 F3000.0
M108 R30.0
M101
G1 X-12.65 Y-7.36 Z1.74 F3000.0
M108 R3.569
G1 X-13.61 Y-7.61 Z1.74 F1800.0
G1 X-14.07 Y-7.51 Z1.74 F1800.0
G1 X-14.07 Y-7.76 Z1.74 F1800.0
G1 X-12.11 Y-9.69 Z1.74 F1800.0
G1 X-12.11 Y-9.95 Z1.74 F1800.0
G1 X-11.35 Y-10.77 Z1.74 F1800.0
G1 X-14.84 Y-10.77 Z1.74 F1800.0
G1 X-16.25 Y-9.95 Z1.74 F1800.0
G1 X-16.25 Y-9.69 Z1.74 F1800.0
G1 X-14.3 Y-7.76 Z1.74 F1800.0
G1 X-14.3 Y-7.51 Z1.74 F1800.0
G1 X-14.4 Y-7.36 Z1.74 F1800.0
G1 X-14.6 Y-7.51 Z1.74 F1800.0
M108 R30.0
M102
G1 X-14.76 Y-7.61 Z1.74 F1800.0
G1 X-14.84 Y-7.36 Z1.74 F1800.0
M108 R3.569
M103
G1 X-16.22 Y-7.36 Z1.74 F3000.0
M108 R30.0
M101
G1 X-17.02 Y-7.36 Z1.74 F3000.0
M108 R3.569
G1 X-17.97 Y-7.61 Z1.74 F1800.0
G1 X-18.43 Y-7.51 Z1.74 F1800.0
G1 X-18.43 Y-7.76 Z1.74 F1800.0
G1 X-16.48 Y-9.69 Z1.74 F1800.0
G1 X-16.48 Y-9.95 Z1.74 F1800.0
G1 X-15.71 Y-10.77 Z1.74 F1800.0
G1 X-19.64 Y-10.77 Z1.74 F1800.0
G1 X-20.61 Y-9.95 Z1.74 F1800.0
G1 X-20.61 Y-9.69 Z1.74 F1800.0
G1 X-18.66 Y-7.76 Z1.74 F1800.0
G1 X-18.66 Y-7.51 Z1.74 F1800.0
G1 X-18.76 Y-7.36 Z1.74 F1800.0
G1 X-18.97 Y-7.51 Z1.74 F1800.0
M108 R30.0
M102
G1 X-19.12 Y-7.61 Z1.74 F1800.0
G1 X-19.2 Y-7.36 Z1.74 F1800.0
M108 R3.569
M103
G1 X-20.58 Y-7.36 Z1.74 F3000.0
M108 R30.0
M101
G1 X-21.38 Y-7.36 Z1.74 F3000.0
M108 R3.569
G1 X-22.33 Y-7.61 Z1.74 F1800.0
G1 X-22.79 Y-7.51 Z1.74 F1800.0
G1 X-22.79 Y-7.76 Z1.74 F1800.0
G1 X-20.84 Y-9.69 Z1.74 F1800.0
G1 X-20.84 Y-9.95 Z1.74 F1800.0
G1 X-20.07 Y-10.77 Z1.74 F1800.0
G1 X-24.44 Y-10.77 Z1.74 F1800.0
G1 X-24.97 Y-9.95 Z1.74 F1800.0
G1 X-24.97 Y-9.69 Z1.74 F1800.0
G1 X-23.02 Y-7.76 Z1.74 F1800.0
G1 X-23.02 Y-7.51 Z1.74 F1800.0
G1 X-23.13 Y-7.36 Z1.74 F1800.0
G1 X-24.97 Y-5.58 Z1.74 F1800.0
G1 X-24.97 Y7.76 Z1.74 F1800.0
G1 X-23.02 Y9.69 Z1.74 F1800.0
G1 X-23.02 Y9.95 Z1.74 F1800.0
G1 X-21.82 Y10.77 Z1.74 F1800.0
G1 X-25.74 Y10.77 Z1.74 F1800.0
G1 X-25.2 Y7.76 Z1.74 F1800.0
G1 X-25.2 Y-9.95 Z1.74 F1800.0
G1 X-24.87 Y-10.77 Z1.74 F1800.0
G1 X-26.62 Y-10.77 Z1.74 F1800.0
G1 X-26.62 Y10.76 Z1.74 F1800.0
M108 R30.0
M102
G1 X-26.62 Y10.77 Z1.74 F1800.0
G1 X-26.18 Y10.77 Z1.74 F1800.0
M108 R3.569
M103
G1 X-20.43 Y10.77 Z1.74 F3000.0
M108 R30.0
M101
G1 X-19.64 Y10.77 Z1.74 F3000.0
M108 R3.569
G1 X-21.38 Y10.77 Z1.74 F1800.0
G1 X-22.79 Y9.95 Z1.74 F1800.0
G1 X-22.79 Y9.69 Z1.74 F1800.0
G1 X-20.84 Y7.76 Z1.74 F1800.0
G1 X-20.94 Y6.1 Z1.74 F1800.0
G1 X-21.06 Y5.98 Z1.74 F1800.0
M108 R30.0
M102
G1 X-21.38 Y5.66 Z1.74 F1800.0
M108 R3.569
M103
G1 X-20.0 Y5.66 Z1.74 F3000.0
M108 R30.0
M101
G1 X-19.2 Y5.66 Z1.74 F3000.0
M108 R3.569
G1 X-19.64 Y6.1 Z1.74 F1800.0
G1 X-20.07 Y6.1 Z1.74 F1800.0
G1 X-20.61 Y7.51 Z1.74 F1800.0
G1 X-20.61 Y7.76 Z1.74 F1800.0
G1 X-18.54 Y9.69 Z1.74 F1800.0
G1 X-18.54 Y9.95 Z1.74 F1800.0
G1 X-19.2 Y10.77 Z1.74 F1800.0
G1 X-15.27 Y10.77 Z1.74 F1800.0
G1 X-16.48 Y7.76 Z1.74 F1800.0
G1 X-16.58 Y6.1 Z1.74 F1800.0
G1 X-16.7 Y5.98 Z1.74 F1800.0
M108 R30.0
M102
G1 X-17.02 Y5.66 Z1.74 F1800.0
M108 R3.569
M103
G1 X-15.64 Y5.66 Z1.74 F3000.0
M108 R30.0
M101
G1 X-14.84 Y5.66 Z1.74 F3000.0
M108 R3.569
G1 X-15.27 Y6.1 Z1.74 F1800.0
G1 X-15.71 Y6.1 Z1.74 F1800.0
G1 X-16.14 Y5.66 Z1.74 F1800.0
G1 X-16.25 Y7.76 Z1.74 F1800.0
G1 X-14.18 Y9.69 Z1.74 F1800.0
G1 X-14.18 Y9.95 Z1.74 F1800.0
G1 X-14.84 Y10.77 Z1.74 F1800.0
G1 X-10.91 Y10.77 Z1.74 F1800.0
G1 X-12.11 Y7.76 Z1.74 F1800.0
G1 X-12.22 Y6.1 Z1.74 F1800.0
G1 X-12.34 Y5.98 Z1.74 F1800.0
M108 R30.0
M102
G1 X-12.65 Y5.66 Z1.74 F1800.0
M108 R3.569
M103
G1 X-11.27 Y5.66 Z1.74 F3000.0
M108 R30.0
M101
G1 X-10.47 Y5.66 Z1.74 F3000.0
M108 R3.569
G1 X-11.35 Y6.1 Z1.74 F1800.0
G1 X-11.88 Y7.51 Z1.74 F1800.0
G1 X-11.88 Y7.76 Z1.74 F1800.0
G1 X-9.82 Y9.69 Z1.74 F1800.0
G1 X-9.82 Y9.95 Z1.74 F1800.0
G1 X-10.47 Y10.77 Z1.74 F1800.0
G1 X-6.98 Y10.77 Z1.74 F1800.0
G1 X-7.75 Y7.76 Z1.74 F1800.0
G1 X-7.85 Y6.1 Z1.74 F1800.0
G1 X-7.97 Y5.98 Z1.74 F1800.0
M108 R30.0
M102
G1 X-8.29 Y5.66 Z1.74 F1800.0
M108 R3.569
M103
G1 X-6.91 Y5.66 Z1.74 F3000.0
M108 R30.0
M101
G1 X-6.11 Y5.66 Z1.74 F3000.0
M108 R3.569
G1 X-6.55 Y6.1 Z1.74 F1800.0
G1 X-6.98 Y6.1 Z1.74 F1800.0
G1 X-7.52 Y7.51 Z1.74 F1800.0
G1 X-7.52 Y7.76 Z1.74 F1800.0
G1 X-5.57 Y9.69 Z1.74 F1800.0
G1 X-5.57 Y9.95 Z1.74 F1800.0
G1 X-4.8 Y10.77 Z1.74 F1800.0
G1 X-6.1 Y10.77 Z1.74 F1800.0
M108 R30.0
M102
G1 X-6.55 Y10.77 Z1.74 F1800.0
M108 R3.569
M103
(</surroundingLoop>)
(</layer>)
(<layer> 2.06 )
(<surroundingLoop>)
(<boundaryPerimeter>)
(<boundaryPoint> X27.593 Y11.617 Z2.06 </boundaryPoint>)
(<boundaryPoint> X-27.593 Y11.617 Z2.06 </boundaryPoint>)
(<boundaryPoint> X-27.593 Y-11.617 Z2.06 </boundaryPoint>)
(<boundaryPoint> X27.593 Y-11.617 Z2.06 </boundaryPoint>)
(<loop> inner )
G1 X-6.41 Y6.2 Z2.01 F3000.0
M108 R30.0
M101
G1 X-6.38 Y5.41 Z2.06 F3000.0
M108 R3.569
G1 X-4.78 Y5.41 Z2.06 F1800.0
G1 X-4.78 Y-7.11 Z2.06 F1800.0
G1 X-22.94 Y-7.11 Z2.06 F1800.0
G1 X-22.94 Y5.41 Z2.06 F1800.0
G1 X-6.83 Y5.41 Z2.06 F1800.0
M108 R30.0
M102
G1 X-6.55 Y5.41 Z2.06 F1800.0
G1 X-6.38 Y5.41 Z2.06 F1800.0
M108 R3.569
M103
(</loop>)
(<loop> inner )
G1 X3.85 Y5.41 Z2.06 F3000.0
M108 R30.0
M101
G1 X4.65 Y5.41 Z2.06 F3000.0
M108 R3.569
G1 X22.81 Y5.41 Z2.06 F1800.0
G1 X22.81 Y-7.11 Z2.06 F1800.0
G1 X4.65 Y-7.11 Z2.06 F1800.0
G1 X4.65 Y4.96 Z2.06 F1800.0
M108 R30.0
M102
G1 X4.65 Y5.41 Z2.06 F1800.0
M108 R3.569
M103
(</loop>)
(<loop> outer )
G1 X4.65 Y10.23 Z2.06 F3000.0
M108 R30.0
M101
G1 X4.65 Y11.03 Z2.06 F3000.0
M108 R3.569
G1 X-27.0 Y11.03 Z2.06 F1800.0
G1 X-27.0 Y-11.03 Z2.06 F1800.0
G1 X27.0 Y-11.03 Z2.06 F1800.0
G1 X27.0 Y11.03 Z2.06 F1800.0
G1 X4.65 Y11.03 Z2.06 F1800.0
M103
(</loop>)
(<perimeter> outer )
G1 X4.65 Y11.42 Z2.06 F3000.0
M101
G1 X-27.4 Y11.42 Z2.06 F1800.0
G1 X-27.4 Y-11.42 Z2.06 F1800.0
G1 X27.4 Y-11.42 Z2.06 F1800.0
G1 X27.4 Y11.42 Z2.06 F1800.0
G1 X5.1 Y11.42 Z2.06 F1800.0
M108 R30.0
M102
G1 X4.65 Y11.42 Z2.06 F1800.0
M108 R3.569
M103
(</perimeter>)
(</boundaryPerimeter>)
(<surroundingLoop>)
(<boundaryPerimeter>)
(<boundaryPoint> X22.223 Y-6.517 Z2.06 </boundaryPoint>)
(<boundaryPoint> X5.243 Y-6.517 Z2.06 </boundaryPoint>)
(<boundaryPoint> X5.243 Y4.817 Z2.06 </boundaryPoint>)
(<boundaryPoint> X22.223 Y4.817 Z2.06 </boundaryPoint>)
(<perimeter> inner )
G1 X5.0 Y5.81 Z2.06 F3000.0
M108 R30.0
M101
G1 X5.05 Y5.01 Z2.06 F3000.0
M108 R3.569
G1 X22.42 Y5.01 Z2.06 F1800.0
G1 X22.42 Y-6.71 Z2.06 F1800.0
G1 X5.05 Y-6.71 Z2.06 F1800.0
G1 X5.05 Y4.56 Z2.06 F1800.0
M108 R30.0
M102
G1 X5.05 Y5.01 Z2.06 F1800.0
M108 R3.569
M103
(</perimeter>)
(</boundaryPerimeter>)
(</surroundingLoop>)
(<surroundingLoop>)
(<boundaryPerimeter>)
(<boundaryPoint> X-5.37 Y-6.517 Z2.06 </boundaryPoint>)
(<boundaryPoint> X-22.35 Y-6.517 Z2.06 </boundaryPoint>)
(<boundaryPoint> X-22.35 Y4.817 Z2.06 </boundaryPoint>)
(<boundaryPoint> X-5.37 Y4.817 Z2.06 </boundaryPoint>)
(<perimeter> inner )
G1 X-4.37 Y5.01 Z2.06 F3000.0
M108 R30.0
M101
G1 X-5.17 Y5.01 Z2.06 F3000.0
M108 R3.569
G1 X-5.17 Y-6.71 Z2.06 F1800.0
G1 X-22.55 Y-6.71 Z2.06 F1800.0
G1 X-22.55 Y5.01 Z2.06 F1800.0
G1 X-5.62 Y5.01 Z2.06 F1800.0
M108 R30.0
M102
G1 X-5.17 Y5.01 Z2.06 F1800.0
M108 R3.569
M103
(</perimeter>)
(</boundaryPerimeter>)
(</surroundingLoop>)
G1 X-4.7 Y2.96 Z2.06 F3000.0
M108 R30.0
M101
G1 X-4.53 Y2.18 Z2.06 F3000.0
M108 R3.569
G1 X-4.09 Y2.62 Z2.06 F1800.0
G1 X-4.53 Y3.05 Z2.06 F1800.0
G1 X-4.09 Y3.49 Z2.06 F1800.0
G1 X-3.4 Y3.16 Z2.06 F1800.0
G1 X-3.15 Y3.16 Z2.06 F1800.0
G1 X-1.22 Y1.21 Z2.06 F1800.0
G1 X-0.96 Y1.21 Z2.06 F1800.0
G1 X0.96 Y3.16 Z2.06 F1800.0
G1 X1.22 Y3.16 Z2.06 F1800.0
G1 X4.4 Y2.18 Z2.06 F1800.0
G1 X4.4 Y5.24 Z2.06 F1800.0
G1 X1.22 Y3.39 Z2.06 F1800.0
G1 X0.96 Y3.39 Z2.06 F1800.0
G1 X-0.96 Y5.34 Z2.06 F1800.0
G1 X-1.22 Y5.34 Z2.06 F1800.0
G1 X-3.15 Y3.39 Z2.06 F1800.0
G1 X-3.4 Y3.39 Z2.06 F1800.0
G1 X-4.09 Y3.93 Z2.06 F1800.0
G1 X-4.21 Y4.05 Z2.06 F1800.0
M108 R30.0
M102
G1 X-4.53 Y4.36 Z2.06 F1800.0
M108 R3.569
M103
G1 X-4.53 Y-1.38 Z2.06 F3000.0
M108 R30.0
M101
G1 X-4.53 Y-2.18 Z2.06 F3000.0
M108 R3.569
G1 X-4.09 Y-1.75 Z2.06 F1800.0
G1 X-4.53 Y-1.31 Z2.06 F1800.0
G1 X-4.09 Y-0.87 Z2.06 F1800.0
G1 X-3.4 Y-1.21 Z2.06 F1800.0
G1 X-3.15 Y-1.21 Z2.06 F1800.0
G1 X-1.22 Y-3.16 Z2.06 F1800.0
G1 X-0.96 Y-3.16 Z2.06 F1800.0
G1 X0.96 Y-1.21 Z2.06 F1800.0
G1 X1.22 Y-1.21 Z2.06 F1800.0
G1 X4.4 Y-2.18 Z2.06 F1800.0
G1 X4.4 Y1.75 Z2.06 F1800.0
G1 X1.22 Y-0.98 Z2.06 F1800.0
G1 X0.96 Y-0.98 Z2.06 F1800.0
G1 X-0.96 Y0.98 Z2.06 F1800.0
G1 X-1.22 Y0.98 Z2.06 F1800.0
G1 X-3.15 Y-0.98 Z2.06 F1800.0
G1 X-3.4 Y-0.98 Z2.06 F1800.0
G1 X-4.09 Y-0.44 Z2.06 F1800.0
G1 X-4.21 Y-0.32 Z2.06 F1800.0
M108 R30.0
M102
G1 X-4.53 Y0.0 Z2.06 F1800.0
M108 R3.569
M103
G1 X-4.53 Y-5.75 Z2.06 F3000.0
M108 R30.0
M101
G1 X-4.53 Y-6.55 Z2.06 F3000.0
M108 R3.569
G1 X-4.09 Y-6.11 Z2.06 F1800.0
G1 X-4.53 Y-5.67 Z2.06 F1800.0
G1 X-4.09 Y-5.24 Z2.06 F1800.0
G1 X-3.4 Y-5.57 Z2.06 F1800.0
G1 X-3.15 Y-5.57 Z2.06 F1800.0
G1 X-1.22 Y-7.52 Z2.06 F1800.0
G1 X-0.96 Y-7.52 Z2.06 F1800.0
G1 X0.96 Y-5.57 Z2.06 F1800.0
G1 X1.22 Y-5.57 Z2.06 F1800.0
G1 X3.15 Y-7.52 Z2.06 F1800.0
G1 X3.4 Y-7.52 Z2.06 F1800.0
G1 X4.4 Y-6.98 Z2.06 F1800.0
G1 X4.4 Y-2.62 Z2.06 F1800.0
G1 X1.22 Y-5.34 Z2.06 F1800.0
G1 X0.96 Y-5.34 Z2.06 F1800.0
G1 X-0.96 Y-3.39 Z2.06 F1800.0
G1 X-1.22 Y-3.39 Z2.06 F1800.0
G1 X-3.15 Y-5.34 Z2.06 F1800.0
G1 X-3.4 Y-5.34 Z2.06 F1800.0
G1 X-4.09 Y-4.8 Z2.06 F1800.0
G1 X-4.21 Y-4.68 Z2.06 F1800.0
M108 R30.0
M102
G1 X-4.53 Y-4.36 Z2.06 F1800.0
M108 R3.569
M103
G1 X4.97 Y0.27 Z2.06 F3000.0
G1 X5.11 Y4.96 Z2.06 F3000.0
G1 X14.83 Y5.09 Z2.06 F3000.0
G1 X26.02 Y10.14 Z2.06 F3000.0
M108 R30.0
M101
G1 X26.75 Y10.47 Z2.06 F3000.0
M108 R3.569
G1 X26.75 Y10.04 Z2.06 F1800.0
G1 X25.22 Y9.93 Z2.06 F1800.0
G1 X-23.04 Y9.93 Z2.06 F1800.0
G1 X-26.75 Y10.47 Z2.06 F1800.0
G1 X-26.75 Y8.29 Z2.06 F1800.0
G1 X-25.22 Y7.75 Z2.06 F1800.0
G1 X-24.96 Y7.75 Z2.06 F1800.0
G1 X-23.04 Y9.7 Z2.06 F1800.0
G1 X-22.78 Y9.7 Z2.06 F1800.0
G1 X-20.85 Y7.75 Z2.06 F1800.0
G1 X-20.6 Y7.75 Z2.06 F1800.0
G1 X-18.67 Y9.7 Z2.06 F1800.0
G1 X-18.42 Y9.7 Z2.06 F1800.0
G1 X-16.49 Y7.75 Z2.06 F1800.0
G1 X-16.24 Y7.75 Z2.06 F1800.0
G1 X-14.31 Y9.7 Z2.06 F1800.0
G1 X-14.05 Y9.7 Z2.06 F1800.0
G1 X-12.13 Y7.75 Z2.06 F1800.0
G1 X-11.87 Y7.75 Z2.06 F1800.0
G1 X-9.95 Y9.7 Z2.06 F1800.0
G1 X-9.69 Y9.7 Z2.06 F1800.0
G1 X-7.76 Y7.75 Z2.06 F1800.0
G1 X-7.51 Y7.75 Z2.06 F1800.0
G1 X-5.58 Y9.7 Z2.06 F1800.0
G1 X-5.33 Y9.7 Z2.06 F1800.0
G1 X-3.4 Y7.75 Z2.06 F1800.0
G1 X-3.15 Y7.75 Z2.06 F1800.0
G1 X-1.22 Y9.7 Z2.06 F1800.0
G1 X-0.96 Y9.7 Z2.06 F1800.0
G1 X0.96 Y7.75 Z2.06 F1800.0
G1 X1.22 Y7.75 Z2.06 F1800.0
G1 X3.15 Y9.7 Z2.06 F1800.0
G1 X3.4 Y9.7 Z2.06 F1800.0
G1 X5.33 Y7.75 Z2.06 F1800.0
G1 X5.58 Y7.75 Z2.06 F1800.0
G1 X7.51 Y9.7 Z2.06 F1800.0
G1 X7.76 Y9.7 Z2.06 F1800.0
G1 X9.69 Y7.75 Z2.06 F1800.0
G1 X9.95 Y7.75 Z2.06 F1800.0
G1 X11.87 Y9.7 Z2.06 F1800.0
G1 X12.13 Y9.7 Z2.06 F1800.0
G1 X14.05 Y7.75 Z2.06 F1800.0
G1 X14.31 Y7.75 Z2.06 F1800.0
G1 X16.24 Y9.7 Z2.06 F1800.0
G1 X16.49 Y9.7 Z2.06 F1800.0
G1 X18.42 Y7.75 Z2.06 F1800.0
G1 X18.67 Y7.75 Z2.06 F1800.0
G1 X20.6 Y9.7 Z2.06 F1800.0
G1 X20.85 Y9.7 Z2.06 F1800.0
G1 X22.78 Y7.75 Z2.06 F1800.0
G1 X23.04 Y7.75 Z2.06 F1800.0
G1 X24.96 Y9.7 Z2.06 F1800.0
G1 X26.75 Y9.6 Z2.06 F1800.0
G1 X26.75 Y6.11 Z2.06 F1800.0
G1 X25.22 Y5.57 Z2.06 F1800.0
G1 X24.96 Y5.57 Z2.06 F1800.0
G1 X23.04 Y7.52 Z2.06 F1800.0
G1 X0.96 Y7.52 Z2.06 F1800.0
G1 X-0.96 Y5.57 Z2.06 F1800.0
G1 X-1.22 Y5.57 Z2.06 F1800.0
G1 X-3.15 Y7.52 Z2.06 F1800.0
G1 X-25.22 Y7.52 Z2.06 F1800.0
G1 X-26.75 Y7.85 Z2.06 F1800.0
G1 X-26.75 Y3.93 Z2.06 F1800.0
G1 X-25.22 Y3.39 Z2.06 F1800.0
G1 X-24.96 Y3.39 Z2.06 F1800.0
G1 X-23.2 Y5.24 Z2.06 F1800.0
G1 X-23.2 Y1.75 Z2.06 F1800.0
G1 X-24.96 Y3.16 Z2.06 F1800.0
G1 X-25.22 Y3.16 Z2.06 F1800.0
G1 X-26.75 Y3.49 Z2.06 F1800.0
G1 X-26.75 Y-0.44 Z2.06 F1800.0
G1 X-25.22 Y-0.98 Z2.06 F1800.0
G1 X-24.96 Y-0.98 Z2.06 F1800.0
G1 X-23.2 Y1.31 Z2.06 F1800.0
G1 X-23.2 Y-2.62 Z2.06 F1800.0
G1 X-24.96 Y-1.21 Z2.06 F1800.0
G1 X-25.22 Y-1.21 Z2.06 F1800.0
G1 X-26.75 Y-0.87 Z2.06 F1800.0
G1 X-26.75 Y-4.8 Z2.06 F1800.0
G1 X-25.22 Y-5.34 Z2.06 F1800.0
G1 X-24.96 Y-5.34 Z2.06 F1800.0
G1 X-23.2 Y-3.05 Z2.06 F1800.0
G1 X-23.2 Y-6.98 Z2.06 F1800.0
G1 X-24.96 Y-5.57 Z2.06 F1800.0
G1 X-25.22 Y-5.57 Z2.06 F1800.0
G1 X-26.75 Y-5.24 Z2.06 F1800.0
G1 X-26.75 Y-9.16 Z2.06 F1800.0
G1 X-25.22 Y-9.7 Z2.06 F1800.0
G1 X-24.96 Y-9.7 Z2.06 F1800.0
G1 X-23.04 Y-7.64 Z2.06 F1800.0
G1 X-22.78 Y-7.64 Z2.06 F1800.0
G1 X-20.85 Y-9.7 Z2.06 F1800.0
G1 X-20.6 Y-9.7 Z2.06 F1800.0
G1 X-18.67 Y-7.64 Z2.06 F1800.0
G1 X-18.42 Y-7.64 Z2.06 F1800.0
G1 X-16.49 Y-9.7 Z2.06 F1800.0
G1 X-16.24 Y-9.7 Z2.06 F1800.0
G1 X-14.31 Y-7.64 Z2.06 F1800.0
G1 X-14.05 Y-7.64 Z2.06 F1800.0
G1 X-12.13 Y-9.7 Z2.06 F1800.0
G1 X-11.87 Y-9.7 Z2.06 F1800.0
G1 X-9.95 Y-7.64 Z2.06 F1800.0
G1 X-9.69 Y-7.64 Z2.06 F1800.0
G1 X-7.76 Y-9.7 Z2.06 F1800.0
G1 X-7.51 Y-9.7 Z2.06 F1800.0
G1 X-5.58 Y-7.64 Z2.06 F1800.0
G1 X-5.33 Y-7.64 Z2.06 F1800.0
G1 X-3.4 Y-9.7 Z2.06 F1800.0
G1 X-3.15 Y-9.7 Z2.06 F1800.0
G1 X-1.22 Y-7.75 Z2.06 F1800.0
G1 X-0.96 Y-7.75 Z2.06 F1800.0
G1 X0.96 Y-9.7 Z2.06 F1800.0
G1 X1.22 Y-9.7 Z2.06 F1800.0
G1 X3.15 Y-7.75 Z2.06 F1800.0
G1 X3.4 Y-7.75 Z2.06 F1800.0
G1 X5.33 Y-9.7 Z2.06 F1800.0
G1 X5.58 Y-9.7 Z2.06 F1800.0
G1 X7.51 Y-7.64 Z2.06 F1800.0
G1 X7.76 Y-7.64 Z2.06 F1800.0
G1 X9.69 Y-9.7 Z2.06 F1800.0
G1 X9.95 Y-9.7 Z2.06 F1800.0
G1 X11.87 Y-7.64 Z2.06 F1800.0
G1 X12.13 Y-7.64 Z2.06 F1800.0
G1 X14.05 Y-9.7 Z2.06 F1800.0
G1 X14.31 Y-9.7 Z2.06 F1800.0
G1 X16.24 Y-7.64 Z2.06 F1800.0
G1 X16.49 Y-7.64 Z2.06 F1800.0
G1 X18.42 Y-9.7 Z2.06 F1800.0
G1 X18.67 Y-9.7 Z2.06 F1800.0
G1 X20.6 Y-7.64 Z2.06 F1800.0
G1 X20.85 Y-7.64 Z2.06 F1800.0
G1 X22.78 Y-9.7 Z2.06 F1800.0
G1 X23.04 Y-9.7 Z2.06 F1800.0
G1 X24.96 Y-7.75 Z2.06 F1800.0
G1 X25.22 Y-7.75 Z2.06 F1800.0
G1 X26.75 Y-7.42 Z2.06 F1800.0
G1 X26.75 Y-10.47 Z2.06 F1800.0
G1 X23.04 Y-9.93 Z2.06 F1800.0
G1 X-25.22 Y-9.93 Z2.06 F1800.0
G1 X-26.75 Y-9.6 Z2.06 F1800.0
G1 X-26.75 Y-10.02 Z2.06 F1800.0
M108 R30.0
M102
G1 X-26.75 Y-10.47 Z2.06 F1800.0
M108 R3.569
M103
G1 X-13.47 Y-6.79 Z2.06 F3000.0
G1 X-5.23 Y-6.66 Z2.06 F3000.0
G1 X-5.1 Y-4.11 Z2.06 F3000.0
G1 X4.97 Y-0.95 Z2.06 F3000.0
G1 X5.11 Y4.96 Z2.06 F3000.0
G1 X22.36 Y4.96 Z2.06 F3000.0
G1 X22.47 Y4.29 Z2.06 F3000.0
M108 R30.0
M101
G1 X22.5 Y4.11 Z2.06 F3000.0
G1 X23.07 Y4.36 Z2.06 F3000.0
M108 R3.569
G1 X23.5 Y4.8 Z2.06 F1800.0
G1 X24.96 Y5.34 Z2.06 F1800.0
G1 X25.22 Y5.34 Z2.06 F1800.0
G1 X26.75 Y5.67 Z2.06 F1800.0
G1 X26.75 Y1.75 Z2.06 F1800.0
G1 X23.5 Y2.62 Z2.06 F1800.0
G1 X23.07 Y2.18 Z2.06 F1800.0
G1 X23.5 Y1.75 Z2.06 F1800.0
G1 X23.5 Y1.31 Z2.06 F1800.0
G1 X24.96 Y1.09 Z2.06 F1800.0
G1 X26.75 Y1.31 Z2.06 F1800.0
G1 X26.75 Y-1.31 Z2.06 F1800.0
G1 X23.5 Y0.44 Z2.06 F1800.0
G1 X23.07 Y-0.0 Z2.06 F1800.0
G1 X23.5 Y-0.44 Z2.06 F1800.0
G1 X23.5 Y-0.87 Z2.06 F1800.0
G1 X26.31 Y-1.75 Z2.06 F1800.0
G1 X26.75 Y-2.18 Z2.06 F1800.0
G1 X26.75 Y-2.62 Z2.06 F1800.0
G1 X23.5 Y-1.75 Z2.06 F1800.0
G1 X23.07 Y-2.18 Z2.06 F1800.0
G1 X23.5 Y-2.62 Z2.06 F1800.0
G1 X23.5 Y-3.05 Z2.06 F1800.0
G1 X25.09 Y-3.39 Z2.06 F1800.0
G1 X26.75 Y-3.05 Z2.06 F1800.0
G1 X26.75 Y-5.67 Z2.06 F1800.0
G1 X23.5 Y-3.93 Z2.06 F1800.0
G1 X23.07 Y-4.36 Z2.06 F1800.0
G1 X23.5 Y-4.8 Z2.06 F1800.0
G1 X23.5 Y-5.24 Z2.06 F1800.0
G1 X26.31 Y-6.11 Z2.06 F1800.0
G1 X26.75 Y-6.55 Z2.06 F1800.0
G1 X26.75 Y-6.98 Z2.06 F1800.0
G1 X25.22 Y-7.52 Z2.06 F1800.0
G1 X24.96 Y-7.52 Z2.06 F1800.0
G1 X23.5 Y-6.98 Z2.06 F1800.0
G1 X23.07 Y-6.55 Z2.06 F1800.0
M103
(</surroundingLoop>)
(</layer>)
(<layer> 2.38 )
(<surroundingLoop>)
(<boundaryPerimeter>)
(<boundaryPoint> X27.593 Y11.617 Z2.38 </boundaryPoint>)
(<boundaryPoint> X-27.593 Y11.617 Z2.38 </boundaryPoint>)
(<boundaryPoint> X-27.593 Y-11.617 Z2.38 </boundaryPoint>)
(<boundaryPoint> X27.593 Y-11.617 Z2.38 </boundaryPoint>)
(<loop> inner )
G1 X22.81 Y-6.41 Z2.38 F3000.0
M101
G1 X22.81 Y-6.55 Z2.38 F1800.0
G1 X22.81 Y-7.11 Z2.38 F1800.0
G1 X4.65 Y-7.11 Z2.38 F1800.0
G1 X4.65 Y5.41 Z2.38 F1800.0
G1 X22.81 Y5.41 Z2.38 F1800.0
G1 X22.81 Y-5.96 Z2.38 F1800.0
M108 R30.0
M102
G1 X22.81 Y-6.41 Z2.38 F1800.0
M108 R3.569
M103
(</loop>)
(<loop> inner )
G1 X22.5 Y-6.41 Z2.38 F3000.0
G1 X22.36 Y-6.66 Z2.38 F3000.0
G1 X5.11 Y-6.66 Z2.38 F3000.0
G1 X4.97 Y-6.5 Z2.38 F3000.0
G1 X-3.98 Y-6.54 Z2.38 F3000.0
M108 R30.0
M101
G1 X-4.78 Y-6.55 Z2.38 F3000.0
M108 R3.569
G1 X-4.78 Y-7.11 Z2.38 F1800.0
G1 X-22.94 Y-7.11 Z2.38 F1800.0
G1 X-22.94 Y5.41 Z2.38 F1800.0
G1 X-4.78 Y5.41 Z2.38 F1800.0
G1 X-4.78 Y-6.1 Z2.38 F1800.0
M108 R30.0
M102
G1 X-4.78 Y-6.55 Z2.38 F1800.0
M108 R3.569
M103
(</loop>)
(<loop> outer )
G1 X-4.78 Y-10.23 Z2.38 F3000.0
M108 R30.0
M101
G1 X-4.78 Y-11.03 Z2.38 F3000.0
M108 R3.569
G1 X27.0 Y-11.03 Z2.38 F1800.0
G1 X27.0 Y11.03 Z2.38 F1800.0
G1 X-27.0 Y11.03 Z2.38 F1800.0
G1 X-27.0 Y-11.03 Z2.38 F1800.0
G1 X-4.78 Y-11.03 Z2.38 F1800.0
M103
(</loop>)
(<perimeter> outer )
G1 X-4.78 Y-11.42 Z2.38 F3000.0
M101
G1 X27.4 Y-11.42 Z2.38 F1800.0
G1 X27.4 Y11.42 Z2.38 F1800.0
G1 X-27.4 Y11.42 Z2.38 F1800.0
G1 X-27.4 Y-11.42 Z2.38 F1800.0
G1 X-5.23 Y-11.42 Z2.38 F1800.0
M108 R30.0
M102
G1 X-4.78 Y-11.42 Z2.38 F1800.0
M108 R3.569
M103
(</perimeter>)
(</boundaryPerimeter>)
(<surroundingLoop>)
(<boundaryPerimeter>)
(<boundaryPoint> X-5.37 Y-6.517 Z2.38 </boundaryPoint>)
(<boundaryPoint> X-22.35 Y-6.517 Z2.38 </boundaryPoint>)
(<boundaryPoint> X-22.35 Y4.817 Z2.38 </boundaryPoint>)
(<boundaryPoint> X-5.37 Y4.817 Z2.38 </boundaryPoint>)
(<perimeter> inner )
G1 X-5.11 Y-7.51 Z2.38 F3000.0
M108 R30.0
M101
G1 X-5.17 Y-6.71 Z2.38 F3000.0
M108 R3.569
G1 X-22.55 Y-6.71 Z2.38 F1800.0
G1 X-22.55 Y5.01 Z2.38 F1800.0
G1 X-5.17 Y5.01 Z2.38 F1800.0
G1 X-5.17 Y-6.26 Z2.38 F1800.0
M108 R30.0
M102
G1 X-5.17 Y-6.71 Z2.38 F1800.0
M108 R3.569
M103
(</perimeter>)
(</boundaryPerimeter>)
(</surroundingLoop>)
(<surroundingLoop>)
(<boundaryPerimeter>)
(<boundaryPoint> X22.223 Y-6.517 Z2.38 </boundaryPoint>)
(<boundaryPoint> X5.243 Y-6.517 Z2.38 </boundaryPoint>)
(<boundaryPoint> X5.243 Y4.817 Z2.38 </boundaryPoint>)
(<boundaryPoint> X22.223 Y4.817 Z2.38 </boundaryPoint>)
(<perimeter> inner )
G1 X4.25 Y-6.71 Z2.38 F3000.0
M108 R30.0
M101
G1 X5.05 Y-6.71 Z2.38 F3000.0
M108 R3.569
G1 X5.05 Y5.01 Z2.38 F1800.0
G1 X22.42 Y5.01 Z2.38 F1800.0
G1 X22.42 Y-6.71 Z2.38 F1800.0
G1 X5.5 Y-6.71 Z2.38 F1800.0
M108 R30.0
M102
G1 X5.05 Y-6.71 Z2.38 F1800.0
M108 R3.569
M103
(</perimeter>)
(</boundaryPerimeter>)
(</surroundingLoop>)
G1 X6.22 Y-7.11 Z2.38 F3000.0
M108 R30.0
M101
G1 X6.98 Y-7.36 Z2.38 F3000.0
M108 R3.569
G1 X7.06 Y-7.61 Z2.38 F1800.0
G1 X7.52 Y-7.51 Z2.38 F1800.0
G1 X7.52 Y-7.76 Z2.38 F1800.0
G1 X8.29 Y-10.77 Z2.38 F1800.0
G1 X4.8 Y-10.77 Z2.38 F1800.0
G1 X5.45 Y-9.95 Z2.38 F1800.0
G1 X5.45 Y-9.69 Z2.38 F1800.0
G1 X3.39 Y-7.76 Z2.38 F1800.0
G1 X3.39 Y-7.51 Z2.38 F1800.0
G1 X4.35 Y-7.41 Z2.38 F1800.0
M108 R30.0
M102
G1 X4.8 Y-7.36 Z2.38 F1800.0
M108 R3.569
M103
G1 X4.47 Y-9.98 Z2.38 F3000.0
M108 R30.0
M101
G1 X4.36 Y-10.77 Z2.38 F3000.0
M108 R3.569
G1 X2.18 Y-10.77 Z2.38 F1800.0
G1 X1.21 Y-9.95 Z2.38 F1800.0
G1 X1.21 Y-9.69 Z2.38 F1800.0
G1 X3.16 Y-7.76 Z2.38 F1800.0
G1 X3.16 Y-7.51 Z2.38 F1800.0
G1 X1.21 Y-5.58 Z2.38 F1800.0
G1 X1.21 Y7.76 Z2.38 F1800.0
G1 X3.27 Y9.69 Z2.38 F1800.0
G1 X3.27 Y9.95 Z2.38 F1800.0
G1 X2.18 Y10.77 Z2.38 F1800.0
G1 X6.11 Y10.77 Z2.38 F1800.0
G1 X5.34 Y7.76 Z2.38 F1800.0
G1 X5.24 Y6.1 Z2.38 F1800.0
G1 X5.12 Y5.98 Z2.38 F1800.0
M108 R30.0
M102
G1 X4.8 Y5.66 Z2.38 F1800.0
M108 R3.569
M103
G1 X6.18 Y5.66 Z2.38 F3000.0
M108 R30.0
M101
G1 X6.98 Y5.66 Z2.38 F3000.0
M108 R3.569
G1 X6.55 Y6.1 Z2.38 F1800.0
G1 X6.11 Y6.1 Z2.38 F1800.0
G1 X5.57 Y7.51 Z2.38 F1800.0
G1 X5.57 Y7.76 Z2.38 F1800.0
G1 X7.64 Y9.69 Z2.38 F1800.0
G1 X7.64 Y9.95 Z2.38 F1800.0
G1 X6.55 Y10.77 Z2.38 F1800.0
G1 X10.47 Y10.77 Z2.38 F1800.0
G1 X9.7 Y7.76 Z2.38 F1800.0
G1 X9.6 Y6.1 Z2.38 F1800.0
G1 X9.48 Y5.98 Z2.38 F1800.0
M108 R30.0
M102
G1 X9.16 Y5.66 Z2.38 F1800.0
M108 R3.569
M103
G1 X10.55 Y5.66 Z2.38 F3000.0
M108 R30.0
M101
G1 X11.35 Y5.66 Z2.38 F3000.0
M108 R3.569
G1 X10.91 Y6.1 Z2.38 F1800.0
G1 X10.47 Y6.1 Z2.38 F1800.0
G1 X10.04 Y5.66 Z2.38 F1800.0
G1 X9.93 Y7.76 Z2.38 F1800.0
G1 X12.0 Y9.69 Z2.38 F1800.0
G1 X12.0 Y9.95 Z2.38 F1800.0
G1 X10.91 Y10.77 Z2.38 F1800.0
G1 X14.84 Y10.77 Z2.38 F1800.0
G1 X14.07 Y7.76 Z2.38 F1800.0
G1 X13.96 Y6.1 Z2.38 F1800.0
G1 X13.85 Y5.98 Z2.38 F1800.0
M108 R30.0
M102
G1 X13.53 Y5.66 Z2.38 F1800.0
M108 R3.569
M103
G1 X14.91 Y5.66 Z2.38 F3000.0
M108 R30.0
M101
G1 X15.71 Y5.66 Z2.38 F3000.0
M108 R3.569
G1 X15.27 Y6.1 Z2.38 F1800.0
G1 X14.84 Y6.1 Z2.38 F1800.0
G1 X14.3 Y7.51 Z2.38 F1800.0
G1 X14.3 Y7.76 Z2.38 F1800.0
G1 X16.36 Y9.69 Z2.38 F1800.0
G1 X16.36 Y9.95 Z2.38 F1800.0
G1 X15.27 Y10.77 Z2.38 F1800.0
G1 X19.64 Y10.77 Z2.38 F1800.0
G1 X18.43 Y7.76 Z2.38 F1800.0
G1 X18.33 Y6.1 Z2.38 F1800.0
G1 X18.21 Y5.98 Z2.38 F1800.0
M108 R30.0
M102
G1 X17.89 Y5.66 Z2.38 F1800.0
M108 R3.569
M103
G1 X19.27 Y5.66 Z2.38 F3000.0
M108 R30.0
M101
G1 X20.07 Y5.66 Z2.38 F3000.0
M108 R3.569
G1 X19.64 Y6.1 Z2.38 F1800.0
G1 X19.2 Y6.1 Z2.38 F1800.0
G1 X18.76 Y5.66 Z2.38 F1800.0
G1 X18.66 Y7.76 Z2.38 F1800.0
G1 X20.73 Y9.69 Z2.38 F1800.0
G1 X20.73 Y9.95 Z2.38 F1800.0
G1 X20.07 Y10.77 Z2.38 F1800.0
G1 X23.56 Y10.77 Z2.38 F1800.0
G1 X22.79 Y7.76 Z2.38 F1800.0
G1 X22.69 Y6.1 Z2.38 F1800.0
G1 X22.57 Y5.98 Z2.38 F1800.0
M108 R30.0
M102
G1 X22.25 Y5.66 Z2.38 F1800.0
M108 R3.569
M103
G1 X26.41 Y-10.0 Z2.38 F3000.0
M108 R30.0
M101
G1 X26.62 Y-10.77 Z2.38 F3000.0
M108 R3.569
G1 X26.18 Y-10.77 Z2.38 F1800.0
G1 X25.2 Y-7.76 Z2.38 F1800.0
G1 X25.2 Y5.58 Z2.38 F1800.0
G1 X26.62 Y10.77 Z2.38 F1800.0
G1 X24.0 Y10.77 Z2.38 F1800.0
G1 X25.09 Y9.95 Z2.38 F1800.0
G1 X25.09 Y9.69 Z2.38 F1800.0
G1 X23.02 Y7.76 Z2.38 F1800.0
G1 X23.02 Y7.51 Z2.38 F1800.0
G1 X24.97 Y5.58 Z2.38 F1800.0
G1 X24.97 Y-7.76 Z2.38 F1800.0
G1 X25.74 Y-10.77 Z2.38 F1800.0
G1 X21.82 Y-10.77 Z2.38 F1800.0
G1 X22.91 Y-9.95 Z2.38 F1800.0
G1 X22.91 Y-9.69 Z2.38 F1800.0
G1 X20.84 Y-7.76 Z2.38 F1800.0
G1 X20.84 Y-7.51 Z2.38 F1800.0
G1 X20.94 Y-7.36 Z2.38 F1800.0
G1 X21.3 Y-7.61 Z2.38 F1800.0
G1 X21.38 Y-7.36 Z2.38 F1800.0
G1 X21.8 Y-7.49 Z2.38 F1800.0
G1 X21.82 Y-7.49 Z2.38 F1800.0
M108 R30.0
M102
G1 X22.25 Y-7.36 Z2.38 F1800.0
M108 R3.569
M103
G1 X20.87 Y-7.36 Z2.38 F3000.0
M108 R30.0
M101
G1 X20.07 Y-7.36 Z2.38 F3000.0
M108 R3.569
G1 X20.15 Y-7.61 Z2.38 F1800.0
G1 X20.61 Y-7.51 Z2.38 F1800.0
G1 X20.61 Y-7.76 Z2.38 F1800.0
G1 X21.38 Y-10.77 Z2.38 F1800.0
G1 X17.45 Y-10.77 Z2.38 F1800.0
G1 X18.54 Y-9.95 Z2.38 F1800.0
G1 X18.54 Y-9.69 Z2.38 F1800.0
G1 X16.48 Y-7.76 Z2.38 F1800.0
G1 X16.48 Y-7.51 Z2.38 F1800.0
G1 X16.58 Y-7.36 Z2.38 F1800.0
G1 X16.94 Y-7.61 Z2.38 F1800.0
G1 X17.02 Y-7.36 Z2.38 F1800.0
G1 X17.43 Y-7.49 Z2.38 F1800.0
G1 X17.46 Y-7.49 Z2.38 F1800.0
M108 R30.0
M102
G1 X17.89 Y-7.36 Z2.38 F1800.0
M108 R3.569
M103
G1 X16.51 Y-7.36 Z2.38 F3000.0
M108 R30.0
M101
G1 X15.71 Y-7.36 Z2.38 F3000.0
M108 R3.569
G1 X15.79 Y-7.61 Z2.38 F1800.0
G1 X16.25 Y-7.51 Z2.38 F1800.0
G1 X16.25 Y-7.76 Z2.38 F1800.0
G1 X17.02 Y-10.77 Z2.38 F1800.0
G1 X13.53 Y-10.77 Z2.38 F1800.0
G1 X14.18 Y-9.95 Z2.38 F1800.0
G1 X14.18 Y-9.69 Z2.38 F1800.0
G1 X12.11 Y-7.76 Z2.38 F1800.0
G1 X12.11 Y-7.51 Z2.38 F1800.0
G1 X12.22 Y-7.36 Z2.38 F1800.0
G1 X12.57 Y-7.61 Z2.38 F1800.0
G1 X12.65 Y-7.36 Z2.38 F1800.0
G1 X13.07 Y-7.49 Z2.38 F1800.0
G1 X13.09 Y-7.49 Z2.38 F1800.0
M108 R30.0
M102
G1 X13.53 Y-7.36 Z2.38 F1800.0
M108 R3.569
M103
G1 X12.15 Y-7.36 Z2.38 F3000.0
M108 R30.0
M101
G1 X11.35 Y-7.36 Z2.38 F3000.0
M108 R3.569
G1 X11.42 Y-7.61 Z2.38 F1800.0
G1 X11.88 Y-7.51 Z2.38 F1800.0
G1 X11.88 Y-7.76 Z2.38 F1800.0
G1 X13.09 Y-10.77 Z2.38 F1800.0
G1 X8.73 Y-10.77 Z2.38 F1800.0
G1 X9.82 Y-9.95 Z2.38 F1800.0
G1 X9.82 Y-9.69 Z2.38 F1800.0
G1 X7.75 Y-7.76 Z2.38 F1800.0
G1 X7.75 Y-7.51 Z2.38 F1800.0
G1 X7.85 Y-7.36 Z2.38 F1800.0
G1 X8.21 Y-7.61 Z2.38 F1800.0
G1 X8.29 Y-7.36 Z2.38 F1800.0
G1 X8.71 Y-7.49 Z2.38 F1800.0
G1 X8.73 Y-7.49 Z2.38 F1800.0
M108 R30.0
M102
G1 X9.16 Y-7.36 Z2.38 F1800.0
M108 R3.569
M103
G1 X8.82 Y-6.79 Z2.38 F3000.0
G1 X5.11 Y-6.66 Z2.38 F3000.0
G1 X4.97 Y2.22 Z2.38 F3000.0
G1 X2.03 Y10.02 Z2.38 F3000.0
M108 R30.0
M101
G1 X1.75 Y10.77 Z2.38 F3000.0
M108 R3.569
G1 X-0.44 Y10.77 Z2.38 F1800.0
G1 X-0.98 Y9.95 Z2.38 F1800.0
G1 X-0.98 Y9.69 Z2.38 F1800.0
G1 X0.98 Y7.76 Z2.38 F1800.0
G1 X0.98 Y7.51 Z2.38 F1800.0
G1 X-0.98 Y5.58 Z2.38 F1800.0
G1 X-0.98 Y5.33 Z2.38 F1800.0
G1 X0.98 Y3.4 Z2.38 F1800.0
G1 X0.98 Y3.15 Z2.38 F1800.0
G1 X-0.98 Y1.22 Z2.38 F1800.0
G1 X-0.98 Y0.96 Z2.38 F1800.0
G1 X0.98 Y-0.96 Z2.38 F1800.0
G1 X0.98 Y-1.22 Z2.38 F1800.0
G1 X-0.98 Y-3.15 Z2.38 F1800.0
G1 X-0.98 Y-3.4 Z2.38 F1800.0
G1 X0.98 Y-5.33 Z2.38 F1800.0
G1 X0.98 Y-5.58 Z2.38 F1800.0
G1 X-0.98 Y-7.51 Z2.38 F1800.0
G1 X-0.98 Y-7.76 Z2.38 F1800.0
G1 X0.98 Y-9.69 Z2.38 F1800.0
G1 X0.98 Y-9.95 Z2.38 F1800.0
G1 X1.75 Y-10.77 Z2.38 F1800.0
G1 X-2.62 Y-10.77 Z2.38 F1800.0
G1 X-3.16 Y-9.95 Z2.38 F1800.0
G1 X-3.16 Y-9.69 Z2.38 F1800.0
G1 X-1.21 Y-7.76 Z2.38 F1800.0
G1 X-1.21 Y-7.51 Z2.38 F1800.0
G1 X-3.16 Y-5.58 Z2.38 F1800.0
G1 X-3.16 Y-5.33 Z2.38 F1800.0
G1 X-1.21 Y-3.4 Z2.38 F1800.0
G1 X-1.21 Y-3.15 Z2.38 F1800.0
G1 X-3.16 Y-1.22 Z2.38 F1800.0
G1 X-3.16 Y-0.96 Z2.38 F1800.0
G1 X-1.21 Y0.96 Z2.38 F1800.0
G1 X-1.21 Y1.22 Z2.38 F1800.0
G1 X-3.16 Y3.15 Z2.38 F1800.0
G1 X-3.16 Y3.4 Z2.38 F1800.0
G1 X-1.21 Y5.33 Z2.38 F1800.0
G1 X-1.21 Y5.58 Z2.38 F1800.0
G1 X-3.16 Y7.51 Z2.38 F1800.0
G1 X-3.16 Y7.76 Z2.38 F1800.0
G1 X-1.21 Y9.69 Z2.38 F1800.0
G1 X-1.21 Y9.95 Z2.38 F1800.0
G1 X-0.87 Y10.77 Z2.38 F1800.0
G1 X-4.36 Y10.77 Z2.38 F1800.0
G1 X-5.34 Y9.95 Z2.38 F1800.0
G1 X-5.34 Y9.69 Z2.38 F1800.0
G1 X-3.39 Y7.76 Z2.38 F1800.0
G1 X-3.39 Y-5.58 Z2.38 F1800.0
G1 X-4.46 Y-7.63 Z2.38 F1800.0
G1 X-3.39 Y-9.69 Z2.38 F1800.0
G1 X-3.39 Y-9.95 Z2.38 F1800.0
G1 X-3.05 Y-10.77 Z2.38 F1800.0
G1 X-6.55 Y-10.77 Z2.38 F1800.0
G1 X-7.52 Y-9.95 Z2.38 F1800.0
G1 X-7.52 Y-9.69 Z2.38 F1800.0
G1 X-5.45 Y-7.76 Z2.38 F1800.0
G1 X-5.45 Y-7.51 Z2.38 F1800.0
G1 X-5.67 Y-7.36 Z2.38 F1800.0
G1 X-5.89 Y-7.69 Z2.38 F1800.0
M108 R30.0
M102
G1 X-5.92 Y-7.72 Z2.38 F1800.0
G1 X-6.11 Y-7.36 Z2.38 F1800.0
M108 R3.569
M103
G1 X-7.49 Y-7.36 Z2.38 F3000.0
M108 R30.0
M101
G1 X-8.29 Y-7.36 Z2.38 F3000.0
M108 R3.569
G1 X-9.24 Y-7.61 Z2.38 F1800.0
G1 X-9.7 Y-7.51 Z2.38 F1800.0
G1 X-9.7 Y-7.76 Z2.38 F1800.0
G1 X-7.75 Y-9.69 Z2.38 F1800.0
G1 X-7.75 Y-9.95 Z2.38 F1800.0
G1 X-6.98 Y-10.77 Z2.38 F1800.0
G1 X-10.47 Y-10.77 Z2.38 F1800.0
G1 X-11.88 Y-9.95 Z2.38 F1800.0
G1 X-11.88 Y-9.69 Z2.38 F1800.0
G1 X-9.93 Y-7.76 Z2.38 F1800.0
G1 X-9.93 Y-7.51 Z2.38 F1800.0
G1 X-10.04 Y-7.36 Z2.38 F1800.0
G1 X-10.24 Y-7.51 Z2.38 F1800.0
M108 R30.0
M102
G1 X-10.39 Y-7.61 Z2.38 F1800.0
G1 X-10.47 Y-7.36 Z2.38 F1800.0
M108 R3.569
M103
G1 X-11.85 Y-7.36 Z2.38 F3000.0
M108 R30.0
M101
G1 X-12.65 Y-7.36 Z2.38 F3000.0
M108 R3.569
G1 X-13.61 Y-7.61 Z2.38 F1800.0
G1 X-14.07 Y-7.51 Z2.38 F1800.0
G1 X-14.07 Y-7.76 Z2.38 F1800.0
G1 X-12.11 Y-9.69 Z2.38 F1800.0
G1 X-12.11 Y-9.95 Z2.38 F1800.0
G1 X-11.35 Y-10.77 Z2.38 F1800.0
G1 X-14.84 Y-10.77 Z2.38 F1800.0
G1 X-16.25 Y-9.95 Z2.38 F1800.0
G1 X-16.25 Y-9.69 Z2.38 F1800.0
G1 X-14.3 Y-7.76 Z2.38 F1800.0
G1 X-14.3 Y-7.51 Z2.38 F1800.0
G1 X-14.4 Y-7.36 Z2.38 F1800.0
G1 X-14.6 Y-7.51 Z2.38 F1800.0
M108 R30.0
M102
G1 X-14.76 Y-7.61 Z2.38 F1800.0
G1 X-14.84 Y-7.36 Z2.38 F1800.0
M108 R3.569
M103
G1 X-16.22 Y-7.36 Z2.38 F3000.0
M108 R30.0
M101
G1 X-17.02 Y-7.36 Z2.38 F3000.0
M108 R3.569
G1 X-17.97 Y-7.61 Z2.38 F1800.0
G1 X-18.43 Y-7.51 Z2.38 F1800.0
G1 X-18.43 Y-7.76 Z2.38 F1800.0
G1 X-16.48 Y-9.69 Z2.38 F1800.0
G1 X-16.48 Y-9.95 Z2.38 F1800.0
G1 X-15.71 Y-10.77 Z2.38 F1800.0
G1 X-19.64 Y-10.77 Z2.38 F1800.0
G1 X-20.61 Y-9.95 Z2.38 F1800.0
G1 X-20.61 Y-9.69 Z2.38 F1800.0
G1 X-18.66 Y-7.76 Z2.38 F1800.0
G1 X-18.66 Y-7.51 Z2.38 F1800.0
G1 X-18.76 Y-7.36 Z2.38 F1800.0
G1 X-18.97 Y-7.51 Z2.38 F1800.0
M108 R30.0
M102
G1 X-19.12 Y-7.61 Z2.38 F1800.0
G1 X-19.2 Y-7.36 Z2.38 F1800.0
M108 R3.569
M103
G1 X-20.58 Y-7.36 Z2.38 F3000.0
M108 R30.0
M101
G1 X-21.38 Y-7.36 Z2.38 F3000.0
M108 R3.569
G1 X-22.33 Y-7.61 Z2.38 F1800.0
G1 X-22.79 Y-7.51 Z2.38 F1800.0
G1 X-22.79 Y-7.76 Z2.38 F1800.0
G1 X-20.84 Y-9.69 Z2.38 F1800.0
G1 X-20.84 Y-9.95 Z2.38 F1800.0
G1 X-20.07 Y-10.77 Z2.38 F1800.0
G1 X-24.44 Y-10.77 Z2.38 F1800.0
G1 X-24.97 Y-9.95 Z2.38 F1800.0
G1 X-24.97 Y-9.69 Z2.38 F1800.0
G1 X-23.02 Y-7.76 Z2.38 F1800.0
G1 X-23.02 Y-7.51 Z2.38 F1800.0
G1 X-23.13 Y-7.36 Z2.38 F1800.0
G1 X-24.97 Y-5.58 Z2.38 F1800.0
G1 X-24.97 Y7.76 Z2.38 F1800.0
G1 X-23.02 Y9.69 Z2.38 F1800.0
G1 X-23.02 Y9.95 Z2.38 F1800.0
