(** This GCode was generated by ReplicatorG 0034 **)
(*  using Skeinforge (35)  *)
(*  for a Single headed Thing-O-Matic  *)
(*  on 2012/04/21 17:27:59 (-0400) *)
(<alteration>)
(**** beginning of start.gcode ****)
(This file is for a MakerBot Thing-O-Matic)
(**** begin initialization commands ****)
G21 (set units to mm)
G90 (set positioning to absolute)
M108 R5.0 (set extruder speed)
M103 (Make sure extruder is off)
M104 S225 T0 (set extruder temperature)
M109 S120 T0 (set heated-build-platform temperature)
(**** end initialization commands ****)
(**** begin homing ****)
G162 Z F1000 (home Z axis maximum)
G92 Z10 (set Z to 0)
G1 Z0.0 (move z down 10)
G162 Z F150 (home Z axis maximum)
G161 X Y F2500 (home XY axes minimum)
M132 X Y Z A B (Recall stored home offsets for XYZAB axis)
(**** end homing ****)
(**** begin pre-wipe commands ****)
( Some people have had problems with the nozzle hitting )
( bolts or wipers during this pre-extrusion warmup.     )
( If this happens to you, you can change the values for )
( the X and Y positions in the following code.          )
( The goal is to have the toolhead wipe its initial     )
( extrusion near the edge of the platform, [anchor it]  )
( so as not to have it interfere with the print.        )
( This file can be found in:                            )
( replicatorg/skein_engines/skeinforge-##/skeinforge_application/ )
( prefs/<profile name [e.g. Thingomatic-ABP-Mk7]>/alterations )
G1 X25.0 Y-60.0 Z10.0 F3300.0 (move to waiting position)
M6 T0 (wait for toolhead parts, nozzle, HBP, etc., to reach temperature)
G0 X25 Y-57 (Position Nozzle)
G0 Z0.6     (Position Height)
M108 R4.0   (Set Extruder Speed)
M101        (Start Extruder)
G4 P1500    (Create Anchor)
(**** end pre-wipe commands ****)
(**** end of start.gcode ****)
(</alteration>)
(<creation> skeinforge </creation>)
(<version> 10.11.05 </version>)
(<extruderInitialization>)
(<craftTypeName> extrusion </craftTypeName>)
M105
(<bridgeWidthMultiplier> 1.0 </bridgeWidthMultiplier>)
(<decimalPlacesCarried> 3 </decimalPlacesCarried>)
(<layerThickness> 0.32 </layerThickness>)
(<threadSequenceString> loops perimeter infill </threadSequenceString>)
(<operatingFeedRatePerSecond> 30.0 </operatingFeedRatePerSecond>)
(<operatingFlowRate> 3.56914845556 </operatingFlowRate>)
(<orbitalFeedRatePerSecond> 15.0 </orbitalFeedRatePerSecond>)
(<travelFeedRatePerSecond> 50.0 </travelFeedRatePerSecond>)
(<perimeterWidth> 0.393 </perimeterWidth>)
(<profileName> ABS </profileName>)
(<procedureDone> carve,bottom </procedureDone>)
(<procedureDone> preface </procedureDone>)
(<procedureDone> inset </procedureDone>)
(<procedureDone> fill </procedureDone>)
(<procedureDone> speed </procedureDone>)
(<procedureDone> raft </procedureDone>)
(<procedureDone> jitter </procedureDone>)
(<procedureDone> comb </procedureDone>)
(<procedureDone> cool </procedureDone>)
(<procedureDone> outline </procedureDone>)
(<procedureDone> reversal </procedureDone>)
(<procedureDone> export </procedureDone>)
(</extruderInitialization>)
(<extrusion>)
;M113 S1.0
M108 R3.569
(<layer> 0.46 )
(<surroundingLoop>)
(<boundaryPerimeter>)
(<boundaryPoint> X-27.339 Y3.395 Z0.46 </boundaryPoint>)
(<boundaryPoint> X-27.339 Y-23.781 Z0.46 </boundaryPoint>)
(<boundaryPoint> X0.485 Y-23.781 Z0.46 </boundaryPoint>)
(<boundaryPoint> X0.485 Y-30.896 Z0.46 </boundaryPoint>)
(<boundaryPoint> X5.466 Y-30.896 Z0.46 </boundaryPoint>)
(<boundaryPoint> X5.466 Y-23.781 Z0.46 </boundaryPoint>)
(<boundaryPoint> X27.339 Y-23.781 Z0.46 </boundaryPoint>)
(<boundaryPoint> X27.339 Y30.896 Z0.46 </boundaryPoint>)
(<boundaryPoint> X-27.339 Y30.896 Z0.46 </boundaryPoint>)
(<boundaryPoint> X-27.339 Y8.693 Z0.46 </boundaryPoint>)
(<boundaryPoint> X-19.868 Y8.693 Z0.46 </boundaryPoint>)
(<boundaryPoint> X-19.868 Y3.395 Z0.46 </boundaryPoint>)
(<loop> inner )
M108 R2.141
G1 X29.14 Y-32.7 Z0.46 F1080.0
M101
G1 X-29.14 Y-32.7 Z0.46 F1080.0
G1 X-29.14 Y32.7 Z0.46 F1080.0
G1 X29.14 Y32.7 Z0.46 F1080.0
G1 X29.14 Y-32.43 Z0.46 F1080.0
M108 R30.0
M102
G1 X29.14 Y-32.7 Z0.46 F1080.0
M108 R2.141
M103
G1 X0.59 Y-14.83 Z0.46 F3000.0
M108 R30.0
M101
G1 X-0.09 Y-14.41 Z0.46 F3000.0
M108 R2.141
G1 X-17.97 Y-14.41 Z0.46 F1080.0
G1 X-17.97 Y20.43 Z0.46 F1080.0
G1 X16.88 Y20.43 Z0.46 F1080.0
G1 X16.88 Y-14.41 Z0.46 F1080.0
G1 X0.18 Y-14.41 Z0.46 F1080.0
M108 R30.0
M102
G1 X0.0 Y-14.41 Z0.46 F1080.0
G1 X-0.09 Y-14.41 Z0.46 F1080.0
M108 R2.141
M103
(</loop>)
(<loop> outer )
G1 X-0.01 Y-22.39 Z0.46 F3000.0
M108 R30.0
M101
G1 X0.0 Y-23.19 Z0.46 F3000.0
M108 R2.141
G1 X1.07 Y-23.19 Z0.46 F1080.0
G1 X1.07 Y-30.31 Z0.46 F1080.0
G1 X4.88 Y-30.31 Z0.46 F1080.0
G1 X4.88 Y-23.19 Z0.46 F1080.0
G1 X26.75 Y-23.19 Z0.46 F1080.0
G1 X26.75 Y30.31 Z0.46 F1080.0
G1 X-26.75 Y30.31 Z0.46 F1080.0
G1 X-26.75 Y9.28 Z0.46 F1080.0
G1 X-19.28 Y9.28 Z0.46 F1080.0
G1 X-19.28 Y2.81 Z0.46 F1080.0
G1 X-26.75 Y2.81 Z0.46 F1080.0
G1 X-26.75 Y-23.19 Z0.46 F1080.0
G1 X0.0 Y-23.19 Z0.46 F1080.0
M103
(</loop>)
(<perimeter> outer )
G1 X0.0 Y-23.59 Z0.46 F3000.0
M101
G1 X0.68 Y-23.59 Z0.46 F1080.0
G1 X0.68 Y-30.7 Z0.46 F1080.0
G1 X5.27 Y-30.7 Z0.46 F1080.0
G1 X5.27 Y-23.59 Z0.46 F1080.0
G1 X27.14 Y-23.59 Z0.46 F1080.0
G1 X27.14 Y30.7 Z0.46 F1080.0
G1 X-27.14 Y30.7 Z0.46 F1080.0
G1 X-27.14 Y8.89 Z0.46 F1080.0
G1 X-19.67 Y8.89 Z0.46 F1080.0
G1 X-19.67 Y3.2 Z0.46 F1080.0
G1 X-27.14 Y3.2 Z0.46 F1080.0
G1 X-27.14 Y-23.59 Z0.46 F1080.0
G1 X-0.27 Y-23.59 Z0.46 F1080.0
M108 R30.0
M102
G1 X0.0 Y-23.59 Z0.46 F1080.0
M108 R2.141
M103
(</perimeter>)
(</boundaryPerimeter>)
(<surroundingLoop>)
(<boundaryPerimeter>)
(<boundaryPoint> X16.287 Y-13.82 Z0.46 </boundaryPoint>)
(<boundaryPoint> X-17.378 Y-13.82 Z0.46 </boundaryPoint>)
(<boundaryPoint> X-17.378 Y19.844 Z0.46 </boundaryPoint>)
(<boundaryPoint> X16.287 Y19.844 Z0.46 </boundaryPoint>)
(<perimeter> inner )
G1 X0.0 Y-14.82 Z0.46 F3000.0
M108 R30.0
M101
G1 X0.0 Y-14.02 Z0.46 F3000.0
M108 R2.141
G1 X-17.58 Y-14.02 Z0.46 F1080.0
G1 X-17.58 Y20.04 Z0.46 F1080.0
G1 X16.48 Y20.04 Z0.46 F1080.0
G1 X16.48 Y-14.02 Z0.46 F1080.0
G1 X0.27 Y-14.02 Z0.46 F1080.0
M108 R30.0
M102
G1 X0.0 Y-14.02 Z0.46 F1080.0
M108 R2.141
M103
(</perimeter>)
(</boundaryPerimeter>)
(</surroundingLoop>)
G1 X0.42 Y-14.36 Z0.46 F1800.0
M108 R30.0
M101
G1 X0.79 Y-14.67 Z0.46 F1800.0
M108 R2.141
G1 X0.79 Y-22.94 Z0.46 F1080.0
G1 X0.39 Y-22.94 Z0.46 F1080.0
G1 X0.39 Y-14.67 Z0.46 F1080.0
G1 X-0.0 Y-14.67 Z0.46 F1080.0
G1 X-0.0 Y-22.94 Z0.46 F1080.0
G1 X-0.39 Y-22.94 Z0.46 F1080.0
G1 X-0.39 Y-14.67 Z0.46 F1080.0
G1 X-0.79 Y-14.67 Z0.46 F1080.0
G1 X-0.79 Y-22.94 Z0.46 F1080.0
G1 X-1.18 Y-22.94 Z0.46 F1080.0
G1 X-1.18 Y-14.67 Z0.46 F1080.0
G1 X-1.57 Y-14.67 Z0.46 F1080.0
G1 X-1.57 Y-22.94 Z0.46 F1080.0
G1 X-1.96 Y-22.94 Z0.46 F1080.0
G1 X-1.96 Y-14.67 Z0.46 F1080.0
G1 X-2.36 Y-14.67 Z0.46 F1080.0
G1 X-2.36 Y-22.94 Z0.46 F1080.0
G1 X-2.75 Y-22.94 Z0.46 F1080.0
G1 X-2.75 Y-14.67 Z0.46 F1080.0
G1 X-3.14 Y-14.67 Z0.46 F1080.0
G1 X-3.14 Y-22.94 Z0.46 F1080.0
G1 X-3.53 Y-22.94 Z0.46 F1080.0
G1 X-3.53 Y-14.67 Z0.46 F1080.0
G1 X-3.93 Y-14.67 Z0.46 F1080.0
G1 X-3.93 Y-22.94 Z0.46 F1080.0
G1 X-4.32 Y-22.94 Z0.46 F1080.0
G1 X-4.32 Y-14.67 Z0.46 F1080.0
G1 X-4.71 Y-14.67 Z0.46 F1080.0
G1 X-4.71 Y-22.94 Z0.46 F1080.0
G1 X-5.11 Y-22.94 Z0.46 F1080.0
G1 X-5.11 Y-14.67 Z0.46 F1080.0
G1 X-5.5 Y-14.67 Z0.46 F1080.0
G1 X-5.5 Y-22.94 Z0.46 F1080.0
G1 X-5.89 Y-22.94 Z0.46 F1080.0
G1 X-5.89 Y-14.67 Z0.46 F1080.0
G1 X-6.28 Y-14.67 Z0.46 F1080.0
G1 X-6.28 Y-22.94 Z0.46 F1080.0
G1 X-6.68 Y-22.94 Z0.46 F1080.0
G1 X-6.68 Y-14.67 Z0.46 F1080.0
G1 X-7.07 Y-14.67 Z0.46 F1080.0
G1 X-7.07 Y-22.94 Z0.46 F1080.0
G1 X-7.46 Y-22.94 Z0.46 F1080.0
G1 X-7.46 Y-14.67 Z0.46 F1080.0
G1 X-7.85 Y-14.67 Z0.46 F1080.0
G1 X-7.85 Y-22.94 Z0.46 F1080.0
G1 X-8.25 Y-22.94 Z0.46 F1080.0
G1 X-8.25 Y-14.67 Z0.46 F1080.0
G1 X-8.64 Y-14.67 Z0.46 F1080.0
G1 X-8.64 Y-22.94 Z0.46 F1080.0
G1 X-9.03 Y-22.94 Z0.46 F1080.0
G1 X-9.03 Y-14.67 Z0.46 F1080.0
G1 X-9.43 Y-14.67 Z0.46 F1080.0
G1 X-9.43 Y-22.94 Z0.46 F1080.0
G1 X-9.82 Y-22.94 Z0.46 F1080.0
G1 X-9.82 Y-14.67 Z0.46 F1080.0
G1 X-10.21 Y-14.67 Z0.46 F1080.0
G1 X-10.21 Y-22.94 Z0.46 F1080.0
G1 X-10.6 Y-22.94 Z0.46 F1080.0
G1 X-10.6 Y-14.67 Z0.46 F1080.0
G1 X-11.0 Y-14.67 Z0.46 F1080.0
G1 X-11.0 Y-22.94 Z0.46 F1080.0
G1 X-11.39 Y-22.94 Z0.46 F1080.0
G1 X-11.39 Y-14.67 Z0.46 F1080.0
G1 X-11.78 Y-14.67 Z0.46 F1080.0
G1 X-11.78 Y-22.94 Z0.46 F1080.0
G1 X-12.17 Y-22.94 Z0.46 F1080.0
G1 X-12.17 Y-14.67 Z0.46 F1080.0
G1 X-12.57 Y-14.67 Z0.46 F1080.0
G1 X-12.57 Y-22.94 Z0.46 F1080.0
G1 X-12.96 Y-22.94 Z0.46 F1080.0
G1 X-12.96 Y-14.67 Z0.46 F1080.0
G1 X-13.35 Y-14.67 Z0.46 F1080.0
G1 X-13.35 Y-22.94 Z0.46 F1080.0
G1 X-13.74 Y-22.94 Z0.46 F1080.0
G1 X-13.74 Y-14.67 Z0.46 F1080.0
G1 X-14.14 Y-14.67 Z0.46 F1080.0
G1 X-14.14 Y-22.94 Z0.46 F1080.0
G1 X-14.53 Y-22.94 Z0.46 F1080.0
G1 X-14.53 Y-14.67 Z0.46 F1080.0
G1 X-14.92 Y-14.67 Z0.46 F1080.0
G1 X-14.92 Y-22.94 Z0.46 F1080.0
G1 X-15.32 Y-22.94 Z0.46 F1080.0
G1 X-15.32 Y-14.67 Z0.46 F1080.0
G1 X-15.71 Y-14.67 Z0.46 F1080.0
G1 X-15.71 Y-22.94 Z0.46 F1080.0
G1 X-16.1 Y-22.94 Z0.46 F1080.0
G1 X-16.1 Y-14.67 Z0.46 F1080.0
G1 X-16.49 Y-14.67 Z0.46 F1080.0
G1 X-16.49 Y-22.94 Z0.46 F1080.0
G1 X-16.89 Y-22.94 Z0.46 F1080.0
G1 X-16.89 Y-14.67 Z0.46 F1080.0
G1 X-17.28 Y-14.67 Z0.46 F1080.0
G1 X-17.28 Y-22.94 Z0.46 F1080.0
G1 X-17.67 Y-22.94 Z0.46 F1080.0
G1 X-17.67 Y-14.67 Z0.46 F1080.0
G1 X-18.06 Y-14.67 Z0.46 F1080.0
G1 X-18.06 Y-22.94 Z0.46 F1080.0
G1 X-18.46 Y-22.94 Z0.46 F1080.0
G1 X-18.46 Y30.05 Z0.46 F1080.0
M103
G1 X-18.06 Y30.05 Z0.46 F1800.0
M101
G1 X-18.06 Y20.69 Z0.46 F1080.0
M103
G1 X-17.67 Y20.69 Z0.46 F1800.0
M101
G1 X-17.67 Y30.05 Z0.46 F1080.0
M103
G1 X-17.28 Y30.05 Z0.46 F1800.0
M101
G1 X-17.28 Y20.69 Z0.46 F1080.0
M103
G1 X-16.89 Y20.69 Z0.46 F1800.0
M101
G1 X-16.89 Y30.05 Z0.46 F1080.0
M103
G1 X-16.49 Y30.05 Z0.46 F1800.0
M101
G1 X-16.49 Y20.69 Z0.46 F1080.0
M103
G1 X-16.1 Y20.69 Z0.46 F1800.0
M101
G1 X-16.1 Y30.05 Z0.46 F1080.0
M103
G1 X-15.71 Y30.05 Z0.46 F1800.0
M101
G1 X-15.71 Y20.69 Z0.46 F1080.0
M103
G1 X-15.32 Y20.69 Z0.46 F1800.0
M101
G1 X-15.32 Y30.05 Z0.46 F1080.0
M103
G1 X-14.92 Y30.05 Z0.46 F1800.0
M101
G1 X-14.92 Y20.69 Z0.46 F1080.0
M103
G1 X-14.53 Y20.69 Z0.46 F1800.0
M101
G1 X-14.53 Y30.05 Z0.46 F1080.0
M103
G1 X-14.14 Y30.05 Z0.46 F1800.0
M101
G1 X-14.14 Y20.69 Z0.46 F1080.0
M103
G1 X-13.74 Y20.69 Z0.46 F1800.0
M101
G1 X-13.74 Y30.05 Z0.46 F1080.0
M103
G1 X-13.35 Y30.05 Z0.46 F1800.0
M101
G1 X-13.35 Y20.69 Z0.46 F1080.0
M103
G1 X-12.96 Y20.69 Z0.46 F1800.0
M101
G1 X-12.96 Y30.05 Z0.46 F1080.0
M103
G1 X-12.57 Y30.05 Z0.46 F1800.0
M101
G1 X-12.57 Y20.69 Z0.46 F1080.0
M103
G1 X-12.17 Y20.69 Z0.46 F1800.0
M101
G1 X-12.17 Y30.05 Z0.46 F1080.0
M103
G1 X-11.78 Y30.05 Z0.46 F1800.0
M101
G1 X-11.78 Y20.69 Z0.46 F1080.0
M103
G1 X-11.39 Y20.69 Z0.46 F1800.0
M101
G1 X-11.39 Y30.05 Z0.46 F1080.0
M103
G1 X-11.0 Y30.05 Z0.46 F1800.0
M101
G1 X-11.0 Y20.69 Z0.46 F1080.0
M103
G1 X-10.6 Y20.69 Z0.46 F1800.0
M101
G1 X-10.6 Y30.05 Z0.46 F1080.0
M103
G1 X-10.21 Y30.05 Z0.46 F1800.0
M101
G1 X-10.21 Y20.69 Z0.46 F1080.0
M103
G1 X-9.82 Y20.69 Z0.46 F1800.0
M101
G1 X-9.82 Y30.05 Z0.46 F1080.0
M103
G1 X-9.43 Y30.05 Z0.46 F1800.0
M101
G1 X-9.43 Y20.69 Z0.46 F1080.0
M103
G1 X-9.03 Y20.69 Z0.46 F1800.0
M101
G1 X-9.03 Y30.05 Z0.46 F1080.0
M103
G1 X-8.64 Y30.05 Z0.46 F1800.0
M101
G1 X-8.64 Y20.69 Z0.46 F1080.0
M103
G1 X-8.25 Y20.69 Z0.46 F1800.0
M101
G1 X-8.25 Y30.05 Z0.46 F1080.0
M103
G1 X-7.85 Y30.05 Z0.46 F1800.0
M101
G1 X-7.85 Y20.69 Z0.46 F1080.0
M103
G1 X-7.46 Y20.69 Z0.46 F1800.0
M101
G1 X-7.46 Y30.05 Z0.46 F1080.0
M103
G1 X-7.07 Y30.05 Z0.46 F1800.0
M101
G1 X-7.07 Y20.69 Z0.46 F1080.0
M103
G1 X-6.68 Y20.69 Z0.46 F1800.0
M101
G1 X-6.68 Y30.05 Z0.46 F1080.0
M103
G1 X-6.28 Y30.05 Z0.46 F1800.0
M101
G1 X-6.28 Y20.69 Z0.46 F1080.0
M103
G1 X-5.89 Y20.69 Z0.46 F1800.0
M101
G1 X-5.89 Y30.05 Z0.46 F1080.0
M103
G1 X-5.5 Y30.05 Z0.46 F1800.0
M101
G1 X-5.5 Y20.69 Z0.46 F1080.0
M103
G1 X-5.11 Y20.69 Z0.46 F1800.0
M101
G1 X-5.11 Y30.05 Z0.46 F1080.0
M103
G1 X-4.71 Y30.05 Z0.46 F1800.0
M101
G1 X-4.71 Y20.69 Z0.46 F1080.0
M103
G1 X-4.32 Y20.69 Z0.46 F1800.0
M101
G1 X-4.32 Y30.05 Z0.46 F1080.0
M103
G1 X-3.93 Y30.05 Z0.46 F1800.0
M101
G1 X-3.93 Y20.69 Z0.46 F1080.0
M103
G1 X-3.53 Y20.69 Z0.46 F1800.0
M101
G1 X-3.53 Y30.05 Z0.46 F1080.0
M103
G1 X-3.14 Y30.05 Z0.46 F1800.0
M101
G1 X-3.14 Y20.69 Z0.46 F1080.0
M103
G1 X-2.75 Y20.69 Z0.46 F1800.0
M101
G1 X-2.75 Y30.05 Z0.46 F1080.0
M103
G1 X-2.36 Y30.05 Z0.46 F1800.0
M101
G1 X-2.36 Y20.69 Z0.46 F1080.0
M103
G1 X-1.96 Y20.69 Z0.46 F1800.0
M101
G1 X-1.96 Y30.05 Z0.46 F1080.0
M103
G1 X-1.57 Y30.05 Z0.46 F1800.0
M101
G1 X-1.57 Y20.69 Z0.46 F1080.0
M103
G1 X-1.18 Y20.69 Z0.46 F1800.0
M101
G1 X-1.18 Y30.05 Z0.46 F1080.0
M103
G1 X-0.79 Y30.05 Z0.46 F1800.0
M101
G1 X-0.79 Y20.69 Z0.46 F1080.0
M103
G1 X-0.39 Y20.69 Z0.46 F1800.0
M101
G1 X-0.39 Y30.05 Z0.46 F1080.0
M103
G1 X0.0 Y30.05 Z0.46 F1800.0
M101
G1 X0.0 Y20.69 Z0.46 F1080.0
M103
G1 X0.39 Y20.69 Z0.46 F1800.0
M101
G1 X0.39 Y30.05 Z0.46 F1080.0
M103
G1 X0.79 Y30.05 Z0.46 F1800.0
M101
G1 X0.79 Y20.69 Z0.46 F1080.0
M103
G1 X1.18 Y20.69 Z0.46 F1800.0
M101
G1 X1.18 Y30.05 Z0.46 F1080.0
M103
G1 X1.57 Y30.05 Z0.46 F1800.0
M101
G1 X1.57 Y20.69 Z0.46 F1080.0
M103
G1 X1.96 Y20.69 Z0.46 F1800.0
M101
G1 X1.96 Y30.05 Z0.46 F1080.0
M103
G1 X2.36 Y30.05 Z0.46 F1800.0
M101
G1 X2.36 Y20.69 Z0.46 F1080.0
M103
G1 X2.75 Y20.69 Z0.46 F1800.0
M101
G1 X2.75 Y30.05 Z0.46 F1080.0
M103
G1 X3.14 Y30.05 Z0.46 F1800.0
M101
G1 X3.14 Y20.69 Z0.46 F1080.0
M103
G1 X3.53 Y20.69 Z0.46 F1800.0
M101
G1 X3.53 Y30.05 Z0.46 F1080.0
M103
G1 X3.93 Y30.05 Z0.46 F1800.0
M101
G1 X3.93 Y20.69 Z0.46 F1080.0
M103
G1 X4.32 Y20.69 Z0.46 F1800.0
M101
G1 X4.32 Y30.05 Z0.46 F1080.0
M103
G1 X4.71 Y30.05 Z0.46 F1800.0
M101
G1 X4.71 Y20.69 Z0.46 F1080.0
M103
G1 X5.11 Y20.69 Z0.46 F1800.0
M101
G1 X5.11 Y30.05 Z0.46 F1080.0
M103
G1 X5.5 Y30.05 Z0.46 F1800.0
M101
G1 X5.5 Y20.69 Z0.46 F1080.0
M103
G1 X5.89 Y20.69 Z0.46 F1800.0
M101
G1 X5.89 Y30.05 Z0.46 F1080.0
M103
G1 X6.28 Y30.05 Z0.46 F1800.0
M101
G1 X6.28 Y20.69 Z0.46 F1080.0
M103
G1 X6.68 Y20.69 Z0.46 F1800.0
M101
G1 X6.68 Y30.05 Z0.46 F1080.0
M103
G1 X7.07 Y30.05 Z0.46 F1800.0
M101
G1 X7.07 Y20.69 Z0.46 F1080.0
M103
G1 X7.46 Y20.69 Z0.46 F1800.0
M101
G1 X7.46 Y30.05 Z0.46 F1080.0
M103
G1 X7.85 Y30.05 Z0.46 F1800.0
M101
G1 X7.85 Y20.69 Z0.46 F1080.0
M103
G1 X8.25 Y20.69 Z0.46 F1800.0
M101
G1 X8.25 Y30.05 Z0.46 F1080.0
M103
G1 X8.64 Y30.05 Z0.46 F1800.0
M101
G1 X8.64 Y20.69 Z0.46 F1080.0
M103
G1 X9.03 Y20.69 Z0.46 F1800.0
M101
G1 X9.03 Y30.05 Z0.46 F1080.0
M103
G1 X9.43 Y30.05 Z0.46 F1800.0
M101
G1 X9.43 Y20.69 Z0.46 F1080.0
M103
G1 X9.82 Y20.69 Z0.46 F1800.0
M101
G1 X9.82 Y30.05 Z0.46 F1080.0
M103
G1 X10.21 Y30.05 Z0.46 F1800.0
M101
G1 X10.21 Y20.69 Z0.46 F1080.0
M103
G1 X10.6 Y20.69 Z0.46 F1800.0
M101
G1 X10.6 Y30.05 Z0.46 F1080.0
M103
G1 X11.0 Y30.05 Z0.46 F1800.0
M101
G1 X11.0 Y20.69 Z0.46 F1080.0
M103
G1 X11.39 Y20.69 Z0.46 F1800.0
M101
G1 X11.39 Y30.05 Z0.46 F1080.0
M103
G1 X11.78 Y30.05 Z0.46 F1800.0
M101
G1 X11.78 Y20.69 Z0.46 F1080.0
M103
G1 X12.17 Y20.69 Z0.46 F1800.0
M101
G1 X12.17 Y30.05 Z0.46 F1080.0
M103
G1 X12.57 Y30.05 Z0.46 F1800.0
M101
G1 X12.57 Y20.69 Z0.46 F1080.0
M103
G1 X12.96 Y20.69 Z0.46 F1800.0
M101
G1 X12.96 Y30.05 Z0.46 F1080.0
M103
G1 X13.35 Y30.05 Z0.46 F1800.0
M101
G1 X13.35 Y20.69 Z0.46 F1080.0
M103
G1 X13.74 Y20.69 Z0.46 F1800.0
M101
G1 X13.74 Y30.05 Z0.46 F1080.0
M103
G1 X14.14 Y30.05 Z0.46 F1800.0
M101
G1 X14.14 Y20.69 Z0.46 F1080.0
M103
G1 X14.53 Y20.69 Z0.46 F1800.0
M101
G1 X14.53 Y30.05 Z0.46 F1080.0
M103
G1 X14.92 Y30.05 Z0.46 F1800.0
M101
G1 X14.92 Y20.69 Z0.46 F1080.0
M103
G1 X15.32 Y20.69 Z0.46 F1800.0
M101
G1 X15.32 Y30.05 Z0.46 F1080.0
M103
G1 X15.71 Y30.05 Z0.46 F1800.0
M101
G1 X15.71 Y20.69 Z0.46 F1080.0
M103
G1 X16.1 Y20.69 Z0.46 F1800.0
M101
G1 X16.1 Y30.05 Z0.46 F1080.0
M103
G1 X16.49 Y30.05 Z0.46 F1800.0
M101
G1 X16.49 Y20.69 Z0.46 F1080.0
M103
G1 X16.89 Y20.69 Z0.46 F1800.0
M101
G1 X16.89 Y30.05 Z0.46 F1080.0
M103
G1 X17.28 Y30.05 Z0.46 F1800.0
M101
G1 X17.28 Y-22.94 Z0.46 F1080.0
G1 X16.89 Y-22.94 Z0.46 F1080.0
G1 X16.89 Y-14.67 Z0.46 F1080.0
G1 X16.49 Y-14.67 Z0.46 F1080.0
G1 X16.49 Y-22.94 Z0.46 F1080.0
G1 X16.1 Y-22.94 Z0.46 F1080.0
G1 X16.1 Y-14.67 Z0.46 F1080.0
G1 X15.71 Y-14.67 Z0.46 F1080.0
G1 X15.71 Y-22.94 Z0.46 F1080.0
G1 X15.32 Y-22.94 Z0.46 F1080.0
G1 X15.32 Y-14.67 Z0.46 F1080.0
G1 X14.92 Y-14.67 Z0.46 F1080.0
G1 X14.92 Y-22.94 Z0.46 F1080.0
G1 X14.53 Y-22.94 Z0.46 F1080.0
G1 X14.53 Y-14.67 Z0.46 F1080.0
G1 X14.14 Y-14.67 Z0.46 F1080.0
G1 X14.14 Y-22.94 Z0.46 F1080.0
G1 X13.74 Y-22.94 Z0.46 F1080.0
G1 X13.74 Y-14.67 Z0.46 F1080.0
G1 X13.35 Y-14.67 Z0.46 F1080.0
G1 X13.35 Y-22.94 Z0.46 F1080.0
G1 X12.96 Y-22.94 Z0.46 F1080.0
G1 X12.96 Y-14.67 Z0.46 F1080.0
G1 X12.57 Y-14.67 Z0.46 F1080.0
G1 X12.57 Y-22.94 Z0.46 F1080.0
G1 X12.17 Y-22.94 Z0.46 F1080.0
G1 X12.17 Y-14.67 Z0.46 F1080.0
G1 X11.78 Y-14.67 Z0.46 F1080.0
G1 X11.78 Y-22.94 Z0.46 F1080.0
G1 X11.39 Y-22.94 Z0.46 F1080.0
G1 X11.39 Y-14.67 Z0.46 F1080.0
G1 X11.0 Y-14.67 Z0.46 F1080.0
G1 X11.0 Y-22.94 Z0.46 F1080.0
G1 X10.6 Y-22.94 Z0.46 F1080.0
G1 X10.6 Y-14.67 Z0.46 F1080.0
G1 X10.21 Y-14.67 Z0.46 F1080.0
G1 X10.21 Y-22.94 Z0.46 F1080.0
G1 X9.82 Y-22.94 Z0.46 F1080.0
G1 X9.82 Y-14.67 Z0.46 F1080.0
G1 X9.43 Y-14.67 Z0.46 F1080.0
G1 X9.43 Y-22.94 Z0.46 F1080.0
G1 X9.03 Y-22.94 Z0.46 F1080.0
G1 X9.03 Y-14.67 Z0.46 F1080.0
G1 X8.64 Y-14.67 Z0.46 F1080.0
G1 X8.64 Y-22.94 Z0.46 F1080.0
G1 X8.25 Y-22.94 Z0.46 F1080.0
G1 X8.25 Y-14.67 Z0.46 F1080.0
G1 X7.85 Y-14.67 Z0.46 F1080.0
G1 X7.85 Y-22.94 Z0.46 F1080.0
G1 X7.46 Y-22.94 Z0.46 F1080.0
G1 X7.46 Y-14.67 Z0.46 F1080.0
G1 X7.07 Y-14.67 Z0.46 F1080.0
G1 X7.07 Y-22.94 Z0.46 F1080.0
G1 X6.68 Y-22.94 Z0.46 F1080.0
G1 X6.68 Y-14.67 Z0.46 F1080.0
G1 X6.28 Y-14.67 Z0.46 F1080.0
G1 X6.28 Y-22.94 Z0.46 F1080.0
G1 X5.89 Y-22.94 Z0.46 F1080.0
G1 X5.89 Y-14.67 Z0.46 F1080.0
G1 X5.5 Y-14.67 Z0.46 F1080.0
G1 X5.5 Y-22.94 Z0.46 F1080.0
G1 X5.11 Y-22.94 Z0.46 F1080.0
G1 X5.11 Y-14.67 Z0.46 F1080.0
G1 X4.71 Y-14.67 Z0.46 F1080.0
G1 X4.71 Y-22.67 Z0.46 F1080.0
M108 R30.0
M102
G1 X4.71 Y-22.94 Z0.46 F1080.0
M108 R2.141
M103
G1 X1.66 Y-22.94 Z0.46 F1800.0
M108 R30.0
M101
G1 X1.18 Y-22.94 Z0.46 F1800.0
M108 R2.141
G1 X1.18 Y-14.67 Z0.46 F1080.0
G1 X1.57 Y-14.67 Z0.46 F1080.0
G1 X1.57 Y-30.05 Z0.46 F1080.0
M103
G1 X1.96 Y-30.05 Z0.46 F1800.0
M101
G1 X1.96 Y-14.67 Z0.46 F1080.0
G1 X2.36 Y-14.67 Z0.46 F1080.0
G1 X2.36 Y-30.05 Z0.46 F1080.0
M103
G1 X2.75 Y-30.05 Z0.46 F1800.0
M101
G1 X2.75 Y-14.67 Z0.46 F1080.0
G1 X3.14 Y-14.67 Z0.46 F1080.0
G1 X3.14 Y-30.05 Z0.46 F1080.0
M103
G1 X3.53 Y-30.05 Z0.46 F1800.0
M101
G1 X3.53 Y-14.67 Z0.46 F1080.0
G1 X3.93 Y-14.67 Z0.46 F1080.0
G1 X3.93 Y-30.05 Z0.46 F1080.0
M103
G1 X4.32 Y-30.05 Z0.46 F1800.0
M101
G1 X4.32 Y-14.94 Z0.46 F1080.0
M108 R30.0
M102
G1 X4.32 Y-14.67 Z0.46 F1080.0
M108 R2.141
M103
G1 X25.86 Y-22.77 Z0.46 F1800.0
M108 R30.0
M101
G1 X26.31 Y-22.94 Z0.46 F1800.0
M108 R2.141
G1 X26.31 Y30.05 Z0.46 F1080.0
M103
G1 X25.92 Y30.05 Z0.46 F1800.0
M101
G1 X25.92 Y-22.94 Z0.46 F1080.0
G1 X25.53 Y-22.94 Z0.46 F1080.0
G1 X25.53 Y30.05 Z0.46 F1080.0
M103
G1 X25.13 Y30.05 Z0.46 F1800.0
M101
G1 X25.13 Y-22.94 Z0.46 F1080.0
G1 X24.74 Y-22.94 Z0.46 F1080.0
G1 X24.74 Y30.05 Z0.46 F1080.0
M103
G1 X24.35 Y30.05 Z0.46 F1800.0
M101
G1 X24.35 Y-22.94 Z0.46 F1080.0
G1 X23.96 Y-22.94 Z0.46 F1080.0
G1 X23.96 Y30.05 Z0.46 F1080.0
M103
G1 X23.56 Y30.05 Z0.46 F1800.0
M101
G1 X23.56 Y-22.94 Z0.46 F1080.0
G1 X23.17 Y-22.94 Z0.46 F1080.0
G1 X23.17 Y30.05 Z0.46 F1080.0
M103
G1 X22.78 Y30.05 Z0.46 F1800.0
M101
G1 X22.78 Y-22.94 Z0.46 F1080.0
G1 X22.38 Y-22.94 Z0.46 F1080.0
G1 X22.38 Y30.05 Z0.46 F1080.0
M103
G1 X21.99 Y30.05 Z0.46 F1800.0
M101
G1 X21.99 Y-22.94 Z0.46 F1080.0
G1 X21.6 Y-22.94 Z0.46 F1080.0
G1 X21.6 Y30.05 Z0.46 F1080.0
M103
G1 X21.21 Y30.05 Z0.46 F1800.0
M101
G1 X21.21 Y-22.94 Z0.46 F1080.0
G1 X20.81 Y-22.94 Z0.46 F1080.0
G1 X20.81 Y30.05 Z0.46 F1080.0
M103
G1 X20.42 Y30.05 Z0.46 F1800.0
M101
G1 X20.42 Y-22.94 Z0.46 F1080.0
G1 X20.03 Y-22.94 Z0.46 F1080.0
G1 X20.03 Y30.05 Z0.46 F1080.0
M103
G1 X19.64 Y30.05 Z0.46 F1800.0
M101
G1 X19.64 Y-22.94 Z0.46 F1080.0
G1 X19.24 Y-22.94 Z0.46 F1080.0
G1 X19.24 Y30.05 Z0.46 F1080.0
M103
G1 X18.85 Y30.05 Z0.46 F1800.0
M101
G1 X18.85 Y-22.94 Z0.46 F1080.0
G1 X18.46 Y-22.94 Z0.46 F1080.0
G1 X18.46 Y30.05 Z0.46 F1080.0
M103
G1 X18.06 Y30.05 Z0.46 F1800.0
M101
G1 X18.06 Y-22.94 Z0.46 F1080.0
G1 X17.67 Y-22.94 Z0.46 F1080.0
G1 X17.67 Y29.78 Z0.46 F1080.0
M108 R30.0
M102
G1 X17.67 Y30.05 Z0.46 F1080.0
M108 R2.141
M103
G1 X-18.37 Y30.05 Z0.46 F1800.0
M108 R30.0
M101
G1 X-18.85 Y30.05 Z0.46 F1800.0
M108 R2.141
G1 X-18.85 Y-22.94 Z0.46 F1080.0
G1 X-19.24 Y-22.94 Z0.46 F1080.0
G1 X-19.24 Y2.55 Z0.46 F1080.0
G1 X-19.64 Y2.55 Z0.46 F1080.0
G1 X-19.64 Y-22.94 Z0.46 F1080.0
G1 X-20.03 Y-22.94 Z0.46 F1080.0
G1 X-20.03 Y2.55 Z0.46 F1080.0
G1 X-20.42 Y2.55 Z0.46 F1080.0
G1 X-20.42 Y-22.94 Z0.46 F1080.0
G1 X-20.81 Y-22.94 Z0.46 F1080.0
G1 X-20.81 Y2.55 Z0.46 F1080.0
G1 X-21.21 Y2.55 Z0.46 F1080.0
G1 X-21.21 Y-22.94 Z0.46 F1080.0
G1 X-21.6 Y-22.94 Z0.46 F1080.0
G1 X-21.6 Y2.55 Z0.46 F1080.0
G1 X-21.99 Y2.55 Z0.46 F1080.0
G1 X-21.99 Y-22.94 Z0.46 F1080.0
G1 X-22.38 Y-22.94 Z0.46 F1080.0
G1 X-22.38 Y2.55 Z0.46 F1080.0
G1 X-22.78 Y2.55 Z0.46 F1080.0
G1 X-22.78 Y-22.94 Z0.46 F1080.0
G1 X-23.17 Y-22.94 Z0.46 F1080.0
G1 X-23.17 Y2.55 Z0.46 F1080.0
G1 X-23.56 Y2.55 Z0.46 F1080.0
G1 X-23.56 Y-22.94 Z0.46 F1080.0
G1 X-23.96 Y-22.94 Z0.46 F1080.0
G1 X-23.96 Y2.55 Z0.46 F1080.0
G1 X-24.35 Y2.55 Z0.46 F1080.0
G1 X-24.35 Y-22.94 Z0.46 F1080.0
G1 X-24.74 Y-22.94 Z0.46 F1080.0
G1 X-24.74 Y2.55 Z0.46 F1080.0
G1 X-25.13 Y2.55 Z0.46 F1080.0
G1 X-25.13 Y-22.94 Z0.46 F1080.0
G1 X-25.53 Y-22.94 Z0.46 F1080.0
G1 X-25.53 Y2.55 Z0.46 F1080.0
G1 X-25.92 Y2.55 Z0.46 F1080.0
G1 X-25.92 Y-22.94 Z0.46 F1080.0
G1 X-26.31 Y-22.94 Z0.46 F1080.0
G1 X-26.31 Y2.28 Z0.46 F1080.0
M108 R30.0
M102
G1 X-26.31 Y2.55 Z0.46 F1080.0
M108 R2.141
M103
G1 X-26.31 Y3.12 Z0.46 F3000.0
G1 X-19.73 Y3.26 Z0.46 F3000.0
G1 X-19.73 Y8.83 Z0.46 F3000.0
G1 X-26.08 Y8.96 Z0.46 F3000.0
M108 R30.0
M101
G1 X-26.31 Y8.97 Z0.46 F3000.0
G1 X-26.31 Y9.54 Z0.46 F3000.0
M108 R2.141
G1 X-26.31 Y30.05 Z0.46 F1080.0
M103
G1 X-25.92 Y30.05 Z0.46 F1800.0
M101
G1 X-25.92 Y9.54 Z0.46 F1080.0
G1 X-25.53 Y9.54 Z0.46 F1080.0
G1 X-25.53 Y30.05 Z0.46 F1080.0
M103
G1 X-25.13 Y30.05 Z0.46 F1800.0
M101
G1 X-25.13 Y9.54 Z0.46 F1080.0
G1 X-24.74 Y9.54 Z0.46 F1080.0
G1 X-24.74 Y30.05 Z0.46 F1080.0
M103
G1 X-24.35 Y30.05 Z0.46 F1800.0
M101
G1 X-24.35 Y9.54 Z0.46 F1080.0
G1 X-23.96 Y9.54 Z0.46 F1080.0
G1 X-23.96 Y30.05 Z0.46 F1080.0
M103
G1 X-23.56 Y30.05 Z0.46 F1800.0
M101
G1 X-23.56 Y9.54 Z0.46 F1080.0
G1 X-23.17 Y9.54 Z0.46 F1080.0
G1 X-23.17 Y30.05 Z0.46 F1080.0
M103
G1 X-22.78 Y30.05 Z0.46 F1800.0
M101
G1 X-22.78 Y9.54 Z0.46 F1080.0
G1 X-22.38 Y9.54 Z0.46 F1080.0
G1 X-22.38 Y30.05 Z0.46 F1080.0
M103
G1 X-21.99 Y30.05 Z0.46 F1800.0
M101
G1 X-21.99 Y9.54 Z0.46 F1080.0
G1 X-21.6 Y9.54 Z0.46 F1080.0
G1 X-21.6 Y30.05 Z0.46 F1080.0
M103
G1 X-21.21 Y30.05 Z0.46 F1800.0
M101
G1 X-21.21 Y9.54 Z0.46 F1080.0
G1 X-20.81 Y9.54 Z0.46 F1080.0
G1 X-20.81 Y30.05 Z0.46 F1080.0
M103
G1 X-20.42 Y30.05 Z0.46 F1800.0
M101
G1 X-20.42 Y9.54 Z0.46 F1080.0
G1 X-20.03 Y9.54 Z0.46 F1080.0
G1 X-20.03 Y30.05 Z0.46 F1080.0
M103
G1 X-19.64 Y30.05 Z0.46 F1800.0
M101
G1 X-19.64 Y9.54 Z0.46 F1080.0
G1 X-19.24 Y9.54 Z0.46 F1080.0
G1 X-19.24 Y29.78 Z0.46 F1080.0
M108 R30.0
M102
G1 X-19.24 Y30.05 Z0.46 F1080.0
M108 R2.141
M103
(</surroundingLoop>)
(</layer>)
(<layer> 0.78 )
(<surroundingLoop>)
(<boundaryPerimeter>)
(<boundaryPoint> X-27.339 Y3.395 Z0.78 </boundaryPoint>)
(<boundaryPoint> X-27.339 Y-23.781 Z0.78 </boundaryPoint>)
(<boundaryPoint> X0.485 Y-23.781 Z0.78 </boundaryPoint>)
(<boundaryPoint> X0.485 Y-30.896 Z0.78 </boundaryPoint>)
(<boundaryPoint> X5.466 Y-30.896 Z0.78 </boundaryPoint>)
(<boundaryPoint> X5.466 Y-23.781 Z0.78 </boundaryPoint>)
(<boundaryPoint> X27.339 Y-23.781 Z0.78 </boundaryPoint>)
(<boundaryPoint> X27.339 Y30.896 Z0.78 </boundaryPoint>)
(<boundaryPoint> X-27.339 Y30.896 Z0.78 </boundaryPoint>)
(<boundaryPoint> X-27.339 Y8.693 Z0.78 </boundaryPoint>)
(<boundaryPoint> X-19.868 Y8.693 Z0.78 </boundaryPoint>)
(<boundaryPoint> X-19.868 Y3.395 Z0.78 </boundaryPoint>)
(<loop> inner )
M108 R3.569
G1 X-18.07 Y21.02 Z0.75 F3000.0
M108 R30.0
M101
G1 X-17.97 Y20.23 Z0.78 F3000.0
M108 R3.569
G1 X-17.97 Y20.43 Z0.78 F1800.0
G1 X16.88 Y20.43 Z0.78 F1800.0
G1 X16.88 Y-14.41 Z0.78 F1800.0
G1 X-17.97 Y-14.41 Z0.78 F1800.0
G1 X-17.97 Y19.78 Z0.78 F1800.0
M108 R30.0
M102
G1 X-17.97 Y20.23 Z0.78 F1800.0
M108 R3.569
M103
(</loop>)
(<loop> outer )
G1 X-25.95 Y20.23 Z0.78 F3000.0
M108 R30.0
M101
G1 X-26.75 Y20.23 Z0.78 F3000.0
M108 R3.569
G1 X-26.75 Y9.28 Z0.78 F1800.0
G1 X-19.28 Y9.28 Z0.78 F1800.0
G1 X-19.28 Y2.81 Z0.78 F1800.0
G1 X-26.75 Y2.81 Z0.78 F1800.0
G1 X-26.75 Y-23.19 Z0.78 F1800.0
G1 X1.07 Y-23.19 Z0.78 F1800.0
G1 X1.07 Y-30.31 Z0.78 F1800.0
G1 X4.88 Y-30.31 Z0.78 F1800.0
G1 X4.88 Y-23.19 Z0.78 F1800.0
G1 X26.75 Y-23.19 Z0.78 F1800.0
G1 X26.75 Y30.31 Z0.78 F1800.0
G1 X-26.75 Y30.31 Z0.78 F1800.0
G1 X-26.75 Y20.43 Z0.78 F1800.0
G1 X-26.75 Y20.23 Z0.78 F1800.0
M103
(</loop>)
(<perimeter> outer )
G1 X-27.14 Y20.23 Z0.78 F3000.0
M101
G1 X-27.14 Y8.89 Z0.78 F1800.0
G1 X-19.67 Y8.89 Z0.78 F1800.0
G1 X-19.67 Y3.2 Z0.78 F1800.0
G1 X-27.14 Y3.2 Z0.78 F1800.0
G1 X-27.14 Y-23.59 Z0.78 F1800.0
G1 X0.68 Y-23.59 Z0.78 F1800.0
G1 X0.68 Y-30.7 Z0.78 F1800.0
G1 X5.27 Y-30.7 Z0.78 F1800.0
G1 X5.27 Y-23.59 Z0.78 F1800.0
G1 X27.14 Y-23.59 Z0.78 F1800.0
G1 X27.14 Y30.7 Z0.78 F1800.0
G1 X-27.14 Y30.7 Z0.78 F1800.0
G1 X-27.14 Y20.68 Z0.78 F1800.0
M108 R30.0
M102
G1 X-27.14 Y20.43 Z0.78 F1800.0
G1 X-27.14 Y20.23 Z0.78 F1800.0
M108 R3.569
M103
(</perimeter>)
(</boundaryPerimeter>)
(<surroundingLoop>)
(<boundaryPerimeter>)
(<boundaryPoint> X16.287 Y-13.82 Z0.78 </boundaryPoint>)
(<boundaryPoint> X-17.378 Y-13.82 Z0.78 </boundaryPoint>)
(<boundaryPoint> X-17.378 Y19.844 Z0.78 </boundaryPoint>)
(<boundaryPoint> X16.287 Y19.844 Z0.78 </boundaryPoint>)
(<perimeter> inner )
G1 X-18.38 Y20.06 Z0.78 F3000.0
M108 R30.0
M101
G1 X-17.58 Y20.04 Z0.78 F3000.0
M108 R3.569
G1 X16.48 Y20.04 Z0.78 F1800.0
G1 X16.48 Y-14.02 Z0.78 F1800.0
G1 X-17.58 Y-14.02 Z0.78 F1800.0
G1 X-17.58 Y20.04 Z0.78 F1800.0
M103
(</perimeter>)
(</boundaryPerimeter>)
(</surroundingLoop>)
G1 X-18.22 Y19.64 Z0.78 F3000.0
M101
G1 X-26.49 Y19.64 Z0.78 F1800.0
G1 X-26.49 Y20.03 Z0.78 F1800.0
G1 X-18.22 Y20.03 Z0.78 F1800.0
M103
G1 X-18.22 Y20.42 Z0.78 F3000.0
M101
G1 X-26.04 Y20.42 Z0.78 F1800.0
M108 R30.0
M102
G1 X-26.49 Y20.42 Z0.78 F1800.0
M108 R3.569
M103
G1 X-19.01 Y19.0 Z0.78 F3000.0
M108 R30.0
M101
G1 X-18.22 Y18.85 Z0.78 F3000.0
M108 R3.569
G1 X-26.49 Y18.85 Z0.78 F1800.0
G1 X-26.49 Y19.24 Z0.78 F1800.0
G1 X-18.67 Y19.24 Z0.78 F1800.0
M108 R30.0
M102
G1 X-18.22 Y19.24 Z0.78 F1800.0
M108 R3.569
M103
G1 X-18.22 Y18.86 Z0.78 F3000.0
M108 R30.0
M101
G1 X-18.22 Y18.06 Z0.78 F3000.0
M108 R3.569
G1 X-26.49 Y18.06 Z0.78 F1800.0
G1 X-26.49 Y18.46 Z0.78 F1800.0
G1 X-18.67 Y18.46 Z0.78 F1800.0
M108 R30.0
M102
G1 X-18.22 Y18.46 Z0.78 F1800.0
M108 R3.569
M103
G1 X-18.22 Y18.08 Z0.78 F3000.0
M108 R30.0
M101
G1 X-18.22 Y17.28 Z0.78 F3000.0
M108 R3.569
G1 X-26.49 Y17.28 Z0.78 F1800.0
G1 X-26.49 Y17.67 Z0.78 F1800.0
G1 X-18.67 Y17.67 Z0.78 F1800.0
M108 R30.0
M102
G1 X-18.22 Y17.67 Z0.78 F1800.0
M108 R3.569
M103
G1 X-18.22 Y17.29 Z0.78 F3000.0
M108 R30.0
M101
G1 X-18.22 Y16.49 Z0.78 F3000.0
M108 R3.569
G1 X-26.49 Y16.49 Z0.78 F1800.0
G1 X-26.49 Y16.89 Z0.78 F1800.0
G1 X-18.67 Y16.89 Z0.78 F1800.0
M108 R30.0
M102
G1 X-18.22 Y16.89 Z0.78 F1800.0
M108 R3.569
M103
G1 X-18.22 Y16.51 Z0.78 F3000.0
M108 R30.0
M101
G1 X-18.22 Y15.71 Z0.78 F3000.0
M108 R3.569
G1 X-26.49 Y15.71 Z0.78 F1800.0
G1 X-26.49 Y16.1 Z0.78 F1800.0
G1 X-18.67 Y16.1 Z0.78 F1800.0
M108 R30.0
M102
G1 X-18.22 Y16.1 Z0.78 F1800.0
M108 R3.569
M103
G1 X-18.22 Y15.72 Z0.78 F3000.0
M108 R30.0
M101
G1 X-18.22 Y14.92 Z0.78 F3000.0
M108 R3.569
G1 X-26.49 Y14.92 Z0.78 F1800.0
G1 X-26.49 Y15.32 Z0.78 F1800.0
G1 X-18.67 Y15.32 Z0.78 F1800.0
M108 R30.0
M102
G1 X-18.22 Y15.32 Z0.78 F1800.0
M108 R3.569
M103
G1 X-18.22 Y14.94 Z0.78 F3000.0
M108 R30.0
M101
G1 X-18.22 Y14.14 Z0.78 F3000.0
M108 R3.569
G1 X-26.49 Y14.14 Z0.78 F1800.0
G1 X-26.49 Y14.53 Z0.78 F1800.0
G1 X-18.67 Y14.53 Z0.78 F1800.0
M108 R30.0
M102
G1 X-18.22 Y14.53 Z0.78 F1800.0
M108 R3.569
M103
G1 X-18.22 Y14.15 Z0.78 F3000.0
M108 R30.0
M101
G1 X-18.22 Y13.35 Z0.78 F3000.0
M108 R3.569
G1 X-26.49 Y13.35 Z0.78 F1800.0
G1 X-26.49 Y13.74 Z0.78 F1800.0
G1 X-18.67 Y13.74 Z0.78 F1800.0
M108 R30.0
M102
G1 X-18.22 Y13.74 Z0.78 F1800.0
M108 R3.569
M103
G1 X-18.22 Y13.37 Z0.78 F3000.0
M108 R30.0
M101
G1 X-18.22 Y12.57 Z0.78 F3000.0
M108 R3.569
G1 X-26.49 Y12.57 Z0.78 F1800.0
G1 X-26.49 Y12.96 Z0.78 F1800.0
G1 X-18.67 Y12.96 Z0.78 F1800.0
M108 R30.0
M102
G1 X-18.22 Y12.96 Z0.78 F1800.0
M108 R3.569
M103
G1 X-18.22 Y12.58 Z0.78 F3000.0
M108 R30.0
M101
G1 X-18.22 Y11.78 Z0.78 F3000.0
M108 R3.569
G1 X-26.49 Y11.78 Z0.78 F1800.0
G1 X-26.49 Y12.17 Z0.78 F1800.0
G1 X-18.67 Y12.17 Z0.78 F1800.0
M108 R30.0
M102
G1 X-18.22 Y12.17 Z0.78 F1800.0
M108 R3.569
M103
G1 X-18.22 Y11.8 Z0.78 F3000.0
M108 R30.0
M101
G1 X-18.22 Y11.0 Z0.78 F3000.0
M108 R3.569
G1 X-26.49 Y11.0 Z0.78 F1800.0
G1 X-26.49 Y11.39 Z0.78 F1800.0
G1 X-18.67 Y11.39 Z0.78 F1800.0
M108 R30.0
M102
G1 X-18.22 Y11.39 Z0.78 F1800.0
M108 R3.569
M103
G1 X-18.22 Y11.01 Z0.78 F3000.0
M108 R30.0
M101
G1 X-18.22 Y10.21 Z0.78 F3000.0
M108 R3.569
G1 X-26.49 Y10.21 Z0.78 F1800.0
G1 X-26.49 Y10.6 Z0.78 F1800.0
G1 X-18.67 Y10.6 Z0.78 F1800.0
M108 R30.0
M102
G1 X-18.22 Y10.6 Z0.78 F1800.0
M108 R3.569
M103
G1 X-25.7 Y9.89 Z0.78 F3000.0
M108 R30.0
M101
G1 X-26.49 Y9.82 Z0.78 F3000.0
M108 R3.569
G1 X-18.22 Y9.82 Z0.78 F1800.0
G1 X-19.02 Y9.43 Z0.78 F1800.0
G1 X-18.22 Y9.43 Z0.78 F1800.0
G1 X-19.02 Y9.03 Z0.78 F1800.0
G1 X-18.22 Y9.03 Z0.78 F1800.0
G1 X-19.02 Y8.64 Z0.78 F1800.0
G1 X-18.22 Y8.64 Z0.78 F1800.0
G1 X-19.02 Y8.25 Z0.78 F1800.0
G1 X-18.22 Y8.25 Z0.78 F1800.0
G1 X-19.02 Y7.85 Z0.78 F1800.0
G1 X-18.22 Y7.85 Z0.78 F1800.0
G1 X-19.02 Y7.46 Z0.78 F1800.0
G1 X-18.22 Y7.46 Z0.78 F1800.0
G1 X-19.02 Y7.07 Z0.78 F1800.0
G1 X-18.22 Y7.07 Z0.78 F1800.0
G1 X-19.02 Y6.68 Z0.78 F1800.0
G1 X-18.22 Y6.68 Z0.78 F1800.0
G1 X-19.02 Y6.28 Z0.78 F1800.0
G1 X-18.22 Y6.28 Z0.78 F1800.0
G1 X-19.02 Y5.89 Z0.78 F1800.0
G1 X-18.22 Y5.89 Z0.78 F1800.0
G1 X-19.02 Y5.5 Z0.78 F1800.0
G1 X-18.22 Y5.5 Z0.78 F1800.0
G1 X-19.02 Y5.11 Z0.78 F1800.0
G1 X-18.22 Y5.11 Z0.78 F1800.0
G1 X-19.02 Y4.71 Z0.78 F1800.0
G1 X-18.22 Y4.71 Z0.78 F1800.0
G1 X-19.02 Y4.32 Z0.78 F1800.0
G1 X-18.22 Y4.32 Z0.78 F1800.0
G1 X-19.02 Y3.93 Z0.78 F1800.0
G1 X-18.22 Y3.93 Z0.78 F1800.0
G1 X-19.02 Y3.53 Z0.78 F1800.0
G1 X-18.22 Y3.53 Z0.78 F1800.0
G1 X-19.02 Y3.14 Z0.78 F1800.0
G1 X-18.22 Y3.14 Z0.78 F1800.0
G1 X-19.02 Y2.75 Z0.78 F1800.0
G1 X-18.22 Y2.75 Z0.78 F1800.0
M103
G1 X-18.22 Y2.36 Z0.78 F3000.0
M101
G1 X-26.04 Y2.36 Z0.78 F1800.0
M108 R30.0
M102
G1 X-26.49 Y2.36 Z0.78 F1800.0
M108 R3.569
M103
G1 X-19.02 Y1.65 Z0.78 F3000.0
M108 R30.0
M101
G1 X-18.22 Y1.57 Z0.78 F3000.0
M108 R3.569
G1 X-26.49 Y1.57 Z0.78 F1800.0
G1 X-26.49 Y1.96 Z0.78 F1800.0
G1 X-18.67 Y1.96 Z0.78 F1800.0
M108 R30.0
M102
G1 X-18.22 Y1.96 Z0.78 F1800.0
M108 R3.569
M103
G1 X-18.22 Y1.59 Z0.78 F3000.0
M108 R30.0
M101
G1 X-18.22 Y0.79 Z0.78 F3000.0
M108 R3.569
G1 X-26.49 Y0.79 Z0.78 F1800.0
G1 X-26.49 Y1.18 Z0.78 F1800.0
G1 X-18.67 Y1.18 Z0.78 F1800.0
M108 R30.0
M102
G1 X-18.22 Y1.18 Z0.78 F1800.0
M108 R3.569
M103
G1 X-18.22 Y0.8 Z0.78 F3000.0
M108 R30.0
M101
G1 X-18.22 Y0.0 Z0.78 F3000.0
M108 R3.569
G1 X-26.49 Y0.0 Z0.78 F1800.0
G1 X-26.49 Y0.39 Z0.78 F1800.0
G1 X-18.67 Y0.39 Z0.78 F1800.0
M108 R30.0
M102
G1 X-18.22 Y0.39 Z0.78 F1800.0
M108 R3.569
M103
G1 X-18.22 Y0.02 Z0.78 F3000.0
M108 R30.0
M101
G1 X-18.22 Y-0.79 Z0.78 F3000.0
M108 R3.569
G1 X-26.49 Y-0.79 Z0.78 F1800.0
G1 X-26.49 Y-0.39 Z0.78 F1800.0
G1 X-18.67 Y-0.39 Z0.78 F1800.0
M108 R30.0
M102
G1 X-18.22 Y-0.39 Z0.78 F1800.0
M108 R3.569
M103
G1 X-18.22 Y-0.77 Z0.78 F3000.0
M108 R30.0
M101
G1 X-18.22 Y-1.57 Z0.78 F3000.0
M108 R3.569
G1 X-26.49 Y-1.57 Z0.78 F1800.0
G1 X-26.49 Y-1.18 Z0.78 F1800.0
G1 X-18.67 Y-1.18 Z0.78 F1800.0
M108 R30.0
M102
G1 X-18.22 Y-1.18 Z0.78 F1800.0
M108 R3.569
M103
G1 X-18.22 Y-1.56 Z0.78 F3000.0
M108 R30.0
M101
G1 X-18.22 Y-2.36 Z0.78 F3000.0
M108 R3.569
G1 X-26.49 Y-2.36 Z0.78 F1800.0
G1 X-26.49 Y-1.96 Z0.78 F1800.0
G1 X-18.67 Y-1.96 Z0.78 F1800.0
M108 R30.0
M102
G1 X-18.22 Y-1.96 Z0.78 F1800.0
M108 R3.569
M103
G1 X-18.22 Y-2.34 Z0.78 F3000.0
M108 R30.0
M101
G1 X-18.22 Y-3.14 Z0.78 F3000.0
M108 R3.569
G1 X-26.49 Y-3.14 Z0.78 F1800.0
G1 X-26.49 Y-2.75 Z0.78 F1800.0
G1 X-18.67 Y-2.75 Z0.78 F1800.0
M108 R30.0
M102
G1 X-18.22 Y-2.75 Z0.78 F1800.0
M108 R3.569
M103
G1 X-18.22 Y-3.13 Z0.78 F3000.0
M108 R30.0
M101
G1 X-18.22 Y-3.93 Z0.78 F3000.0
M108 R3.569
G1 X-26.49 Y-3.93 Z0.78 F1800.0
G1 X-26.49 Y-3.53 Z0.78 F1800.0
G1 X-18.67 Y-3.53 Z0.78 F1800.0
M108 R30.0
M102
G1 X-18.22 Y-3.53 Z0.78 F1800.0
M108 R3.569
M103
G1 X-18.22 Y-3.91 Z0.78 F3000.0
M108 R30.0
M101
G1 X-18.22 Y-4.71 Z0.78 F3000.0
M108 R3.569
G1 X-26.49 Y-4.71 Z0.78 F1800.0
G1 X-26.49 Y-4.32 Z0.78 F1800.0
G1 X-18.67 Y-4.32 Z0.78 F1800.0
M108 R30.0
M102
G1 X-18.22 Y-4.32 Z0.78 F1800.0
M108 R3.569
M103
G1 X-18.22 Y-4.7 Z0.78 F3000.0
M108 R30.0
M101
G1 X-18.22 Y-5.5 Z0.78 F3000.0
M108 R3.569
G1 X-26.49 Y-5.5 Z0.78 F1800.0
G1 X-26.49 Y-5.11 Z0.78 F1800.0
G1 X-18.67 Y-5.11 Z0.78 F1800.0
M108 R30.0
M102
G1 X-18.22 Y-5.11 Z0.78 F1800.0
M108 R3.569
M103
G1 X-18.22 Y-5.48 Z0.78 F3000.0
M108 R30.0
M101
G1 X-18.22 Y-6.28 Z0.78 F3000.0
M108 R3.569
G1 X-26.49 Y-6.28 Z0.78 F1800.0
G1 X-26.49 Y-5.89 Z0.78 F1800.0
G1 X-18.67 Y-5.89 Z0.78 F1800.0
M108 R30.0
M102
G1 X-18.22 Y-5.89 Z0.78 F1800.0
M108 R3.569
M103
G1 X-18.22 Y-6.27 Z0.78 F3000.0
M108 R30.0
M101
G1 X-18.22 Y-7.07 Z0.78 F3000.0
M108 R3.569
G1 X-26.49 Y-7.07 Z0.78 F1800.0
G1 X-26.49 Y-6.68 Z0.78 F1800.0
G1 X-18.67 Y-6.68 Z0.78 F1800.0
M108 R30.0
M102
G1 X-18.22 Y-6.68 Z0.78 F1800.0
M108 R3.569
M103
G1 X-18.22 Y-7.05 Z0.78 F3000.0
M108 R30.0
M101
G1 X-18.22 Y-7.85 Z0.78 F3000.0
M108 R3.569
G1 X-26.49 Y-7.85 Z0.78 F1800.0
G1 X-26.49 Y-7.46 Z0.78 F1800.0
G1 X-18.67 Y-7.46 Z0.78 F1800.0
M108 R30.0
M102
G1 X-18.22 Y-7.46 Z0.78 F1800.0
M108 R3.569
M103
G1 X-18.22 Y-7.84 Z0.78 F3000.0
M108 R30.0
M101
G1 X-18.22 Y-8.64 Z0.78 F3000.0
M108 R3.569
G1 X-26.49 Y-8.64 Z0.78 F1800.0
G1 X-26.49 Y-8.25 Z0.78 F1800.0
G1 X-18.67 Y-8.25 Z0.78 F1800.0
M108 R30.0
M102
G1 X-18.22 Y-8.25 Z0.78 F1800.0
M108 R3.569
M103
G1 X-18.22 Y-8.63 Z0.78 F3000.0
M108 R30.0
M101
G1 X-18.22 Y-9.43 Z0.78 F3000.0
M108 R3.569
G1 X-26.49 Y-9.43 Z0.78 F1800.0
G1 X-26.49 Y-9.03 Z0.78 F1800.0
G1 X-18.67 Y-9.03 Z0.78 F1800.0
M108 R30.0
M102
G1 X-18.22 Y-9.03 Z0.78 F1800.0
M108 R3.569
M103
G1 X-18.22 Y-9.41 Z0.78 F3000.0
M108 R30.0
M101
G1 X-18.22 Y-10.21 Z0.78 F3000.0
M108 R3.569
G1 X-26.49 Y-10.21 Z0.78 F1800.0
G1 X-26.49 Y-9.82 Z0.78 F1800.0
G1 X-18.67 Y-9.82 Z0.78 F1800.0
M108 R30.0
M102
G1 X-18.22 Y-9.82 Z0.78 F1800.0
M108 R3.569
M103
G1 X-18.22 Y-10.2 Z0.78 F3000.0
M108 R30.0
M101
G1 X-18.22 Y-11.0 Z0.78 F3000.0
M108 R3.569
G1 X-26.49 Y-11.0 Z0.78 F1800.0
G1 X-26.49 Y-10.6 Z0.78 F1800.0
G1 X-18.67 Y-10.6 Z0.78 F1800.0
M108 R30.0
M102
G1 X-18.22 Y-10.6 Z0.78 F1800.0
M108 R3.569
M103
G1 X-18.22 Y-10.98 Z0.78 F3000.0
M108 R30.0
M101
G1 X-18.22 Y-11.78 Z0.78 F3000.0
M108 R3.569
G1 X-26.49 Y-11.78 Z0.78 F1800.0
G1 X-26.49 Y-11.39 Z0.78 F1800.0
G1 X-18.67 Y-11.39 Z0.78 F1800.0
M108 R30.0
M102
G1 X-18.22 Y-11.39 Z0.78 F1800.0
M108 R3.569
M103
G1 X-18.22 Y-11.77 Z0.78 F3000.0
M108 R30.0
M101
G1 X-18.22 Y-12.57 Z0.78 F3000.0
M108 R3.569
G1 X-26.49 Y-12.57 Z0.78 F1800.0
G1 X-26.49 Y-12.17 Z0.78 F1800.0
G1 X-18.67 Y-12.17 Z0.78 F1800.0
M108 R30.0
M102
G1 X-18.22 Y-12.17 Z0.78 F1800.0
M108 R3.569
M103
G1 X-18.22 Y-12.55 Z0.78 F3000.0
M108 R30.0
M101
G1 X-18.22 Y-13.35 Z0.78 F3000.0
M108 R3.569
G1 X-26.49 Y-13.35 Z0.78 F1800.0
G1 X-26.49 Y-12.96 Z0.78 F1800.0
G1 X-18.67 Y-12.96 Z0.78 F1800.0
M108 R30.0
M102
G1 X-18.22 Y-12.96 Z0.78 F1800.0
M108 R3.569
M103
G1 X-18.22 Y-13.34 Z0.78 F3000.0
M108 R30.0
M101
G1 X-18.22 Y-14.14 Z0.78 F3000.0
M108 R3.569
G1 X-26.49 Y-14.14 Z0.78 F1800.0
G1 X-26.49 Y-13.74 Z0.78 F1800.0
G1 X-18.67 Y-13.74 Z0.78 F1800.0
M108 R30.0
M102
G1 X-18.22 Y-13.74 Z0.78 F1800.0
M108 R3.569
M103
G1 X-17.65 Y-12.92 Z0.78 F3000.0
G1 X-17.52 Y19.98 Z0.78 F3000.0
G1 X16.23 Y20.12 Z0.78 F3000.0
G1 X25.91 Y29.3 Z0.78 F3000.0
M108 R30.0
M101
G1 X26.49 Y29.85 Z0.78 F3000.0
M108 R3.569
G1 X-26.49 Y29.85 Z0.78 F1800.0
G1 X-26.49 Y29.45 Z0.78 F1800.0
G1 X26.49 Y29.45 Z0.78 F1800.0
G1 X26.49 Y29.06 Z0.78 F1800.0
G1 X-26.49 Y29.06 Z0.78 F1800.0
G1 X-26.49 Y28.67 Z0.78 F1800.0
G1 X26.49 Y28.67 Z0.78 F1800.0
G1 X26.49 Y28.27 Z0.78 F1800.0
G1 X-26.49 Y28.27 Z0.78 F1800.0
G1 X-26.49 Y27.88 Z0.78 F1800.0
G1 X26.49 Y27.88 Z0.78 F1800.0
G1 X26.49 Y27.49 Z0.78 F1800.0
G1 X-26.49 Y27.49 Z0.78 F1800.0
G1 X-26.49 Y27.1 Z0.78 F1800.0
G1 X26.49 Y27.1 Z0.78 F1800.0
G1 X26.49 Y26.7 Z0.78 F1800.0
G1 X-26.49 Y26.7 Z0.78 F1800.0
G1 X-26.49 Y26.31 Z0.78 F1800.0
G1 X26.49 Y26.31 Z0.78 F1800.0
G1 X26.49 Y25.92 Z0.78 F1800.0
G1 X-26.49 Y25.92 Z0.78 F1800.0
G1 X-26.49 Y25.53 Z0.78 F1800.0
G1 X26.49 Y25.53 Z0.78 F1800.0
G1 X26.49 Y25.13 Z0.78 F1800.0
G1 X-26.49 Y25.13 Z0.78 F1800.0
G1 X-26.49 Y24.74 Z0.78 F1800.0
G1 X26.49 Y24.74 Z0.78 F1800.0
G1 X26.49 Y24.35 Z0.78 F1800.0
G1 X-26.49 Y24.35 Z0.78 F1800.0
G1 X-26.49 Y23.96 Z0.78 F1800.0
G1 X26.49 Y23.96 Z0.78 F1800.0
G1 X26.49 Y23.56 Z0.78 F1800.0
G1 X-26.49 Y23.56 Z0.78 F1800.0
G1 X-26.49 Y23.17 Z0.78 F1800.0
G1 X26.49 Y23.17 Z0.78 F1800.0
G1 X26.49 Y22.78 Z0.78 F1800.0
G1 X-26.49 Y22.78 Z0.78 F1800.0
G1 X-26.49 Y22.38 Z0.78 F1800.0
G1 X26.49 Y22.38 Z0.78 F1800.0
G1 X26.49 Y21.99 Z0.78 F1800.0
G1 X-26.49 Y21.99 Z0.78 F1800.0
G1 X-26.49 Y21.6 Z0.78 F1800.0
G1 X26.49 Y21.6 Z0.78 F1800.0
G1 X26.49 Y21.21 Z0.78 F1800.0
G1 X-26.49 Y21.21 Z0.78 F1800.0
G1 X-26.49 Y20.81 Z0.78 F1800.0
G1 X26.49 Y20.81 Z0.78 F1800.0
G1 X26.49 Y20.42 Z0.78 F1800.0
G1 X17.13 Y20.42 Z0.78 F1800.0
G1 X17.13 Y20.03 Z0.78 F1800.0
G1 X26.49 Y20.03 Z0.78 F1800.0
G1 X26.49 Y19.64 Z0.78 F1800.0
G1 X17.13 Y19.64 Z0.78 F1800.0
G1 X17.13 Y19.24 Z0.78 F1800.0
G1 X26.49 Y19.24 Z0.78 F1800.0
G1 X26.49 Y18.85 Z0.78 F1800.0
G1 X17.13 Y18.85 Z0.78 F1800.0
G1 X17.13 Y18.46 Z0.78 F1800.0
G1 X26.49 Y18.46 Z0.78 F1800.0
G1 X26.49 Y18.06 Z0.78 F1800.0
G1 X17.13 Y18.06 Z0.78 F1800.0
G1 X17.13 Y17.67 Z0.78 F1800.0
G1 X26.49 Y17.67 Z0.78 F1800.0
G1 X26.49 Y17.28 Z0.78 F1800.0
G1 X17.13 Y17.28 Z0.78 F1800.0
G1 X17.13 Y16.89 Z0.78 F1800.0
G1 X26.49 Y16.89 Z0.78 F1800.0
G1 X26.49 Y16.49 Z0.78 F1800.0
G1 X17.13 Y16.49 Z0.78 F1800.0
G1 X17.13 Y16.1 Z0.78 F1800.0
G1 X26.49 Y16.1 Z0.78 F1800.0
G1 X26.49 Y15.71 Z0.78 F1800.0
G1 X17.13 Y15.71 Z0.78 F1800.0
G1 X17.13 Y15.32 Z0.78 F1800.0
G1 X26.49 Y15.32 Z0.78 F1800.0
G1 X26.49 Y14.92 Z0.78 F1800.0
G1 X17.13 Y14.92 Z0.78 F1800.0
G1 X17.13 Y14.53 Z0.78 F1800.0
G1 X26.49 Y14.53 Z0.78 F1800.0
G1 X26.49 Y14.14 Z0.78 F1800.0
G1 X17.13 Y14.14 Z0.78 F1800.0
G1 X17.13 Y13.74 Z0.78 F1800.0
G1 X26.49 Y13.74 Z0.78 F1800.0
G1 X26.49 Y13.35 Z0.78 F1800.0
G1 X17.13 Y13.35 Z0.78 F1800.0
G1 X17.13 Y12.96 Z0.78 F1800.0
G1 X26.49 Y12.96 Z0.78 F1800.0
G1 X26.49 Y12.57 Z0.78 F1800.0
G1 X17.13 Y12.57 Z0.78 F1800.0
G1 X17.13 Y12.17 Z0.78 F1800.0
G1 X26.49 Y12.17 Z0.78 F1800.0
G1 X26.49 Y11.78 Z0.78 F1800.0
G1 X17.13 Y11.78 Z0.78 F1800.0
G1 X17.13 Y11.39 Z0.78 F1800.0
G1 X26.49 Y11.39 Z0.78 F1800.0
G1 X26.49 Y11.0 Z0.78 F1800.0
G1 X17.13 Y11.0 Z0.78 F1800.0
G1 X17.13 Y10.6 Z0.78 F1800.0
G1 X26.49 Y10.6 Z0.78 F1800.0
G1 X26.49 Y10.21 Z0.78 F1800.0
G1 X17.13 Y10.21 Z0.78 F1800.0
G1 X17.13 Y9.82 Z0.78 F1800.0
G1 X26.49 Y9.82 Z0.78 F1800.0
G1 X26.49 Y9.43 Z0.78 F1800.0
G1 X17.13 Y9.43 Z0.78 F1800.0
G1 X17.13 Y9.03 Z0.78 F1800.0
G1 X26.49 Y9.03 Z0.78 F1800.0
G1 X26.49 Y8.64 Z0.78 F1800.0
G1 X17.13 Y8.64 Z0.78 F1800.0
G1 X17.13 Y8.25 Z0.78 F1800.0
G1 X26.49 Y8.25 Z0.78 F1800.0
G1 X26.49 Y7.85 Z0.78 F1800.0
G1 X17.13 Y7.85 Z0.78 F1800.0
G1 X17.13 Y7.46 Z0.78 F1800.0
G1 X26.49 Y7.46 Z0.78 F1800.0
G1 X26.49 Y7.07 Z0.78 F1800.0
G1 X17.13 Y7.07 Z0.78 F1800.0
G1 X17.13 Y6.68 Z0.78 F1800.0
G1 X26.49 Y6.68 Z0.78 F1800.0
G1 X26.49 Y6.28 Z0.78 F1800.0
G1 X17.13 Y6.28 Z0.78 F1800.0
G1 X17.13 Y5.89 Z0.78 F1800.0
G1 X26.49 Y5.89 Z0.78 F1800.0
G1 X26.49 Y5.5 Z0.78 F1800.0
G1 X17.13 Y5.5 Z0.78 F1800.0
G1 X17.13 Y5.11 Z0.78 F1800.0
G1 X26.49 Y5.11 Z0.78 F1800.0
G1 X26.49 Y4.71 Z0.78 F1800.0
G1 X17.13 Y4.71 Z0.78 F1800.0
G1 X17.13 Y4.32 Z0.78 F1800.0
G1 X26.49 Y4.32 Z0.78 F1800.0
G1 X26.49 Y3.93 Z0.78 F1800.0
G1 X17.13 Y3.93 Z0.78 F1800.0
G1 X17.13 Y3.53 Z0.78 F1800.0
G1 X26.49 Y3.53 Z0.78 F1800.0
G1 X26.49 Y3.14 Z0.78 F1800.0
G1 X17.13 Y3.14 Z0.78 F1800.0
G1 X17.13 Y2.75 Z0.78 F1800.0
G1 X26.49 Y2.75 Z0.78 F1800.0
G1 X26.49 Y2.36 Z0.78 F1800.0
G1 X17.13 Y2.36 Z0.78 F1800.0
G1 X17.13 Y1.96 Z0.78 F1800.0
G1 X26.49 Y1.96 Z0.78 F1800.0
G1 X26.49 Y1.57 Z0.78 F1800.0
G1 X17.13 Y1.57 Z0.78 F1800.0
G1 X17.13 Y1.18 Z0.78 F1800.0
G1 X26.49 Y1.18 Z0.78 F1800.0
G1 X26.49 Y0.79 Z0.78 F1800.0
G1 X17.13 Y0.79 Z0.78 F1800.0
G1 X17.13 Y0.39 Z0.78 F1800.0
G1 X26.49 Y0.39 Z0.78 F1800.0
G1 X26.49 Y-0.0 Z0.78 F1800.0
G1 X17.13 Y-0.0 Z0.78 F1800.0
G1 X17.13 Y-0.39 Z0.78 F1800.0
G1 X26.49 Y-0.39 Z0.78 F1800.0
G1 X26.49 Y-0.79 Z0.78 F1800.0
G1 X17.13 Y-0.79 Z0.78 F1800.0
G1 X17.13 Y-1.18 Z0.78 F1800.0
G1 X26.49 Y-1.18 Z0.78 F1800.0
G1 X26.49 Y-1.57 Z0.78 F1800.0
G1 X17.13 Y-1.57 Z0.78 F1800.0
G1 X17.13 Y-1.96 Z0.78 F1800.0
G1 X26.49 Y-1.96 Z0.78 F1800.0
G1 X26.49 Y-2.36 Z0.78 F1800.0
G1 X17.13 Y-2.36 Z0.78 F1800.0
G1 X17.13 Y-2.75 Z0.78 F1800.0
G1 X26.49 Y-2.75 Z0.78 F1800.0
G1 X26.49 Y-3.14 Z0.78 F1800.0
G1 X17.13 Y-3.14 Z0.78 F1800.0
G1 X17.13 Y-3.53 Z0.78 F1800.0
G1 X26.49 Y-3.53 Z0.78 F1800.0
G1 X26.49 Y-3.93 Z0.78 F1800.0
G1 X17.13 Y-3.93 Z0.78 F1800.0
G1 X17.13 Y-4.32 Z0.78 F1800.0
G1 X26.49 Y-4.32 Z0.78 F1800.0
G1 X26.49 Y-4.71 Z0.78 F1800.0
G1 X17.13 Y-4.71 Z0.78 F1800.0
G1 X17.13 Y-5.11 Z0.78 F1800.0
G1 X26.49 Y-5.11 Z0.78 F1800.0
G1 X26.49 Y-5.5 Z0.78 F1800.0
G1 X17.13 Y-5.5 Z0.78 F1800.0
G1 X17.13 Y-5.89 Z0.78 F1800.0
G1 X26.49 Y-5.89 Z0.78 F1800.0
G1 X26.49 Y-6.28 Z0.78 F1800.0
G1 X17.13 Y-6.28 Z0.78 F1800.0
G1 X17.13 Y-6.68 Z0.78 F1800.0
G1 X26.49 Y-6.68 Z0.78 F1800.0
G1 X26.49 Y-7.07 Z0.78 F1800.0
G1 X17.13 Y-7.07 Z0.78 F1800.0
G1 X17.13 Y-7.46 Z0.78 F1800.0
G1 X26.49 Y-7.46 Z0.78 F1800.0
G1 X26.49 Y-7.85 Z0.78 F1800.0
G1 X17.13 Y-7.85 Z0.78 F1800.0
G1 X17.13 Y-8.25 Z0.78 F1800.0
G1 X26.49 Y-8.25 Z0.78 F1800.0
G1 X26.49 Y-8.64 Z0.78 F1800.0
G1 X17.13 Y-8.64 Z0.78 F1800.0
G1 X17.13 Y-9.03 Z0.78 F1800.0
G1 X26.49 Y-9.03 Z0.78 F1800.0
G1 X26.49 Y-9.43 Z0.78 F1800.0
G1 X17.13 Y-9.43 Z0.78 F1800.0
G1 X17.13 Y-9.82 Z0.78 F1800.0
G1 X26.49 Y-9.82 Z0.78 F1800.0
G1 X26.49 Y-10.21 Z0.78 F1800.0
G1 X17.13 Y-10.21 Z0.78 F1800.0
G1 X17.13 Y-10.6 Z0.78 F1800.0
G1 X26.49 Y-10.6 Z0.78 F1800.0
G1 X26.49 Y-11.0 Z0.78 F1800.0
G1 X17.13 Y-11.0 Z0.78 F1800.0
G1 X17.13 Y-11.39 Z0.78 F1800.0
G1 X26.49 Y-11.39 Z0.78 F1800.0
G1 X26.49 Y-11.78 Z0.78 F1800.0
G1 X17.13 Y-11.78 Z0.78 F1800.0
G1 X17.13 Y-12.17 Z0.78 F1800.0
G1 X26.49 Y-12.17 Z0.78 F1800.0
G1 X26.49 Y-12.57 Z0.78 F1800.0
G1 X17.13 Y-12.57 Z0.78 F1800.0
G1 X17.13 Y-12.96 Z0.78 F1800.0
G1 X26.49 Y-12.96 Z0.78 F1800.0
G1 X26.49 Y-13.35 Z0.78 F1800.0
G1 X17.13 Y-13.35 Z0.78 F1800.0
G1 X17.13 Y-13.74 Z0.78 F1800.0
G1 X26.49 Y-13.74 Z0.78 F1800.0
G1 X26.49 Y-14.14 Z0.78 F1800.0
G1 X17.13 Y-14.14 Z0.78 F1800.0
G1 X17.13 Y-14.53 Z0.78 F1800.0
G1 X26.49 Y-14.53 Z0.78 F1800.0
G1 X26.49 Y-14.92 Z0.78 F1800.0
G1 X-26.49 Y-14.92 Z0.78 F1800.0
G1 X-26.49 Y-14.53 Z0.78 F1800.0
G1 X-18.67 Y-14.53 Z0.78 F1800.0
M108 R30.0
M102
G1 X-18.22 Y-14.53 Z0.78 F1800.0
M108 R3.569
M103
G1 X-25.7 Y-15.24 Z0.78 F3000.0
M108 R30.0
M101
G1 X-26.49 Y-15.32 Z0.78 F3000.0
M108 R3.569
G1 X26.49 Y-15.32 Z0.78 F1800.0
G1 X26.49 Y-15.71 Z0.78 F1800.0
G1 X-26.49 Y-15.71 Z0.78 F1800.0
G1 X-26.49 Y-16.1 Z0.78 F1800.0
G1 X26.49 Y-16.1 Z0.78 F1800.0
G1 X26.49 Y-16.49 Z0.78 F1800.0
G1 X-26.49 Y-16.49 Z0.78 F1800.0
G1 X-26.49 Y-16.89 Z0.78 F1800.0
G1 X26.49 Y-16.89 Z0.78 F1800.0
G1 X26.49 Y-17.28 Z0.78 F1800.0
G1 X-26.49 Y-17.28 Z0.78 F1800.0
G1 X-26.49 Y-17.67 Z0.78 F1800.0
G1 X26.49 Y-17.67 Z0.78 F1800.0
G1 X26.49 Y-18.06 Z0.78 F1800.0
G1 X-26.49 Y-18.06 Z0.78 F1800.0
G1 X-26.49 Y-18.46 Z0.78 F1800.0
G1 X26.49 Y-18.46 Z0.78 F1800.0
G1 X26.49 Y-18.85 Z0.78 F1800.0
G1 X-26.49 Y-18.85 Z0.78 F1800.0
G1 X-26.49 Y-19.24 Z0.78 F1800.0
G1 X26.49 Y-19.24 Z0.78 F1800.0
G1 X26.49 Y-19.64 Z0.78 F1800.0
G1 X-26.49 Y-19.64 Z0.78 F1800.0
G1 X-26.49 Y-20.03 Z0.78 F1800.0
G1 X26.49 Y-20.03 Z0.78 F1800.0
G1 X26.49 Y-20.42 Z0.78 F1800.0
G1 X-26.49 Y-20.42 Z0.78 F1800.0
G1 X-26.49 Y-20.81 Z0.78 F1800.0
G1 X26.49 Y-20.81 Z0.78 F1800.0
G1 X26.49 Y-21.21 Z0.78 F1800.0
G1 X-26.49 Y-21.21 Z0.78 F1800.0
G1 X-26.49 Y-21.6 Z0.78 F1800.0
G1 X26.49 Y-21.6 Z0.78 F1800.0
G1 X26.49 Y-21.99 Z0.78 F1800.0
G1 X-26.49 Y-21.99 Z0.78 F1800.0
G1 X-26.49 Y-22.38 Z0.78 F1800.0
G1 X26.49 Y-22.38 Z0.78 F1800.0
G1 X26.49 Y-22.78 Z0.78 F1800.0
G1 X-26.04 Y-22.78 Z0.78 F1800.0
M108 R30.0
M102
G1 X-26.49 Y-22.78 Z0.78 F1800.0
M108 R3.569
M103
G1 X0.53 Y-23.16 Z0.78 F3000.0
M108 R30.0
M101
G1 X1.33 Y-23.17 Z0.78 F3000.0
M108 R3.569
G1 X4.62 Y-23.17 Z0.78 F1800.0
M103
G1 X4.62 Y-23.56 Z0.78 F3000.0
M101
G1 X1.33 Y-23.56 Z0.78 F1800.0
G1 X1.33 Y-23.96 Z0.78 F1800.0
G1 X4.62 Y-23.96 Z0.78 F1800.0
M103
G1 X4.62 Y-24.35 Z0.78 F3000.0
M101
G1 X1.33 Y-24.35 Z0.78 F1800.0
G1 X1.33 Y-24.74 Z0.78 F1800.0
G1 X4.62 Y-24.74 Z0.78 F1800.0
M103
G1 X4.62 Y-25.13 Z0.78 F3000.0
M101
G1 X1.33 Y-25.13 Z0.78 F1800.0
G1 X1.33 Y-25.53 Z0.78 F1800.0
G1 X4.62 Y-25.53 Z0.78 F1800.0
M103
G1 X4.62 Y-25.92 Z0.78 F3000.0
M101
G1 X1.33 Y-25.92 Z0.78 F1800.0
G1 X1.33 Y-26.31 Z0.78 F1800.0
G1 X4.62 Y-26.31 Z0.78 F1800.0
M103
G1 X4.62 Y-26.7 Z0.78 F3000.0
M101
G1 X1.33 Y-26.7 Z0.78 F1800.0
G1 X1.33 Y-27.1 Z0.78 F1800.0
G1 X4.62 Y-27.1 Z0.78 F1800.0
M103
G1 X4.62 Y-27.49 Z0.78 F3000.0
M101
G1 X1.33 Y-27.49 Z0.78 F1800.0
G1 X1.33 Y-27.88 Z0.78 F1800.0
G1 X4.62 Y-27.88 Z0.78 F1800.0
M103
G1 X4.62 Y-28.27 Z0.78 F3000.0
M101
G1 X1.33 Y-28.27 Z0.78 F1800.0
G1 X1.33 Y-28.67 Z0.78 F1800.0
G1 X4.62 Y-28.67 Z0.78 F1800.0
M103
G1 X4.62 Y-29.06 Z0.78 F3000.0
M101
G1 X1.33 Y-29.06 Z0.78 F1800.0
G1 X1.33 Y-29.45 Z0.78 F1800.0
G1 X4.62 Y-29.45 Z0.78 F1800.0
M103
G1 X4.62 Y-29.85 Z0.78 F3000.0
M101
G1 X1.78 Y-29.85 Z0.78 F1800.0
M108 R30.0
M102
G1 X1.33 Y-29.85 Z0.78 F1800.0
M108 R3.569
M103
(</surroundingLoop>)
(</layer>)
(<operatingLayerEnd> </operatingLayerEnd>)
(<layer> 1.1 )
(<surroundingLoop>)
(<boundaryPerimeter>)
(<boundaryPoint> X-27.339 Y3.395 Z1.1 </boundaryPoint>)
(<boundaryPoint> X-27.339 Y-23.781 Z1.1 </boundaryPoint>)
(<boundaryPoint> X0.485 Y-23.781 Z1.1 </boundaryPoint>)
(<boundaryPoint> X0.485 Y-30.896 Z1.1 </boundaryPoint>)
(<boundaryPoint> X5.466 Y-30.896 Z1.1 </boundaryPoint>)
(<boundaryPoint> X5.466 Y-23.781 Z1.1 </boundaryPoint>)
(<boundaryPoint> X27.339 Y-23.781 Z1.1 </boundaryPoint>)
(<boundaryPoint> X27.339 Y30.896 Z1.1 </boundaryPoint>)
(<boundaryPoint> X-27.339 Y30.896 Z1.1 </boundaryPoint>)
(<boundaryPoint> X-27.339 Y8.693 Z1.1 </boundaryPoint>)
(<boundaryPoint> X-19.868 Y8.693 Z1.1 </boundaryPoint>)
(<boundaryPoint> X-19.868 Y3.395 Z1.1 </boundaryPoint>)
(<loop> inner )
G1 X1.07 Y-15.21 Z1.08 F3000.0
M108 R30.0
M101
G1 X1.05 Y-14.41 Z1.1 F3000.0
M108 R3.569
G1 X-17.97 Y-14.41 Z1.1 F1800.0
G1 X-17.97 Y20.43 Z1.1 F1800.0
G1 X16.88 Y20.43 Z1.1 F1800.0
G1 X16.88 Y-14.41 Z1.1 F1800.0
G1 X1.5 Y-14.41 Z1.1 F1800.0
M108 R30.0
M102
G1 X1.33 Y-14.41 Z1.1 F1800.0
G1 X1.05 Y-14.41 Z1.1 F1800.0
M108 R3.569
M103
(</loop>)
(<loop> outer )
G1 X1.07 Y-22.39 Z1.1 F3000.0
M108 R30.0
M101
G1 X1.07 Y-23.19 Z1.1 F3000.0
M108 R3.569
G1 X1.07 Y-30.31 Z1.1 F1800.0
G1 X4.88 Y-30.31 Z1.1 F1800.0
G1 X4.88 Y-23.19 Z1.1 F1800.0
G1 X26.75 Y-23.19 Z1.1 F1800.0
G1 X26.75 Y30.31 Z1.1 F1800.0
G1 X-26.75 Y30.31 Z1.1 F1800.0
G1 X-26.75 Y9.28 Z1.1 F1800.0
G1 X-19.28 Y9.28 Z1.1 F1800.0
G1 X-19.28 Y2.81 Z1.1 F1800.0
G1 X-26.75 Y2.81 Z1.1 F1800.0
G1 X-26.75 Y-23.19 Z1.1 F1800.0
G1 X1.07 Y-23.19 Z1.1 F1800.0
M103
(</loop>)
(<perimeter> outer )
G1 X0.68 Y-23.59 Z1.1 F3000.0
M101
G1 X0.68 Y-30.7 Z1.1 F1800.0
G1 X5.27 Y-30.7 Z1.1 F1800.0
G1 X5.27 Y-23.59 Z1.1 F1800.0
G1 X27.14 Y-23.59 Z1.1 F1800.0
G1 X27.14 Y30.7 Z1.1 F1800.0
G1 X-27.14 Y30.7 Z1.1 F1800.0
G1 X-27.14 Y8.89 Z1.1 F1800.0
G1 X-19.67 Y8.89 Z1.1 F1800.0
G1 X-19.67 Y3.2 Z1.1 F1800.0
G1 X-27.14 Y3.2 Z1.1 F1800.0
G1 X-27.14 Y-23.59 Z1.1 F1800.0
G1 X0.23 Y-23.59 Z1.1 F1800.0
M108 R30.0
M102
G1 X0.68 Y-23.59 Z1.1 F1800.0
M108 R3.569
M103
(</perimeter>)
(</boundaryPerimeter>)
(<surroundingLoop>)
(<boundaryPerimeter>)
(<boundaryPoint> X16.287 Y-13.82 Z1.1 </boundaryPoint>)
(<boundaryPoint> X-17.378 Y-13.82 Z1.1 </boundaryPoint>)
(<boundaryPoint> X-17.378 Y19.844 Z1.1 </boundaryPoint>)
(<boundaryPoint> X16.287 Y19.844 Z1.1 </boundaryPoint>)
(<perimeter> inner )
G1 X0.68 Y-14.82 Z1.1 F3000.0
M108 R30.0
M101
G1 X0.68 Y-14.02 Z1.1 F3000.0
M108 R3.569
G1 X-17.58 Y-14.02 Z1.1 F1800.0
G1 X-17.58 Y20.04 Z1.1 F1800.0
G1 X16.48 Y20.04 Z1.1 F1800.0
G1 X16.48 Y-14.02 Z1.1 F1800.0
G1 X1.13 Y-14.02 Z1.1 F1800.0
M108 R30.0
M102
G1 X0.68 Y-14.02 Z1.1 F1800.0
M108 R3.569
M103
(</perimeter>)
(</boundaryPerimeter>)
(</surroundingLoop>)
G1 X6.11 Y-22.27 Z1.1 F3000.0
M108 R30.0
M101
G1 X6.55 Y-22.94 Z1.1 F3000.0
M108 R3.569
G1 X4.8 Y-22.94 Z1.1 F1800.0
G1 X3.39 Y-20.85 Z1.1 F1800.0
G1 X3.39 Y-20.6 Z1.1 F1800.0
G1 X5.34 Y-18.67 Z1.1 F1800.0
G1 X5.34 Y-18.42 Z1.1 F1800.0
G1 X3.39 Y-16.49 Z1.1 F1800.0
G1 X3.39 Y-16.24 Z1.1 F1800.0
G1 X4.8 Y-14.67 Z1.1 F1800.0
G1 X7.85 Y-14.67 Z1.1 F1800.0
G1 X7.52 Y-16.24 Z1.1 F1800.0
G1 X7.52 Y-16.49 Z1.1 F1800.0
G1 X5.57 Y-18.42 Z1.1 F1800.0
G1 X5.57 Y-18.67 Z1.1 F1800.0
G1 X7.52 Y-20.6 Z1.1 F1800.0
G1 X7.52 Y-20.85 Z1.1 F1800.0
G1 X6.98 Y-22.94 Z1.1 F1800.0
G1 X10.47 Y-22.94 Z1.1 F1800.0
G1 X7.75 Y-20.85 Z1.1 F1800.0
G1 X7.75 Y-20.6 Z1.1 F1800.0
G1 X9.7 Y-18.67 Z1.1 F1800.0
G1 X9.7 Y-18.42 Z1.1 F1800.0
G1 X7.75 Y-16.49 Z1.1 F1800.0
G1 X7.75 Y-16.24 Z1.1 F1800.0
G1 X8.29 Y-14.67 Z1.1 F1800.0
G1 X12.22 Y-14.67 Z1.1 F1800.0
G1 X11.88 Y-16.24 Z1.1 F1800.0
G1 X11.88 Y-16.49 Z1.1 F1800.0
G1 X9.93 Y-18.42 Z1.1 F1800.0
G1 X9.93 Y-18.67 Z1.1 F1800.0
G1 X11.88 Y-20.6 Z1.1 F1800.0
G1 X11.88 Y-20.85 Z1.1 F1800.0
G1 X10.91 Y-22.94 Z1.1 F1800.0
G1 X14.84 Y-22.94 Z1.1 F1800.0
G1 X12.11 Y-20.85 Z1.1 F1800.0
G1 X12.11 Y-20.6 Z1.1 F1800.0
G1 X14.07 Y-18.67 Z1.1 F1800.0
G1 X14.07 Y-18.42 Z1.1 F1800.0
G1 X12.11 Y-16.49 Z1.1 F1800.0
G1 X12.11 Y-16.24 Z1.1 F1800.0
G1 X12.65 Y-14.67 Z1.1 F1800.0
G1 X17.02 Y-14.67 Z1.1 F1800.0
G1 X16.25 Y-16.24 Z1.1 F1800.0
G1 X16.25 Y-16.49 Z1.1 F1800.0
G1 X14.3 Y-18.42 Z1.1 F1800.0
G1 X14.3 Y-18.67 Z1.1 F1800.0
G1 X16.25 Y-20.6 Z1.1 F1800.0
G1 X16.25 Y-20.85 Z1.1 F1800.0
G1 X17.02 Y-22.94 Z1.1 F1800.0
G1 X15.72 Y-22.94 Z1.1 F1800.0
M108 R30.0
M102
G1 X15.27 Y-22.94 Z1.1 F1800.0
M108 R3.569
M103
G1 X25.38 Y-22.94 Z1.1 F3000.0
M108 R30.0
M101
G1 X26.18 Y-22.94 Z1.1 F3000.0
M108 R3.569
G1 X25.74 Y-22.94 Z1.1 F1800.0
G1 X25.2 Y-20.85 Z1.1 F1800.0
G1 X25.31 Y29.62 Z1.1 F1800.0
G1 X25.74 Y29.62 Z1.1 F1800.0
G1 X25.86 Y29.73 Z1.1 F1800.0
M108 R30.0
M102
G1 X26.18 Y30.05 Z1.1 F1800.0
M108 R3.569
M103
G1 X25.24 Y30.05 Z1.1 F3000.0
M108 R30.0
M101
G1 X24.44 Y30.05 Z1.1 F3000.0
M108 R3.569
G1 X24.4 Y29.87 Z1.1 F1800.0
G1 X23.85 Y29.72 Z1.1 F1800.0
G1 X23.13 Y30.05 Z1.1 F1800.0
G1 X23.02 Y29.58 Z1.1 F1800.0
G1 X23.02 Y29.33 Z1.1 F1800.0
G1 X24.97 Y27.4 Z1.1 F1800.0
G1 X24.97 Y27.14 Z1.1 F1800.0
G1 X23.02 Y25.22 Z1.1 F1800.0
G1 X23.02 Y24.96 Z1.1 F1800.0
G1 X24.97 Y23.04 Z1.1 F1800.0
G1 X24.97 Y22.78 Z1.1 F1800.0
G1 X23.02 Y20.85 Z1.1 F1800.0
G1 X23.02 Y20.6 Z1.1 F1800.0
G1 X24.97 Y18.67 Z1.1 F1800.0
G1 X24.97 Y18.42 Z1.1 F1800.0
G1 X23.02 Y16.49 Z1.1 F1800.0
G1 X23.02 Y16.24 Z1.1 F1800.0
G1 X24.97 Y14.31 Z1.1 F1800.0
G1 X24.97 Y14.05 Z1.1 F1800.0
G1 X23.02 Y12.13 Z1.1 F1800.0
G1 X23.02 Y11.87 Z1.1 F1800.0
G1 X24.97 Y9.95 Z1.1 F1800.0
G1 X24.97 Y9.69 Z1.1 F1800.0
G1 X23.02 Y7.76 Z1.1 F1800.0
G1 X23.02 Y7.51 Z1.1 F1800.0
G1 X24.97 Y5.58 Z1.1 F1800.0
G1 X24.97 Y5.33 Z1.1 F1800.0
G1 X23.02 Y3.4 Z1.1 F1800.0
G1 X23.02 Y3.15 Z1.1 F1800.0
G1 X24.97 Y1.22 Z1.1 F1800.0
G1 X24.97 Y0.96 Z1.1 F1800.0
G1 X23.02 Y-0.96 Z1.1 F1800.0
G1 X23.02 Y-1.22 Z1.1 F1800.0
G1 X24.97 Y-3.15 Z1.1 F1800.0
G1 X24.97 Y-3.4 Z1.1 F1800.0
G1 X23.02 Y-5.33 Z1.1 F1800.0
G1 X23.02 Y-5.58 Z1.1 F1800.0
G1 X24.97 Y-7.51 Z1.1 F1800.0
G1 X24.97 Y-7.76 Z1.1 F1800.0
G1 X23.02 Y-9.69 Z1.1 F1800.0
G1 X23.02 Y-9.95 Z1.1 F1800.0
G1 X24.97 Y-11.87 Z1.1 F1800.0
G1 X24.97 Y-12.13 Z1.1 F1800.0
G1 X23.02 Y-14.05 Z1.1 F1800.0
G1 X23.02 Y-14.31 Z1.1 F1800.0
G1 X24.97 Y-16.24 Z1.1 F1800.0
G1 X24.97 Y-16.49 Z1.1 F1800.0
G1 X23.02 Y-18.42 Z1.1 F1800.0
G1 X23.02 Y-18.67 Z1.1 F1800.0
G1 X24.97 Y-20.6 Z1.1 F1800.0
G1 X25.31 Y-22.94 Z1.1 F1800.0
G1 X21.82 Y-22.94 Z1.1 F1800.0
G1 X20.84 Y-20.85 Z1.1 F1800.0
G1 X20.84 Y-20.6 Z1.1 F1800.0
G1 X22.79 Y-18.67 Z1.1 F1800.0
G1 X22.79 Y-18.42 Z1.1 F1800.0
G1 X20.84 Y-16.49 Z1.1 F1800.0
G1 X20.84 Y-16.24 Z1.1 F1800.0
G1 X22.79 Y-14.31 Z1.1 F1800.0
G1 X22.79 Y-14.05 Z1.1 F1800.0
G1 X20.84 Y-12.13 Z1.1 F1800.0
G1 X20.84 Y-11.87 Z1.1 F1800.0
G1 X22.79 Y-9.95 Z1.1 F1800.0
G1 X22.79 Y-9.69 Z1.1 F1800.0
G1 X20.84 Y-7.76 Z1.1 F1800.0
G1 X20.84 Y-7.51 Z1.1 F1800.0
G1 X22.79 Y-5.58 Z1.1 F1800.0
G1 X22.79 Y-5.33 Z1.1 F1800.0
G1 X20.84 Y-3.4 Z1.1 F1800.0
G1 X20.84 Y-3.15 Z1.1 F1800.0
G1 X22.79 Y-1.22 Z1.1 F1800.0
G1 X22.79 Y-0.96 Z1.1 F1800.0
G1 X20.84 Y0.96 Z1.1 F1800.0
G1 X20.84 Y1.22 Z1.1 F1800.0
G1 X22.79 Y3.15 Z1.1 F1800.0
G1 X22.79 Y3.4 Z1.1 F1800.0
G1 X20.84 Y5.33 Z1.1 F1800.0
G1 X20.84 Y5.58 Z1.1 F1800.0
G1 X22.79 Y7.51 Z1.1 F1800.0
G1 X22.79 Y7.76 Z1.1 F1800.0
G1 X20.84 Y9.69 Z1.1 F1800.0
G1 X20.84 Y9.95 Z1.1 F1800.0
G1 X22.79 Y11.87 Z1.1 F1800.0
G1 X22.79 Y12.13 Z1.1 F1800.0
G1 X20.84 Y14.05 Z1.1 F1800.0
G1 X20.84 Y14.31 Z1.1 F1800.0
G1 X22.79 Y16.24 Z1.1 F1800.0
G1 X22.79 Y16.49 Z1.1 F1800.0
G1 X20.84 Y18.42 Z1.1 F1800.0
G1 X20.84 Y18.67 Z1.1 F1800.0
G1 X22.79 Y20.6 Z1.1 F1800.0
G1 X22.79 Y20.85 Z1.1 F1800.0
G1 X20.84 Y22.78 Z1.1 F1800.0
G1 X20.84 Y23.04 Z1.1 F1800.0
G1 X22.79 Y24.96 Z1.1 F1800.0
G1 X22.79 Y25.22 Z1.1 F1800.0
G1 X20.84 Y27.14 Z1.1 F1800.0
G1 X20.84 Y27.4 Z1.1 F1800.0
G1 X22.79 Y29.33 Z1.1 F1800.0
G1 X22.79 Y29.58 Z1.1 F1800.0
G1 X22.69 Y29.62 Z1.1 F1800.0
G1 X22.57 Y29.73 Z1.1 F1800.0
M108 R30.0
M102
G1 X22.25 Y30.05 Z1.1 F1800.0
M108 R3.569
M103
G1 X20.87 Y30.05 Z1.1 F3000.0
M108 R30.0
M101
G1 X20.07 Y30.05 Z1.1 F3000.0
M108 R3.569
G1 X19.64 Y29.62 Z1.1 F1800.0
G1 X19.19 Y29.96 Z1.1 F1800.0
G1 X18.66 Y29.58 Z1.1 F1800.0
G1 X18.66 Y29.33 Z1.1 F1800.0
G1 X20.61 Y27.4 Z1.1 F1800.0
G1 X20.61 Y27.14 Z1.1 F1800.0
G1 X18.66 Y25.22 Z1.1 F1800.0
G1 X18.66 Y24.96 Z1.1 F1800.0
G1 X20.61 Y23.04 Z1.1 F1800.0
G1 X20.61 Y22.78 Z1.1 F1800.0
G1 X18.66 Y20.85 Z1.1 F1800.0
G1 X18.66 Y20.6 Z1.1 F1800.0
G1 X20.61 Y18.67 Z1.1 F1800.0
G1 X20.61 Y18.42 Z1.1 F1800.0
G1 X18.66 Y16.49 Z1.1 F1800.0
G1 X18.66 Y16.24 Z1.1 F1800.0
G1 X20.61 Y14.31 Z1.1 F1800.0
G1 X20.61 Y14.05 Z1.1 F1800.0
G1 X18.66 Y12.13 Z1.1 F1800.0
G1 X18.66 Y11.87 Z1.1 F1800.0
G1 X20.61 Y9.95 Z1.1 F1800.0
G1 X20.61 Y9.69 Z1.1 F1800.0
G1 X18.66 Y7.76 Z1.1 F1800.0
G1 X18.66 Y7.51 Z1.1 F1800.0
G1 X20.61 Y5.58 Z1.1 F1800.0
G1 X20.61 Y5.33 Z1.1 F1800.0
G1 X18.66 Y3.4 Z1.1 F1800.0
G1 X18.66 Y3.15 Z1.1 F1800.0
G1 X20.61 Y1.22 Z1.1 F1800.0
G1 X20.61 Y0.96 Z1.1 F1800.0
G1 X18.66 Y-0.96 Z1.1 F1800.0
G1 X18.66 Y-1.22 Z1.1 F1800.0
G1 X20.61 Y-3.15 Z1.1 F1800.0
G1 X20.61 Y-3.4 Z1.1 F1800.0
G1 X18.66 Y-5.33 Z1.1 F1800.0
G1 X18.66 Y-5.58 Z1.1 F1800.0
G1 X20.61 Y-7.51 Z1.1 F1800.0
G1 X20.61 Y-7.76 Z1.1 F1800.0
G1 X18.66 Y-9.69 Z1.1 F1800.0
G1 X18.66 Y-9.95 Z1.1 F1800.0
G1 X20.61 Y-11.87 Z1.1 F1800.0
G1 X20.61 Y-12.13 Z1.1 F1800.0
G1 X18.66 Y-14.05 Z1.1 F1800.0
G1 X18.66 Y-14.31 Z1.1 F1800.0
G1 X20.61 Y-16.24 Z1.1 F1800.0
G1 X20.61 Y-16.49 Z1.1 F1800.0
G1 X18.66 Y-18.42 Z1.1 F1800.0
G1 X18.66 Y-18.67 Z1.1 F1800.0
G1 X20.61 Y-20.6 Z1.1 F1800.0
G1 X20.61 Y-20.85 Z1.1 F1800.0
G1 X21.38 Y-22.94 Z1.1 F1800.0
G1 X17.45 Y-22.94 Z1.1 F1800.0
G1 X16.48 Y-20.85 Z1.1 F1800.0
G1 X16.48 Y-20.6 Z1.1 F1800.0
G1 X18.43 Y-18.67 Z1.1 F1800.0
G1 X18.43 Y-18.42 Z1.1 F1800.0
G1 X16.48 Y-16.49 Z1.1 F1800.0
G1 X16.48 Y-16.24 Z1.1 F1800.0
G1 X18.43 Y-14.31 Z1.1 F1800.0
G1 X18.43 Y20.85 Z1.1 F1800.0
G1 X16.48 Y22.78 Z1.1 F1800.0
G1 X16.48 Y23.04 Z1.1 F1800.0
G1 X18.43 Y24.96 Z1.1 F1800.0
G1 X18.43 Y25.22 Z1.1 F1800.0
G1 X16.48 Y27.14 Z1.1 F1800.0
G1 X16.48 Y27.4 Z1.1 F1800.0
G1 X18.43 Y29.33 Z1.1 F1800.0
G1 X18.43 Y29.58 Z1.1 F1800.0
G1 X18.33 Y29.62 Z1.1 F1800.0
G1 X18.21 Y29.73 Z1.1 F1800.0
M108 R30.0
M102
G1 X17.89 Y30.05 Z1.1 F1800.0
M108 R3.569
M103
G1 X16.51 Y30.05 Z1.1 F3000.0
M108 R30.0
M101
G1 X15.71 Y30.05 Z1.1 F3000.0
M108 R3.569
G1 X15.27 Y29.62 Z1.1 F1800.0
G1 X14.83 Y29.96 Z1.1 F1800.0
G1 X14.3 Y29.58 Z1.1 F1800.0
G1 X14.3 Y29.33 Z1.1 F1800.0
G1 X16.25 Y27.4 Z1.1 F1800.0
G1 X16.25 Y27.14 Z1.1 F1800.0
G1 X14.3 Y25.22 Z1.1 F1800.0
G1 X14.3 Y24.96 Z1.1 F1800.0
G1 X16.25 Y23.04 Z1.1 F1800.0
G1 X16.14 Y21.13 Z1.1 F1800.0
G1 X16.03 Y21.01 Z1.1 F1800.0
M108 R30.0
M102
G1 X15.71 Y20.69 Z1.1 F1800.0
M108 R3.569
M103
G1 X14.33 Y20.69 Z1.1 F3000.0
M108 R30.0
M101
G1 X13.53 Y20.69 Z1.1 F3000.0
M108 R3.569
G1 X13.09 Y21.13 Z1.1 F1800.0
G1 X12.65 Y21.13 Z1.1 F1800.0
G1 X12.22 Y20.69 Z1.1 F1800.0
G1 X12.11 Y23.04 Z1.1 F1800.0
G1 X14.07 Y24.96 Z1.1 F1800.0
G1 X14.07 Y25.22 Z1.1 F1800.0
G1 X12.11 Y27.14 Z1.1 F1800.0
G1 X12.11 Y27.4 Z1.1 F1800.0
G1 X14.07 Y29.33 Z1.1 F1800.0
G1 X14.07 Y29.58 Z1.1 F1800.0
G1 X13.96 Y29.62 Z1.1 F1800.0
G1 X13.85 Y29.73 Z1.1 F1800.0
M108 R30.0
M102
G1 X13.53 Y30.05 Z1.1 F1800.0
M108 R3.569
M103
G1 X12.15 Y30.05 Z1.1 F3000.0
M108 R30.0
M101
G1 X11.35 Y30.05 Z1.1 F3000.0
M108 R3.569
G1 X11.31 Y29.87 Z1.1 F1800.0
G1 X10.76 Y29.72 Z1.1 F1800.0
G1 X10.04 Y30.05 Z1.1 F1800.0
G1 X9.93 Y29.58 Z1.1 F1800.0
G1 X9.93 Y29.33 Z1.1 F1800.0
G1 X11.88 Y27.4 Z1.1 F1800.0
G1 X11.88 Y27.14 Z1.1 F1800.0
G1 X9.93 Y25.22 Z1.1 F1800.0
G1 X9.93 Y24.96 Z1.1 F1800.0
G1 X11.88 Y23.04 Z1.1 F1800.0
G1 X11.78 Y21.13 Z1.1 F1800.0
G1 X11.66 Y21.01 Z1.1 F1800.0
M108 R30.0
M102
G1 X11.35 Y20.69 Z1.1 F1800.0
M108 R3.569
M103
G1 X9.96 Y20.69 Z1.1 F3000.0
M108 R30.0
M101
G1 X9.16 Y20.69 Z1.1 F3000.0
M108 R3.569
G1 X8.29 Y21.13 Z1.1 F1800.0
G1 X7.75 Y22.78 Z1.1 F1800.0
G1 X7.75 Y23.04 Z1.1 F1800.0
G1 X9.7 Y24.96 Z1.1 F1800.0
G1 X9.7 Y25.22 Z1.1 F1800.0
G1 X7.75 Y27.14 Z1.1 F1800.0
G1 X7.75 Y27.4 Z1.1 F1800.0
G1 X9.7 Y29.33 Z1.1 F1800.0
G1 X9.7 Y29.58 Z1.1 F1800.0
G1 X9.6 Y29.62 Z1.1 F1800.0
G1 X9.48 Y29.73 Z1.1 F1800.0
M108 R30.0
M102
G1 X9.16 Y30.05 Z1.1 F1800.0
M108 R3.569
M103
G1 X7.78 Y30.05 Z1.1 F3000.0
M108 R30.0
M101
G1 X6.98 Y30.05 Z1.1 F3000.0
M108 R3.569
G1 X6.55 Y29.62 Z1.1 F1800.0
G1 X6.1 Y29.96 Z1.1 F1800.0
G1 X5.57 Y29.58 Z1.1 F1800.0
G1 X5.57 Y29.33 Z1.1 F1800.0
G1 X7.52 Y27.4 Z1.1 F1800.0
G1 X7.52 Y27.14 Z1.1 F1800.0
G1 X5.57 Y25.22 Z1.1 F1800.0
G1 X5.57 Y24.96 Z1.1 F1800.0
G1 X7.52 Y23.04 Z1.1 F1800.0
G1 X7.42 Y21.13 Z1.1 F1800.0
G1 X7.3 Y21.01 Z1.1 F1800.0
M108 R30.0
M102
G1 X6.98 Y20.69 Z1.1 F1800.0
M108 R3.569
M103
G1 X5.6 Y20.69 Z1.1 F3000.0
M108 R30.0
M101
G1 X4.8 Y20.69 Z1.1 F3000.0
M108 R3.569
G1 X4.36 Y21.13 Z1.1 F1800.0
G1 X3.93 Y21.13 Z1.1 F1800.0
G1 X3.49 Y20.69 Z1.1 F1800.0
G1 X3.39 Y23.04 Z1.1 F1800.0
G1 X5.34 Y24.96 Z1.1 F1800.0
G1 X5.34 Y25.22 Z1.1 F1800.0
G1 X3.39 Y27.14 Z1.1 F1800.0
G1 X3.39 Y27.4 Z1.1 F1800.0
G1 X5.34 Y29.33 Z1.1 F1800.0
G1 X5.34 Y29.58 Z1.1 F1800.0
G1 X5.24 Y29.62 Z1.1 F1800.0
G1 X5.12 Y29.73 Z1.1 F1800.0
M108 R30.0
M102
G1 X4.8 Y30.05 Z1.1 F1800.0
M108 R3.569
M103
G1 X3.42 Y30.05 Z1.1 F3000.0
M108 R30.0
M101
G1 X2.62 Y30.05 Z1.1 F3000.0
M108 R3.569
G1 X2.58 Y29.87 Z1.1 F1800.0
G1 X2.03 Y29.72 Z1.1 F1800.0
G1 X1.31 Y30.05 Z1.1 F1800.0
G1 X1.21 Y29.58 Z1.1 F1800.0
G1 X1.21 Y29.33 Z1.1 F1800.0
G1 X3.16 Y27.4 Z1.1 F1800.0
G1 X3.16 Y27.14 Z1.1 F1800.0
G1 X1.21 Y25.22 Z1.1 F1800.0
G1 X1.21 Y24.96 Z1.1 F1800.0
G1 X3.16 Y23.04 Z1.1 F1800.0
G1 X3.05 Y21.13 Z1.1 F1800.0
G1 X2.94 Y21.01 Z1.1 F1800.0
M108 R30.0
M102
G1 X2.62 Y20.69 Z1.1 F1800.0
M108 R3.569
M103
G1 X1.24 Y20.69 Z1.1 F3000.0
M108 R30.0
M101
G1 X0.44 Y20.69 Z1.1 F3000.0
M108 R3.569
G1 X0.0 Y21.13 Z1.1 F1800.0
G1 X-0.44 Y21.13 Z1.1 F1800.0
G1 X-0.87 Y20.69 Z1.1 F1800.0
G1 X-0.98 Y23.04 Z1.1 F1800.0
G1 X0.98 Y24.96 Z1.1 F1800.0
G1 X0.98 Y25.22 Z1.1 F1800.0
G1 X-0.98 Y27.14 Z1.1 F1800.0
G1 X-0.98 Y27.4 Z1.1 F1800.0
G1 X0.98 Y29.33 Z1.1 F1800.0
G1 X0.98 Y29.58 Z1.1 F1800.0
G1 X0.87 Y29.62 Z1.1 F1800.0
G1 X0.76 Y29.73 Z1.1 F1800.0
M108 R30.0
M102
G1 X0.44 Y30.05 Z1.1 F1800.0
M108 R3.569
M103
G1 X-0.95 Y30.05 Z1.1 F3000.0
M108 R30.0
M101
G1 X-1.75 Y30.05 Z1.1 F3000.0
M108 R3.569
G1 X-2.18 Y29.62 Z1.1 F1800.0
G1 X-2.63 Y29.96 Z1.1 F1800.0
G1 X-3.16 Y29.58 Z1.1 F1800.0
G1 X-3.16 Y29.33 Z1.1 F1800.0
G1 X-1.21 Y27.4 Z1.1 F1800.0
G1 X-1.21 Y27.14 Z1.1 F1800.0
G1 X-3.16 Y25.22 Z1.1 F1800.0
G1 X-3.16 Y24.96 Z1.1 F1800.0
G1 X-1.21 Y23.04 Z1.1 F1800.0
G1 X-1.31 Y21.13 Z1.1 F1800.0
G1 X-1.43 Y21.01 Z1.1 F1800.0
M108 R30.0
M102
G1 X-1.75 Y20.69 Z1.1 F1800.0
M108 R3.569
M103
G1 X-3.13 Y20.69 Z1.1 F3000.0
M108 R30.0
M101
G1 X-3.93 Y20.69 Z1.1 F3000.0
M108 R3.569
G1 X-4.36 Y21.13 Z1.1 F1800.0
G1 X-4.8 Y21.13 Z1.1 F1800.0
G1 X-5.24 Y20.69 Z1.1 F1800.0
G1 X-5.34 Y23.04 Z1.1 F1800.0
G1 X-3.39 Y24.96 Z1.1 F1800.0
G1 X-3.39 Y25.22 Z1.1 F1800.0
G1 X-5.34 Y27.14 Z1.1 F1800.0
G1 X-5.34 Y27.4 Z1.1 F1800.0
G1 X-3.39 Y29.33 Z1.1 F1800.0
G1 X-3.39 Y29.58 Z1.1 F1800.0
G1 X-3.49 Y29.62 Z1.1 F1800.0
G1 X-3.61 Y29.73 Z1.1 F1800.0
M108 R30.0
M102
G1 X-3.93 Y30.05 Z1.1 F1800.0
M108 R3.569
M103
G1 X-5.31 Y30.05 Z1.1 F3000.0
M108 R30.0
M101
G1 X-6.11 Y30.05 Z1.1 F3000.0
M108 R3.569
G1 X-6.15 Y29.87 Z1.1 F1800.0
G1 X-6.69 Y29.72 Z1.1 F1800.0
G1 X-7.42 Y30.05 Z1.1 F1800.0
G1 X-7.52 Y29.58 Z1.1 F1800.0
G1 X-7.52 Y29.33 Z1.1 F1800.0
G1 X-5.57 Y27.4 Z1.1 F1800.0
G1 X-5.57 Y27.14 Z1.1 F1800.0
G1 X-7.52 Y25.22 Z1.1 F1800.0
G1 X-7.52 Y24.96 Z1.1 F1800.0
G1 X-5.57 Y23.04 Z1.1 F1800.0
G1 X-5.67 Y21.13 Z1.1 F1800.0
G1 X-5.79 Y21.01 Z1.1 F1800.0
M108 R30.0
M102
G1 X-6.11 Y20.69 Z1.1 F1800.0
M108 R3.569
M103
G1 X-7.49 Y20.69 Z1.1 F3000.0
M108 R30.0
M101
G1 X-8.29 Y20.69 Z1.1 F3000.0
M108 R3.569
G1 X-8.73 Y21.13 Z1.1 F1800.0
G1 X-9.16 Y21.13 Z1.1 F1800.0
G1 X-9.7 Y22.78 Z1.1 F1800.0
G1 X-9.7 Y23.04 Z1.1 F1800.0
G1 X-7.75 Y24.96 Z1.1 F1800.0
G1 X-7.75 Y25.22 Z1.1 F1800.0
G1 X-9.7 Y27.14 Z1.1 F1800.0
G1 X-9.7 Y27.4 Z1.1 F1800.0
G1 X-7.75 Y29.33 Z1.1 F1800.0
G1 X-7.75 Y29.58 Z1.1 F1800.0
G1 X-7.85 Y29.62 Z1.1 F1800.0
G1 X-7.97 Y29.73 Z1.1 F1800.0
M108 R30.0
M102
G1 X-8.29 Y30.05 Z1.1 F1800.0
M108 R3.569
M103
G1 X-9.67 Y30.05 Z1.1 F3000.0
M108 R30.0
M101
G1 X-10.47 Y30.05 Z1.1 F3000.0
M108 R3.569
G1 X-10.91 Y29.62 Z1.1 F1800.0
G1 X-11.36 Y29.96 Z1.1 F1800.0
G1 X-11.88 Y29.58 Z1.1 F1800.0
G1 X-11.88 Y29.33 Z1.1 F1800.0
G1 X-9.93 Y27.4 Z1.1 F1800.0
G1 X-9.93 Y27.14 Z1.1 F1800.0
G1 X-11.88 Y25.22 Z1.1 F1800.0
G1 X-11.88 Y24.96 Z1.1 F1800.0
G1 X-9.93 Y23.04 Z1.1 F1800.0
G1 X-10.04 Y21.13 Z1.1 F1800.0
G1 X-10.15 Y21.01 Z1.1 F1800.0
M108 R30.0
M102
G1 X-10.47 Y20.69 Z1.1 F1800.0
M108 R3.569
M103
G1 X-11.85 Y20.69 Z1.1 F3000.0
M108 R30.0
M101
G1 X-12.65 Y20.69 Z1.1 F3000.0
M108 R3.569
G1 X-13.09 Y21.13 Z1.1 F1800.0
G1 X-13.53 Y21.13 Z1.1 F1800.0
G1 X-14.07 Y22.78 Z1.1 F1800.0
G1 X-14.07 Y23.04 Z1.1 F1800.0
G1 X-12.11 Y24.96 Z1.1 F1800.0
G1 X-12.11 Y25.22 Z1.1 F1800.0
G1 X-14.07 Y27.14 Z1.1 F1800.0
G1 X-14.07 Y27.4 Z1.1 F1800.0
G1 X-12.11 Y29.33 Z1.1 F1800.0
G1 X-12.11 Y29.58 Z1.1 F1800.0
G1 X-12.22 Y29.62 Z1.1 F1800.0
G1 X-12.34 Y29.73 Z1.1 F1800.0
M108 R30.0
M102
G1 X-12.65 Y30.05 Z1.1 F1800.0
M108 R3.569
M103
G1 X-14.04 Y30.05 Z1.1 F3000.0
M108 R30.0
M101
G1 X-14.84 Y30.05 Z1.1 F3000.0
M108 R3.569
G1 X-14.87 Y29.87 Z1.1 F1800.0
G1 X-15.42 Y29.72 Z1.1 F1800.0
G1 X-16.14 Y30.05 Z1.1 F1800.0
G1 X-16.25 Y29.58 Z1.1 F1800.0
G1 X-16.25 Y29.33 Z1.1 F1800.0
G1 X-14.3 Y27.4 Z1.1 F1800.0
G1 X-14.3 Y27.14 Z1.1 F1800.0
G1 X-16.25 Y25.22 Z1.1 F1800.0
G1 X-16.25 Y24.96 Z1.1 F1800.0
G1 X-14.3 Y23.04 Z1.1 F1800.0
G1 X-14.4 Y21.13 Z1.1 F1800.0
G1 X-14.52 Y21.01 Z1.1 F1800.0
M108 R30.0
M102
G1 X-14.84 Y20.69 Z1.1 F1800.0
M108 R3.569
M103
G1 X-16.22 Y20.69 Z1.1 F3000.0
M108 R30.0
M101
G1 X-17.02 Y20.69 Z1.1 F3000.0
M108 R3.569
G1 X-17.45 Y21.13 Z1.1 F1800.0
G1 X-17.89 Y21.13 Z1.1 F1800.0
G1 X-18.43 Y22.78 Z1.1 F1800.0
G1 X-18.43 Y23.04 Z1.1 F1800.0
G1 X-16.48 Y24.96 Z1.1 F1800.0
G1 X-16.48 Y25.22 Z1.1 F1800.0
G1 X-18.43 Y27.14 Z1.1 F1800.0
G1 X-18.43 Y27.4 Z1.1 F1800.0
G1 X-16.48 Y29.33 Z1.1 F1800.0
G1 X-16.48 Y29.58 Z1.1 F1800.0
G1 X-16.58 Y29.62 Z1.1 F1800.0
G1 X-16.7 Y29.73 Z1.1 F1800.0
M108 R30.0
M102
G1 X-17.02 Y30.05 Z1.1 F1800.0
M108 R3.569
M103
G1 X-18.4 Y30.05 Z1.1 F3000.0
M108 R30.0
M101
G1 X-19.2 Y30.05 Z1.1 F3000.0
M108 R3.569
G1 X-19.64 Y29.62 Z1.1 F1800.0
G1 X-20.08 Y29.96 Z1.1 F1800.0
G1 X-20.61 Y29.58 Z1.1 F1800.0
G1 X-20.61 Y29.33 Z1.1 F1800.0
G1 X-18.66 Y27.4 Z1.1 F1800.0
G1 X-18.66 Y27.14 Z1.1 F1800.0
G1 X-20.61 Y25.22 Z1.1 F1800.0
G1 X-20.61 Y24.96 Z1.1 F1800.0
G1 X-18.66 Y23.04 Z1.1 F1800.0
G1 X-18.66 Y22.78 Z1.1 F1800.0
G1 X-20.61 Y20.85 Z1.1 F1800.0
G1 X-20.61 Y11.87 Z1.1 F1800.0
G1 X-19.2 Y9.54 Z1.1 F1800.0
G1 X-22.69 Y9.54 Z1.1 F1800.0
G1 X-22.79 Y9.69 Z1.1 F1800.0
G1 X-22.79 Y9.95 Z1.1 F1800.0
G1 X-20.84 Y11.87 Z1.1 F1800.0
G1 X-20.84 Y12.13 Z1.1 F1800.0
G1 X-22.79 Y14.05 Z1.1 F1800.0
G1 X-22.79 Y14.31 Z1.1 F1800.0
G1 X-20.84 Y16.24 Z1.1 F1800.0
G1 X-20.84 Y16.49 Z1.1 F1800.0
G1 X-22.79 Y18.42 Z1.1 F1800.0
G1 X-22.79 Y18.67 Z1.1 F1800.0
G1 X-20.84 Y20.6 Z1.1 F1800.0
G1 X-20.84 Y20.85 Z1.1 F1800.0
G1 X-22.79 Y22.78 Z1.1 F1800.0
G1 X-22.79 Y23.04 Z1.1 F1800.0
G1 X-20.84 Y24.96 Z1.1 F1800.0
G1 X-20.84 Y25.22 Z1.1 F1800.0
G1 X-22.79 Y27.14 Z1.1 F1800.0
G1 X-22.79 Y27.4 Z1.1 F1800.0
G1 X-20.84 Y29.33 Z1.1 F1800.0
G1 X-20.84 Y29.58 Z1.1 F1800.0
G1 X-20.94 Y29.62 Z1.1 F1800.0
G1 X-21.06 Y29.73 Z1.1 F1800.0
M108 R30.0
M102
G1 X-21.38 Y30.05 Z1.1 F1800.0
M108 R3.569
M103
G1 X-22.76 Y30.05 Z1.1 F3000.0
M108 R30.0
M101
G1 X-23.56 Y30.05 Z1.1 F3000.0
M108 R3.569
G1 X-24.0 Y29.62 Z1.1 F1800.0
G1 X-24.45 Y29.96 Z1.1 F1800.0
G1 X-24.97 Y29.58 Z1.1 F1800.0
G1 X-24.97 Y29.33 Z1.1 F1800.0
G1 X-23.02 Y27.4 Z1.1 F1800.0
G1 X-23.02 Y27.14 Z1.1 F1800.0
G1 X-24.97 Y25.22 Z1.1 F1800.0
G1 X-24.97 Y24.96 Z1.1 F1800.0
G1 X-23.02 Y23.04 Z1.1 F1800.0
G1 X-23.02 Y22.78 Z1.1 F1800.0
G1 X-24.97 Y20.85 Z1.1 F1800.0
G1 X-24.97 Y20.6 Z1.1 F1800.0
G1 X-23.02 Y18.67 Z1.1 F1800.0
G1 X-23.02 Y18.42 Z1.1 F1800.0
G1 X-24.97 Y16.49 Z1.1 F1800.0
G1 X-24.97 Y16.24 Z1.1 F1800.0
G1 X-23.02 Y14.31 Z1.1 F1800.0
G1 X-23.02 Y14.05 Z1.1 F1800.0
G1 X-24.97 Y12.13 Z1.1 F1800.0
G1 X-24.97 Y11.87 Z1.1 F1800.0
G1 X-23.02 Y9.95 Z1.1 F1800.0
G1 X-23.02 Y9.69 Z1.1 F1800.0
G1 X-23.13 Y9.54 Z1.1 F1800.0
G1 X-25.74 Y9.54 Z1.1 F1800.0
G1 X-25.2 Y11.87 Z1.1 F1800.0
G1 X-25.2 Y29.58 Z1.1 F1800.0
G1 X-25.31 Y29.62 Z1.1 F1800.0
G1 X-25.74 Y30.05 Z1.1 F1800.0
M103
G1 X-26.18 Y30.05 Z1.1 F3000.0
M101
G1 X-26.18 Y9.99 Z1.1 F1800.0
M108 R30.0
M102
G1 X-26.18 Y9.54 Z1.1 F1800.0
M108 R3.569
M103
G1 X-26.18 Y8.97 Z1.1 F3000.0
G1 X-19.73 Y8.83 Z1.1 F3000.0
G1 X-19.73 Y3.26 Z1.1 F3000.0
G1 X-25.95 Y3.13 Z1.1 F3000.0
M108 R30.0
M101
G1 X-26.18 Y3.12 Z1.1 F3000.0
G1 X-26.18 Y2.55 Z1.1 F3000.0
M108 R3.569
G1 X-26.18 Y-22.94 Z1.1 F1800.0
G1 X-24.0 Y-22.94 Z1.1 F1800.0
G1 X-25.2 Y-18.67 Z1.1 F1800.0
G1 X-25.2 Y-0.96 Z1.1 F1800.0
G1 X-25.74 Y2.55 Z1.1 F1800.0
G1 X-22.69 Y2.55 Z1.1 F1800.0
G1 X-23.02 Y1.22 Z1.1 F1800.0
G1 X-23.02 Y0.96 Z1.1 F1800.0
G1 X-24.97 Y-0.96 Z1.1 F1800.0
G1 X-24.97 Y-1.22 Z1.1 F1800.0
G1 X-23.02 Y-3.15 Z1.1 F1800.0
G1 X-23.02 Y-3.4 Z1.1 F1800.0
G1 X-24.97 Y-5.33 Z1.1 F1800.0
G1 X-24.97 Y-5.58 Z1.1 F1800.0
G1 X-23.02 Y-7.51 Z1.1 F1800.0
G1 X-23.02 Y-7.76 Z1.1 F1800.0
G1 X-24.97 Y-9.69 Z1.1 F1800.0
G1 X-24.97 Y-9.95 Z1.1 F1800.0
G1 X-23.02 Y-11.87 Z1.1 F1800.0
G1 X-23.02 Y-12.13 Z1.1 F1800.0
G1 X-24.97 Y-14.05 Z1.1 F1800.0
G1 X-24.97 Y-14.31 Z1.1 F1800.0
G1 X-23.02 Y-16.24 Z1.1 F1800.0
G1 X-23.02 Y-16.49 Z1.1 F1800.0
G1 X-24.97 Y-18.42 Z1.1 F1800.0
G1 X-24.97 Y-18.67 Z1.1 F1800.0
G1 X-23.02 Y-20.6 Z1.1 F1800.0
G1 X-23.02 Y-20.85 Z1.1 F1800.0
G1 X-23.56 Y-22.94 Z1.1 F1800.0
G1 X-20.07 Y-22.94 Z1.1 F1800.0
G1 X-22.79 Y-20.85 Z1.1 F1800.0
G1 X-22.79 Y-20.6 Z1.1 F1800.0
G1 X-20.84 Y-18.67 Z1.1 F1800.0
G1 X-20.84 Y-18.42 Z1.1 F1800.0
G1 X-22.79 Y-16.49 Z1.1 F1800.0
G1 X-22.79 Y-16.24 Z1.1 F1800.0
G1 X-20.84 Y-14.31 Z1.1 F1800.0
G1 X-20.84 Y-14.05 Z1.1 F1800.0
G1 X-22.79 Y-12.13 Z1.1 F1800.0
G1 X-22.79 Y-11.87 Z1.1 F1800.0
G1 X-20.84 Y-9.95 Z1.1 F1800.0
G1 X-20.84 Y-9.69 Z1.1 F1800.0
G1 X-22.79 Y-7.76 Z1.1 F1800.0
G1 X-22.79 Y-7.51 Z1.1 F1800.0
G1 X-20.84 Y-5.58 Z1.1 F1800.0
G1 X-20.84 Y-5.33 Z1.1 F1800.0
G1 X-22.79 Y-3.4 Z1.1 F1800.0
G1 X-22.79 Y-3.15 Z1.1 F1800.0
G1 X-20.84 Y-1.22 Z1.1 F1800.0
G1 X-20.84 Y-0.96 Z1.1 F1800.0
G1 X-22.79 Y0.96 Z1.1 F1800.0
G1 X-22.79 Y1.22 Z1.1 F1800.0
G1 X-22.25 Y2.55 Z1.1 F1800.0
G1 X-19.2 Y2.55 Z1.1 F1800.0
G1 X-20.61 Y-0.96 Z1.1 F1800.0
G1 X-20.61 Y-14.31 Z1.1 F1800.0
G1 X-18.66 Y-16.24 Z1.1 F1800.0
G1 X-18.66 Y-16.49 Z1.1 F1800.0
G1 X-20.61 Y-18.42 Z1.1 F1800.0
G1 X-20.61 Y-18.67 Z1.1 F1800.0
G1 X-18.66 Y-20.6 Z1.1 F1800.0
G1 X-18.66 Y-20.85 Z1.1 F1800.0
G1 X-19.64 Y-22.94 Z1.1 F1800.0
G1 X-15.71 Y-22.94 Z1.1 F1800.0
G1 X-18.43 Y-20.85 Z1.1 F1800.0
G1 X-18.43 Y-20.6 Z1.1 F1800.0
G1 X-16.48 Y-18.67 Z1.1 F1800.0
G1 X-16.48 Y-18.42 Z1.1 F1800.0
G1 X-18.43 Y-16.49 Z1.1 F1800.0
G1 X-18.43 Y-16.24 Z1.1 F1800.0
G1 X-17.89 Y-14.67 Z1.1 F1800.0
G1 X-13.96 Y-14.67 Z1.1 F1800.0
G1 X-14.3 Y-16.24 Z1.1 F1800.0
G1 X-14.3 Y-16.49 Z1.1 F1800.0
G1 X-16.25 Y-18.42 Z1.1 F1800.0
G1 X-16.25 Y-18.67 Z1.1 F1800.0
G1 X-14.3 Y-20.6 Z1.1 F1800.0
G1 X-14.3 Y-20.85 Z1.1 F1800.0
G1 X-15.27 Y-22.94 Z1.1 F1800.0
G1 X-11.35 Y-22.94 Z1.1 F1800.0
G1 X-14.07 Y-20.85 Z1.1 F1800.0
G1 X-14.07 Y-20.6 Z1.1 F1800.0
G1 X-12.11 Y-18.67 Z1.1 F1800.0
G1 X-12.11 Y-18.42 Z1.1 F1800.0
G1 X-14.07 Y-16.49 Z1.1 F1800.0
G1 X-14.07 Y-16.24 Z1.1 F1800.0
G1 X-13.53 Y-14.67 Z1.1 F1800.0
G1 X-9.6 Y-14.67 Z1.1 F1800.0
G1 X-9.93 Y-16.24 Z1.1 F1800.0
G1 X-9.93 Y-16.49 Z1.1 F1800.0
G1 X-11.88 Y-18.42 Z1.1 F1800.0
G1 X-11.88 Y-18.67 Z1.1 F1800.0
G1 X-9.93 Y-20.6 Z1.1 F1800.0
G1 X-9.93 Y-20.85 Z1.1 F1800.0
G1 X-10.91 Y-22.94 Z1.1 F1800.0
G1 X-6.98 Y-22.94 Z1.1 F1800.0
G1 X-9.7 Y-20.85 Z1.1 F1800.0
G1 X-9.7 Y-20.6 Z1.1 F1800.0
G1 X-7.75 Y-18.67 Z1.1 F1800.0
G1 X-7.75 Y-18.42 Z1.1 F1800.0
G1 X-9.7 Y-16.49 Z1.1 F1800.0
G1 X-9.7 Y-16.24 Z1.1 F1800.0
G1 X-9.16 Y-14.67 Z1.1 F1800.0
G1 X-5.24 Y-14.67 Z1.1 F1800.0
G1 X-5.57 Y-16.24 Z1.1 F1800.0
G1 X-5.57 Y-16.49 Z1.1 F1800.0
G1 X-7.52 Y-18.42 Z1.1 F1800.0
G1 X-7.52 Y-18.67 Z1.1 F1800.0
G1 X-5.57 Y-20.6 Z1.1 F1800.0
G1 X-5.57 Y-20.85 Z1.1 F1800.0
G1 X-6.55 Y-22.94 Z1.1 F1800.0
G1 X-2.62 Y-22.94 Z1.1 F1800.0
G1 X-5.34 Y-20.85 Z1.1 F1800.0
G1 X-5.34 Y-20.6 Z1.1 F1800.0
G1 X-3.39 Y-18.67 Z1.1 F1800.0
G1 X-3.39 Y-18.42 Z1.1 F1800.0
G1 X-5.34 Y-16.49 Z1.1 F1800.0
G1 X-5.34 Y-16.24 Z1.1 F1800.0
G1 X-4.8 Y-14.67 Z1.1 F1800.0
G1 X-0.87 Y-14.67 Z1.1 F1800.0
G1 X-1.21 Y-16.24 Z1.1 F1800.0
G1 X-1.21 Y-16.49 Z1.1 F1800.0
G1 X-3.16 Y-18.42 Z1.1 F1800.0
G1 X-3.16 Y-18.67 Z1.1 F1800.0
G1 X-1.21 Y-20.6 Z1.1 F1800.0
G1 X-1.21 Y-20.85 Z1.1 F1800.0
G1 X-2.18 Y-22.94 Z1.1 F1800.0
G1 X1.31 Y-22.94 Z1.1 F1800.0
G1 X-0.98 Y-20.85 Z1.1 F1800.0
G1 X-0.98 Y-20.6 Z1.1 F1800.0
G1 X0.98 Y-18.67 Z1.1 F1800.0
G1 X0.98 Y-18.42 Z1.1 F1800.0
G1 X-0.98 Y-16.49 Z1.1 F1800.0
G1 X-0.98 Y-16.24 Z1.1 F1800.0
G1 X-0.44 Y-14.67 Z1.1 F1800.0
G1 X4.36 Y-14.67 Z1.1 F1800.0
G1 X3.16 Y-16.24 Z1.1 F1800.0
G1 X3.16 Y-16.49 Z1.1 F1800.0
G1 X1.21 Y-18.42 Z1.1 F1800.0
G1 X1.21 Y-18.67 Z1.1 F1800.0
G1 X3.16 Y-20.6 Z1.1 F1800.0
G1 X3.05 Y-29.62 Z1.1 F1800.0
G1 X2.94 Y-29.73 Z1.1 F1800.0
M108 R30.0
M102
G1 X2.62 Y-30.05 Z1.1 F1800.0
M108 R3.569
M103
(</surroundingLoop>)
(</layer>)
(<layer> 1.42 )
(<surroundingLoop>)
(<boundaryPerimeter>)
(<boundaryPoint> X-27.339 Y3.395 Z1.42 </boundaryPoint>)
(<boundaryPoint> X-27.339 Y-23.781 Z1.42 </boundaryPoint>)
(<boundaryPoint> X0.485 Y-23.781 Z1.42 </boundaryPoint>)
(<boundaryPoint> X0.485 Y-30.896 Z1.42 </boundaryPoint>)
(<boundaryPoint> X5.466 Y-30.896 Z1.42 </boundaryPoint>)
(<boundaryPoint> X5.466 Y-23.781 Z1.42 </boundaryPoint>)
(<boundaryPoint> X27.339 Y-23.781 Z1.42 </boundaryPoint>)
(<boundaryPoint> X27.339 Y30.896 Z1.42 </boundaryPoint>)
(<boundaryPoint> X-27.339 Y30.896 Z1.42 </boundaryPoint>)
(<boundaryPoint> X-27.339 Y8.693 Z1.42 </boundaryPoint>)
(<boundaryPoint> X-19.868 Y8.693 Z1.42 </boundaryPoint>)
(<boundaryPoint> X-19.868 Y3.395 Z1.42 </boundaryPoint>)
(<loop> inner )
G1 X2.64 Y-15.21 Z1.4 F3000.0
M108 R30.0
M101
G1 X2.64 Y-14.41 Z1.42 F3000.0
M108 R3.569
G1 X2.62 Y-14.41 Z1.42 F1800.0
G1 X-17.97 Y-14.41 Z1.42 F1800.0
G1 X-17.97 Y20.43 Z1.42 F1800.0
G1 X16.88 Y20.43 Z1.42 F1800.0
G1 X16.88 Y-14.41 Z1.42 F1800.0
G1 X3.09 Y-14.41 Z1.42 F1800.0
M108 R30.0
M102
G1 X2.64 Y-14.41 Z1.42 F1800.0
M108 R3.569
M103
(</loop>)
(<loop> outer )
G1 X1.21 Y-22.4 Z1.42 F3000.0
M108 R30.0
M101
G1 X1.07 Y-23.19 Z1.42 F3000.0
M108 R3.569
G1 X1.07 Y-30.31 Z1.42 F1800.0
G1 X4.88 Y-30.31 Z1.42 F1800.0
G1 X4.88 Y-23.19 Z1.42 F1800.0
G1 X26.75 Y-23.19 Z1.42 F1800.0
G1 X26.75 Y30.31 Z1.42 F1800.0
G1 X-26.75 Y30.31 Z1.42 F1800.0
G1 X-26.75 Y9.28 Z1.42 F1800.0
G1 X-19.28 Y9.28 Z1.42 F1800.0
G1 X-19.28 Y2.81 Z1.42 F1800.0
G1 X-26.75 Y2.81 Z1.42 F1800.0
G1 X-26.75 Y-23.19 Z1.42 F1800.0
G1 X1.07 Y-23.19 Z1.42 F1800.0
M103
(</loop>)
(<perimeter> outer )
G1 X0.68 Y-23.59 Z1.42 F3000.0
M101
G1 X0.68 Y-30.7 Z1.42 F1800.0
G1 X5.27 Y-30.7 Z1.42 F1800.0
G1 X5.27 Y-23.59 Z1.42 F1800.0
G1 X27.14 Y-23.59 Z1.42 F1800.0
G1 X27.14 Y30.7 Z1.42 F1800.0
G1 X-27.14 Y30.7 Z1.42 F1800.0
G1 X-27.14 Y8.89 Z1.42 F1800.0
G1 X-19.67 Y8.89 Z1.42 F1800.0
G1 X-19.67 Y3.2 Z1.42 F1800.0
G1 X-27.14 Y3.2 Z1.42 F1800.0
G1 X-27.14 Y-23.59 Z1.42 F1800.0
G1 X0.23 Y-23.59 Z1.42 F1800.0
M108 R30.0
M102
G1 X0.68 Y-23.59 Z1.42 F1800.0
M108 R3.569
M103
(</perimeter>)
(</boundaryPerimeter>)
(<surroundingLoop>)
(<boundaryPerimeter>)
(<boundaryPoint> X16.287 Y-13.82 Z1.42 </boundaryPoint>)
(<boundaryPoint> X-17.378 Y-13.82 Z1.42 </boundaryPoint>)
(<boundaryPoint> X-17.378 Y19.844 Z1.42 </boundaryPoint>)
(<boundaryPoint> X16.287 Y19.844 Z1.42 </boundaryPoint>)
(<perimeter> inner )
G1 X0.68 Y-14.82 Z1.42 F3000.0
M108 R30.0
M101
G1 X0.68 Y-14.02 Z1.42 F3000.0
M108 R3.569
G1 X-17.58 Y-14.02 Z1.42 F1800.0
G1 X-17.58 Y20.04 Z1.42 F1800.0
G1 X16.48 Y20.04 Z1.42 F1800.0
G1 X16.48 Y-14.02 Z1.42 F1800.0
G1 X1.13 Y-14.02 Z1.42 F1800.0
M108 R30.0
M102
G1 X0.68 Y-14.02 Z1.42 F1800.0
M108 R3.569
M103
(</perimeter>)
(</boundaryPerimeter>)
(</surroundingLoop>)
G1 X1.28 Y-24.07 Z1.42 F3000.0
M108 R30.0
M101
G1 X1.33 Y-24.87 Z1.42 F3000.0
M108 R3.569
G1 X1.33 Y-23.13 Z1.42 F1800.0
G1 X4.62 Y-23.13 Z1.42 F1800.0
G1 X4.18 Y-23.56 Z1.42 F1800.0
G1 X4.18 Y-24.0 Z1.42 F1800.0
G1 X4.62 Y-24.44 Z1.42 F1800.0
G1 X4.18 Y-25.31 Z1.42 F1800.0
G1 X1.33 Y-25.31 Z1.42 F1800.0
G1 X1.33 Y-27.05 Z1.42 F1800.0
G1 X4.18 Y-26.18 Z1.42 F1800.0
G1 X4.62 Y-26.62 Z1.42 F1800.0
G1 X4.18 Y-27.05 Z1.42 F1800.0
G1 X1.33 Y-27.49 Z1.42 F1800.0
G1 X1.33 Y-28.8 Z1.42 F1800.0
G1 X4.62 Y-28.8 Z1.42 F1800.0
M103
G1 X4.62 Y-29.67 Z1.42 F3000.0
M101
G1 X1.34 Y-29.67 Z1.42 F1800.0
M108 R30.0
M102
G1 X1.33 Y-29.67 Z1.42 F1800.0
G1 X1.33 Y-29.23 Z1.42 F1800.0
M108 R3.569
M103
G1 X5.19 Y-24.67 Z1.42 F3000.0
G1 X5.33 Y-23.64 Z1.42 F3000.0
G1 X6.27 Y-23.51 Z1.42 F3000.0
G1 X15.29 Y-14.1 Z1.42 F3000.0
G1 X16.43 Y-13.96 Z1.42 F3000.0
G1 X16.56 Y-12.71 Z1.42 F3000.0
G1 X16.72 Y-12.46 Z1.42 F3000.0
M108 R30.0
M101
G1 X17.13 Y-11.78 Z1.42 F3000.0
M108 R3.569
G1 X17.13 Y-14.4 Z1.42 F1800.0
G1 X18.42 Y-14.07 Z1.42 F1800.0
G1 X18.67 Y-14.07 Z1.42 F1800.0
G1 X20.6 Y-12.11 Z1.42 F1800.0
G1 X20.85 Y-12.11 Z1.42 F1800.0
G1 X22.78 Y-14.07 Z1.42 F1800.0
G1 X23.04 Y-14.07 Z1.42 F1800.0
G1 X25.09 Y-12.11 Z1.42 F1800.0
G1 X26.49 Y-13.96 Z1.42 F1800.0
G1 X26.49 Y-10.04 Z1.42 F1800.0
G1 X25.22 Y-11.88 Z1.42 F1800.0
G1 X24.96 Y-11.88 Z1.42 F1800.0
G1 X23.04 Y-9.93 Z1.42 F1800.0
G1 X22.78 Y-9.93 Z1.42 F1800.0
G1 X20.85 Y-11.88 Z1.42 F1800.0
G1 X20.6 Y-11.88 Z1.42 F1800.0
G1 X18.67 Y-9.93 Z1.42 F1800.0
G1 X18.42 Y-9.93 Z1.42 F1800.0
G1 X17.13 Y-11.35 Z1.42 F1800.0
G1 X17.13 Y-7.85 Z1.42 F1800.0
G1 X18.42 Y-9.7 Z1.42 F1800.0
G1 X18.67 Y-9.7 Z1.42 F1800.0
G1 X20.6 Y-7.75 Z1.42 F1800.0
G1 X20.85 Y-7.75 Z1.42 F1800.0
G1 X22.78 Y-9.7 Z1.42 F1800.0
G1 X23.04 Y-9.7 Z1.42 F1800.0
G1 X25.09 Y-7.75 Z1.42 F1800.0
G1 X26.49 Y-9.6 Z1.42 F1800.0
G1 X26.49 Y-5.67 Z1.42 F1800.0
G1 X25.22 Y-7.52 Z1.42 F1800.0
G1 X24.96 Y-7.52 Z1.42 F1800.0
G1 X23.04 Y-5.57 Z1.42 F1800.0
G1 X22.78 Y-5.57 Z1.42 F1800.0
G1 X20.85 Y-7.52 Z1.42 F1800.0
G1 X20.6 Y-7.52 Z1.42 F1800.0
G1 X18.67 Y-5.57 Z1.42 F1800.0
G1 X18.42 Y-5.57 Z1.42 F1800.0
G1 X17.13 Y-7.42 Z1.42 F1800.0
G1 X17.13 Y-3.49 Z1.42 F1800.0
G1 X18.42 Y-5.34 Z1.42 F1800.0
G1 X18.67 Y-5.34 Z1.42 F1800.0
G1 X20.6 Y-3.39 Z1.42 F1800.0
G1 X20.85 Y-3.39 Z1.42 F1800.0
G1 X22.78 Y-5.34 Z1.42 F1800.0
G1 X23.04 Y-5.34 Z1.42 F1800.0
G1 X25.09 Y-3.39 Z1.42 F1800.0
G1 X26.49 Y-5.24 Z1.42 F1800.0
G1 X26.49 Y-1.31 Z1.42 F1800.0
G1 X25.22 Y-3.16 Z1.42 F1800.0
G1 X24.96 Y-3.16 Z1.42 F1800.0
G1 X23.04 Y-1.21 Z1.42 F1800.0
G1 X22.78 Y-1.21 Z1.42 F1800.0
G1 X20.85 Y-3.16 Z1.42 F1800.0
G1 X20.6 Y-3.16 Z1.42 F1800.0
G1 X18.67 Y-1.21 Z1.42 F1800.0
G1 X18.42 Y-1.21 Z1.42 F1800.0
G1 X17.13 Y-3.05 Z1.42 F1800.0
G1 X17.13 Y0.87 Z1.42 F1800.0
G1 X18.42 Y-0.98 Z1.42 F1800.0
G1 X18.67 Y-0.98 Z1.42 F1800.0
G1 X20.6 Y0.98 Z1.42 F1800.0
G1 X20.85 Y0.98 Z1.42 F1800.0
G1 X22.78 Y-0.98 Z1.42 F1800.0
G1 X23.04 Y-0.98 Z1.42 F1800.0
G1 X25.09 Y0.98 Z1.42 F1800.0
G1 X26.49 Y-0.87 Z1.42 F1800.0
G1 X26.49 Y3.05 Z1.42 F1800.0
G1 X25.22 Y1.21 Z1.42 F1800.0
G1 X24.96 Y1.21 Z1.42 F1800.0
G1 X23.04 Y3.16 Z1.42 F1800.0
G1 X22.78 Y3.16 Z1.42 F1800.0
G1 X20.85 Y1.21 Z1.42 F1800.0
G1 X20.6 Y1.21 Z1.42 F1800.0
G1 X18.67 Y3.16 Z1.42 F1800.0
G1 X18.42 Y3.16 Z1.42 F1800.0
G1 X17.13 Y1.31 Z1.42 F1800.0
G1 X17.13 Y5.24 Z1.42 F1800.0
G1 X18.42 Y3.39 Z1.42 F1800.0
G1 X18.67 Y3.39 Z1.42 F1800.0
G1 X20.6 Y5.34 Z1.42 F1800.0
G1 X20.85 Y5.34 Z1.42 F1800.0
G1 X22.78 Y3.39 Z1.42 F1800.0
G1 X23.04 Y3.39 Z1.42 F1800.0
G1 X25.09 Y5.34 Z1.42 F1800.0
G1 X26.49 Y3.49 Z1.42 F1800.0
G1 X26.49 Y7.42 Z1.42 F1800.0
G1 X25.22 Y5.57 Z1.42 F1800.0
G1 X24.96 Y5.57 Z1.42 F1800.0
G1 X23.04 Y7.52 Z1.42 F1800.0
G1 X22.78 Y7.52 Z1.42 F1800.0
G1 X20.85 Y5.57 Z1.42 F1800.0
G1 X20.6 Y5.57 Z1.42 F1800.0
G1 X18.67 Y7.52 Z1.42 F1800.0
G1 X18.42 Y7.52 Z1.42 F1800.0
G1 X17.13 Y5.67 Z1.42 F1800.0
G1 X17.13 Y9.6 Z1.42 F1800.0
G1 X18.42 Y7.75 Z1.42 F1800.0
G1 X18.67 Y7.75 Z1.42 F1800.0
G1 X20.6 Y9.7 Z1.42 F1800.0
G1 X20.85 Y9.7 Z1.42 F1800.0
G1 X22.78 Y7.75 Z1.42 F1800.0
G1 X23.04 Y7.75 Z1.42 F1800.0
G1 X25.09 Y9.7 Z1.42 F1800.0
G1 X26.49 Y7.85 Z1.42 F1800.0
G1 X26.49 Y11.78 Z1.42 F1800.0
G1 X25.22 Y9.93 Z1.42 F1800.0
G1 X24.96 Y9.93 Z1.42 F1800.0
G1 X23.04 Y11.88 Z1.42 F1800.0
G1 X22.78 Y11.88 Z1.42 F1800.0
G1 X20.85 Y9.93 Z1.42 F1800.0
G1 X20.6 Y9.93 Z1.42 F1800.0
G1 X18.67 Y11.88 Z1.42 F1800.0
G1 X18.42 Y11.88 Z1.42 F1800.0
G1 X17.13 Y10.04 Z1.42 F1800.0
G1 X17.13 Y13.96 Z1.42 F1800.0
G1 X18.42 Y12.11 Z1.42 F1800.0
G1 X18.67 Y12.11 Z1.42 F1800.0
G1 X20.6 Y14.07 Z1.42 F1800.0
G1 X20.85 Y14.07 Z1.42 F1800.0
G1 X22.78 Y12.11 Z1.42 F1800.0
G1 X23.04 Y12.11 Z1.42 F1800.0
G1 X24.96 Y14.07 Z1.42 F1800.0
G1 X25.22 Y14.07 Z1.42 F1800.0
G1 X26.49 Y12.22 Z1.42 F1800.0
G1 X26.49 Y16.14 Z1.42 F1800.0
G1 X25.22 Y14.3 Z1.42 F1800.0
G1 X24.96 Y14.3 Z1.42 F1800.0
G1 X23.04 Y16.25 Z1.42 F1800.0
G1 X22.78 Y16.25 Z1.42 F1800.0
G1 X20.85 Y14.3 Z1.42 F1800.0
G1 X20.6 Y14.3 Z1.42 F1800.0
G1 X18.67 Y16.25 Z1.42 F1800.0
G1 X18.42 Y16.25 Z1.42 F1800.0
G1 X17.13 Y14.4 Z1.42 F1800.0
G1 X17.13 Y18.33 Z1.42 F1800.0
G1 X18.42 Y16.48 Z1.42 F1800.0
G1 X18.67 Y16.48 Z1.42 F1800.0
G1 X20.6 Y18.43 Z1.42 F1800.0
G1 X20.85 Y18.43 Z1.42 F1800.0
G1 X22.78 Y16.48 Z1.42 F1800.0
G1 X23.04 Y16.48 Z1.42 F1800.0
G1 X25.09 Y18.43 Z1.42 F1800.0
G1 X26.49 Y16.58 Z1.42 F1800.0
G1 X26.49 Y20.94 Z1.42 F1800.0
G1 X25.22 Y18.66 Z1.42 F1800.0
G1 X24.96 Y18.66 Z1.42 F1800.0
G1 X23.04 Y20.61 Z1.42 F1800.0
G1 X22.78 Y20.61 Z1.42 F1800.0
G1 X20.85 Y18.66 Z1.42 F1800.0
G1 X20.6 Y18.66 Z1.42 F1800.0
G1 X18.67 Y20.61 Z1.42 F1800.0
G1 X17.13 Y20.51 Z1.42 F1800.0
G1 X17.13 Y19.21 Z1.42 F1800.0
M108 R30.0
M102
G1 X17.13 Y18.76 Z1.42 F1800.0
M108 R3.569
M103
G1 X25.96 Y28.64 Z1.42 F3000.0
M108 R30.0
M101
G1 X26.49 Y29.23 Z1.42 F3000.0
M108 R3.569
G1 X26.49 Y29.67 Z1.42 F1800.0
G1 X-25.22 Y29.57 Z1.42 F1800.0
G1 X-26.49 Y29.67 Z1.42 F1800.0
G1 X-26.49 Y27.49 Z1.42 F1800.0
G1 X-25.09 Y29.34 Z1.42 F1800.0
G1 X-24.96 Y29.34 Z1.42 F1800.0
G1 X-23.04 Y27.39 Z1.42 F1800.0
G1 X-22.78 Y27.39 Z1.42 F1800.0
G1 X-20.85 Y29.34 Z1.42 F1800.0
G1 X-20.6 Y29.34 Z1.42 F1800.0
G1 X-18.67 Y27.39 Z1.42 F1800.0
G1 X-18.42 Y27.39 Z1.42 F1800.0
G1 X-16.49 Y29.34 Z1.42 F1800.0
G1 X-16.24 Y29.34 Z1.42 F1800.0
G1 X-14.31 Y27.39 Z1.42 F1800.0
G1 X-14.05 Y27.39 Z1.42 F1800.0
G1 X-12.13 Y29.34 Z1.42 F1800.0
G1 X-11.87 Y29.34 Z1.42 F1800.0
G1 X-9.95 Y27.39 Z1.42 F1800.0
G1 X-9.69 Y27.39 Z1.42 F1800.0
G1 X-7.76 Y29.34 Z1.42 F1800.0
G1 X-7.51 Y29.34 Z1.42 F1800.0
G1 X-5.58 Y27.39 Z1.42 F1800.0
G1 X-5.33 Y27.39 Z1.42 F1800.0
G1 X-3.4 Y29.34 Z1.42 F1800.0
G1 X-3.15 Y29.34 Z1.42 F1800.0
G1 X-1.22 Y27.39 Z1.42 F1800.0
G1 X-0.96 Y27.39 Z1.42 F1800.0
G1 X0.96 Y29.34 Z1.42 F1800.0
G1 X1.22 Y29.34 Z1.42 F1800.0
G1 X3.15 Y27.39 Z1.42 F1800.0
G1 X3.4 Y27.39 Z1.42 F1800.0
G1 X5.33 Y29.34 Z1.42 F1800.0
G1 X5.58 Y29.34 Z1.42 F1800.0
G1 X7.51 Y27.39 Z1.42 F1800.0
G1 X7.76 Y27.39 Z1.42 F1800.0
G1 X9.69 Y29.34 Z1.42 F1800.0
G1 X9.95 Y29.34 Z1.42 F1800.0
G1 X11.87 Y27.39 Z1.42 F1800.0
G1 X12.13 Y27.39 Z1.42 F1800.0
G1 X14.05 Y29.34 Z1.42 F1800.0
G1 X14.31 Y29.34 Z1.42 F1800.0
G1 X16.24 Y27.39 Z1.42 F1800.0
G1 X16.49 Y27.39 Z1.42 F1800.0
G1 X18.42 Y29.34 Z1.42 F1800.0
G1 X18.67 Y29.34 Z1.42 F1800.0
G1 X20.6 Y27.39 Z1.42 F1800.0
G1 X20.85 Y27.39 Z1.42 F1800.0
G1 X22.78 Y29.34 Z1.42 F1800.0
G1 X23.04 Y29.34 Z1.42 F1800.0
G1 X24.96 Y27.39 Z1.42 F1800.0
G1 X25.22 Y27.39 Z1.42 F1800.0
G1 X26.49 Y28.8 Z1.42 F1800.0
G1 X26.49 Y25.31 Z1.42 F1800.0
G1 X25.09 Y27.16 Z1.42 F1800.0
G1 X24.96 Y27.16 Z1.42 F1800.0
G1 X23.04 Y25.2 Z1.42 F1800.0
G1 X22.78 Y25.2 Z1.42 F1800.0
G1 X20.85 Y27.16 Z1.42 F1800.0
G1 X20.6 Y27.16 Z1.42 F1800.0
G1 X18.67 Y25.2 Z1.42 F1800.0
G1 X18.42 Y25.2 Z1.42 F1800.0
G1 X16.49 Y27.16 Z1.42 F1800.0
G1 X16.24 Y27.16 Z1.42 F1800.0
G1 X14.31 Y25.2 Z1.42 F1800.0
G1 X14.05 Y25.2 Z1.42 F1800.0
G1 X12.13 Y27.16 Z1.42 F1800.0
G1 X11.87 Y27.16 Z1.42 F1800.0
G1 X9.95 Y25.2 Z1.42 F1800.0
G1 X9.69 Y25.2 Z1.42 F1800.0
G1 X7.76 Y27.16 Z1.42 F1800.0
G1 X7.51 Y27.16 Z1.42 F1800.0
G1 X5.58 Y25.2 Z1.42 F1800.0
G1 X5.33 Y25.2 Z1.42 F1800.0
G1 X3.4 Y27.16 Z1.42 F1800.0
G1 X3.15 Y27.16 Z1.42 F1800.0
G1 X1.22 Y25.2 Z1.42 F1800.0
G1 X0.96 Y25.2 Z1.42 F1800.0
G1 X-0.96 Y27.16 Z1.42 F1800.0
G1 X-1.22 Y27.16 Z1.42 F1800.0
G1 X-3.15 Y25.2 Z1.42 F1800.0
G1 X-3.4 Y25.2 Z1.42 F1800.0
G1 X-5.33 Y27.16 Z1.42 F1800.0
G1 X-5.58 Y27.16 Z1.42 F1800.0
G1 X-7.51 Y25.2 Z1.42 F1800.0
G1 X-7.76 Y25.2 Z1.42 F1800.0
G1 X-9.69 Y27.16 Z1.42 F1800.0
G1 X-9.95 Y27.16 Z1.42 F1800.0
G1 X-11.87 Y25.2 Z1.42 F1800.0
G1 X-12.13 Y25.2 Z1.42 F1800.0
G1 X-14.05 Y27.16 Z1.42 F1800.0
G1 X-14.31 Y27.16 Z1.42 F1800.0
G1 X-16.24 Y25.2 Z1.42 F1800.0
G1 X-16.49 Y25.2 Z1.42 F1800.0
G1 X-18.42 Y27.16 Z1.42 F1800.0
G1 X-18.67 Y27.16 Z1.42 F1800.0
G1 X-20.6 Y25.2 Z1.42 F1800.0
G1 X-20.85 Y25.2 Z1.42 F1800.0
G1 X-22.78 Y27.16 Z1.42 F1800.0
G1 X-23.04 Y27.16 Z1.42 F1800.0
G1 X-24.96 Y25.2 Z1.42 F1800.0
G1 X-25.22 Y25.2 Z1.42 F1800.0
G1 X-26.49 Y27.05 Z1.42 F1800.0
G1 X-26.49 Y23.13 Z1.42 F1800.0
G1 X-25.09 Y24.97 Z1.42 F1800.0
G1 X-24.96 Y24.97 Z1.42 F1800.0
G1 X-23.04 Y23.02 Z1.42 F1800.0
G1 X-22.78 Y23.02 Z1.42 F1800.0
G1 X-20.85 Y24.97 Z1.42 F1800.0
G1 X-20.6 Y24.97 Z1.42 F1800.0
G1 X-18.67 Y23.02 Z1.42 F1800.0
G1 X-18.42 Y23.02 Z1.42 F1800.0
G1 X-16.49 Y24.97 Z1.42 F1800.0
G1 X1.22 Y24.97 Z1.42 F1800.0
G1 X3.15 Y23.02 Z1.42 F1800.0
G1 X3.4 Y23.02 Z1.42 F1800.0
G1 X5.33 Y24.97 Z1.42 F1800.0
G1 X5.58 Y24.97 Z1.42 F1800.0
G1 X7.51 Y23.02 Z1.42 F1800.0
G1 X7.76 Y23.02 Z1.42 F1800.0
G1 X9.69 Y24.97 Z1.42 F1800.0
G1 X9.95 Y24.97 Z1.42 F1800.0
G1 X11.87 Y23.02 Z1.42 F1800.0
G1 X12.13 Y23.02 Z1.42 F1800.0
G1 X14.05 Y24.97 Z1.42 F1800.0
G1 X14.31 Y24.97 Z1.42 F1800.0
G1 X16.24 Y23.02 Z1.42 F1800.0
G1 X16.49 Y23.02 Z1.42 F1800.0
G1 X18.42 Y24.97 Z1.42 F1800.0
G1 X18.67 Y24.97 Z1.42 F1800.0
G1 X20.6 Y23.02 Z1.42 F1800.0
G1 X20.85 Y23.02 Z1.42 F1800.0
G1 X22.78 Y24.97 Z1.42 F1800.0
G1 X23.04 Y24.97 Z1.42 F1800.0
G1 X24.96 Y23.02 Z1.42 F1800.0
G1 X25.22 Y23.02 Z1.42 F1800.0
G1 X26.49 Y24.87 Z1.42 F1800.0
G1 X26.49 Y21.38 Z1.42 F1800.0
G1 X25.09 Y22.79 Z1.42 F1800.0
G1 X24.96 Y22.79 Z1.42 F1800.0
G1 X23.04 Y20.84 Z1.42 F1800.0
G1 X22.78 Y20.84 Z1.42 F1800.0
G1 X20.85 Y22.79 Z1.42 F1800.0
G1 X20.6 Y22.79 Z1.42 F1800.0
G1 X18.67 Y20.84 Z1.42 F1800.0
G1 X18.42 Y20.84 Z1.42 F1800.0
G1 X16.49 Y22.79 Z1.42 F1800.0
G1 X-18.67 Y22.79 Z1.42 F1800.0
G1 X-20.6 Y20.84 Z1.42 F1800.0
G1 X-20.85 Y20.84 Z1.42 F1800.0
G1 X-22.78 Y22.79 Z1.42 F1800.0
G1 X-23.04 Y22.79 Z1.42 F1800.0
G1 X-24.96 Y20.84 Z1.42 F1800.0
G1 X-25.22 Y20.84 Z1.42 F1800.0
G1 X-26.49 Y22.69 Z1.42 F1800.0
G1 X-26.49 Y18.76 Z1.42 F1800.0
G1 X-25.09 Y20.61 Z1.42 F1800.0
G1 X-24.96 Y20.61 Z1.42 F1800.0
G1 X-23.04 Y18.66 Z1.42 F1800.0
G1 X-22.78 Y18.66 Z1.42 F1800.0
G1 X-20.85 Y20.61 Z1.42 F1800.0
G1 X-18.22 Y20.51 Z1.42 F1800.0
G1 X-18.66 Y20.07 Z1.42 F1800.0
G1 X-18.66 Y19.64 Z1.42 F1800.0
G1 X-18.54 Y19.52 Z1.42 F1800.0
M108 R30.0
M102
G1 X-18.22 Y19.2 Z1.42 F1800.0
M108 R3.569
M103
G1 X-18.22 Y17.82 Z1.42 F3000.0
M108 R30.0
M101
G1 X-18.22 Y17.02 Z1.42 F3000.0
M108 R3.569
G1 X-18.66 Y16.14 Z1.42 F1800.0
G1 X-20.6 Y16.48 Z1.42 F1800.0
G1 X-20.85 Y16.48 Z1.42 F1800.0
G1 X-22.78 Y18.43 Z1.42 F1800.0
G1 X-23.04 Y18.43 Z1.42 F1800.0
G1 X-24.96 Y16.48 Z1.42 F1800.0
G1 X-25.22 Y16.48 Z1.42 F1800.0
G1 X-26.49 Y18.33 Z1.42 F1800.0
G1 X-26.49 Y14.4 Z1.42 F1800.0
G1 X-25.09 Y16.25 Z1.42 F1800.0
G1 X-24.96 Y16.25 Z1.42 F1800.0
G1 X-23.04 Y14.3 Z1.42 F1800.0
G1 X-22.78 Y14.3 Z1.42 F1800.0
G1 X-20.85 Y16.25 Z1.42 F1800.0
G1 X-20.6 Y16.25 Z1.42 F1800.0
G1 X-18.66 Y15.27 Z1.42 F1800.0
G1 X-18.54 Y15.15 Z1.42 F1800.0
M108 R30.0
M102
G1 X-18.22 Y14.84 Z1.42 F1800.0
M108 R3.569
M103
G1 X-18.22 Y13.45 Z1.42 F3000.0
M108 R30.0
M101
G1 X-18.22 Y12.65 Z1.42 F3000.0
M108 R3.569
G1 X-18.66 Y11.78 Z1.42 F1800.0
G1 X-20.6 Y12.11 Z1.42 F1800.0
G1 X-20.85 Y12.11 Z1.42 F1800.0
G1 X-22.78 Y14.07 Z1.42 F1800.0
G1 X-23.04 Y14.07 Z1.42 F1800.0
G1 X-24.96 Y12.11 Z1.42 F1800.0
G1 X-25.22 Y12.11 Z1.42 F1800.0
G1 X-26.49 Y13.96 Z1.42 F1800.0
G1 X-26.49 Y9.6 Z1.42 F1800.0
G1 X-25.09 Y11.88 Z1.42 F1800.0
G1 X-24.96 Y11.88 Z1.42 F1800.0
G1 X-23.04 Y9.82 Z1.42 F1800.0
G1 X-22.78 Y9.82 Z1.42 F1800.0
G1 X-20.85 Y11.88 Z1.42 F1800.0
G1 X-20.6 Y11.88 Z1.42 F1800.0
G1 X-18.66 Y10.91 Z1.42 F1800.0
G1 X-18.54 Y10.79 Z1.42 F1800.0
M108 R30.0
M102
G1 X-18.22 Y10.47 Z1.42 F1800.0
M108 R3.569
M103
G1 X-18.22 Y9.09 Z1.42 F3000.0
M108 R30.0
M101
G1 X-18.22 Y8.29 Z1.42 F3000.0
M108 R3.569
G1 X-18.66 Y8.73 Z1.42 F1800.0
G1 X-18.22 Y9.16 Z1.42 F1800.0
G1 X-18.66 Y9.6 Z1.42 F1800.0
G1 X-19.02 Y9.16 Z1.42 F1800.0
G1 X-19.02 Y7.42 Z1.42 F1800.0
G1 X-18.59 Y7.42 Z1.42 F1800.0
G1 X-18.22 Y6.98 Z1.42 F1800.0
G1 X-19.02 Y6.98 Z1.42 F1800.0
G1 X-19.02 Y6.11 Z1.42 F1800.0
G1 X-18.22 Y6.11 Z1.42 F1800.0
G1 X-19.02 Y5.67 Z1.42 F1800.0
G1 X-19.02 Y3.49 Z1.42 F1800.0
G1 X-18.66 Y3.49 Z1.42 F1800.0
G1 X-18.22 Y3.93 Z1.42 F1800.0
M103
G1 X-18.22 Y3.05 Z1.42 F3000.0
M101
G1 X-19.02 Y3.05 Z1.42 F1800.0
G1 X-19.02 Y2.62 Z1.42 F1800.0
G1 X-18.22 Y1.75 Z1.42 F1800.0
G1 X-18.66 Y1.31 Z1.42 F1800.0
G1 X-18.66 Y0.87 Z1.42 F1800.0
G1 X-23.04 Y1.21 Z1.42 F1800.0
G1 X-26.49 Y2.18 Z1.42 F1800.0
G1 X-26.49 Y-0.87 Z1.42 F1800.0
G1 X-24.96 Y-0.98 Z1.42 F1800.0
G1 X-23.04 Y0.98 Z1.42 F1800.0
G1 X-22.78 Y0.98 Z1.42 F1800.0
G1 X-20.85 Y-0.98 Z1.42 F1800.0
G1 X-20.6 Y-0.98 Z1.42 F1800.0
G1 X-18.22 Y-1.75 Z1.42 F1800.0
G1 X-18.66 Y-1.31 Z1.42 F1800.0
G1 X-18.66 Y-0.87 Z1.42 F1800.0
G1 X-18.54 Y-0.76 Z1.42 F1800.0
M108 R30.0
M102
G1 X-18.22 Y-0.44 Z1.42 F1800.0
M108 R3.569
M103
G1 X-18.22 Y-1.82 Z1.42 F3000.0
M108 R30.0
M101
G1 X-18.22 Y-2.62 Z1.42 F3000.0
M108 R3.569
G1 X-18.66 Y-2.18 Z1.42 F1800.0
G1 X-20.6 Y-1.21 Z1.42 F1800.0
G1 X-20.85 Y-1.21 Z1.42 F1800.0
G1 X-22.78 Y-3.16 Z1.42 F1800.0
G1 X-23.04 Y-3.16 Z1.42 F1800.0
G1 X-24.96 Y-1.21 Z1.42 F1800.0
G1 X-26.49 Y-1.31 Z1.42 F1800.0
G1 X-26.49 Y-5.24 Z1.42 F1800.0
G1 X-24.96 Y-5.34 Z1.42 F1800.0
G1 X-23.04 Y-3.39 Z1.42 F1800.0
G1 X-22.78 Y-3.39 Z1.42 F1800.0
G1 X-20.85 Y-5.34 Z1.42 F1800.0
G1 X-18.66 Y-5.67 Z1.42 F1800.0
G1 X-18.42 Y-5.2 Z1.42 F1800.0
M108 R30.0
M102
G1 X-18.22 Y-4.8 Z1.42 F1800.0
M108 R3.569
M103
G1 X-18.22 Y-6.18 Z1.42 F3000.0
M108 R30.0
M101
G1 X-18.22 Y-6.98 Z1.42 F3000.0
M108 R3.569
G1 X-18.66 Y-6.55 Z1.42 F1800.0
G1 X-20.6 Y-5.57 Z1.42 F1800.0
G1 X-20.85 Y-5.57 Z1.42 F1800.0
G1 X-22.78 Y-7.52 Z1.42 F1800.0
G1 X-23.04 Y-7.52 Z1.42 F1800.0
G1 X-24.96 Y-5.57 Z1.42 F1800.0
G1 X-26.49 Y-5.67 Z1.42 F1800.0
G1 X-26.49 Y-9.6 Z1.42 F1800.0
G1 X-24.96 Y-9.7 Z1.42 F1800.0
G1 X-23.04 Y-7.75 Z1.42 F1800.0
G1 X-22.78 Y-7.75 Z1.42 F1800.0
G1 X-20.85 Y-9.7 Z1.42 F1800.0
G1 X-18.66 Y-10.04 Z1.42 F1800.0
G1 X-18.66 Y-9.6 Z1.42 F1800.0
G1 X-18.54 Y-9.48 Z1.42 F1800.0
M108 R30.0
M102
G1 X-18.22 Y-9.16 Z1.42 F1800.0
M108 R3.569
M103
G1 X-18.22 Y-10.55 Z1.42 F3000.0
M108 R30.0
M101
G1 X-18.22 Y-11.35 Z1.42 F3000.0
M108 R3.569
G1 X-18.66 Y-10.91 Z1.42 F1800.0
G1 X-20.6 Y-9.93 Z1.42 F1800.0
G1 X-20.85 Y-9.93 Z1.42 F1800.0
G1 X-22.78 Y-11.88 Z1.42 F1800.0
G1 X-23.04 Y-11.88 Z1.42 F1800.0
G1 X-24.96 Y-9.93 Z1.42 F1800.0
G1 X-26.49 Y-10.04 Z1.42 F1800.0
G1 X-26.49 Y-13.96 Z1.42 F1800.0
G1 X-24.96 Y-14.07 Z1.42 F1800.0
G1 X-23.04 Y-12.11 Z1.42 F1800.0
G1 X-22.78 Y-12.11 Z1.42 F1800.0
G1 X-20.85 Y-14.07 Z1.42 F1800.0
G1 X-18.66 Y-14.4 Z1.42 F1800.0
G1 X-18.42 Y-13.93 Z1.42 F1800.0
M108 R30.0
M102
G1 X-18.22 Y-13.53 Z1.42 F1800.0
M108 R3.569
M103
G1 X-25.73 Y-15.9 Z1.42 F3000.0
M108 R30.0
M101
G1 X-26.49 Y-16.14 Z1.42 F3000.0
M108 R3.569
G1 X-26.49 Y-14.4 Z1.42 F1800.0
G1 X-24.96 Y-14.3 Z1.42 F1800.0
G1 X-23.04 Y-16.25 Z1.42 F1800.0
G1 X-22.78 Y-16.25 Z1.42 F1800.0
G1 X-20.85 Y-14.3 Z1.42 F1800.0
G1 X-20.6 Y-14.3 Z1.42 F1800.0
G1 X-18.67 Y-16.25 Z1.42 F1800.0
G1 X16.49 Y-16.25 Z1.42 F1800.0
G1 X18.42 Y-14.3 Z1.42 F1800.0
G1 X18.67 Y-14.3 Z1.42 F1800.0
G1 X20.6 Y-16.25 Z1.42 F1800.0
G1 X20.85 Y-16.25 Z1.42 F1800.0
G1 X22.78 Y-14.3 Z1.42 F1800.0
G1 X23.04 Y-14.3 Z1.42 F1800.0
G1 X24.96 Y-16.25 Z1.42 F1800.0
G1 X25.22 Y-16.25 Z1.42 F1800.0
G1 X26.49 Y-14.4 Z1.42 F1800.0
G1 X26.49 Y-18.33 Z1.42 F1800.0
G1 X25.09 Y-16.48 Z1.42 F1800.0
G1 X24.96 Y-16.48 Z1.42 F1800.0
G1 X23.04 Y-18.43 Z1.42 F1800.0
G1 X22.78 Y-18.43 Z1.42 F1800.0
G1 X20.85 Y-16.48 Z1.42 F1800.0
G1 X20.6 Y-16.48 Z1.42 F1800.0
G1 X18.67 Y-18.43 Z1.42 F1800.0
G1 X18.42 Y-18.43 Z1.42 F1800.0
G1 X16.49 Y-16.48 Z1.42 F1800.0
G1 X16.24 Y-16.48 Z1.42 F1800.0
G1 X14.31 Y-18.43 Z1.42 F1800.0
G1 X14.05 Y-18.43 Z1.42 F1800.0
G1 X12.13 Y-16.48 Z1.42 F1800.0
G1 X11.87 Y-16.48 Z1.42 F1800.0
G1 X9.95 Y-18.43 Z1.42 F1800.0
G1 X9.69 Y-18.43 Z1.42 F1800.0
G1 X7.76 Y-16.48 Z1.42 F1800.0
G1 X7.51 Y-16.48 Z1.42 F1800.0
G1 X5.58 Y-18.43 Z1.42 F1800.0
G1 X5.33 Y-18.43 Z1.42 F1800.0
G1 X3.4 Y-16.48 Z1.42 F1800.0
G1 X3.15 Y-16.48 Z1.42 F1800.0
G1 X1.22 Y-18.43 Z1.42 F1800.0
G1 X0.96 Y-18.43 Z1.42 F1800.0
G1 X-0.96 Y-16.48 Z1.42 F1800.0
G1 X-1.22 Y-16.48 Z1.42 F1800.0
G1 X-3.15 Y-18.43 Z1.42 F1800.0
G1 X-3.4 Y-18.43 Z1.42 F1800.0
G1 X-5.33 Y-16.48 Z1.42 F1800.0
G1 X-5.58 Y-16.48 Z1.42 F1800.0
G1 X-7.51 Y-18.43 Z1.42 F1800.0
G1 X-7.76 Y-18.43 Z1.42 F1800.0
G1 X-9.69 Y-16.48 Z1.42 F1800.0
G1 X-9.95 Y-16.48 Z1.42 F1800.0
G1 X-11.87 Y-18.43 Z1.42 F1800.0
G1 X-12.13 Y-18.43 Z1.42 F1800.0
G1 X-14.05 Y-16.48 Z1.42 F1800.0
G1 X-14.31 Y-16.48 Z1.42 F1800.0
G1 X-16.24 Y-18.43 Z1.42 F1800.0
G1 X-16.49 Y-18.43 Z1.42 F1800.0
G1 X-18.42 Y-16.48 Z1.42 F1800.0
G1 X-18.67 Y-16.48 Z1.42 F1800.0
G1 X-20.6 Y-18.43 Z1.42 F1800.0
G1 X-20.85 Y-18.43 Z1.42 F1800.0
G1 X-22.78 Y-16.48 Z1.42 F1800.0
G1 X-23.04 Y-16.48 Z1.42 F1800.0
G1 X-24.96 Y-18.43 Z1.42 F1800.0
G1 X-25.22 Y-18.43 Z1.42 F1800.0
G1 X-26.49 Y-16.58 Z1.42 F1800.0
G1 X-26.49 Y-20.07 Z1.42 F1800.0
G1 X-25.09 Y-18.66 Z1.42 F1800.0
G1 X-24.96 Y-18.66 Z1.42 F1800.0
G1 X-23.04 Y-20.61 Z1.42 F1800.0
G1 X-22.78 Y-20.61 Z1.42 F1800.0
G1 X-20.85 Y-18.66 Z1.42 F1800.0
G1 X-20.6 Y-18.66 Z1.42 F1800.0
G1 X-18.67 Y-20.61 Z1.42 F1800.0
G1 X-18.42 Y-20.61 Z1.42 F1800.0
G1 X-16.49 Y-18.66 Z1.42 F1800.0
G1 X-16.24 Y-18.66 Z1.42 F1800.0
G1 X-14.31 Y-20.61 Z1.42 F1800.0
G1 X-14.05 Y-20.61 Z1.42 F1800.0
G1 X-12.13 Y-18.66 Z1.42 F1800.0
G1 X-11.87 Y-18.66 Z1.42 F1800.0
G1 X-9.95 Y-20.61 Z1.42 F1800.0
G1 X-9.69 Y-20.61 Z1.42 F1800.0
G1 X-7.76 Y-18.66 Z1.42 F1800.0
G1 X-7.51 Y-18.66 Z1.42 F1800.0
G1 X-5.58 Y-20.61 Z1.42 F1800.0
G1 X-5.33 Y-20.61 Z1.42 F1800.0
G1 X-3.4 Y-18.66 Z1.42 F1800.0
G1 X-3.15 Y-18.66 Z1.42 F1800.0
G1 X-1.22 Y-20.61 Z1.42 F1800.0
G1 X-0.96 Y-20.61 Z1.42 F1800.0
G1 X0.96 Y-18.66 Z1.42 F1800.0
G1 X1.22 Y-18.66 Z1.42 F1800.0
G1 X3.15 Y-20.61 Z1.42 F1800.0
G1 X3.4 Y-20.61 Z1.42 F1800.0
G1 X5.33 Y-18.66 Z1.42 F1800.0
G1 X5.58 Y-18.66 Z1.42 F1800.0
G1 X7.51 Y-20.61 Z1.42 F1800.0
G1 X7.76 Y-20.61 Z1.42 F1800.0
G1 X9.69 Y-18.66 Z1.42 F1800.0
G1 X9.95 Y-18.66 Z1.42 F1800.0
G1 X11.87 Y-20.61 Z1.42 F1800.0
G1 X12.13 Y-20.61 Z1.42 F1800.0
G1 X14.05 Y-18.66 Z1.42 F1800.0
G1 X14.31 Y-18.66 Z1.42 F1800.0
G1 X16.24 Y-20.61 Z1.42 F1800.0
G1 X16.49 Y-20.61 Z1.42 F1800.0
G1 X18.42 Y-18.66 Z1.42 F1800.0
G1 X18.67 Y-18.66 Z1.42 F1800.0
G1 X20.6 Y-20.61 Z1.42 F1800.0
G1 X20.85 Y-20.61 Z1.42 F1800.0
G1 X22.78 Y-18.66 Z1.42 F1800.0
G1 X23.04 Y-18.66 Z1.42 F1800.0
G1 X24.96 Y-20.61 Z1.42 F1800.0
G1 X25.22 Y-20.61 Z1.42 F1800.0
G1 X26.49 Y-18.76 Z1.42 F1800.0
G1 X26.49 Y-22.69 Z1.42 F1800.0
G1 X25.09 Y-20.84 Z1.42 F1800.0
G1 X-23.04 Y-20.84 Z1.42 F1800.0
G1 X-26.49 Y-20.51 Z1.42 F1800.0
G1 X-26.49 Y-22.24 Z1.42 F1800.0
M108 R30.0
M102
G1 X-26.49 Y-22.69 Z1.42 F1800.0
M108 R3.569
M103
(</surroundingLoop>)
(</layer>)
(<layer> 1.74 )
(<surroundingLoop>)
(<boundaryPerimeter>)
(<boundaryPoint> X-27.339 Y3.395 Z1.74 </boundaryPoint>)
(<boundaryPoint> X-27.339 Y-23.781 Z1.74 </boundaryPoint>)
(<boundaryPoint> X0.485 Y-23.781 Z1.74 </boundaryPoint>)
(<boundaryPoint> X0.485 Y-30.896 Z1.74 </boundaryPoint>)
(<boundaryPoint> X5.466 Y-30.896 Z1.74 </boundaryPoint>)
(<boundaryPoint> X5.466 Y-23.781 Z1.74 </boundaryPoint>)
(<boundaryPoint> X27.339 Y-23.781 Z1.74 </boundaryPoint>)
(<boundaryPoint> X27.339 Y30.896 Z1.74 </boundaryPoint>)
(<boundaryPoint> X-27.339 Y30.896 Z1.74 </boundaryPoint>)
(<boundaryPoint> X-27.339 Y8.693 Z1.74 </boundaryPoint>)
(<boundaryPoint> X-19.868 Y8.693 Z1.74 </boundaryPoint>)
(<boundaryPoint> X-19.868 Y3.395 Z1.74 </boundaryPoint>)
(<loop> inner )
G1 X-18.23 Y-14.96 Z1.72 F3000.0
M108 R30.0
M101
G1 X-17.65 Y-14.41 Z1.74 F3000.0
M108 R3.569
G1 X-17.97 Y-14.41 Z1.74 F1800.0
G1 X-17.97 Y20.43 Z1.74 F1800.0
G1 X16.88 Y20.43 Z1.74 F1800.0
G1 X16.88 Y-14.41 Z1.74 F1800.0
G1 X-17.2 Y-14.41 Z1.74 F1800.0
M108 R30.0
M102
G1 X-17.65 Y-14.41 Z1.74 F1800.0
M108 R3.569
M103
(</loop>)
(<loop> outer )
G1 X-17.65 Y-22.39 Z1.74 F3000.0
M108 R30.0
M101
G1 X-17.65 Y-23.19 Z1.74 F3000.0
M108 R3.569
G1 X1.07 Y-23.19 Z1.74 F1800.0
G1 X1.07 Y-30.31 Z1.74 F1800.0
G1 X4.88 Y-30.31 Z1.74 F1800.0
G1 X4.88 Y-23.19 Z1.74 F1800.0
G1 X26.75 Y-23.19 Z1.74 F1800.0
G1 X26.75 Y30.31 Z1.74 F1800.0
G1 X-26.75 Y30.31 Z1.74 F1800.0
G1 X-26.75 Y9.28 Z1.74 F1800.0
G1 X-19.28 Y9.28 Z1.74 F1800.0
G1 X-19.28 Y2.81 Z1.74 F1800.0
G1 X-26.75 Y2.81 Z1.74 F1800.0
G1 X-26.75 Y-23.19 Z1.74 F1800.0
G1 X-17.97 Y-23.19 Z1.74 F1800.0
G1 X-17.65 Y-23.19 Z1.74 F1800.0
M103
(</loop>)
(<perimeter> outer )
G1 X-17.65 Y-23.59 Z1.74 F3000.0
M101
G1 X0.68 Y-23.59 Z1.74 F1800.0
G1 X0.68 Y-30.7 Z1.74 F1800.0
G1 X5.27 Y-30.7 Z1.74 F1800.0
G1 X5.27 Y-23.59 Z1.74 F1800.0
G1 X27.14 Y-23.59 Z1.74 F1800.0
G1 X27.14 Y30.7 Z1.74 F1800.0
G1 X-27.14 Y30.7 Z1.74 F1800.0
G1 X-27.14 Y8.89 Z1.74 F1800.0
G1 X-19.67 Y8.89 Z1.74 F1800.0
G1 X-19.67 Y3.2 Z1.74 F1800.0
G1 X-27.14 Y3.2 Z1.74 F1800.0
G1 X-27.14 Y-23.59 Z1.74 F1800.0
G1 X-18.1 Y-23.59 Z1.74 F1800.0
M108 R30.0
M102
G1 X-17.97 Y-23.59 Z1.74 F1800.0
G1 X-17.65 Y-23.59 Z1.74 F1800.0
M108 R3.569
M103
(</perimeter>)
(</boundaryPerimeter>)
(<surroundingLoop>)
(<boundaryPerimeter>)
(<boundaryPoint> X16.287 Y-13.82 Z1.74 </boundaryPoint>)
(<boundaryPoint> X-17.378 Y-13.82 Z1.74 </boundaryPoint>)
(<boundaryPoint> X-17.378 Y19.844 Z1.74 </boundaryPoint>)
(<boundaryPoint> X16.287 Y19.844 Z1.74 </boundaryPoint>)
(<perimeter> inner )
G1 X-17.58 Y-14.82 Z1.74 F3000.0
M108 R30.0
M101
G1 X-17.58 Y-14.02 Z1.74 F3000.0
M108 R3.569
G1 X-17.58 Y20.04 Z1.74 F1800.0
G1 X16.48 Y20.04 Z1.74 F1800.0
G1 X16.48 Y-14.02 Z1.74 F1800.0
G1 X-17.13 Y-14.02 Z1.74 F1800.0
M108 R30.0
M102
G1 X-17.58 Y-14.02 Z1.74 F1800.0
M108 R3.569
M103
(</perimeter>)
(</boundaryPerimeter>)
(</surroundingLoop>)
G1 X-25.81 Y1.84 Z1.74 F3000.0
M108 R30.0
M101
G1 X-26.18 Y2.55 Z1.74 F3000.0
M108 R3.569
G1 X-26.18 Y-22.94 Z1.74 F1800.0
G1 X-24.0 Y-22.94 Z1.74 F1800.0
G1 X-25.2 Y-18.67 Z1.74 F1800.0
G1 X-25.2 Y-0.96 Z1.74 F1800.0
G1 X-25.74 Y2.55 Z1.74 F1800.0
G1 X-22.69 Y2.55 Z1.74 F1800.0
G1 X-23.02 Y1.22 Z1.74 F1800.0
G1 X-23.02 Y0.96 Z1.74 F1800.0
G1 X-24.97 Y-0.96 Z1.74 F1800.0
G1 X-24.97 Y-1.22 Z1.74 F1800.0
G1 X-23.02 Y-3.15 Z1.74 F1800.0
G1 X-23.02 Y-3.4 Z1.74 F1800.0
G1 X-24.97 Y-5.33 Z1.74 F1800.0
G1 X-24.97 Y-5.58 Z1.74 F1800.0
G1 X-23.02 Y-7.51 Z1.74 F1800.0
G1 X-23.02 Y-7.76 Z1.74 F1800.0
G1 X-24.97 Y-9.69 Z1.74 F1800.0
G1 X-24.97 Y-9.95 Z1.74 F1800.0
G1 X-23.02 Y-11.87 Z1.74 F1800.0
G1 X-23.02 Y-12.13 Z1.74 F1800.0
G1 X-24.97 Y-14.05 Z1.74 F1800.0
G1 X-24.97 Y-14.31 Z1.74 F1800.0
G1 X-23.02 Y-16.24 Z1.74 F1800.0
G1 X-23.02 Y-16.49 Z1.74 F1800.0
G1 X-24.97 Y-18.42 Z1.74 F1800.0
G1 X-24.97 Y-18.67 Z1.74 F1800.0
G1 X-23.02 Y-20.6 Z1.74 F1800.0
G1 X-23.02 Y-20.85 Z1.74 F1800.0
G1 X-23.56 Y-22.94 Z1.74 F1800.0
G1 X-20.07 Y-22.94 Z1.74 F1800.0
G1 X-22.79 Y-20.85 Z1.74 F1800.0
G1 X-22.79 Y-20.6 Z1.74 F1800.0
G1 X-20.84 Y-18.67 Z1.74 F1800.0
G1 X-20.84 Y-18.42 Z1.74 F1800.0
G1 X-22.79 Y-16.49 Z1.74 F1800.0
G1 X-22.79 Y-16.24 Z1.74 F1800.0
G1 X-20.84 Y-14.31 Z1.74 F1800.0
G1 X-20.84 Y-14.05 Z1.74 F1800.0
G1 X-22.79 Y-12.13 Z1.74 F1800.0
G1 X-22.79 Y-11.87 Z1.74 F1800.0
G1 X-20.84 Y-9.95 Z1.74 F1800.0
G1 X-20.84 Y-9.69 Z1.74 F1800.0
G1 X-22.79 Y-7.76 Z1.74 F1800.0
G1 X-22.79 Y-7.51 Z1.74 F1800.0
G1 X-20.84 Y-5.58 Z1.74 F1800.0
G1 X-20.84 Y-5.33 Z1.74 F1800.0
G1 X-22.79 Y-3.4 Z1.74 F1800.0
G1 X-22.79 Y-3.15 Z1.74 F1800.0
G1 X-20.84 Y-1.22 Z1.74 F1800.0
G1 X-20.84 Y-0.96 Z1.74 F1800.0
G1 X-22.79 Y0.96 Z1.74 F1800.0
G1 X-22.79 Y1.22 Z1.74 F1800.0
G1 X-22.25 Y2.55 Z1.74 F1800.0
G1 X-19.2 Y2.55 Z1.74 F1800.0
G1 X-20.61 Y-0.96 Z1.74 F1800.0
G1 X-20.61 Y-14.31 Z1.74 F1800.0
G1 X-18.66 Y-16.24 Z1.74 F1800.0
G1 X-18.66 Y-16.49 Z1.74 F1800.0
G1 X-20.61 Y-18.42 Z1.74 F1800.0
G1 X-20.61 Y-18.67 Z1.74 F1800.0
G1 X-18.66 Y-20.6 Z1.74 F1800.0
G1 X-18.66 Y-20.85 Z1.74 F1800.0
G1 X-19.64 Y-22.94 Z1.74 F1800.0
G1 X-15.71 Y-22.94 Z1.74 F1800.0
G1 X-18.43 Y-20.85 Z1.74 F1800.0
G1 X-18.43 Y-20.6 Z1.74 F1800.0
G1 X-16.48 Y-18.67 Z1.74 F1800.0
G1 X-16.48 Y-18.42 Z1.74 F1800.0
G1 X-18.43 Y-16.49 Z1.74 F1800.0
G1 X-18.43 Y-16.24 Z1.74 F1800.0
G1 X-17.89 Y-14.67 Z1.74 F1800.0
G1 X-13.96 Y-14.67 Z1.74 F1800.0
G1 X-14.3 Y-16.24 Z1.74 F1800.0
G1 X-14.3 Y-16.49 Z1.74 F1800.0
G1 X-16.25 Y-18.42 Z1.74 F1800.0
G1 X-16.25 Y-18.67 Z1.74 F1800.0
G1 X-14.3 Y-20.6 Z1.74 F1800.0
G1 X-14.3 Y-20.85 Z1.74 F1800.0
G1 X-15.27 Y-22.94 Z1.74 F1800.0
G1 X-11.35 Y-22.94 Z1.74 F1800.0
G1 X-14.07 Y-20.85 Z1.74 F1800.0
G1 X-14.07 Y-20.6 Z1.74 F1800.0
G1 X-12.11 Y-18.67 Z1.74 F1800.0
G1 X-12.11 Y-18.42 Z1.74 F1800.0
G1 X-14.07 Y-16.49 Z1.74 F1800.0
G1 X-14.07 Y-16.24 Z1.74 F1800.0
G1 X-13.53 Y-14.67 Z1.74 F1800.0
G1 X-9.6 Y-14.67 Z1.74 F1800.0
G1 X-9.93 Y-16.24 Z1.74 F1800.0
G1 X-9.93 Y-16.49 Z1.74 F1800.0
G1 X-11.88 Y-18.42 Z1.74 F1800.0
G1 X-11.88 Y-18.67 Z1.74 F1800.0
G1 X-9.93 Y-20.6 Z1.74 F1800.0
G1 X-9.93 Y-20.85 Z1.74 F1800.0
G1 X-10.91 Y-22.94 Z1.74 F1800.0
