(** This GCode was generated by ReplicatorG 0034 **)
(*  using Skeinforge (35)  *)
(*  for a Single headed Thing-O-Matic  *)
(*  on 2012/04/13 00:44:01 (-0400) *)
(<alteration>)
(**** beginning of start.gcode ****)
(This file is for a MakerBot Thing-O-Matic)
(**** begin initialization commands ****)
G21 (set units to mm)
G90 (set positioning to absolute)
M108 R5.0 (set extruder speed)
M103 (Make sure extruder is off)
M104 S225 T0 (set extruder temperature)
M109 S120 T0 (set heated-build-platform temperature)
(**** end initialization commands ****)
(**** begin homing ****)
G162 Z F1000 (home Z axis maximum)
G92 Z10 (set Z to 0)
G1 Z0.0 (move z down 10)
G162 Z F150 (home Z axis maximum)
G161 X Y F2500 (home XY axes minimum)
M132 X Y Z A B (Recall stored home offsets for XYZAB axis)
(**** end homing ****)
(**** begin pre-wipe commands ****)
( Some people have had problems with the nozzle hitting )
( bolts or wipers during this pre-extrusion warmup.     )
( If this happens to you, you can change the values for )
( the X and Y positions in the following code.          )
( The goal is to have the toolhead wipe its initial     )
( extrusion near the edge of the platform, [anchor it]  )
( so as not to have it interfere with the print.        )
( This file can be found in:                            )
( replicatorg/skein_engines/skeinforge-##/skeinforge_application/ )
( prefs/<profile name [e.g. Thingomatic-ABP-Mk7]>/alterations )
G1 X25.0 Y-60.0 Z10.0 F3300.0 (move to waiting position)
M6 T0 (wait for toolhead parts, nozzle, HBP, etc., to reach temperature)
G0 X25 Y-57 (Position Nozzle)
G0 Z0.6     (Position Height)
M108 R4.0   (Set Extruder Speed)
M101        (Start Extruder)
G4 P1500    (Create Anchor)
(**** end pre-wipe commands ****)
(**** end of start.gcode ****)
(</alteration>)
(<creation> skeinforge </creation>)
(<version> 10.11.05 </version>)
(<extruderInitialization>)
(<craftTypeName> extrusion </craftTypeName>)
M105
(<bridgeWidthMultiplier> 1.0 </bridgeWidthMultiplier>)
(<decimalPlacesCarried> 3 </decimalPlacesCarried>)
(<layerThickness> 0.32 </layerThickness>)
(<threadSequenceString> loops perimeter infill </threadSequenceString>)
(<operatingFeedRatePerSecond> 30.0 </operatingFeedRatePerSecond>)
(<operatingFlowRate> 3.56914845556 </operatingFlowRate>)
(<orbitalFeedRatePerSecond> 15.0 </orbitalFeedRatePerSecond>)
(<travelFeedRatePerSecond> 50.0 </travelFeedRatePerSecond>)
(<perimeterWidth> 0.393 </perimeterWidth>)
(<profileName> ABS </profileName>)
(<procedureDone> carve,bottom </procedureDone>)
(<procedureDone> preface </procedureDone>)
(<procedureDone> inset </procedureDone>)
(<procedureDone> fill </procedureDone>)
(<procedureDone> speed </procedureDone>)
(<procedureDone> raft </procedureDone>)
(<procedureDone> jitter </procedureDone>)
(<procedureDone> comb </procedureDone>)
(<procedureDone> cool </procedureDone>)
(<procedureDone> outline </procedureDone>)
(<procedureDone> reversal </procedureDone>)
(<procedureDone> export </procedureDone>)
(</extruderInitialization>)
(<extrusion>)
;M113 S1.0
M108 R3.569
(<layer> 0.46 )
(<surroundingLoop>)
(<boundaryPerimeter>)
(<boundaryPoint> X25.338 Y9.75 Z0.46 </boundaryPoint>)
(<boundaryPoint> X-25.338 Y9.75 Z0.46 </boundaryPoint>)
(<boundaryPoint> X-25.338 Y-9.75 Z0.46 </boundaryPoint>)
(<boundaryPoint> X25.338 Y-9.75 Z0.46 </boundaryPoint>)
(<loop> outer )
M108 R2.141
G1 X27.14 Y-11.55 Z0.46 F1080.0
M101
G1 X-27.14 Y-11.55 Z0.46 F1080.0
G1 X-27.14 Y11.55 Z0.46 F1080.0
G1 X27.14 Y11.55 Z0.46 F1080.0
G1 X27.14 Y-11.28 Z0.46 F1080.0
M108 R30.0
M102
G1 X27.14 Y-11.55 Z0.46 F1080.0
M108 R2.141
M103
G1 X0.54 Y8.68 Z0.46 F3000.0
M108 R30.0
M101
G1 X-0.09 Y9.16 Z0.46 F3000.0
M108 R2.141
G1 X-24.75 Y9.16 Z0.46 F1080.0
G1 X-24.75 Y-9.16 Z0.46 F1080.0
G1 X24.75 Y-9.16 Z0.46 F1080.0
G1 X24.75 Y9.16 Z0.46 F1080.0
G1 X0.0 Y9.16 Z0.46 F1080.0
G1 X-0.09 Y9.16 Z0.46 F1080.0
M103
(</loop>)
(<perimeter> outer )
G1 X0.0 Y9.55 Z0.46 F3000.0
M101
G1 X-25.14 Y9.55 Z0.46 F1080.0
G1 X-25.14 Y-9.55 Z0.46 F1080.0
G1 X25.14 Y-9.55 Z0.46 F1080.0
G1 X25.14 Y9.55 Z0.46 F1080.0
G1 X0.27 Y9.55 Z0.46 F1080.0
M108 R30.0
M102
G1 X0.0 Y9.55 Z0.46 F1080.0
M108 R2.141
M103
(</perimeter>)
(</boundaryPerimeter>)
G1 X23.97 Y-8.62 Z0.46 F1800.0
M108 R30.0
M101
G1 X24.35 Y-8.9 Z0.46 F1800.0
M108 R2.141
G1 X24.35 Y8.9 Z0.46 F1080.0
G1 X23.96 Y8.9 Z0.46 F1080.0
G1 X23.96 Y-8.9 Z0.46 F1080.0
G1 X23.56 Y-8.9 Z0.46 F1080.0
G1 X23.56 Y8.9 Z0.46 F1080.0
G1 X23.17 Y8.9 Z0.46 F1080.0
G1 X23.17 Y-8.9 Z0.46 F1080.0
G1 X22.78 Y-8.9 Z0.46 F1080.0
G1 X22.78 Y8.9 Z0.46 F1080.0
G1 X22.38 Y8.9 Z0.46 F1080.0
G1 X22.38 Y-8.9 Z0.46 F1080.0
G1 X21.99 Y-8.9 Z0.46 F1080.0
G1 X21.99 Y8.9 Z0.46 F1080.0
G1 X21.6 Y8.9 Z0.46 F1080.0
G1 X21.6 Y-8.9 Z0.46 F1080.0
G1 X21.21 Y-8.9 Z0.46 F1080.0
G1 X21.21 Y8.9 Z0.46 F1080.0
G1 X20.81 Y8.9 Z0.46 F1080.0
G1 X20.81 Y-8.9 Z0.46 F1080.0
G1 X20.42 Y-8.9 Z0.46 F1080.0
G1 X20.42 Y8.9 Z0.46 F1080.0
G1 X20.03 Y8.9 Z0.46 F1080.0
G1 X20.03 Y-8.9 Z0.46 F1080.0
G1 X19.64 Y-8.9 Z0.46 F1080.0
G1 X19.64 Y8.9 Z0.46 F1080.0
G1 X19.24 Y8.9 Z0.46 F1080.0
G1 X19.24 Y-8.9 Z0.46 F1080.0
G1 X18.85 Y-8.9 Z0.46 F1080.0
G1 X18.85 Y8.9 Z0.46 F1080.0
G1 X18.46 Y8.9 Z0.46 F1080.0
G1 X18.46 Y-8.9 Z0.46 F1080.0
G1 X18.06 Y-8.9 Z0.46 F1080.0
G1 X18.06 Y8.9 Z0.46 F1080.0
G1 X17.67 Y8.9 Z0.46 F1080.0
G1 X17.67 Y-8.9 Z0.46 F1080.0
G1 X17.28 Y-8.9 Z0.46 F1080.0
G1 X17.28 Y8.9 Z0.46 F1080.0
G1 X16.89 Y8.9 Z0.46 F1080.0
G1 X16.89 Y-8.9 Z0.46 F1080.0
G1 X16.49 Y-8.9 Z0.46 F1080.0
G1 X16.49 Y8.9 Z0.46 F1080.0
G1 X16.1 Y8.9 Z0.46 F1080.0
G1 X16.1 Y-8.9 Z0.46 F1080.0
G1 X15.71 Y-8.9 Z0.46 F1080.0
G1 X15.71 Y8.9 Z0.46 F1080.0
G1 X15.32 Y8.9 Z0.46 F1080.0
G1 X15.32 Y-8.9 Z0.46 F1080.0
G1 X14.92 Y-8.9 Z0.46 F1080.0
G1 X14.92 Y8.9 Z0.46 F1080.0
G1 X14.53 Y8.9 Z0.46 F1080.0
G1 X14.53 Y-8.9 Z0.46 F1080.0
G1 X14.14 Y-8.9 Z0.46 F1080.0
G1 X14.14 Y8.9 Z0.46 F1080.0
G1 X13.74 Y8.9 Z0.46 F1080.0
G1 X13.74 Y-8.9 Z0.46 F1080.0
G1 X13.35 Y-8.9 Z0.46 F1080.0
G1 X13.35 Y8.9 Z0.46 F1080.0
G1 X12.96 Y8.9 Z0.46 F1080.0
G1 X12.96 Y-8.9 Z0.46 F1080.0
G1 X12.57 Y-8.9 Z0.46 F1080.0
G1 X12.57 Y8.9 Z0.46 F1080.0
G1 X12.17 Y8.9 Z0.46 F1080.0
G1 X12.17 Y-8.9 Z0.46 F1080.0
G1 X11.78 Y-8.9 Z0.46 F1080.0
G1 X11.78 Y8.9 Z0.46 F1080.0
G1 X11.39 Y8.9 Z0.46 F1080.0
G1 X11.39 Y-8.9 Z0.46 F1080.0
G1 X11.0 Y-8.9 Z0.46 F1080.0
G1 X11.0 Y8.9 Z0.46 F1080.0
G1 X10.6 Y8.9 Z0.46 F1080.0
G1 X10.6 Y-8.9 Z0.46 F1080.0
G1 X10.21 Y-8.9 Z0.46 F1080.0
G1 X10.21 Y8.9 Z0.46 F1080.0
G1 X9.82 Y8.9 Z0.46 F1080.0
G1 X9.82 Y-8.9 Z0.46 F1080.0
G1 X9.43 Y-8.9 Z0.46 F1080.0
G1 X9.43 Y8.9 Z0.46 F1080.0
G1 X9.03 Y8.9 Z0.46 F1080.0
G1 X9.03 Y-8.9 Z0.46 F1080.0
G1 X8.64 Y-8.9 Z0.46 F1080.0
G1 X8.64 Y8.9 Z0.46 F1080.0
G1 X8.25 Y8.9 Z0.46 F1080.0
G1 X8.25 Y-8.9 Z0.46 F1080.0
G1 X7.85 Y-8.9 Z0.46 F1080.0
G1 X7.85 Y8.9 Z0.46 F1080.0
G1 X7.46 Y8.9 Z0.46 F1080.0
G1 X7.46 Y-8.9 Z0.46 F1080.0
G1 X7.07 Y-8.9 Z0.46 F1080.0
G1 X7.07 Y8.9 Z0.46 F1080.0
G1 X6.68 Y8.9 Z0.46 F1080.0
G1 X6.68 Y-8.9 Z0.46 F1080.0
G1 X6.28 Y-8.9 Z0.46 F1080.0
G1 X6.28 Y8.9 Z0.46 F1080.0
G1 X5.89 Y8.9 Z0.46 F1080.0
G1 X5.89 Y-8.9 Z0.46 F1080.0
G1 X5.5 Y-8.9 Z0.46 F1080.0
G1 X5.5 Y8.9 Z0.46 F1080.0
G1 X5.11 Y8.9 Z0.46 F1080.0
G1 X5.11 Y-8.9 Z0.46 F1080.0
G1 X4.71 Y-8.9 Z0.46 F1080.0
G1 X4.71 Y8.9 Z0.46 F1080.0
G1 X4.32 Y8.9 Z0.46 F1080.0
G1 X4.32 Y-8.9 Z0.46 F1080.0
G1 X3.93 Y-8.9 Z0.46 F1080.0
G1 X3.93 Y8.9 Z0.46 F1080.0
G1 X3.53 Y8.9 Z0.46 F1080.0
G1 X3.53 Y-8.9 Z0.46 F1080.0
G1 X3.14 Y-8.9 Z0.46 F1080.0
G1 X3.14 Y8.9 Z0.46 F1080.0
G1 X2.75 Y8.9 Z0.46 F1080.0
G1 X2.75 Y-8.9 Z0.46 F1080.0
G1 X2.36 Y-8.9 Z0.46 F1080.0
G1 X2.36 Y8.9 Z0.46 F1080.0
G1 X1.96 Y8.9 Z0.46 F1080.0
G1 X1.96 Y-8.9 Z0.46 F1080.0
G1 X1.57 Y-8.9 Z0.46 F1080.0
G1 X1.57 Y8.9 Z0.46 F1080.0
G1 X1.18 Y8.9 Z0.46 F1080.0
G1 X1.18 Y-8.9 Z0.46 F1080.0
G1 X0.79 Y-8.9 Z0.46 F1080.0
G1 X0.79 Y8.9 Z0.46 F1080.0
G1 X0.39 Y8.9 Z0.46 F1080.0
G1 X0.39 Y-8.9 Z0.46 F1080.0
G1 X-0.0 Y-8.9 Z0.46 F1080.0
G1 X0.0 Y8.9 Z0.46 F1080.0
G1 X-0.39 Y8.9 Z0.46 F1080.0
G1 X-0.39 Y-8.9 Z0.46 F1080.0
G1 X-0.79 Y-8.9 Z0.46 F1080.0
G1 X-0.79 Y8.9 Z0.46 F1080.0
G1 X-1.18 Y8.9 Z0.46 F1080.0
G1 X-1.18 Y-8.9 Z0.46 F1080.0
G1 X-1.57 Y-8.9 Z0.46 F1080.0
G1 X-1.57 Y8.9 Z0.46 F1080.0
G1 X-1.96 Y8.9 Z0.46 F1080.0
G1 X-1.96 Y-8.9 Z0.46 F1080.0
G1 X-2.36 Y-8.9 Z0.46 F1080.0
G1 X-2.36 Y8.9 Z0.46 F1080.0
G1 X-2.75 Y8.9 Z0.46 F1080.0
G1 X-2.75 Y-8.9 Z0.46 F1080.0
G1 X-3.14 Y-8.9 Z0.46 F1080.0
G1 X-3.14 Y8.9 Z0.46 F1080.0
G1 X-3.53 Y8.9 Z0.46 F1080.0
G1 X-3.53 Y-8.9 Z0.46 F1080.0
G1 X-3.93 Y-8.9 Z0.46 F1080.0
G1 X-3.93 Y8.9 Z0.46 F1080.0
G1 X-4.32 Y8.9 Z0.46 F1080.0
G1 X-4.32 Y-8.9 Z0.46 F1080.0
G1 X-4.71 Y-8.9 Z0.46 F1080.0
G1 X-4.71 Y8.9 Z0.46 F1080.0
G1 X-5.11 Y8.9 Z0.46 F1080.0
G1 X-5.11 Y-8.9 Z0.46 F1080.0
G1 X-5.5 Y-8.9 Z0.46 F1080.0
G1 X-5.5 Y8.9 Z0.46 F1080.0
G1 X-5.89 Y8.9 Z0.46 F1080.0
G1 X-5.89 Y-8.9 Z0.46 F1080.0
G1 X-6.28 Y-8.9 Z0.46 F1080.0
G1 X-6.28 Y8.9 Z0.46 F1080.0
G1 X-6.68 Y8.9 Z0.46 F1080.0
G1 X-6.68 Y-8.9 Z0.46 F1080.0
G1 X-7.07 Y-8.9 Z0.46 F1080.0
G1 X-7.07 Y8.9 Z0.46 F1080.0
G1 X-7.46 Y8.9 Z0.46 F1080.0
G1 X-7.46 Y-8.9 Z0.46 F1080.0
G1 X-7.85 Y-8.9 Z0.46 F1080.0
G1 X-7.85 Y8.9 Z0.46 F1080.0
G1 X-8.25 Y8.9 Z0.46 F1080.0
G1 X-8.25 Y-8.9 Z0.46 F1080.0
G1 X-8.64 Y-8.9 Z0.46 F1080.0
G1 X-8.64 Y8.9 Z0.46 F1080.0
G1 X-9.03 Y8.9 Z0.46 F1080.0
G1 X-9.03 Y-8.9 Z0.46 F1080.0
G1 X-9.43 Y-8.9 Z0.46 F1080.0
G1 X-9.43 Y8.9 Z0.46 F1080.0
G1 X-9.82 Y8.9 Z0.46 F1080.0
G1 X-9.82 Y-8.9 Z0.46 F1080.0
G1 X-10.21 Y-8.9 Z0.46 F1080.0
G1 X-10.21 Y8.9 Z0.46 F1080.0
G1 X-10.6 Y8.9 Z0.46 F1080.0
G1 X-10.6 Y-8.9 Z0.46 F1080.0
G1 X-11.0 Y-8.9 Z0.46 F1080.0
G1 X-11.0 Y8.9 Z0.46 F1080.0
G1 X-11.39 Y8.9 Z0.46 F1080.0
G1 X-11.39 Y-8.9 Z0.46 F1080.0
G1 X-11.78 Y-8.9 Z0.46 F1080.0
G1 X-11.78 Y8.9 Z0.46 F1080.0
G1 X-12.17 Y8.9 Z0.46 F1080.0
G1 X-12.17 Y-8.9 Z0.46 F1080.0
G1 X-12.57 Y-8.9 Z0.46 F1080.0
G1 X-12.57 Y8.9 Z0.46 F1080.0
G1 X-12.96 Y8.9 Z0.46 F1080.0
G1 X-12.96 Y-8.9 Z0.46 F1080.0
G1 X-13.35 Y-8.9 Z0.46 F1080.0
G1 X-13.35 Y8.9 Z0.46 F1080.0
G1 X-13.74 Y8.9 Z0.46 F1080.0
G1 X-13.74 Y-8.9 Z0.46 F1080.0
G1 X-14.14 Y-8.9 Z0.46 F1080.0
G1 X-14.14 Y8.9 Z0.46 F1080.0
G1 X-14.53 Y8.9 Z0.46 F1080.0
G1 X-14.53 Y-8.9 Z0.46 F1080.0
G1 X-14.92 Y-8.9 Z0.46 F1080.0
G1 X-14.92 Y8.9 Z0.46 F1080.0
G1 X-15.32 Y8.9 Z0.46 F1080.0
G1 X-15.32 Y-8.9 Z0.46 F1080.0
G1 X-15.71 Y-8.9 Z0.46 F1080.0
G1 X-15.71 Y8.9 Z0.46 F1080.0
G1 X-16.1 Y8.9 Z0.46 F1080.0
G1 X-16.1 Y-8.9 Z0.46 F1080.0
G1 X-16.49 Y-8.9 Z0.46 F1080.0
G1 X-16.49 Y8.9 Z0.46 F1080.0
G1 X-16.89 Y8.9 Z0.46 F1080.0
G1 X-16.89 Y-8.9 Z0.46 F1080.0
G1 X-17.28 Y-8.9 Z0.46 F1080.0
G1 X-17.28 Y8.9 Z0.46 F1080.0
G1 X-17.67 Y8.9 Z0.46 F1080.0
G1 X-17.67 Y-8.9 Z0.46 F1080.0
G1 X-18.06 Y-8.9 Z0.46 F1080.0
G1 X-18.06 Y8.9 Z0.46 F1080.0
G1 X-18.46 Y8.9 Z0.46 F1080.0
G1 X-18.46 Y-8.9 Z0.46 F1080.0
G1 X-18.85 Y-8.9 Z0.46 F1080.0
G1 X-18.85 Y8.9 Z0.46 F1080.0
G1 X-19.24 Y8.9 Z0.46 F1080.0
G1 X-19.24 Y-8.9 Z0.46 F1080.0
G1 X-19.64 Y-8.9 Z0.46 F1080.0
G1 X-19.64 Y8.9 Z0.46 F1080.0
G1 X-20.03 Y8.9 Z0.46 F1080.0
G1 X-20.03 Y-8.9 Z0.46 F1080.0
G1 X-20.42 Y-8.9 Z0.46 F1080.0
G1 X-20.42 Y8.9 Z0.46 F1080.0
G1 X-20.81 Y8.9 Z0.46 F1080.0
G1 X-20.81 Y-8.9 Z0.46 F1080.0
G1 X-21.21 Y-8.9 Z0.46 F1080.0
G1 X-21.21 Y8.9 Z0.46 F1080.0
G1 X-21.6 Y8.9 Z0.46 F1080.0
G1 X-21.6 Y-8.9 Z0.46 F1080.0
G1 X-21.99 Y-8.9 Z0.46 F1080.0
G1 X-21.99 Y8.9 Z0.46 F1080.0
G1 X-22.38 Y8.9 Z0.46 F1080.0
G1 X-22.38 Y-8.9 Z0.46 F1080.0
G1 X-22.78 Y-8.9 Z0.46 F1080.0
G1 X-22.78 Y8.9 Z0.46 F1080.0
G1 X-23.17 Y8.9 Z0.46 F1080.0
G1 X-23.17 Y-8.9 Z0.46 F1080.0
G1 X-23.56 Y-8.9 Z0.46 F1080.0
G1 X-23.56 Y8.9 Z0.46 F1080.0
G1 X-23.96 Y8.9 Z0.46 F1080.0
G1 X-23.96 Y-8.9 Z0.46 F1080.0
G1 X-24.35 Y-8.9 Z0.46 F1080.0
G1 X-24.35 Y8.9 Z0.46 F1080.0
M103
(</surroundingLoop>)
(</layer>)
(<layer> 0.78 )
(<surroundingLoop>)
(<boundaryPerimeter>)
(<boundaryPoint> X25.338 Y9.75 Z0.78 </boundaryPoint>)
(<boundaryPoint> X-25.338 Y9.75 Z0.78 </boundaryPoint>)
(<boundaryPoint> X-25.338 Y-9.75 Z0.78 </boundaryPoint>)
(<boundaryPoint> X25.338 Y-9.75 Z0.78 </boundaryPoint>)
(<loop> outer )
M108 R3.569
G1 X-24.14 Y9.16 Z0.78 F3000.0
M101
G1 X-24.35 Y9.16 Z0.78 F1800.0
G1 X-24.75 Y9.16 Z0.78 F1800.0
G1 X-24.75 Y-9.16 Z0.78 F1800.0
G1 X24.75 Y-9.16 Z0.78 F1800.0
G1 X24.75 Y9.16 Z0.78 F1800.0
G1 X-24.14 Y9.16 Z0.78 F1800.0
M103
(</loop>)
(<perimeter> outer )
G1 X-24.14 Y9.55 Z0.78 F3000.0
M101
G1 X-24.35 Y9.55 Z0.78 F1800.0
G1 X-25.14 Y9.55 Z0.78 F1800.0
G1 X-25.14 Y-9.55 Z0.78 F1800.0
G1 X25.14 Y-9.55 Z0.78 F1800.0
G1 X25.14 Y9.55 Z0.78 F1800.0
G1 X-23.69 Y9.55 Z0.78 F1800.0
M108 R30.0
M102
G1 X-24.14 Y9.55 Z0.78 F1800.0
M108 R3.569
M103
(</perimeter>)
(</boundaryPerimeter>)
G1 X23.69 Y8.65 Z0.78 F3000.0
M108 R30.0
M101
G1 X24.49 Y8.64 Z0.78 F3000.0
M108 R3.569
G1 X-24.49 Y8.64 Z0.78 F1800.0
G1 X-24.49 Y8.25 Z0.78 F1800.0
G1 X24.49 Y8.25 Z0.78 F1800.0
G1 X24.49 Y7.85 Z0.78 F1800.0
G1 X-24.49 Y7.85 Z0.78 F1800.0
G1 X-24.49 Y7.46 Z0.78 F1800.0
G1 X24.49 Y7.46 Z0.78 F1800.0
G1 X24.49 Y7.07 Z0.78 F1800.0
G1 X-24.49 Y7.07 Z0.78 F1800.0
G1 X-24.49 Y6.68 Z0.78 F1800.0
G1 X24.49 Y6.68 Z0.78 F1800.0
G1 X24.49 Y6.28 Z0.78 F1800.0
G1 X-24.49 Y6.28 Z0.78 F1800.0
G1 X-24.49 Y5.89 Z0.78 F1800.0
G1 X24.49 Y5.89 Z0.78 F1800.0
G1 X24.49 Y5.5 Z0.78 F1800.0
G1 X-24.49 Y5.5 Z0.78 F1800.0
G1 X-24.49 Y5.11 Z0.78 F1800.0
G1 X24.49 Y5.11 Z0.78 F1800.0
G1 X24.49 Y4.71 Z0.78 F1800.0
G1 X-24.49 Y4.71 Z0.78 F1800.0
G1 X-24.49 Y4.32 Z0.78 F1800.0
G1 X24.49 Y4.32 Z0.78 F1800.0
G1 X24.49 Y3.93 Z0.78 F1800.0
G1 X-24.49 Y3.93 Z0.78 F1800.0
G1 X-24.49 Y3.53 Z0.78 F1800.0
G1 X24.49 Y3.53 Z0.78 F1800.0
G1 X24.49 Y3.14 Z0.78 F1800.0
G1 X-24.49 Y3.14 Z0.78 F1800.0
G1 X-24.49 Y2.75 Z0.78 F1800.0
G1 X24.49 Y2.75 Z0.78 F1800.0
G1 X24.49 Y2.36 Z0.78 F1800.0
G1 X-24.49 Y2.36 Z0.78 F1800.0
G1 X-24.49 Y1.96 Z0.78 F1800.0
G1 X24.49 Y1.96 Z0.78 F1800.0
G1 X24.49 Y1.57 Z0.78 F1800.0
G1 X-24.49 Y1.57 Z0.78 F1800.0
G1 X-24.49 Y1.18 Z0.78 F1800.0
G1 X24.49 Y1.18 Z0.78 F1800.0
G1 X24.49 Y0.79 Z0.78 F1800.0
G1 X-24.49 Y0.79 Z0.78 F1800.0
G1 X-24.49 Y0.39 Z0.78 F1800.0
G1 X24.49 Y0.39 Z0.78 F1800.0
G1 X24.49 Y-0.0 Z0.78 F1800.0
G1 X-24.49 Y0.0 Z0.78 F1800.0
G1 X-24.49 Y-0.39 Z0.78 F1800.0
G1 X24.49 Y-0.39 Z0.78 F1800.0
G1 X24.49 Y-0.79 Z0.78 F1800.0
G1 X-24.49 Y-0.79 Z0.78 F1800.0
G1 X-24.49 Y-1.18 Z0.78 F1800.0
G1 X24.49 Y-1.18 Z0.78 F1800.0
G1 X24.49 Y-1.57 Z0.78 F1800.0
G1 X-24.49 Y-1.57 Z0.78 F1800.0
G1 X-24.49 Y-1.96 Z0.78 F1800.0
G1 X24.49 Y-1.96 Z0.78 F1800.0
G1 X24.49 Y-2.36 Z0.78 F1800.0
G1 X-24.49 Y-2.36 Z0.78 F1800.0
G1 X-24.49 Y-2.75 Z0.78 F1800.0
G1 X24.49 Y-2.75 Z0.78 F1800.0
G1 X24.49 Y-3.14 Z0.78 F1800.0
G1 X-24.49 Y-3.14 Z0.78 F1800.0
G1 X-24.49 Y-3.53 Z0.78 F1800.0
G1 X24.49 Y-3.53 Z0.78 F1800.0
G1 X24.49 Y-3.93 Z0.78 F1800.0
G1 X-24.49 Y-3.93 Z0.78 F1800.0
G1 X-24.49 Y-4.32 Z0.78 F1800.0
G1 X24.49 Y-4.32 Z0.78 F1800.0
G1 X24.49 Y-4.71 Z0.78 F1800.0
G1 X-24.49 Y-4.71 Z0.78 F1800.0
G1 X-24.49 Y-5.11 Z0.78 F1800.0
G1 X24.49 Y-5.11 Z0.78 F1800.0
G1 X24.49 Y-5.5 Z0.78 F1800.0
G1 X-24.49 Y-5.5 Z0.78 F1800.0
G1 X-24.49 Y-5.89 Z0.78 F1800.0
G1 X24.49 Y-5.89 Z0.78 F1800.0
G1 X24.49 Y-6.28 Z0.78 F1800.0
G1 X-24.49 Y-6.28 Z0.78 F1800.0
G1 X-24.49 Y-6.68 Z0.78 F1800.0
G1 X24.49 Y-6.68 Z0.78 F1800.0
G1 X24.49 Y-7.07 Z0.78 F1800.0
G1 X-24.49 Y-7.07 Z0.78 F1800.0
G1 X-24.49 Y-7.46 Z0.78 F1800.0
G1 X24.49 Y-7.46 Z0.78 F1800.0
G1 X24.49 Y-7.85 Z0.78 F1800.0
G1 X-24.49 Y-7.85 Z0.78 F1800.0
G1 X-24.49 Y-8.25 Z0.78 F1800.0
G1 X24.49 Y-8.25 Z0.78 F1800.0
G1 X24.49 Y-8.64 Z0.78 F1800.0
G1 X-24.49 Y-8.64 Z0.78 F1800.0
M103
(</surroundingLoop>)
(</layer>)
(<operatingLayerEnd> </operatingLayerEnd>)
(<layer> 1.1 )
(<surroundingLoop>)
(<boundaryPerimeter>)
(<boundaryPoint> X25.338 Y9.75 Z1.1 </boundaryPoint>)
(<boundaryPoint> X-25.338 Y9.75 Z1.1 </boundaryPoint>)
(<boundaryPoint> X-25.338 Y-9.75 Z1.1 </boundaryPoint>)
(<boundaryPoint> X25.338 Y-9.75 Z1.1 </boundaryPoint>)
(<loop> outer )
G1 X-24.75 Y-8.92 Z1.1 F3000.0
M101
G1 X-24.75 Y-9.16 Z1.1 F1800.0
G1 X24.75 Y-9.16 Z1.1 F1800.0
G1 X24.75 Y9.16 Z1.1 F1800.0
G1 X-24.75 Y9.16 Z1.1 F1800.0
G1 X-24.75 Y-8.64 Z1.1 F1800.0
G1 X-24.75 Y-8.92 Z1.1 F1800.0
M103
(</loop>)
(<perimeter> outer )
G1 X-25.14 Y-8.92 Z1.1 F3000.0
M101
G1 X-25.14 Y-9.55 Z1.1 F1800.0
G1 X25.14 Y-9.55 Z1.1 F1800.0
G1 X25.14 Y9.55 Z1.1 F1800.0
G1 X-25.14 Y9.55 Z1.1 F1800.0
G1 X-25.14 Y-8.47 Z1.1 F1800.0
M108 R30.0
M102
G1 X-25.14 Y-8.64 Z1.1 F1800.0
G1 X-25.14 Y-8.92 Z1.1 F1800.0
M108 R3.569
M103
(</perimeter>)
(</boundaryPerimeter>)
G1 X23.64 Y-8.9 Z1.1 F3000.0
M108 R30.0
M101
G1 X24.44 Y-8.9 Z1.1 F3000.0
M108 R3.569
G1 X23.56 Y-8.9 Z1.1 F1800.0
G1 X23.02 Y-5.58 Z1.1 F1800.0
G1 X23.02 Y7.76 Z1.1 F1800.0
G1 X24.44 Y8.9 Z1.1 F1800.0
G1 X21.82 Y8.9 Z1.1 F1800.0
G1 X22.79 Y7.76 Z1.1 F1800.0
G1 X22.79 Y7.51 Z1.1 F1800.0
G1 X20.84 Y5.58 Z1.1 F1800.0
G1 X20.84 Y5.33 Z1.1 F1800.0
G1 X22.79 Y3.4 Z1.1 F1800.0
G1 X22.79 Y3.15 Z1.1 F1800.0
G1 X20.84 Y1.22 Z1.1 F1800.0
G1 X20.84 Y0.96 Z1.1 F1800.0
G1 X22.79 Y-0.96 Z1.1 F1800.0
G1 X22.79 Y-1.22 Z1.1 F1800.0
G1 X20.84 Y-3.15 Z1.1 F1800.0
G1 X20.84 Y-3.4 Z1.1 F1800.0
G1 X22.79 Y-5.33 Z1.1 F1800.0
G1 X22.79 Y-5.58 Z1.1 F1800.0
G1 X20.84 Y-7.51 Z1.1 F1800.0
G1 X20.84 Y-7.76 Z1.1 F1800.0
G1 X23.13 Y-8.9 Z1.1 F1800.0
G1 X19.64 Y-8.9 Z1.1 F1800.0
G1 X20.61 Y-7.76 Z1.1 F1800.0
G1 X20.61 Y-7.51 Z1.1 F1800.0
G1 X18.66 Y-5.58 Z1.1 F1800.0
G1 X18.66 Y-5.33 Z1.1 F1800.0
G1 X20.61 Y-3.4 Z1.1 F1800.0
G1 X20.61 Y-3.15 Z1.1 F1800.0
G1 X18.66 Y-1.22 Z1.1 F1800.0
G1 X18.66 Y-0.96 Z1.1 F1800.0
G1 X20.61 Y0.96 Z1.1 F1800.0
G1 X20.61 Y1.22 Z1.1 F1800.0
G1 X18.66 Y3.15 Z1.1 F1800.0
G1 X18.66 Y3.4 Z1.1 F1800.0
G1 X20.61 Y5.33 Z1.1 F1800.0
G1 X20.61 Y5.58 Z1.1 F1800.0
G1 X18.66 Y7.51 Z1.1 F1800.0
G1 X18.66 Y7.76 Z1.1 F1800.0
G1 X21.38 Y8.47 Z1.1 F1800.0
G1 X20.94 Y8.9 Z1.1 F1800.0
G1 X17.45 Y8.9 Z1.1 F1800.0
G1 X18.43 Y7.76 Z1.1 F1800.0
G1 X18.43 Y7.51 Z1.1 F1800.0
G1 X16.48 Y5.58 Z1.1 F1800.0
G1 X16.48 Y5.33 Z1.1 F1800.0
G1 X18.43 Y3.4 Z1.1 F1800.0
G1 X18.43 Y3.15 Z1.1 F1800.0
G1 X16.48 Y1.22 Z1.1 F1800.0
G1 X16.48 Y0.96 Z1.1 F1800.0
G1 X18.43 Y-0.96 Z1.1 F1800.0
G1 X18.43 Y-1.22 Z1.1 F1800.0
G1 X16.48 Y-3.15 Z1.1 F1800.0
G1 X16.48 Y-3.4 Z1.1 F1800.0
G1 X18.43 Y-5.33 Z1.1 F1800.0
G1 X18.43 Y-5.58 Z1.1 F1800.0
G1 X16.48 Y-7.51 Z1.1 F1800.0
G1 X16.48 Y-7.76 Z1.1 F1800.0
G1 X19.2 Y-8.47 Z1.1 F1800.0
G1 X18.76 Y-8.9 Z1.1 F1800.0
G1 X15.27 Y-8.9 Z1.1 F1800.0
G1 X16.25 Y-7.76 Z1.1 F1800.0
G1 X16.25 Y-7.51 Z1.1 F1800.0
G1 X14.3 Y-5.58 Z1.1 F1800.0
G1 X14.3 Y-5.33 Z1.1 F1800.0
G1 X16.25 Y-3.4 Z1.1 F1800.0
G1 X16.25 Y-3.15 Z1.1 F1800.0
G1 X14.3 Y-1.22 Z1.1 F1800.0
G1 X14.3 Y-0.96 Z1.1 F1800.0
G1 X16.25 Y0.96 Z1.1 F1800.0
G1 X16.25 Y1.22 Z1.1 F1800.0
G1 X14.3 Y3.15 Z1.1 F1800.0
G1 X14.3 Y3.4 Z1.1 F1800.0
G1 X16.25 Y5.33 Z1.1 F1800.0
G1 X16.25 Y5.58 Z1.1 F1800.0
G1 X14.3 Y7.51 Z1.1 F1800.0
G1 X14.3 Y7.76 Z1.1 F1800.0
G1 X17.02 Y8.47 Z1.1 F1800.0
G1 X16.58 Y8.9 Z1.1 F1800.0
G1 X13.09 Y8.9 Z1.1 F1800.0
G1 X14.07 Y7.76 Z1.1 F1800.0
G1 X14.07 Y7.51 Z1.1 F1800.0
G1 X12.11 Y5.58 Z1.1 F1800.0
G1 X12.11 Y5.33 Z1.1 F1800.0
G1 X14.07 Y3.4 Z1.1 F1800.0
G1 X14.07 Y3.15 Z1.1 F1800.0
G1 X12.11 Y1.22 Z1.1 F1800.0
G1 X12.11 Y0.96 Z1.1 F1800.0
G1 X14.07 Y-0.96 Z1.1 F1800.0
G1 X14.07 Y-1.22 Z1.1 F1800.0
G1 X12.11 Y-3.15 Z1.1 F1800.0
G1 X12.11 Y-3.4 Z1.1 F1800.0
G1 X14.07 Y-5.33 Z1.1 F1800.0
G1 X14.07 Y-5.58 Z1.1 F1800.0
G1 X12.11 Y-7.51 Z1.1 F1800.0
G1 X12.11 Y-7.76 Z1.1 F1800.0
G1 X14.84 Y-8.47 Z1.1 F1800.0
G1 X14.4 Y-8.9 Z1.1 F1800.0
G1 X10.91 Y-8.9 Z1.1 F1800.0
G1 X11.88 Y-7.76 Z1.1 F1800.0
G1 X11.88 Y-7.51 Z1.1 F1800.0
G1 X9.93 Y-5.58 Z1.1 F1800.0
G1 X9.93 Y-5.33 Z1.1 F1800.0
G1 X11.88 Y-3.4 Z1.1 F1800.0
G1 X11.88 Y-3.15 Z1.1 F1800.0
G1 X9.93 Y-1.22 Z1.1 F1800.0
G1 X9.93 Y-0.96 Z1.1 F1800.0
G1 X11.88 Y0.96 Z1.1 F1800.0
G1 X11.88 Y1.22 Z1.1 F1800.0
G1 X9.93 Y3.15 Z1.1 F1800.0
G1 X9.93 Y3.4 Z1.1 F1800.0
G1 X11.88 Y5.33 Z1.1 F1800.0
G1 X11.88 Y5.58 Z1.1 F1800.0
G1 X9.93 Y7.51 Z1.1 F1800.0
G1 X9.93 Y7.76 Z1.1 F1800.0
G1 X12.65 Y8.47 Z1.1 F1800.0
G1 X12.22 Y8.9 Z1.1 F1800.0
G1 X8.73 Y8.9 Z1.1 F1800.0
G1 X9.7 Y7.76 Z1.1 F1800.0
G1 X9.7 Y7.51 Z1.1 F1800.0
G1 X7.75 Y5.58 Z1.1 F1800.0
G1 X7.75 Y5.33 Z1.1 F1800.0
G1 X9.7 Y3.4 Z1.1 F1800.0
G1 X9.7 Y3.15 Z1.1 F1800.0
G1 X7.75 Y1.22 Z1.1 F1800.0
G1 X7.75 Y0.96 Z1.1 F1800.0
G1 X9.7 Y-0.96 Z1.1 F1800.0
G1 X9.7 Y-1.22 Z1.1 F1800.0
G1 X7.75 Y-3.15 Z1.1 F1800.0
G1 X7.75 Y-3.4 Z1.1 F1800.0
G1 X9.7 Y-5.33 Z1.1 F1800.0
G1 X9.7 Y-5.58 Z1.1 F1800.0
G1 X7.75 Y-7.51 Z1.1 F1800.0
G1 X7.75 Y-7.76 Z1.1 F1800.0
G1 X10.47 Y-8.47 Z1.1 F1800.0
G1 X10.04 Y-8.9 Z1.1 F1800.0
G1 X6.55 Y-8.9 Z1.1 F1800.0
G1 X7.52 Y-7.76 Z1.1 F1800.0
G1 X7.52 Y-7.51 Z1.1 F1800.0
G1 X5.57 Y-5.58 Z1.1 F1800.0
G1 X5.57 Y-5.33 Z1.1 F1800.0
G1 X7.52 Y-3.4 Z1.1 F1800.0
G1 X7.52 Y-3.15 Z1.1 F1800.0
G1 X5.57 Y-1.22 Z1.1 F1800.0
G1 X5.57 Y-0.96 Z1.1 F1800.0
G1 X7.52 Y0.96 Z1.1 F1800.0
G1 X7.52 Y1.22 Z1.1 F1800.0
G1 X5.57 Y3.15 Z1.1 F1800.0
G1 X5.57 Y3.4 Z1.1 F1800.0
G1 X7.52 Y5.33 Z1.1 F1800.0
G1 X7.52 Y5.58 Z1.1 F1800.0
G1 X5.57 Y7.64 Z1.1 F1800.0
G1 X8.29 Y8.47 Z1.1 F1800.0
G1 X7.85 Y8.9 Z1.1 F1800.0
G1 X4.36 Y8.9 Z1.1 F1800.0
G1 X5.34 Y7.76 Z1.1 F1800.0
G1 X5.34 Y7.51 Z1.1 F1800.0
G1 X3.39 Y5.58 Z1.1 F1800.0
G1 X3.39 Y5.33 Z1.1 F1800.0
G1 X5.34 Y3.4 Z1.1 F1800.0
G1 X5.34 Y3.15 Z1.1 F1800.0
G1 X3.39 Y1.22 Z1.1 F1800.0
G1 X3.39 Y0.96 Z1.1 F1800.0
G1 X5.34 Y-0.96 Z1.1 F1800.0
G1 X5.34 Y-1.22 Z1.1 F1800.0
G1 X3.39 Y-3.15 Z1.1 F1800.0
G1 X3.39 Y-3.4 Z1.1 F1800.0
G1 X5.34 Y-5.33 Z1.1 F1800.0
G1 X5.34 Y-5.58 Z1.1 F1800.0
G1 X3.39 Y-7.51 Z1.1 F1800.0
G1 X3.39 Y-7.76 Z1.1 F1800.0
G1 X6.11 Y-8.47 Z1.1 F1800.0
G1 X5.67 Y-8.9 Z1.1 F1800.0
G1 X2.18 Y-8.9 Z1.1 F1800.0
G1 X3.16 Y-7.76 Z1.1 F1800.0
G1 X3.16 Y-7.51 Z1.1 F1800.0
G1 X1.21 Y-5.58 Z1.1 F1800.0
G1 X1.21 Y-5.33 Z1.1 F1800.0
G1 X3.16 Y-3.4 Z1.1 F1800.0
G1 X3.16 Y-3.15 Z1.1 F1800.0
G1 X1.21 Y-1.22 Z1.1 F1800.0
G1 X1.21 Y-0.96 Z1.1 F1800.0
G1 X3.16 Y0.96 Z1.1 F1800.0
G1 X3.16 Y1.22 Z1.1 F1800.0
G1 X1.21 Y3.15 Z1.1 F1800.0
G1 X1.21 Y3.4 Z1.1 F1800.0
G1 X3.16 Y5.33 Z1.1 F1800.0
G1 X3.16 Y5.58 Z1.1 F1800.0
G1 X1.21 Y7.51 Z1.1 F1800.0
G1 X1.21 Y7.76 Z1.1 F1800.0
G1 X3.93 Y8.47 Z1.1 F1800.0
G1 X3.49 Y8.9 Z1.1 F1800.0
G1 X0.0 Y8.9 Z1.1 F1800.0
G1 X0.98 Y7.76 Z1.1 F1800.0
G1 X0.98 Y7.51 Z1.1 F1800.0
G1 X-0.98 Y5.58 Z1.1 F1800.0
G1 X-0.98 Y5.33 Z1.1 F1800.0
G1 X0.98 Y3.4 Z1.1 F1800.0
G1 X0.98 Y3.15 Z1.1 F1800.0
G1 X-0.98 Y1.22 Z1.1 F1800.0
G1 X-0.98 Y0.96 Z1.1 F1800.0
G1 X0.98 Y-0.96 Z1.1 F1800.0
G1 X0.98 Y-1.22 Z1.1 F1800.0
G1 X-0.98 Y-3.15 Z1.1 F1800.0
G1 X-0.98 Y-3.4 Z1.1 F1800.0
G1 X0.98 Y-5.33 Z1.1 F1800.0
G1 X0.98 Y-5.58 Z1.1 F1800.0
G1 X-0.98 Y-7.51 Z1.1 F1800.0
G1 X-0.98 Y-7.76 Z1.1 F1800.0
G1 X1.75 Y-8.47 Z1.1 F1800.0
G1 X1.31 Y-8.9 Z1.1 F1800.0
G1 X-2.18 Y-8.9 Z1.1 F1800.0
G1 X-1.21 Y-7.76 Z1.1 F1800.0
G1 X-1.21 Y-7.51 Z1.1 F1800.0
G1 X-3.16 Y-5.58 Z1.1 F1800.0
G1 X-3.16 Y-5.33 Z1.1 F1800.0
G1 X-1.21 Y-3.4 Z1.1 F1800.0
G1 X-1.21 Y-3.15 Z1.1 F1800.0
G1 X-3.16 Y-1.22 Z1.1 F1800.0
G1 X-3.16 Y-0.96 Z1.1 F1800.0
G1 X-1.21 Y0.96 Z1.1 F1800.0
G1 X-1.21 Y1.22 Z1.1 F1800.0
G1 X-3.16 Y3.15 Z1.1 F1800.0
G1 X-3.16 Y3.4 Z1.1 F1800.0
G1 X-1.21 Y5.33 Z1.1 F1800.0
G1 X-1.21 Y5.58 Z1.1 F1800.0
G1 X-3.16 Y7.51 Z1.1 F1800.0
G1 X-3.16 Y7.76 Z1.1 F1800.0
G1 X-0.44 Y8.47 Z1.1 F1800.0
G1 X-0.87 Y8.9 Z1.1 F1800.0
G1 X-4.36 Y8.9 Z1.1 F1800.0
G1 X-3.39 Y7.76 Z1.1 F1800.0
G1 X-3.39 Y7.51 Z1.1 F1800.0
G1 X-5.34 Y5.58 Z1.1 F1800.0
G1 X-5.34 Y5.33 Z1.1 F1800.0
G1 X-3.39 Y3.4 Z1.1 F1800.0
G1 X-3.39 Y3.15 Z1.1 F1800.0
G1 X-5.34 Y1.22 Z1.1 F1800.0
G1 X-5.34 Y0.96 Z1.1 F1800.0
G1 X-3.39 Y-0.96 Z1.1 F1800.0
G1 X-3.39 Y-1.22 Z1.1 F1800.0
G1 X-5.34 Y-3.15 Z1.1 F1800.0
G1 X-5.34 Y-3.4 Z1.1 F1800.0
G1 X-3.39 Y-5.33 Z1.1 F1800.0
G1 X-3.39 Y-5.58 Z1.1 F1800.0
G1 X-5.34 Y-7.51 Z1.1 F1800.0
G1 X-5.34 Y-7.76 Z1.1 F1800.0
G1 X-2.62 Y-8.47 Z1.1 F1800.0
G1 X-3.05 Y-8.9 Z1.1 F1800.0
G1 X-6.55 Y-8.9 Z1.1 F1800.0
G1 X-5.57 Y-7.76 Z1.1 F1800.0
G1 X-5.57 Y-7.51 Z1.1 F1800.0
G1 X-7.52 Y-5.58 Z1.1 F1800.0
G1 X-7.52 Y-5.33 Z1.1 F1800.0
G1 X-5.57 Y-3.4 Z1.1 F1800.0
G1 X-5.57 Y-3.15 Z1.1 F1800.0
G1 X-7.52 Y-1.22 Z1.1 F1800.0
G1 X-7.52 Y-0.96 Z1.1 F1800.0
G1 X-5.57 Y0.96 Z1.1 F1800.0
G1 X-5.57 Y1.22 Z1.1 F1800.0
G1 X-7.52 Y3.15 Z1.1 F1800.0
G1 X-7.52 Y3.4 Z1.1 F1800.0
G1 X-5.57 Y5.33 Z1.1 F1800.0
G1 X-5.57 Y5.58 Z1.1 F1800.0
G1 X-7.52 Y7.51 Z1.1 F1800.0
G1 X-7.52 Y7.76 Z1.1 F1800.0
G1 X-4.8 Y8.47 Z1.1 F1800.0
G1 X-5.24 Y8.9 Z1.1 F1800.0
G1 X-8.73 Y8.9 Z1.1 F1800.0
G1 X-7.75 Y7.76 Z1.1 F1800.0
G1 X-7.75 Y7.51 Z1.1 F1800.0
G1 X-9.7 Y5.58 Z1.1 F1800.0
G1 X-9.7 Y5.33 Z1.1 F1800.0
G1 X-7.75 Y3.4 Z1.1 F1800.0
G1 X-7.75 Y3.15 Z1.1 F1800.0
G1 X-9.7 Y1.22 Z1.1 F1800.0
G1 X-9.7 Y0.96 Z1.1 F1800.0
G1 X-7.75 Y-0.96 Z1.1 F1800.0
G1 X-7.75 Y-1.22 Z1.1 F1800.0
G1 X-9.7 Y-3.15 Z1.1 F1800.0
G1 X-9.7 Y-3.4 Z1.1 F1800.0
G1 X-7.75 Y-5.33 Z1.1 F1800.0
G1 X-7.75 Y-5.58 Z1.1 F1800.0
G1 X-9.7 Y-7.51 Z1.1 F1800.0
G1 X-9.7 Y-7.76 Z1.1 F1800.0
G1 X-6.98 Y-8.47 Z1.1 F1800.0
G1 X-7.42 Y-8.9 Z1.1 F1800.0
G1 X-10.91 Y-8.9 Z1.1 F1800.0
G1 X-9.93 Y-7.76 Z1.1 F1800.0
G1 X-9.93 Y-7.51 Z1.1 F1800.0
G1 X-11.88 Y-5.58 Z1.1 F1800.0
G1 X-11.88 Y-5.33 Z1.1 F1800.0
G1 X-9.93 Y-3.4 Z1.1 F1800.0
G1 X-9.93 Y-3.15 Z1.1 F1800.0
G1 X-11.88 Y-1.22 Z1.1 F1800.0
G1 X-11.88 Y-0.96 Z1.1 F1800.0
G1 X-9.93 Y0.96 Z1.1 F1800.0
G1 X-9.93 Y1.22 Z1.1 F1800.0
G1 X-11.88 Y3.15 Z1.1 F1800.0
G1 X-11.88 Y3.4 Z1.1 F1800.0
G1 X-9.93 Y5.33 Z1.1 F1800.0
G1 X-9.93 Y5.58 Z1.1 F1800.0
G1 X-11.88 Y7.51 Z1.1 F1800.0
G1 X-11.88 Y7.76 Z1.1 F1800.0
G1 X-9.16 Y8.47 Z1.1 F1800.0
G1 X-9.6 Y8.9 Z1.1 F1800.0
G1 X-13.09 Y8.9 Z1.1 F1800.0
G1 X-12.11 Y7.76 Z1.1 F1800.0
G1 X-12.11 Y7.51 Z1.1 F1800.0
G1 X-14.07 Y5.58 Z1.1 F1800.0
G1 X-14.07 Y5.33 Z1.1 F1800.0
G1 X-12.11 Y3.4 Z1.1 F1800.0
G1 X-12.11 Y3.15 Z1.1 F1800.0
G1 X-14.07 Y1.22 Z1.1 F1800.0
G1 X-14.07 Y0.96 Z1.1 F1800.0
G1 X-12.11 Y-0.96 Z1.1 F1800.0
G1 X-12.11 Y-1.22 Z1.1 F1800.0
G1 X-14.07 Y-3.15 Z1.1 F1800.0
G1 X-14.07 Y-3.4 Z1.1 F1800.0
G1 X-12.11 Y-5.33 Z1.1 F1800.0
G1 X-12.11 Y-5.58 Z1.1 F1800.0
G1 X-14.07 Y-7.64 Z1.1 F1800.0
G1 X-11.35 Y-8.47 Z1.1 F1800.0
G1 X-11.78 Y-8.9 Z1.1 F1800.0
G1 X-15.27 Y-8.9 Z1.1 F1800.0
G1 X-14.3 Y-7.76 Z1.1 F1800.0
G1 X-14.3 Y-7.51 Z1.1 F1800.0
G1 X-16.25 Y-5.58 Z1.1 F1800.0
G1 X-16.25 Y-5.33 Z1.1 F1800.0
G1 X-14.3 Y-3.4 Z1.1 F1800.0
G1 X-14.3 Y-3.15 Z1.1 F1800.0
G1 X-16.25 Y-1.22 Z1.1 F1800.0
G1 X-16.25 Y-0.96 Z1.1 F1800.0
G1 X-14.3 Y0.96 Z1.1 F1800.0
G1 X-14.3 Y1.22 Z1.1 F1800.0
G1 X-16.25 Y3.15 Z1.1 F1800.0
G1 X-16.25 Y3.4 Z1.1 F1800.0
G1 X-14.3 Y5.33 Z1.1 F1800.0
G1 X-14.3 Y5.58 Z1.1 F1800.0
G1 X-16.25 Y7.51 Z1.1 F1800.0
G1 X-16.25 Y7.76 Z1.1 F1800.0
G1 X-13.53 Y8.47 Z1.1 F1800.0
G1 X-13.96 Y8.9 Z1.1 F1800.0
G1 X-17.45 Y8.9 Z1.1 F1800.0
G1 X-16.48 Y7.76 Z1.1 F1800.0
G1 X-16.48 Y7.51 Z1.1 F1800.0
G1 X-18.43 Y5.58 Z1.1 F1800.0
G1 X-18.43 Y5.33 Z1.1 F1800.0
G1 X-16.48 Y3.4 Z1.1 F1800.0
G1 X-16.48 Y3.15 Z1.1 F1800.0
G1 X-18.43 Y1.22 Z1.1 F1800.0
G1 X-18.43 Y0.96 Z1.1 F1800.0
G1 X-16.48 Y-0.96 Z1.1 F1800.0
G1 X-16.48 Y-1.22 Z1.1 F1800.0
G1 X-18.43 Y-3.15 Z1.1 F1800.0
G1 X-18.43 Y-3.4 Z1.1 F1800.0
G1 X-16.48 Y-5.33 Z1.1 F1800.0
G1 X-16.48 Y-5.58 Z1.1 F1800.0
G1 X-18.43 Y-7.51 Z1.1 F1800.0
G1 X-18.43 Y-7.76 Z1.1 F1800.0
G1 X-15.71 Y-8.47 Z1.1 F1800.0
G1 X-16.14 Y-8.9 Z1.1 F1800.0
G1 X-19.64 Y-8.9 Z1.1 F1800.0
G1 X-18.66 Y-7.76 Z1.1 F1800.0
G1 X-18.66 Y-7.51 Z1.1 F1800.0
G1 X-20.61 Y-5.58 Z1.1 F1800.0
G1 X-20.61 Y-5.33 Z1.1 F1800.0
G1 X-18.66 Y-3.4 Z1.1 F1800.0
G1 X-18.66 Y-3.15 Z1.1 F1800.0
G1 X-20.61 Y-1.22 Z1.1 F1800.0
G1 X-20.61 Y-0.96 Z1.1 F1800.0
G1 X-18.66 Y0.96 Z1.1 F1800.0
G1 X-18.66 Y1.22 Z1.1 F1800.0
G1 X-20.61 Y3.15 Z1.1 F1800.0
G1 X-20.61 Y3.4 Z1.1 F1800.0
G1 X-18.66 Y5.33 Z1.1 F1800.0
G1 X-18.66 Y5.58 Z1.1 F1800.0
G1 X-20.61 Y7.51 Z1.1 F1800.0
G1 X-20.61 Y7.76 Z1.1 F1800.0
G1 X-17.89 Y8.47 Z1.1 F1800.0
G1 X-18.33 Y8.9 Z1.1 F1800.0
G1 X-21.38 Y8.9 Z1.1 F1800.0
G1 X-20.84 Y7.76 Z1.1 F1800.0
G1 X-20.84 Y7.51 Z1.1 F1800.0
G1 X-22.79 Y5.58 Z1.1 F1800.0
G1 X-22.79 Y5.33 Z1.1 F1800.0
G1 X-20.84 Y3.4 Z1.1 F1800.0
G1 X-20.84 Y3.15 Z1.1 F1800.0
G1 X-22.79 Y1.22 Z1.1 F1800.0
G1 X-22.79 Y0.96 Z1.1 F1800.0
G1 X-20.84 Y-0.96 Z1.1 F1800.0
G1 X-20.84 Y-1.22 Z1.1 F1800.0
G1 X-22.79 Y-3.15 Z1.1 F1800.0
G1 X-22.79 Y-3.4 Z1.1 F1800.0
G1 X-20.84 Y-5.33 Z1.1 F1800.0
G1 X-20.84 Y-5.58 Z1.1 F1800.0
G1 X-22.79 Y-7.51 Z1.1 F1800.0
G1 X-22.79 Y-7.76 Z1.1 F1800.0
G1 X-20.07 Y-8.47 Z1.1 F1800.0
G1 X-20.51 Y-8.9 Z1.1 F1800.0
G1 X-23.56 Y-8.9 Z1.1 F1800.0
G1 X-23.02 Y-7.76 Z1.1 F1800.0
G1 X-23.02 Y5.58 Z1.1 F1800.0
G1 X-21.82 Y8.9 Z1.1 F1800.0
G1 X-24.44 Y8.9 Z1.1 F1800.0
G1 X-24.44 Y-8.9 Z1.1 F1800.0
G1 X-24.0 Y-8.9 Z1.1 F1800.0
M103
(</surroundingLoop>)
(</layer>)
(<layer> 1.42 )
(<surroundingLoop>)
(<boundaryPerimeter>)
(<boundaryPoint> X25.338 Y9.75 Z1.42 </boundaryPoint>)
(<boundaryPoint> X-25.338 Y9.75 Z1.42 </boundaryPoint>)
(<boundaryPoint> X-25.338 Y-9.75 Z1.42 </boundaryPoint>)
(<boundaryPoint> X25.338 Y-9.75 Z1.42 </boundaryPoint>)
(<loop> outer )
G1 X-24.02 Y-9.16 Z1.42 F3000.0
M101
G1 X-24.0 Y-9.16 Z1.42 F1800.0
G1 X24.75 Y-9.16 Z1.42 F1800.0
G1 X24.75 Y9.16 Z1.42 F1800.0
G1 X-24.75 Y9.16 Z1.42 F1800.0
G1 X-24.75 Y-9.16 Z1.42 F1800.0
G1 X-24.02 Y-9.16 Z1.42 F1800.0
M103
(</loop>)
(<perimeter> outer )
G1 X-24.0 Y-9.55 Z1.42 F3000.0
M101
G1 X25.14 Y-9.55 Z1.42 F1800.0
G1 X25.14 Y9.55 Z1.42 F1800.0
G1 X-25.14 Y9.55 Z1.42 F1800.0
G1 X-25.14 Y-9.55 Z1.42 F1800.0
G1 X-24.45 Y-9.55 Z1.42 F1800.0
M108 R30.0
M102
G1 X-24.0 Y-9.55 Z1.42 F1800.0
M108 R3.569
M103
(</perimeter>)
(</boundaryPerimeter>)
G1 X23.74 Y8.45 Z1.42 F3000.0
M108 R30.0
M101
G1 X24.49 Y8.73 Z1.42 F3000.0
M108 R3.569
G1 X24.49 Y8.29 Z1.42 F1800.0
G1 X23.04 Y7.75 Z1.42 F1800.0
G1 X-20.85 Y7.75 Z1.42 F1800.0
G1 X-24.49 Y8.73 Z1.42 F1800.0
G1 X-24.49 Y6.11 Z1.42 F1800.0
G1 X-23.04 Y5.57 Z1.42 F1800.0
G1 X-22.78 Y5.57 Z1.42 F1800.0
G1 X-20.85 Y7.52 Z1.42 F1800.0
G1 X-20.6 Y7.52 Z1.42 F1800.0
G1 X-18.67 Y5.57 Z1.42 F1800.0
G1 X-0.96 Y5.57 Z1.42 F1800.0
G1 X0.96 Y7.52 Z1.42 F1800.0
G1 X1.22 Y7.52 Z1.42 F1800.0
G1 X3.15 Y5.57 Z1.42 F1800.0
G1 X3.4 Y5.57 Z1.42 F1800.0
G1 X5.33 Y7.52 Z1.42 F1800.0
G1 X5.58 Y7.52 Z1.42 F1800.0
G1 X7.51 Y5.57 Z1.42 F1800.0
G1 X7.76 Y5.57 Z1.42 F1800.0
G1 X9.69 Y7.52 Z1.42 F1800.0
G1 X9.95 Y7.52 Z1.42 F1800.0
G1 X11.87 Y5.57 Z1.42 F1800.0
G1 X12.13 Y5.57 Z1.42 F1800.0
G1 X14.05 Y7.52 Z1.42 F1800.0
G1 X14.31 Y7.52 Z1.42 F1800.0
G1 X16.24 Y5.57 Z1.42 F1800.0
G1 X16.49 Y5.57 Z1.42 F1800.0
G1 X18.42 Y7.52 Z1.42 F1800.0
G1 X18.67 Y7.52 Z1.42 F1800.0
G1 X20.6 Y5.57 Z1.42 F1800.0
G1 X20.85 Y5.57 Z1.42 F1800.0
G1 X22.78 Y7.52 Z1.42 F1800.0
G1 X23.04 Y7.52 Z1.42 F1800.0
G1 X24.49 Y7.85 Z1.42 F1800.0
G1 X24.49 Y3.93 Z1.42 F1800.0
G1 X23.04 Y3.39 Z1.42 F1800.0
G1 X22.78 Y3.39 Z1.42 F1800.0
G1 X20.85 Y5.34 Z1.42 F1800.0
G1 X20.6 Y5.34 Z1.42 F1800.0
G1 X18.67 Y3.39 Z1.42 F1800.0
G1 X18.42 Y3.39 Z1.42 F1800.0
G1 X16.49 Y5.34 Z1.42 F1800.0
G1 X16.24 Y5.34 Z1.42 F1800.0
G1 X14.31 Y3.39 Z1.42 F1800.0
G1 X14.05 Y3.39 Z1.42 F1800.0
G1 X12.13 Y5.34 Z1.42 F1800.0
G1 X11.87 Y5.34 Z1.42 F1800.0
G1 X9.95 Y3.39 Z1.42 F1800.0
G1 X9.69 Y3.39 Z1.42 F1800.0
G1 X7.76 Y5.34 Z1.42 F1800.0
G1 X7.51 Y5.34 Z1.42 F1800.0
G1 X5.58 Y3.39 Z1.42 F1800.0
G1 X5.33 Y3.39 Z1.42 F1800.0
G1 X3.4 Y5.34 Z1.42 F1800.0
G1 X3.15 Y5.34 Z1.42 F1800.0
G1 X1.22 Y3.39 Z1.42 F1800.0
G1 X0.96 Y3.39 Z1.42 F1800.0
G1 X-0.96 Y5.34 Z1.42 F1800.0
G1 X-1.22 Y5.34 Z1.42 F1800.0
G1 X-3.15 Y3.39 Z1.42 F1800.0
G1 X-3.4 Y3.39 Z1.42 F1800.0
G1 X-5.33 Y5.34 Z1.42 F1800.0
G1 X-5.58 Y5.34 Z1.42 F1800.0
G1 X-7.51 Y3.39 Z1.42 F1800.0
G1 X-7.76 Y3.39 Z1.42 F1800.0
G1 X-9.69 Y5.34 Z1.42 F1800.0
G1 X-9.95 Y5.34 Z1.42 F1800.0
G1 X-11.87 Y3.39 Z1.42 F1800.0
G1 X-12.13 Y3.39 Z1.42 F1800.0
G1 X-14.05 Y5.34 Z1.42 F1800.0
G1 X-14.31 Y5.34 Z1.42 F1800.0
G1 X-16.24 Y3.39 Z1.42 F1800.0
G1 X-16.49 Y3.39 Z1.42 F1800.0
G1 X-18.42 Y5.34 Z1.42 F1800.0
G1 X-18.67 Y5.34 Z1.42 F1800.0
G1 X-20.6 Y3.39 Z1.42 F1800.0
G1 X-20.85 Y3.39 Z1.42 F1800.0
G1 X-22.78 Y5.34 Z1.42 F1800.0
G1 X-23.04 Y5.34 Z1.42 F1800.0
G1 X-24.49 Y5.67 Z1.42 F1800.0
G1 X-24.49 Y1.75 Z1.42 F1800.0
G1 X-23.04 Y1.21 Z1.42 F1800.0
G1 X-22.78 Y1.21 Z1.42 F1800.0
G1 X-20.85 Y3.16 Z1.42 F1800.0
G1 X-20.6 Y3.16 Z1.42 F1800.0
G1 X-18.67 Y1.21 Z1.42 F1800.0
G1 X-18.42 Y1.21 Z1.42 F1800.0
G1 X-16.49 Y3.16 Z1.42 F1800.0
G1 X-16.24 Y3.16 Z1.42 F1800.0
G1 X-14.31 Y1.21 Z1.42 F1800.0
G1 X-14.05 Y1.21 Z1.42 F1800.0
G1 X-12.13 Y3.16 Z1.42 F1800.0
G1 X-11.87 Y3.16 Z1.42 F1800.0
G1 X-9.95 Y1.21 Z1.42 F1800.0
G1 X-9.69 Y1.21 Z1.42 F1800.0
G1 X-7.76 Y3.16 Z1.42 F1800.0
G1 X-7.51 Y3.16 Z1.42 F1800.0
G1 X-5.58 Y1.21 Z1.42 F1800.0
G1 X-5.33 Y1.21 Z1.42 F1800.0
G1 X-3.4 Y3.16 Z1.42 F1800.0
G1 X-3.15 Y3.16 Z1.42 F1800.0
G1 X-1.22 Y1.21 Z1.42 F1800.0
G1 X-0.96 Y1.21 Z1.42 F1800.0
G1 X0.96 Y3.16 Z1.42 F1800.0
G1 X1.22 Y3.16 Z1.42 F1800.0
G1 X3.15 Y1.21 Z1.42 F1800.0
G1 X3.4 Y1.21 Z1.42 F1800.0
G1 X5.33 Y3.16 Z1.42 F1800.0
G1 X5.58 Y3.16 Z1.42 F1800.0
G1 X7.51 Y1.21 Z1.42 F1800.0
G1 X7.76 Y1.21 Z1.42 F1800.0
G1 X9.69 Y3.16 Z1.42 F1800.0
G1 X9.95 Y3.16 Z1.42 F1800.0
G1 X11.87 Y1.21 Z1.42 F1800.0
G1 X12.13 Y1.21 Z1.42 F1800.0
G1 X14.05 Y3.16 Z1.42 F1800.0
G1 X14.31 Y3.16 Z1.42 F1800.0
G1 X16.24 Y1.21 Z1.42 F1800.0
G1 X16.49 Y1.21 Z1.42 F1800.0
G1 X18.42 Y3.16 Z1.42 F1800.0
G1 X18.67 Y3.16 Z1.42 F1800.0
G1 X20.6 Y1.21 Z1.42 F1800.0
G1 X20.85 Y1.21 Z1.42 F1800.0
G1 X22.78 Y3.16 Z1.42 F1800.0
G1 X23.04 Y3.16 Z1.42 F1800.0
G1 X24.49 Y3.49 Z1.42 F1800.0
G1 X24.49 Y-0.44 Z1.42 F1800.0
G1 X23.04 Y-0.98 Z1.42 F1800.0
G1 X22.78 Y-0.98 Z1.42 F1800.0
G1 X20.85 Y0.98 Z1.42 F1800.0
G1 X20.6 Y0.98 Z1.42 F1800.0
G1 X18.67 Y-0.98 Z1.42 F1800.0
G1 X18.42 Y-0.98 Z1.42 F1800.0
G1 X16.49 Y0.98 Z1.42 F1800.0
G1 X16.24 Y0.98 Z1.42 F1800.0
G1 X14.31 Y-0.98 Z1.42 F1800.0
G1 X14.05 Y-0.98 Z1.42 F1800.0
G1 X12.13 Y0.98 Z1.42 F1800.0
G1 X11.87 Y0.98 Z1.42 F1800.0
G1 X9.95 Y-0.98 Z1.42 F1800.0
G1 X9.69 Y-0.98 Z1.42 F1800.0
G1 X7.76 Y0.98 Z1.42 F1800.0
G1 X7.51 Y0.98 Z1.42 F1800.0
G1 X5.58 Y-0.98 Z1.42 F1800.0
G1 X5.33 Y-0.98 Z1.42 F1800.0
G1 X3.4 Y0.98 Z1.42 F1800.0
G1 X3.15 Y0.98 Z1.42 F1800.0
G1 X1.22 Y-0.98 Z1.42 F1800.0
G1 X0.96 Y-0.98 Z1.42 F1800.0
G1 X-0.96 Y0.98 Z1.42 F1800.0
G1 X-1.22 Y0.98 Z1.42 F1800.0
G1 X-3.15 Y-0.98 Z1.42 F1800.0
G1 X-3.4 Y-0.98 Z1.42 F1800.0
G1 X-5.33 Y0.98 Z1.42 F1800.0
G1 X-5.58 Y0.98 Z1.42 F1800.0
G1 X-7.51 Y-0.98 Z1.42 F1800.0
G1 X-7.76 Y-0.98 Z1.42 F1800.0
G1 X-9.69 Y0.98 Z1.42 F1800.0
G1 X-9.95 Y0.98 Z1.42 F1800.0
G1 X-11.87 Y-0.98 Z1.42 F1800.0
G1 X-12.13 Y-0.98 Z1.42 F1800.0
G1 X-14.05 Y0.98 Z1.42 F1800.0
G1 X-14.31 Y0.98 Z1.42 F1800.0
G1 X-16.24 Y-0.98 Z1.42 F1800.0
G1 X-16.49 Y-0.98 Z1.42 F1800.0
G1 X-18.42 Y0.98 Z1.42 F1800.0
G1 X-18.67 Y0.98 Z1.42 F1800.0
G1 X-20.6 Y-0.98 Z1.42 F1800.0
G1 X-20.85 Y-0.98 Z1.42 F1800.0
G1 X-22.78 Y0.98 Z1.42 F1800.0
G1 X-23.04 Y0.98 Z1.42 F1800.0
G1 X-24.49 Y1.31 Z1.42 F1800.0
G1 X-24.49 Y-2.62 Z1.42 F1800.0
G1 X-23.04 Y-3.16 Z1.42 F1800.0
G1 X-22.78 Y-3.16 Z1.42 F1800.0
G1 X-20.85 Y-1.21 Z1.42 F1800.0
G1 X-20.6 Y-1.21 Z1.42 F1800.0
G1 X-18.67 Y-3.16 Z1.42 F1800.0
G1 X-18.42 Y-3.16 Z1.42 F1800.0
G1 X-16.49 Y-1.21 Z1.42 F1800.0
G1 X-16.24 Y-1.21 Z1.42 F1800.0
G1 X-14.31 Y-3.16 Z1.42 F1800.0
G1 X-14.05 Y-3.16 Z1.42 F1800.0
G1 X-12.13 Y-1.21 Z1.42 F1800.0
G1 X-11.87 Y-1.21 Z1.42 F1800.0
G1 X-9.95 Y-3.16 Z1.42 F1800.0
G1 X-9.69 Y-3.16 Z1.42 F1800.0
G1 X-7.76 Y-1.21 Z1.42 F1800.0
G1 X-7.51 Y-1.21 Z1.42 F1800.0
G1 X-5.58 Y-3.16 Z1.42 F1800.0
G1 X-5.33 Y-3.16 Z1.42 F1800.0
G1 X-3.4 Y-1.21 Z1.42 F1800.0
G1 X-3.15 Y-1.21 Z1.42 F1800.0
G1 X-1.22 Y-3.16 Z1.42 F1800.0
G1 X-0.96 Y-3.16 Z1.42 F1800.0
G1 X0.96 Y-1.21 Z1.42 F1800.0
G1 X1.22 Y-1.21 Z1.42 F1800.0
G1 X3.15 Y-3.16 Z1.42 F1800.0
G1 X3.4 Y-3.16 Z1.42 F1800.0
G1 X5.33 Y-1.21 Z1.42 F1800.0
G1 X5.58 Y-1.21 Z1.42 F1800.0
G1 X7.51 Y-3.16 Z1.42 F1800.0
G1 X7.76 Y-3.16 Z1.42 F1800.0
G1 X9.69 Y-1.21 Z1.42 F1800.0
G1 X9.95 Y-1.21 Z1.42 F1800.0
G1 X11.87 Y-3.16 Z1.42 F1800.0
G1 X12.13 Y-3.16 Z1.42 F1800.0
G1 X14.05 Y-1.21 Z1.42 F1800.0
G1 X14.31 Y-1.21 Z1.42 F1800.0
G1 X16.24 Y-3.16 Z1.42 F1800.0
G1 X16.49 Y-3.16 Z1.42 F1800.0
G1 X18.42 Y-1.21 Z1.42 F1800.0
G1 X18.67 Y-1.21 Z1.42 F1800.0
G1 X20.6 Y-3.16 Z1.42 F1800.0
G1 X20.85 Y-3.16 Z1.42 F1800.0
G1 X22.78 Y-1.21 Z1.42 F1800.0
G1 X23.04 Y-1.21 Z1.42 F1800.0
G1 X24.49 Y-0.87 Z1.42 F1800.0
G1 X24.49 Y-4.8 Z1.42 F1800.0
G1 X23.04 Y-5.34 Z1.42 F1800.0
G1 X22.78 Y-5.34 Z1.42 F1800.0
G1 X20.85 Y-3.39 Z1.42 F1800.0
G1 X20.6 Y-3.39 Z1.42 F1800.0
G1 X18.67 Y-5.34 Z1.42 F1800.0
G1 X18.42 Y-5.34 Z1.42 F1800.0
G1 X16.49 Y-3.39 Z1.42 F1800.0
G1 X16.24 Y-3.39 Z1.42 F1800.0
G1 X14.31 Y-5.34 Z1.42 F1800.0
G1 X14.05 Y-5.34 Z1.42 F1800.0
G1 X12.13 Y-3.39 Z1.42 F1800.0
G1 X11.87 Y-3.39 Z1.42 F1800.0
G1 X9.95 Y-5.34 Z1.42 F1800.0
G1 X9.69 Y-5.34 Z1.42 F1800.0
G1 X7.76 Y-3.39 Z1.42 F1800.0
G1 X7.51 Y-3.39 Z1.42 F1800.0
G1 X5.58 Y-5.34 Z1.42 F1800.0
G1 X5.33 Y-5.34 Z1.42 F1800.0
G1 X3.4 Y-3.39 Z1.42 F1800.0
G1 X3.15 Y-3.39 Z1.42 F1800.0
G1 X1.22 Y-5.34 Z1.42 F1800.0
G1 X0.96 Y-5.34 Z1.42 F1800.0
G1 X-0.96 Y-3.39 Z1.42 F1800.0
G1 X-18.67 Y-3.39 Z1.42 F1800.0
G1 X-20.6 Y-5.34 Z1.42 F1800.0
G1 X-20.85 Y-5.34 Z1.42 F1800.0
G1 X-22.78 Y-3.39 Z1.42 F1800.0
G1 X-23.04 Y-3.39 Z1.42 F1800.0
G1 X-24.49 Y-3.05 Z1.42 F1800.0
G1 X-24.49 Y-6.98 Z1.42 F1800.0
G1 X-23.04 Y-7.52 Z1.42 F1800.0
G1 X-22.78 Y-7.52 Z1.42 F1800.0
G1 X-20.85 Y-5.57 Z1.42 F1800.0
G1 X1.22 Y-5.57 Z1.42 F1800.0
G1 X3.15 Y-7.52 Z1.42 F1800.0
G1 X3.4 Y-7.52 Z1.42 F1800.0
G1 X5.33 Y-5.57 Z1.42 F1800.0
G1 X5.58 Y-5.57 Z1.42 F1800.0
G1 X7.51 Y-7.52 Z1.42 F1800.0
G1 X7.76 Y-7.52 Z1.42 F1800.0
G1 X9.69 Y-5.57 Z1.42 F1800.0
G1 X9.95 Y-5.57 Z1.42 F1800.0
G1 X11.87 Y-7.52 Z1.42 F1800.0
G1 X12.13 Y-7.52 Z1.42 F1800.0
G1 X14.05 Y-5.57 Z1.42 F1800.0
G1 X14.31 Y-5.57 Z1.42 F1800.0
G1 X16.24 Y-7.52 Z1.42 F1800.0
G1 X16.49 Y-7.52 Z1.42 F1800.0
G1 X18.42 Y-5.57 Z1.42 F1800.0
G1 X18.67 Y-5.57 Z1.42 F1800.0
G1 X20.6 Y-7.52 Z1.42 F1800.0
G1 X20.85 Y-7.52 Z1.42 F1800.0
G1 X22.78 Y-5.57 Z1.42 F1800.0
G1 X23.04 Y-5.57 Z1.42 F1800.0
G1 X24.49 Y-5.24 Z1.42 F1800.0
G1 X24.49 Y-8.73 Z1.42 F1800.0
G1 X20.85 Y-7.75 Z1.42 F1800.0
G1 X-23.04 Y-7.75 Z1.42 F1800.0
G1 X-24.49 Y-7.42 Z1.42 F1800.0
G1 X-24.49 Y-8.73 Z1.42 F1800.0
M103
(</surroundingLoop>)
(</layer>)
(<layer> 1.74 )
(<surroundingLoop>)
(<boundaryPerimeter>)
(<boundaryPoint> X25.338 Y9.75 Z1.74 </boundaryPoint>)
(<boundaryPoint> X-25.338 Y9.75 Z1.74 </boundaryPoint>)
(<boundaryPoint> X-25.338 Y-9.75 Z1.74 </boundaryPoint>)
(<boundaryPoint> X25.338 Y-9.75 Z1.74 </boundaryPoint>)
(<loop> outer )
G1 X-24.75 Y-8.4 Z1.74 F3000.0
M101
G1 X-24.75 Y-8.73 Z1.74 F1800.0
G1 X-24.75 Y-9.16 Z1.74 F1800.0
G1 X24.75 Y-9.16 Z1.74 F1800.0
G1 X24.75 Y9.16 Z1.74 F1800.0
G1 X-24.75 Y9.16 Z1.74 F1800.0
G1 X-24.75 Y-8.4 Z1.74 F1800.0
M103
(</loop>)
(<perimeter> outer )
G1 X-25.14 Y-8.4 Z1.74 F3000.0
M101
G1 X-25.14 Y-8.73 Z1.74 F1800.0
G1 X-25.14 Y-9.55 Z1.74 F1800.0
G1 X25.14 Y-9.55 Z1.74 F1800.0
G1 X25.14 Y9.55 Z1.74 F1800.0
G1 X-25.14 Y9.55 Z1.74 F1800.0
G1 X-25.14 Y-7.96 Z1.74 F1800.0
M108 R30.0
M102
G1 X-25.14 Y-8.4 Z1.74 F1800.0
M108 R3.569
M103
(</perimeter>)
(</boundaryPerimeter>)
G1 X23.64 Y-8.9 Z1.74 F3000.0
M108 R30.0
M101
G1 X24.44 Y-8.9 Z1.74 F3000.0
M108 R3.569
G1 X23.56 Y-8.9 Z1.74 F1800.0
G1 X23.02 Y-5.58 Z1.74 F1800.0
G1 X23.02 Y7.76 Z1.74 F1800.0
G1 X24.44 Y8.9 Z1.74 F1800.0
G1 X21.82 Y8.9 Z1.74 F1800.0
G1 X22.79 Y7.76 Z1.74 F1800.0
G1 X22.79 Y7.51 Z1.74 F1800.0
G1 X20.84 Y5.58 Z1.74 F1800.0
G1 X20.84 Y5.33 Z1.74 F1800.0
G1 X22.79 Y3.4 Z1.74 F1800.0
G1 X22.79 Y3.15 Z1.74 F1800.0
G1 X20.84 Y1.22 Z1.74 F1800.0
G1 X20.84 Y0.96 Z1.74 F1800.0
G1 X22.79 Y-0.96 Z1.74 F1800.0
G1 X22.79 Y-1.22 Z1.74 F1800.0
G1 X20.84 Y-3.15 Z1.74 F1800.0
G1 X20.84 Y-3.4 Z1.74 F1800.0
G1 X22.79 Y-5.33 Z1.74 F1800.0
G1 X22.79 Y-5.58 Z1.74 F1800.0
G1 X20.84 Y-7.51 Z1.74 F1800.0
G1 X20.84 Y-7.76 Z1.74 F1800.0
G1 X23.13 Y-8.9 Z1.74 F1800.0
G1 X19.64 Y-8.9 Z1.74 F1800.0
G1 X20.61 Y-7.76 Z1.74 F1800.0
G1 X20.61 Y-7.51 Z1.74 F1800.0
G1 X18.66 Y-5.58 Z1.74 F1800.0
G1 X18.66 Y-5.33 Z1.74 F1800.0
G1 X20.61 Y-3.4 Z1.74 F1800.0
G1 X20.61 Y-3.15 Z1.74 F1800.0
G1 X18.66 Y-1.22 Z1.74 F1800.0
G1 X18.66 Y-0.96 Z1.74 F1800.0
G1 X20.61 Y0.96 Z1.74 F1800.0
G1 X20.61 Y1.22 Z1.74 F1800.0
G1 X18.66 Y3.15 Z1.74 F1800.0
G1 X18.66 Y3.4 Z1.74 F1800.0
G1 X20.61 Y5.33 Z1.74 F1800.0
G1 X20.61 Y5.58 Z1.74 F1800.0
G1 X18.66 Y7.51 Z1.74 F1800.0
G1 X18.66 Y7.76 Z1.74 F1800.0
G1 X21.38 Y8.47 Z1.74 F1800.0
G1 X20.94 Y8.9 Z1.74 F1800.0
G1 X17.45 Y8.9 Z1.74 F1800.0
G1 X18.43 Y7.76 Z1.74 F1800.0
G1 X18.43 Y7.51 Z1.74 F1800.0
G1 X16.48 Y5.58 Z1.74 F1800.0
G1 X16.48 Y5.33 Z1.74 F1800.0
G1 X18.43 Y3.4 Z1.74 F1800.0
G1 X18.43 Y3.15 Z1.74 F1800.0
G1 X16.48 Y1.22 Z1.74 F1800.0
G1 X16.48 Y0.96 Z1.74 F1800.0
G1 X18.43 Y-0.96 Z1.74 F1800.0
G1 X18.43 Y-1.22 Z1.74 F1800.0
G1 X16.48 Y-3.15 Z1.74 F1800.0
G1 X16.48 Y-3.4 Z1.74 F1800.0
G1 X18.43 Y-5.33 Z1.74 F1800.0
G1 X18.43 Y-5.58 Z1.74 F1800.0
G1 X16.48 Y-7.51 Z1.74 F1800.0
G1 X16.48 Y-7.76 Z1.74 F1800.0
G1 X19.2 Y-8.47 Z1.74 F1800.0
G1 X18.76 Y-8.9 Z1.74 F1800.0
G1 X15.27 Y-8.9 Z1.74 F1800.0
G1 X16.25 Y-7.76 Z1.74 F1800.0
G1 X16.25 Y-7.51 Z1.74 F1800.0
G1 X14.3 Y-5.58 Z1.74 F1800.0
G1 X14.3 Y-5.33 Z1.74 F1800.0
G1 X16.25 Y-3.4 Z1.74 F1800.0
G1 X16.25 Y-3.15 Z1.74 F1800.0
G1 X14.3 Y-1.22 Z1.74 F1800.0
G1 X14.3 Y-0.96 Z1.74 F1800.0
G1 X16.25 Y0.96 Z1.74 F1800.0
G1 X16.25 Y1.22 Z1.74 F1800.0
G1 X14.3 Y3.15 Z1.74 F1800.0
G1 X14.3 Y3.4 Z1.74 F1800.0
G1 X16.25 Y5.33 Z1.74 F1800.0
G1 X16.25 Y5.58 Z1.74 F1800.0
G1 X14.3 Y7.51 Z1.74 F1800.0
G1 X14.3 Y7.76 Z1.74 F1800.0
G1 X17.02 Y8.47 Z1.74 F1800.0
G1 X16.58 Y8.9 Z1.74 F1800.0
G1 X13.09 Y8.9 Z1.74 F1800.0
G1 X14.07 Y7.76 Z1.74 F1800.0
G1 X14.07 Y7.51 Z1.74 F1800.0
G1 X12.11 Y5.58 Z1.74 F1800.0
G1 X12.11 Y5.33 Z1.74 F1800.0
G1 X14.07 Y3.4 Z1.74 F1800.0
G1 X14.07 Y3.15 Z1.74 F1800.0
G1 X12.11 Y1.22 Z1.74 F1800.0
G1 X12.11 Y0.96 Z1.74 F1800.0
G1 X14.07 Y-0.96 Z1.74 F1800.0
G1 X14.07 Y-1.22 Z1.74 F1800.0
G1 X12.11 Y-3.15 Z1.74 F1800.0
G1 X12.11 Y-3.4 Z1.74 F1800.0
G1 X14.07 Y-5.33 Z1.74 F1800.0
G1 X14.07 Y-5.58 Z1.74 F1800.0
G1 X12.11 Y-7.51 Z1.74 F1800.0
G1 X12.11 Y-7.76 Z1.74 F1800.0
G1 X14.84 Y-8.47 Z1.74 F1800.0
G1 X14.4 Y-8.9 Z1.74 F1800.0
G1 X10.91 Y-8.9 Z1.74 F1800.0
G1 X11.88 Y-7.76 Z1.74 F1800.0
G1 X11.88 Y-7.51 Z1.74 F1800.0
G1 X9.93 Y-5.58 Z1.74 F1800.0
G1 X9.93 Y-5.33 Z1.74 F1800.0
G1 X11.88 Y-3.4 Z1.74 F1800.0
G1 X11.88 Y-3.15 Z1.74 F1800.0
G1 X9.93 Y-1.22 Z1.74 F1800.0
G1 X9.93 Y-0.96 Z1.74 F1800.0
G1 X11.88 Y0.96 Z1.74 F1800.0
G1 X11.88 Y1.22 Z1.74 F1800.0
G1 X9.93 Y3.15 Z1.74 F1800.0
G1 X9.93 Y3.4 Z1.74 F1800.0
G1 X11.88 Y5.33 Z1.74 F1800.0
G1 X11.88 Y5.58 Z1.74 F1800.0
G1 X9.93 Y7.51 Z1.74 F1800.0
G1 X9.93 Y7.76 Z1.74 F1800.0
G1 X12.65 Y8.47 Z1.74 F1800.0
G1 X12.22 Y8.9 Z1.74 F1800.0
G1 X8.73 Y8.9 Z1.74 F1800.0
G1 X9.7 Y7.76 Z1.74 F1800.0
G1 X9.7 Y7.51 Z1.74 F1800.0
G1 X7.75 Y5.58 Z1.74 F1800.0
G1 X7.75 Y5.33 Z1.74 F1800.0
G1 X9.7 Y3.4 Z1.74 F1800.0
G1 X9.7 Y3.15 Z1.74 F1800.0
G1 X7.75 Y1.22 Z1.74 F1800.0
G1 X7.75 Y0.96 Z1.74 F1800.0
G1 X9.7 Y-0.96 Z1.74 F1800.0
G1 X9.7 Y-1.22 Z1.74 F1800.0
G1 X7.75 Y-3.15 Z1.74 F1800.0
G1 X7.75 Y-3.4 Z1.74 F1800.0
G1 X9.7 Y-5.33 Z1.74 F1800.0
G1 X9.7 Y-5.58 Z1.74 F1800.0
G1 X7.75 Y-7.51 Z1.74 F1800.0
G1 X7.75 Y-7.76 Z1.74 F1800.0
G1 X10.47 Y-8.47 Z1.74 F1800.0
G1 X10.04 Y-8.9 Z1.74 F1800.0
G1 X6.55 Y-8.9 Z1.74 F1800.0
G1 X7.52 Y-7.76 Z1.74 F1800.0
G1 X7.52 Y-7.51 Z1.74 F1800.0
G1 X5.57 Y-5.58 Z1.74 F1800.0
G1 X5.57 Y-5.33 Z1.74 F1800.0
G1 X7.52 Y-3.4 Z1.74 F1800.0
G1 X7.52 Y-3.15 Z1.74 F1800.0
G1 X5.57 Y-1.22 Z1.74 F1800.0
G1 X5.57 Y-0.96 Z1.74 F1800.0
G1 X7.52 Y0.96 Z1.74 F1800.0
G1 X7.52 Y1.22 Z1.74 F1800.0
G1 X5.57 Y3.15 Z1.74 F1800.0
G1 X5.57 Y3.4 Z1.74 F1800.0
G1 X7.52 Y5.33 Z1.74 F1800.0
G1 X7.52 Y5.58 Z1.74 F1800.0
G1 X5.57 Y7.64 Z1.74 F1800.0
G1 X8.29 Y8.47 Z1.74 F1800.0
G1 X7.85 Y8.9 Z1.74 F1800.0
G1 X4.36 Y8.9 Z1.74 F1800.0
G1 X5.34 Y7.76 Z1.74 F1800.0
G1 X5.34 Y7.51 Z1.74 F1800.0
G1 X3.39 Y5.58 Z1.74 F1800.0
G1 X3.39 Y5.33 Z1.74 F1800.0
G1 X5.34 Y3.4 Z1.74 F1800.0
G1 X5.34 Y3.15 Z1.74 F1800.0
G1 X3.39 Y1.22 Z1.74 F1800.0
G1 X3.39 Y0.96 Z1.74 F1800.0
G1 X5.34 Y-0.96 Z1.74 F1800.0
G1 X5.34 Y-1.22 Z1.74 F1800.0
G1 X3.39 Y-3.15 Z1.74 F1800.0
G1 X3.39 Y-3.4 Z1.74 F1800.0
G1 X5.34 Y-5.33 Z1.74 F1800.0
G1 X5.34 Y-5.58 Z1.74 F1800.0
G1 X3.39 Y-7.51 Z1.74 F1800.0
G1 X3.39 Y-7.76 Z1.74 F1800.0
G1 X6.11 Y-8.47 Z1.74 F1800.0
G1 X5.67 Y-8.9 Z1.74 F1800.0
G1 X2.18 Y-8.9 Z1.74 F1800.0
G1 X3.16 Y-7.76 Z1.74 F1800.0
G1 X3.16 Y-7.51 Z1.74 F1800.0
G1 X1.21 Y-5.58 Z1.74 F1800.0
G1 X1.21 Y-5.33 Z1.74 F1800.0
G1 X3.16 Y-3.4 Z1.74 F1800.0
G1 X3.16 Y-3.15 Z1.74 F1800.0
G1 X1.21 Y-1.22 Z1.74 F1800.0
G1 X1.21 Y-0.96 Z1.74 F1800.0
G1 X3.16 Y0.96 Z1.74 F1800.0
G1 X3.16 Y1.22 Z1.74 F1800.0
G1 X1.21 Y3.15 Z1.74 F1800.0
G1 X1.21 Y3.4 Z1.74 F1800.0
G1 X3.16 Y5.33 Z1.74 F1800.0
G1 X3.16 Y5.58 Z1.74 F1800.0
G1 X1.21 Y7.51 Z1.74 F1800.0
G1 X1.21 Y7.76 Z1.74 F1800.0
G1 X3.93 Y8.47 Z1.74 F1800.0
G1 X3.49 Y8.9 Z1.74 F1800.0
G1 X0.0 Y8.9 Z1.74 F1800.0
G1 X0.98 Y7.76 Z1.74 F1800.0
G1 X0.98 Y7.51 Z1.74 F1800.0
G1 X-0.98 Y5.58 Z1.74 F1800.0
G1 X-0.98 Y5.33 Z1.74 F1800.0
G1 X0.98 Y3.4 Z1.74 F1800.0
G1 X0.98 Y3.15 Z1.74 F1800.0
G1 X-0.98 Y1.22 Z1.74 F1800.0
G1 X-0.98 Y0.96 Z1.74 F1800.0
G1 X0.98 Y-0.96 Z1.74 F1800.0
G1 X0.98 Y-1.22 Z1.74 F1800.0
G1 X-0.98 Y-3.15 Z1.74 F1800.0
G1 X-0.98 Y-3.4 Z1.74 F1800.0
G1 X0.98 Y-5.33 Z1.74 F1800.0
G1 X0.98 Y-5.58 Z1.74 F1800.0
G1 X-0.98 Y-7.51 Z1.74 F1800.0
G1 X-0.98 Y-7.76 Z1.74 F1800.0
G1 X1.75 Y-8.47 Z1.74 F1800.0
G1 X1.31 Y-8.9 Z1.74 F1800.0
G1 X-2.18 Y-8.9 Z1.74 F1800.0
G1 X-1.21 Y-7.76 Z1.74 F1800.0
G1 X-1.21 Y-7.51 Z1.74 F1800.0
G1 X-3.16 Y-5.58 Z1.74 F1800.0
G1 X-3.16 Y-5.33 Z1.74 F1800.0
G1 X-1.21 Y-3.4 Z1.74 F1800.0
G1 X-1.21 Y-3.15 Z1.74 F1800.0
G1 X-3.16 Y-1.22 Z1.74 F1800.0
G1 X-3.16 Y-0.96 Z1.74 F1800.0
G1 X-1.21 Y0.96 Z1.74 F1800.0
G1 X-1.21 Y1.22 Z1.74 F1800.0
G1 X-3.16 Y3.15 Z1.74 F1800.0
G1 X-3.16 Y3.4 Z1.74 F1800.0
G1 X-1.21 Y5.33 Z1.74 F1800.0
G1 X-1.21 Y5.58 Z1.74 F1800.0
G1 X-3.16 Y7.51 Z1.74 F1800.0
G1 X-3.16 Y7.76 Z1.74 F1800.0
G1 X-0.44 Y8.47 Z1.74 F1800.0
G1 X-0.87 Y8.9 Z1.74 F1800.0
G1 X-4.36 Y8.9 Z1.74 F1800.0
G1 X-3.39 Y7.76 Z1.74 F1800.0
G1 X-3.39 Y7.51 Z1.74 F1800.0
G1 X-5.34 Y5.58 Z1.74 F1800.0
G1 X-5.34 Y5.33 Z1.74 F1800.0
G1 X-3.39 Y3.4 Z1.74 F1800.0
G1 X-3.39 Y3.15 Z1.74 F1800.0
G1 X-5.34 Y1.22 Z1.74 F1800.0
G1 X-5.34 Y0.96 Z1.74 F1800.0
G1 X-3.39 Y-0.96 Z1.74 F1800.0
G1 X-3.39 Y-1.22 Z1.74 F1800.0
G1 X-5.34 Y-3.15 Z1.74 F1800.0
G1 X-5.34 Y-3.4 Z1.74 F1800.0
G1 X-3.39 Y-5.33 Z1.74 F1800.0
G1 X-3.39 Y-5.58 Z1.74 F1800.0
G1 X-5.34 Y-7.51 Z1.74 F1800.0
G1 X-5.34 Y-7.76 Z1.74 F1800.0
G1 X-2.62 Y-8.47 Z1.74 F1800.0
G1 X-3.05 Y-8.9 Z1.74 F1800.0
G1 X-6.55 Y-8.9 Z1.74 F1800.0
G1 X-5.57 Y-7.76 Z1.74 F1800.0
G1 X-5.57 Y-7.51 Z1.74 F1800.0
G1 X-7.52 Y-5.58 Z1.74 F1800.0
G1 X-7.52 Y-5.33 Z1.74 F1800.0
G1 X-5.57 Y-3.4 Z1.74 F1800.0
G1 X-5.57 Y-3.15 Z1.74 F1800.0
G1 X-7.52 Y-1.22 Z1.74 F1800.0
G1 X-7.52 Y-0.96 Z1.74 F1800.0
G1 X-5.57 Y0.96 Z1.74 F1800.0
G1 X-5.57 Y1.22 Z1.74 F1800.0
G1 X-7.52 Y3.15 Z1.74 F1800.0
G1 X-7.52 Y3.4 Z1.74 F1800.0
G1 X-5.57 Y5.33 Z1.74 F1800.0
G1 X-5.57 Y5.58 Z1.74 F1800.0
G1 X-7.52 Y7.51 Z1.74 F1800.0
G1 X-7.52 Y7.76 Z1.74 F1800.0
G1 X-4.8 Y8.47 Z1.74 F1800.0
G1 X-5.24 Y8.9 Z1.74 F1800.0
G1 X-8.73 Y8.9 Z1.74 F1800.0
G1 X-7.75 Y7.76 Z1.74 F1800.0
G1 X-7.75 Y7.51 Z1.74 F1800.0
G1 X-9.7 Y5.58 Z1.74 F1800.0
G1 X-9.7 Y5.33 Z1.74 F1800.0
G1 X-7.75 Y3.4 Z1.74 F1800.0
G1 X-7.75 Y3.15 Z1.74 F1800.0
G1 X-9.7 Y1.22 Z1.74 F1800.0
G1 X-9.7 Y0.96 Z1.74 F1800.0
G1 X-7.75 Y-0.96 Z1.74 F1800.0
G1 X-7.75 Y-1.22 Z1.74 F1800.0
G1 X-9.7 Y-3.15 Z1.74 F1800.0
G1 X-9.7 Y-3.4 Z1.74 F1800.0
G1 X-7.75 Y-5.33 Z1.74 F1800.0
G1 X-7.75 Y-5.58 Z1.74 F1800.0
G1 X-9.7 Y-7.51 Z1.74 F1800.0
G1 X-9.7 Y-7.76 Z1.74 F1800.0
G1 X-6.98 Y-8.47 Z1.74 F1800.0
G1 X-7.42 Y-8.9 Z1.74 F1800.0
G1 X-10.91 Y-8.9 Z1.74 F1800.0
G1 X-9.93 Y-7.76 Z1.74 F1800.0
G1 X-9.93 Y-7.51 Z1.74 F1800.0
G1 X-11.88 Y-5.58 Z1.74 F1800.0
G1 X-11.88 Y-5.33 Z1.74 F1800.0
G1 X-9.93 Y-3.4 Z1.74 F1800.0
G1 X-9.93 Y-3.15 Z1.74 F1800.0
G1 X-11.88 Y-1.22 Z1.74 F1800.0
G1 X-11.88 Y-0.96 Z1.74 F1800.0
G1 X-9.93 Y0.96 Z1.74 F1800.0
G1 X-9.93 Y1.22 Z1.74 F1800.0
G1 X-11.88 Y3.15 Z1.74 F1800.0
G1 X-11.88 Y3.4 Z1.74 F1800.0
G1 X-9.93 Y5.33 Z1.74 F1800.0
G1 X-9.93 Y5.58 Z1.74 F1800.0
G1 X-11.88 Y7.51 Z1.74 F1800.0
G1 X-11.88 Y7.76 Z1.74 F1800.0
G1 X-9.16 Y8.47 Z1.74 F1800.0
G1 X-9.6 Y8.9 Z1.74 F1800.0
G1 X-13.09 Y8.9 Z1.74 F1800.0
G1 X-12.11 Y7.76 Z1.74 F1800.0
G1 X-12.11 Y7.51 Z1.74 F1800.0
G1 X-14.07 Y5.58 Z1.74 F1800.0
G1 X-14.07 Y5.33 Z1.74 F1800.0
G1 X-12.11 Y3.4 Z1.74 F1800.0
G1 X-12.11 Y3.15 Z1.74 F1800.0
G1 X-14.07 Y1.22 Z1.74 F1800.0
G1 X-14.07 Y0.96 Z1.74 F1800.0
G1 X-12.11 Y-0.96 Z1.74 F1800.0
G1 X-12.11 Y-1.22 Z1.74 F1800.0
G1 X-14.07 Y-3.15 Z1.74 F1800.0
G1 X-14.07 Y-3.4 Z1.74 F1800.0
G1 X-12.11 Y-5.33 Z1.74 F1800.0
G1 X-12.11 Y-5.58 Z1.74 F1800.0
G1 X-14.07 Y-7.64 Z1.74 F1800.0
G1 X-11.35 Y-8.47 Z1.74 F1800.0
G1 X-11.78 Y-8.9 Z1.74 F1800.0
G1 X-15.27 Y-8.9 Z1.74 F1800.0
G1 X-14.3 Y-7.76 Z1.74 F1800.0
G1 X-14.3 Y-7.51 Z1.74 F1800.0
G1 X-16.25 Y-5.58 Z1.74 F1800.0
G1 X-16.25 Y-5.33 Z1.74 F1800.0
G1 X-14.3 Y-3.4 Z1.74 F1800.0
G1 X-14.3 Y-3.15 Z1.74 F1800.0
G1 X-16.25 Y-1.22 Z1.74 F1800.0
G1 X-16.25 Y-0.96 Z1.74 F1800.0
G1 X-14.3 Y0.96 Z1.74 F1800.0
G1 X-14.3 Y1.22 Z1.74 F1800.0
G1 X-16.25 Y3.15 Z1.74 F1800.0
G1 X-16.25 Y3.4 Z1.74 F1800.0
G1 X-14.3 Y5.33 Z1.74 F1800.0
G1 X-14.3 Y5.58 Z1.74 F1800.0
G1 X-16.25 Y7.51 Z1.74 F1800.0
G1 X-16.25 Y7.76 Z1.74 F1800.0
G1 X-13.53 Y8.47 Z1.74 F1800.0
G1 X-13.96 Y8.9 Z1.74 F1800.0
G1 X-17.45 Y8.9 Z1.74 F1800.0
G1 X-16.48 Y7.76 Z1.74 F1800.0
G1 X-16.48 Y7.51 Z1.74 F1800.0
G1 X-18.43 Y5.58 Z1.74 F1800.0
G1 X-18.43 Y5.33 Z1.74 F1800.0
G1 X-16.48 Y3.4 Z1.74 F1800.0
G1 X-16.48 Y3.15 Z1.74 F1800.0
G1 X-18.43 Y1.22 Z1.74 F1800.0
G1 X-18.43 Y0.96 Z1.74 F1800.0
G1 X-16.48 Y-0.96 Z1.74 F1800.0
G1 X-16.48 Y-1.22 Z1.74 F1800.0
G1 X-18.43 Y-3.15 Z1.74 F1800.0
G1 X-18.43 Y-3.4 Z1.74 F1800.0
G1 X-16.48 Y-5.33 Z1.74 F1800.0
G1 X-16.48 Y-5.58 Z1.74 F1800.0
G1 X-18.43 Y-7.51 Z1.74 F1800.0
G1 X-18.43 Y-7.76 Z1.74 F1800.0
G1 X-15.71 Y-8.47 Z1.74 F1800.0
G1 X-16.14 Y-8.9 Z1.74 F1800.0
G1 X-19.64 Y-8.9 Z1.74 F1800.0
G1 X-18.66 Y-7.76 Z1.74 F1800.0
G1 X-18.66 Y-7.51 Z1.74 F1800.0
G1 X-20.61 Y-5.58 Z1.74 F1800.0
G1 X-20.61 Y-5.33 Z1.74 F1800.0
G1 X-18.66 Y-3.4 Z1.74 F1800.0
G1 X-18.66 Y-3.15 Z1.74 F1800.0
G1 X-20.61 Y-1.22 Z1.74 F1800.0
G1 X-20.61 Y-0.96 Z1.74 F1800.0
G1 X-18.66 Y0.96 Z1.74 F1800.0
G1 X-18.66 Y1.22 Z1.74 F1800.0
G1 X-20.61 Y3.15 Z1.74 F1800.0
G1 X-20.61 Y3.4 Z1.74 F1800.0
G1 X-18.66 Y5.33 Z1.74 F1800.0
G1 X-18.66 Y5.58 Z1.74 F1800.0
G1 X-20.61 Y7.51 Z1.74 F1800.0
G1 X-20.61 Y7.76 Z1.74 F1800.0
G1 X-17.89 Y8.47 Z1.74 F1800.0
G1 X-18.33 Y8.9 Z1.74 F1800.0
G1 X-21.38 Y8.9 Z1.74 F1800.0
G1 X-20.84 Y7.76 Z1.74 F1800.0
G1 X-20.84 Y7.51 Z1.74 F1800.0
G1 X-22.79 Y5.58 Z1.74 F1800.0
G1 X-22.79 Y5.33 Z1.74 F1800.0
G1 X-20.84 Y3.4 Z1.74 F1800.0
G1 X-20.84 Y3.15 Z1.74 F1800.0
G1 X-22.79 Y1.22 Z1.74 F1800.0
G1 X-22.79 Y0.96 Z1.74 F1800.0
G1 X-20.84 Y-0.96 Z1.74 F1800.0
G1 X-20.84 Y-1.22 Z1.74 F1800.0
G1 X-22.79 Y-3.15 Z1.74 F1800.0
G1 X-22.79 Y-3.4 Z1.74 F1800.0
G1 X-20.84 Y-5.33 Z1.74 F1800.0
G1 X-20.84 Y-5.58 Z1.74 F1800.0
G1 X-22.79 Y-7.51 Z1.74 F1800.0
G1 X-22.79 Y-7.76 Z1.74 F1800.0
G1 X-20.07 Y-8.47 Z1.74 F1800.0
G1 X-20.51 Y-8.9 Z1.74 F1800.0
G1 X-23.56 Y-8.9 Z1.74 F1800.0
G1 X-23.02 Y-7.76 Z1.74 F1800.0
G1 X-23.02 Y5.58 Z1.74 F1800.0
G1 X-21.82 Y8.9 Z1.74 F1800.0
G1 X-24.44 Y8.9 Z1.74 F1800.0
G1 X-24.44 Y-8.9 Z1.74 F1800.0
G1 X-24.0 Y-8.9 Z1.74 F1800.0
M103
(</surroundingLoop>)
(</layer>)
(<layer> 2.06 )
(<surroundingLoop>)
(<boundaryPerimeter>)
(<boundaryPoint> X25.338 Y9.75 Z2.06 </boundaryPoint>)
(<boundaryPoint> X-25.338 Y9.75 Z2.06 </boundaryPoint>)
(<boundaryPoint> X-25.338 Y-9.75 Z2.06 </boundaryPoint>)
(<boundaryPoint> X25.338 Y-9.75 Z2.06 </boundaryPoint>)
(<loop> outer )
G1 X-23.83 Y-9.16 Z2.06 F3000.0
M101
G1 X24.75 Y-9.16 Z2.06 F1800.0
G1 X24.75 Y9.16 Z2.06 F1800.0
G1 X-24.75 Y9.16 Z2.06 F1800.0
G1 X-24.75 Y-9.16 Z2.06 F1800.0
G1 X-24.0 Y-9.16 Z2.06 F1800.0
G1 X-23.83 Y-9.16 Z2.06 F1800.0
M103
(</loop>)
(<perimeter> outer )
G1 X-24.0 Y-9.55 Z2.06 F3000.0
M101
G1 X25.14 Y-9.55 Z2.06 F1800.0
G1 X25.14 Y9.55 Z2.06 F1800.0
G1 X-25.14 Y9.55 Z2.06 F1800.0
G1 X-25.14 Y-9.55 Z2.06 F1800.0
G1 X-24.45 Y-9.55 Z2.06 F1800.0
M108 R30.0
M102
G1 X-24.0 Y-9.55 Z2.06 F1800.0
M108 R3.569
M103
(</perimeter>)
(</boundaryPerimeter>)
G1 X23.74 Y8.45 Z2.06 F3000.0
M108 R30.0
M101
G1 X24.49 Y8.73 Z2.06 F3000.0
M108 R3.569
G1 X24.49 Y8.29 Z2.06 F1800.0
G1 X23.04 Y7.75 Z2.06 F1800.0
G1 X-20.85 Y7.75 Z2.06 F1800.0
G1 X-24.49 Y8.73 Z2.06 F1800.0
G1 X-24.49 Y6.11 Z2.06 F1800.0
G1 X-23.04 Y5.57 Z2.06 F1800.0
G1 X-22.78 Y5.57 Z2.06 F1800.0
G1 X-20.85 Y7.52 Z2.06 F1800.0
G1 X-20.6 Y7.52 Z2.06 F1800.0
G1 X-18.67 Y5.57 Z2.06 F1800.0
G1 X-0.96 Y5.57 Z2.06 F1800.0
G1 X0.96 Y7.52 Z2.06 F1800.0
G1 X1.22 Y7.52 Z2.06 F1800.0
G1 X3.15 Y5.57 Z2.06 F1800.0
G1 X3.4 Y5.57 Z2.06 F1800.0
G1 X5.33 Y7.52 Z2.06 F1800.0
G1 X5.58 Y7.52 Z2.06 F1800.0
G1 X7.51 Y5.57 Z2.06 F1800.0
G1 X7.76 Y5.57 Z2.06 F1800.0
G1 X9.69 Y7.52 Z2.06 F1800.0
G1 X9.95 Y7.52 Z2.06 F1800.0
G1 X11.87 Y5.57 Z2.06 F1800.0
G1 X12.13 Y5.57 Z2.06 F1800.0
G1 X14.05 Y7.52 Z2.06 F1800.0
G1 X14.31 Y7.52 Z2.06 F1800.0
G1 X16.24 Y5.57 Z2.06 F1800.0
G1 X16.49 Y5.57 Z2.06 F1800.0
G1 X18.42 Y7.52 Z2.06 F1800.0
G1 X18.67 Y7.52 Z2.06 F1800.0
G1 X20.6 Y5.57 Z2.06 F1800.0
G1 X20.85 Y5.57 Z2.06 F1800.0
G1 X22.78 Y7.52 Z2.06 F1800.0
G1 X23.04 Y7.52 Z2.06 F1800.0
G1 X24.49 Y7.85 Z2.06 F1800.0
G1 X24.49 Y3.93 Z2.06 F1800.0
G1 X23.04 Y3.39 Z2.06 F1800.0
G1 X22.78 Y3.39 Z2.06 F1800.0
G1 X20.85 Y5.34 Z2.06 F1800.0
G1 X20.6 Y5.34 Z2.06 F1800.0
G1 X18.67 Y3.39 Z2.06 F1800.0
G1 X18.42 Y3.39 Z2.06 F1800.0
G1 X16.49 Y5.34 Z2.06 F1800.0
G1 X16.24 Y5.34 Z2.06 F1800.0
G1 X14.31 Y3.39 Z2.06 F1800.0
G1 X14.05 Y3.39 Z2.06 F1800.0
G1 X12.13 Y5.34 Z2.06 F1800.0
G1 X11.87 Y5.34 Z2.06 F1800.0
G1 X9.95 Y3.39 Z2.06 F1800.0
G1 X9.69 Y3.39 Z2.06 F1800.0
G1 X7.76 Y5.34 Z2.06 F1800.0
G1 X7.51 Y5.34 Z2.06 F1800.0
G1 X5.58 Y3.39 Z2.06 F1800.0
G1 X5.33 Y3.39 Z2.06 F1800.0
G1 X3.4 Y5.34 Z2.06 F1800.0
G1 X3.15 Y5.34 Z2.06 F1800.0
G1 X1.22 Y3.39 Z2.06 F1800.0
G1 X0.96 Y3.39 Z2.06 F1800.0
G1 X-0.96 Y5.34 Z2.06 F1800.0
G1 X-1.22 Y5.34 Z2.06 F1800.0
G1 X-3.15 Y3.39 Z2.06 F1800.0
G1 X-3.4 Y3.39 Z2.06 F1800.0
G1 X-5.33 Y5.34 Z2.06 F1800.0
G1 X-5.58 Y5.34 Z2.06 F1800.0
G1 X-7.51 Y3.39 Z2.06 F1800.0
G1 X-7.76 Y3.39 Z2.06 F1800.0
G1 X-9.69 Y5.34 Z2.06 F1800.0
G1 X-9.95 Y5.34 Z2.06 F1800.0
G1 X-11.87 Y3.39 Z2.06 F1800.0
G1 X-12.13 Y3.39 Z2.06 F1800.0
G1 X-14.05 Y5.34 Z2.06 F1800.0
G1 X-14.31 Y5.34 Z2.06 F1800.0
G1 X-16.24 Y3.39 Z2.06 F1800.0
G1 X-16.49 Y3.39 Z2.06 F1800.0
G1 X-18.42 Y5.34 Z2.06 F1800.0
G1 X-18.67 Y5.34 Z2.06 F1800.0
G1 X-20.6 Y3.39 Z2.06 F1800.0
G1 X-20.85 Y3.39 Z2.06 F1800.0
G1 X-22.78 Y5.34 Z2.06 F1800.0
G1 X-23.04 Y5.34 Z2.06 F1800.0
G1 X-24.49 Y5.67 Z2.06 F1800.0
G1 X-24.49 Y1.75 Z2.06 F1800.0
G1 X-23.04 Y1.21 Z2.06 F1800.0
G1 X-22.78 Y1.21 Z2.06 F1800.0
G1 X-20.85 Y3.16 Z2.06 F1800.0
G1 X-20.6 Y3.16 Z2.06 F1800.0
G1 X-18.67 Y1.21 Z2.06 F1800.0
G1 X-18.42 Y1.21 Z2.06 F1800.0
G1 X-16.49 Y3.16 Z2.06 F1800.0
G1 X-16.24 Y3.16 Z2.06 F1800.0
G1 X-14.31 Y1.21 Z2.06 F1800.0
G1 X-14.05 Y1.21 Z2.06 F1800.0
G1 X-12.13 Y3.16 Z2.06 F1800.0
G1 X-11.87 Y3.16 Z2.06 F1800.0
G1 X-9.95 Y1.21 Z2.06 F1800.0
G1 X-9.69 Y1.21 Z2.06 F1800.0
G1 X-7.76 Y3.16 Z2.06 F1800.0
G1 X-7.51 Y3.16 Z2.06 F1800.0
G1 X-5.58 Y1.21 Z2.06 F1800.0
G1 X-5.33 Y1.21 Z2.06 F1800.0
G1 X-3.4 Y3.16 Z2.06 F1800.0
G1 X-3.15 Y3.16 Z2.06 F1800.0
G1 X-1.22 Y1.21 Z2.06 F1800.0
G1 X-0.96 Y1.21 Z2.06 F1800.0
G1 X0.96 Y3.16 Z2.06 F1800.0
G1 X1.22 Y3.16 Z2.06 F1800.0
G1 X3.15 Y1.21 Z2.06 F1800.0
G1 X3.4 Y1.21 Z2.06 F1800.0
G1 X5.33 Y3.16 Z2.06 F1800.0
G1 X5.58 Y3.16 Z2.06 F1800.0
G1 X7.51 Y1.21 Z2.06 F1800.0
G1 X7.76 Y1.21 Z2.06 F1800.0
G1 X9.69 Y3.16 Z2.06 F1800.0
G1 X9.95 Y3.16 Z2.06 F1800.0
G1 X11.87 Y1.21 Z2.06 F1800.0
G1 X12.13 Y1.21 Z2.06 F1800.0
G1 X14.05 Y3.16 Z2.06 F1800.0
G1 X14.31 Y3.16 Z2.06 F1800.0
G1 X16.24 Y1.21 Z2.06 F1800.0
G1 X16.49 Y1.21 Z2.06 F1800.0
G1 X18.42 Y3.16 Z2.06 F1800.0
G1 X18.67 Y3.16 Z2.06 F1800.0
G1 X20.6 Y1.21 Z2.06 F1800.0
G1 X20.85 Y1.21 Z2.06 F1800.0
G1 X22.78 Y3.16 Z2.06 F1800.0
G1 X23.04 Y3.16 Z2.06 F1800.0
G1 X24.49 Y3.49 Z2.06 F1800.0
G1 X24.49 Y-0.44 Z2.06 F1800.0
G1 X23.04 Y-0.98 Z2.06 F1800.0
G1 X22.78 Y-0.98 Z2.06 F1800.0
G1 X20.85 Y0.98 Z2.06 F1800.0
G1 X20.6 Y0.98 Z2.06 F1800.0
G1 X18.67 Y-0.98 Z2.06 F1800.0
G1 X18.42 Y-0.98 Z2.06 F1800.0
G1 X16.49 Y0.98 Z2.06 F1800.0
G1 X16.24 Y0.98 Z2.06 F1800.0
G1 X14.31 Y-0.98 Z2.06 F1800.0
G1 X14.05 Y-0.98 Z2.06 F1800.0
G1 X12.13 Y0.98 Z2.06 F1800.0
G1 X11.87 Y0.98 Z2.06 F1800.0
G1 X9.95 Y-0.98 Z2.06 F1800.0
G1 X9.69 Y-0.98 Z2.06 F1800.0
G1 X7.76 Y0.98 Z2.06 F1800.0
G1 X7.51 Y0.98 Z2.06 F1800.0
G1 X5.58 Y-0.98 Z2.06 F1800.0
G1 X5.33 Y-0.98 Z2.06 F1800.0
G1 X3.4 Y0.98 Z2.06 F1800.0
G1 X3.15 Y0.98 Z2.06 F1800.0
G1 X1.22 Y-0.98 Z2.06 F1800.0
G1 X0.96 Y-0.98 Z2.06 F1800.0
G1 X-0.96 Y0.98 Z2.06 F1800.0
G1 X-1.22 Y0.98 Z2.06 F1800.0
G1 X-3.15 Y-0.98 Z2.06 F1800.0
G1 X-3.4 Y-0.98 Z2.06 F1800.0
G1 X-5.33 Y0.98 Z2.06 F1800.0
G1 X-5.58 Y0.98 Z2.06 F1800.0
G1 X-7.51 Y-0.98 Z2.06 F1800.0
G1 X-7.76 Y-0.98 Z2.06 F1800.0
G1 X-9.69 Y0.98 Z2.06 F1800.0
G1 X-9.95 Y0.98 Z2.06 F1800.0
G1 X-11.87 Y-0.98 Z2.06 F1800.0
G1 X-12.13 Y-0.98 Z2.06 F1800.0
G1 X-14.05 Y0.98 Z2.06 F1800.0
G1 X-14.31 Y0.98 Z2.06 F1800.0
G1 X-16.24 Y-0.98 Z2.06 F1800.0
G1 X-16.49 Y-0.98 Z2.06 F1800.0
G1 X-18.42 Y0.98 Z2.06 F1800.0
G1 X-18.67 Y0.98 Z2.06 F1800.0
G1 X-20.6 Y-0.98 Z2.06 F1800.0
G1 X-20.85 Y-0.98 Z2.06 F1800.0
G1 X-22.78 Y0.98 Z2.06 F1800.0
G1 X-23.04 Y0.98 Z2.06 F1800.0
G1 X-24.49 Y1.31 Z2.06 F1800.0
G1 X-24.49 Y-2.62 Z2.06 F1800.0
G1 X-23.04 Y-3.16 Z2.06 F1800.0
G1 X-22.78 Y-3.16 Z2.06 F1800.0
G1 X-20.85 Y-1.21 Z2.06 F1800.0
G1 X-20.6 Y-1.21 Z2.06 F1800.0
G1 X-18.67 Y-3.16 Z2.06 F1800.0
G1 X-18.42 Y-3.16 Z2.06 F1800.0
G1 X-16.49 Y-1.21 Z2.06 F1800.0
G1 X-16.24 Y-1.21 Z2.06 F1800.0
G1 X-14.31 Y-3.16 Z2.06 F1800.0
G1 X-14.05 Y-3.16 Z2.06 F1800.0
G1 X-12.13 Y-1.21 Z2.06 F1800.0
G1 X-11.87 Y-1.21 Z2.06 F1800.0
G1 X-9.95 Y-3.16 Z2.06 F1800.0
G1 X-9.69 Y-3.16 Z2.06 F1800.0
G1 X-7.76 Y-1.21 Z2.06 F1800.0
G1 X-7.51 Y-1.21 Z2.06 F1800.0
G1 X-5.58 Y-3.16 Z2.06 F1800.0
G1 X-5.33 Y-3.16 Z2.06 F1800.0
G1 X-3.4 Y-1.21 Z2.06 F1800.0
G1 X-3.15 Y-1.21 Z2.06 F1800.0
G1 X-1.22 Y-3.16 Z2.06 F1800.0
G1 X-0.96 Y-3.16 Z2.06 F1800.0
G1 X0.96 Y-1.21 Z2.06 F1800.0
G1 X1.22 Y-1.21 Z2.06 F1800.0
G1 X3.15 Y-3.16 Z2.06 F1800.0
G1 X3.4 Y-3.16 Z2.06 F1800.0
G1 X5.33 Y-1.21 Z2.06 F1800.0
G1 X5.58 Y-1.21 Z2.06 F1800.0
G1 X7.51 Y-3.16 Z2.06 F1800.0
G1 X7.76 Y-3.16 Z2.06 F1800.0
G1 X9.69 Y-1.21 Z2.06 F1800.0
G1 X9.95 Y-1.21 Z2.06 F1800.0
G1 X11.87 Y-3.16 Z2.06 F1800.0
G1 X12.13 Y-3.16 Z2.06 F1800.0
G1 X14.05 Y-1.21 Z2.06 F1800.0
G1 X14.31 Y-1.21 Z2.06 F1800.0
G1 X16.24 Y-3.16 Z2.06 F1800.0
G1 X16.49 Y-3.16 Z2.06 F1800.0
G1 X18.42 Y-1.21 Z2.06 F1800.0
G1 X18.67 Y-1.21 Z2.06 F1800.0
G1 X20.6 Y-3.16 Z2.06 F1800.0
G1 X20.85 Y-3.16 Z2.06 F1800.0
G1 X22.78 Y-1.21 Z2.06 F1800.0
G1 X23.04 Y-1.21 Z2.06 F1800.0
G1 X24.49 Y-0.87 Z2.06 F1800.0
G1 X24.49 Y-4.8 Z2.06 F1800.0
G1 X23.04 Y-5.34 Z2.06 F1800.0
G1 X22.78 Y-5.34 Z2.06 F1800.0
G1 X20.85 Y-3.39 Z2.06 F1800.0
G1 X20.6 Y-3.39 Z2.06 F1800.0
G1 X18.67 Y-5.34 Z2.06 F1800.0
G1 X18.42 Y-5.34 Z2.06 F1800.0
G1 X16.49 Y-3.39 Z2.06 F1800.0
G1 X16.24 Y-3.39 Z2.06 F1800.0
G1 X14.31 Y-5.34 Z2.06 F1800.0
G1 X14.05 Y-5.34 Z2.06 F1800.0
G1 X12.13 Y-3.39 Z2.06 F1800.0
G1 X11.87 Y-3.39 Z2.06 F1800.0
G1 X9.95 Y-5.34 Z2.06 F1800.0
G1 X9.69 Y-5.34 Z2.06 F1800.0
G1 X7.76 Y-3.39 Z2.06 F1800.0
G1 X7.51 Y-3.39 Z2.06 F1800.0
G1 X5.58 Y-5.34 Z2.06 F1800.0
G1 X5.33 Y-5.34 Z2.06 F1800.0
G1 X3.4 Y-3.39 Z2.06 F1800.0
G1 X3.15 Y-3.39 Z2.06 F1800.0
G1 X1.22 Y-5.34 Z2.06 F1800.0
G1 X0.96 Y-5.34 Z2.06 F1800.0
G1 X-0.96 Y-3.39 Z2.06 F1800.0
G1 X-18.67 Y-3.39 Z2.06 F1800.0
G1 X-20.6 Y-5.34 Z2.06 F1800.0
G1 X-20.85 Y-5.34 Z2.06 F1800.0
G1 X-22.78 Y-3.39 Z2.06 F1800.0
G1 X-23.04 Y-3.39 Z2.06 F1800.0
G1 X-24.49 Y-3.05 Z2.06 F1800.0
G1 X-24.49 Y-6.98 Z2.06 F1800.0
G1 X-23.04 Y-7.52 Z2.06 F1800.0
G1 X-22.78 Y-7.52 Z2.06 F1800.0
G1 X-20.85 Y-5.57 Z2.06 F1800.0
G1 X1.22 Y-5.57 Z2.06 F1800.0
G1 X3.15 Y-7.52 Z2.06 F1800.0
G1 X3.4 Y-7.52 Z2.06 F1800.0
G1 X5.33 Y-5.57 Z2.06 F1800.0
G1 X5.58 Y-5.57 Z2.06 F1800.0
G1 X7.51 Y-7.52 Z2.06 F1800.0
G1 X7.76 Y-7.52 Z2.06 F1800.0
G1 X9.69 Y-5.57 Z2.06 F1800.0
G1 X9.95 Y-5.57 Z2.06 F1800.0
G1 X11.87 Y-7.52 Z2.06 F1800.0
G1 X12.13 Y-7.52 Z2.06 F1800.0
G1 X14.05 Y-5.57 Z2.06 F1800.0
G1 X14.31 Y-5.57 Z2.06 F1800.0
G1 X16.24 Y-7.52 Z2.06 F1800.0
G1 X16.49 Y-7.52 Z2.06 F1800.0
G1 X18.42 Y-5.57 Z2.06 F1800.0
G1 X18.67 Y-5.57 Z2.06 F1800.0
G1 X20.6 Y-7.52 Z2.06 F1800.0
G1 X20.85 Y-7.52 Z2.06 F1800.0
G1 X22.78 Y-5.57 Z2.06 F1800.0
G1 X23.04 Y-5.57 Z2.06 F1800.0
G1 X24.49 Y-5.24 Z2.06 F1800.0
G1 X24.49 Y-8.73 Z2.06 F1800.0
G1 X20.85 Y-7.75 Z2.06 F1800.0
G1 X-23.04 Y-7.75 Z2.06 F1800.0
G1 X-24.49 Y-7.42 Z2.06 F1800.0
G1 X-24.49 Y-8.73 Z2.06 F1800.0
M103
(</surroundingLoop>)
(</layer>)
(<layer> 2.38 )
(<surroundingLoop>)
(<boundaryPerimeter>)
(<boundaryPoint> X25.338 Y9.75 Z2.38 </boundaryPoint>)
(<boundaryPoint> X-25.338 Y9.75 Z2.38 </boundaryPoint>)
(<boundaryPoint> X-25.338 Y-9.75 Z2.38 </boundaryPoint>)
(<boundaryPoint> X25.338 Y-9.75 Z2.38 </boundaryPoint>)
(<loop> outer )
G1 X-24.75 Y-8.59 Z2.38 F3000.0
M101
G1 X-24.75 Y-8.73 Z2.38 F1800.0
G1 X-24.75 Y-9.16 Z2.38 F1800.0
G1 X24.75 Y-9.16 Z2.38 F1800.0
G1 X24.75 Y9.16 Z2.38 F1800.0
G1 X-24.75 Y9.16 Z2.38 F1800.0
G1 X-24.75 Y-8.59 Z2.38 F1800.0
M103
(</loop>)
(<perimeter> outer )
G1 X-25.14 Y-8.73 Z2.38 F3000.0
M101
G1 X-25.14 Y-9.55 Z2.38 F1800.0
G1 X25.14 Y-9.55 Z2.38 F1800.0
G1 X25.14 Y9.55 Z2.38 F1800.0
G1 X-25.14 Y9.55 Z2.38 F1800.0
G1 X-25.14 Y-8.28 Z2.38 F1800.0
M108 R30.0
M102
G1 X-25.14 Y-8.73 Z2.38 F1800.0
M108 R3.569
M103
(</perimeter>)
(</boundaryPerimeter>)
G1 X23.64 Y-8.9 Z2.38 F3000.0
M108 R30.0
M101
G1 X24.44 Y-8.9 Z2.38 F3000.0
M108 R3.569
G1 X23.56 Y-8.9 Z2.38 F1800.0
G1 X23.02 Y-5.58 Z2.38 F1800.0
G1 X23.02 Y7.76 Z2.38 F1800.0
G1 X24.44 Y8.9 Z2.38 F1800.0
G1 X21.82 Y8.9 Z2.38 F1800.0
G1 X22.79 Y7.76 Z2.38 F1800.0
G1 X22.79 Y7.51 Z2.38 F1800.0
G1 X20.84 Y5.58 Z2.38 F1800.0
G1 X20.84 Y5.33 Z2.38 F1800.0
G1 X22.79 Y3.4 Z2.38 F1800.0
G1 X22.79 Y3.15 Z2.38 F1800.0
G1 X20.84 Y1.22 Z2.38 F1800.0
G1 X20.84 Y0.96 Z2.38 F1800.0
G1 X22.79 Y-0.96 Z2.38 F1800.0
G1 X22.79 Y-1.22 Z2.38 F1800.0
G1 X20.84 Y-3.15 Z2.38 F1800.0
G1 X20.84 Y-3.4 Z2.38 F1800.0
G1 X22.79 Y-5.33 Z2.38 F1800.0
G1 X22.79 Y-5.58 Z2.38 F1800.0
G1 X20.84 Y-7.51 Z2.38 F1800.0
G1 X20.84 Y-7.76 Z2.38 F1800.0
G1 X23.13 Y-8.9 Z2.38 F1800.0
G1 X19.64 Y-8.9 Z2.38 F1800.0
G1 X20.61 Y-7.76 Z2.38 F1800.0
G1 X20.61 Y-7.51 Z2.38 F1800.0
G1 X18.66 Y-5.58 Z2.38 F1800.0
G1 X18.66 Y-5.33 Z2.38 F1800.0
G1 X20.61 Y-3.4 Z2.38 F1800.0
G1 X20.61 Y-3.15 Z2.38 F1800.0
G1 X18.66 Y-1.22 Z2.38 F1800.0
G1 X18.66 Y-0.96 Z2.38 F1800.0
G1 X20.61 Y0.96 Z2.38 F1800.0
G1 X20.61 Y1.22 Z2.38 F1800.0
G1 X18.66 Y3.15 Z2.38 F1800.0
G1 X18.66 Y3.4 Z2.38 F1800.0
G1 X20.61 Y5.33 Z2.38 F1800.0
G1 X20.61 Y5.58 Z2.38 F1800.0
G1 X18.66 Y7.51 Z2.38 F1800.0
G1 X18.66 Y7.76 Z2.38 F1800.0
G1 X21.38 Y8.47 Z2.38 F1800.0
G1 X20.94 Y8.9 Z2.38 F1800.0
G1 X17.45 Y8.9 Z2.38 F1800.0
G1 X18.43 Y7.76 Z2.38 F1800.0
G1 X18.43 Y7.51 Z2.38 F1800.0
G1 X16.48 Y5.58 Z2.38 F1800.0
G1 X16.48 Y5.33 Z2.38 F1800.0
G1 X18.43 Y3.4 Z2.38 F1800.0
G1 X18.43 Y3.15 Z2.38 F1800.0
G1 X16.48 Y1.22 Z2.38 F1800.0
G1 X16.48 Y0.96 Z2.38 F1800.0
G1 X18.43 Y-0.96 Z2.38 F1800.0
G1 X18.43 Y-1.22 Z2.38 F1800.0
G1 X16.48 Y-3.15 Z2.38 F1800.0
G1 X16.48 Y-3.4 Z2.38 F1800.0
G1 X18.43 Y-5.33 Z2.38 F1800.0
G1 X18.43 Y-5.58 Z2.38 F1800.0
G1 X16.48 Y-7.51 Z2.38 F1800.0
G1 X16.48 Y-7.76 Z2.38 F1800.0
G1 X19.2 Y-8.47 Z2.38 F1800.0
G1 X18.76 Y-8.9 Z2.38 F1800.0
G1 X15.27 Y-8.9 Z2.38 F1800.0
G1 X16.25 Y-7.76 Z2.38 F1800.0
G1 X16.25 Y-7.51 Z2.38 F1800.0
G1 X14.3 Y-5.58 Z2.38 F1800.0
G1 X14.3 Y-5.33 Z2.38 F1800.0
G1 X16.25 Y-3.4 Z2.38 F1800.0
G1 X16.25 Y-3.15 Z2.38 F1800.0
G1 X14.3 Y-1.22 Z2.38 F1800.0
G1 X14.3 Y-0.96 Z2.38 F1800.0
G1 X16.25 Y0.96 Z2.38 F1800.0
G1 X16.25 Y1.22 Z2.38 F1800.0
G1 X14.3 Y3.15 Z2.38 F1800.0
G1 X14.3 Y3.4 Z2.38 F1800.0
G1 X16.25 Y5.33 Z2.38 F1800.0
G1 X16.25 Y5.58 Z2.38 F1800.0
G1 X14.3 Y7.51 Z2.38 F1800.0
G1 X14.3 Y7.76 Z2.38 F1800.0
G1 X17.02 Y8.47 Z2.38 F1800.0
G1 X16.58 Y8.9 Z2.38 F1800.0
G1 X13.09 Y8.9 Z2.38 F1800.0
G1 X14.07 Y7.76 Z2.38 F1800.0
G1 X14.07 Y7.51 Z2.38 F1800.0
G1 X12.11 Y5.58 Z2.38 F1800.0
G1 X12.11 Y5.33 Z2.38 F1800.0
G1 X14.07 Y3.4 Z2.38 F1800.0
G1 X14.07 Y3.15 Z2.38 F1800.0
G1 X12.11 Y1.22 Z2.38 F1800.0
G1 X12.11 Y0.96 Z2.38 F1800.0
G1 X14.07 Y-0.96 Z2.38 F1800.0
G1 X14.07 Y-1.22 Z2.38 F1800.0
G1 X12.11 Y-3.15 Z2.38 F1800.0
G1 X12.11 Y-3.4 Z2.38 F1800.0
G1 X14.07 Y-5.33 Z2.38 F1800.0
G1 X14.07 Y-5.58 Z2.38 F1800.0
G1 X12.11 Y-7.51 Z2.38 F1800.0
G1 X12.11 Y-7.76 Z2.38 F1800.0
G1 X14.84 Y-8.47 Z2.38 F1800.0
G1 X14.4 Y-8.9 Z2.38 F1800.0
G1 X10.91 Y-8.9 Z2.38 F1800.0
G1 X11.88 Y-7.76 Z2.38 F1800.0
G1 X11.88 Y-7.51 Z2.38 F1800.0
G1 X9.93 Y-5.58 Z2.38 F1800.0
G1 X9.93 Y-5.33 Z2.38 F1800.0
G1 X11.88 Y-3.4 Z2.38 F1800.0
G1 X11.88 Y-3.15 Z2.38 F1800.0
G1 X9.93 Y-1.22 Z2.38 F1800.0
G1 X9.93 Y-0.96 Z2.38 F1800.0
G1 X11.88 Y0.96 Z2.38 F1800.0
G1 X11.88 Y1.22 Z2.38 F1800.0
G1 X9.93 Y3.15 Z2.38 F1800.0
G1 X9.93 Y3.4 Z2.38 F1800.0
G1 X11.88 Y5.33 Z2.38 F1800.0
G1 X11.88 Y5.58 Z2.38 F1800.0
G1 X9.93 Y7.51 Z2.38 F1800.0
G1 X9.93 Y7.76 Z2.38 F1800.0
G1 X12.65 Y8.47 Z2.38 F1800.0
G1 X12.22 Y8.9 Z2.38 F1800.0
G1 X8.73 Y8.9 Z2.38 F1800.0
G1 X9.7 Y7.76 Z2.38 F1800.0
G1 X9.7 Y7.51 Z2.38 F1800.0
G1 X7.75 Y5.58 Z2.38 F1800.0
G1 X7.75 Y5.33 Z2.38 F1800.0
G1 X9.7 Y3.4 Z2.38 F1800.0
G1 X9.7 Y3.15 Z2.38 F1800.0
G1 X7.75 Y1.22 Z2.38 F1800.0
G1 X7.75 Y0.96 Z2.38 F1800.0
G1 X9.7 Y-0.96 Z2.38 F1800.0
G1 X9.7 Y-1.22 Z2.38 F1800.0
G1 X7.75 Y-3.15 Z2.38 F1800.0
G1 X7.75 Y-3.4 Z2.38 F1800.0
G1 X9.7 Y-5.33 Z2.38 F1800.0
G1 X9.7 Y-5.58 Z2.38 F1800.0
G1 X7.75 Y-7.51 Z2.38 F1800.0
G1 X7.75 Y-7.76 Z2.38 F1800.0
G1 X10.47 Y-8.47 Z2.38 F1800.0
G1 X10.04 Y-8.9 Z2.38 F1800.0
G1 X6.55 Y-8.9 Z2.38 F1800.0
G1 X7.52 Y-7.76 Z2.38 F1800.0
G1 X7.52 Y-7.51 Z2.38 F1800.0
G1 X5.57 Y-5.58 Z2.38 F1800.0
G1 X5.57 Y-5.33 Z2.38 F1800.0
G1 X7.52 Y-3.4 Z2.38 F1800.0
G1 X7.52 Y-3.15 Z2.38 F1800.0
G1 X5.57 Y-1.22 Z2.38 F1800.0
G1 X5.57 Y-0.96 Z2.38 F1800.0
G1 X7.52 Y0.96 Z2.38 F1800.0
G1 X7.52 Y1.22 Z2.38 F1800.0
G1 X5.57 Y3.15 Z2.38 F1800.0
G1 X5.57 Y3.4 Z2.38 F1800.0
G1 X7.52 Y5.33 Z2.38 F1800.0
G1 X7.52 Y5.58 Z2.38 F1800.0
G1 X5.57 Y7.64 Z2.38 F1800.0
G1 X8.29 Y8.47 Z2.38 F1800.0
G1 X7.85 Y8.9 Z2.38 F1800.0
G1 X4.36 Y8.9 Z2.38 F1800.0
G1 X5.34 Y7.76 Z2.38 F1800.0
G1 X5.34 Y7.51 Z2.38 F1800.0
G1 X3.39 Y5.58 Z2.38 F1800.0
G1 X3.39 Y5.33 Z2.38 F1800.0
G1 X5.34 Y3.4 Z2.38 F1800.0
G1 X5.34 Y3.15 Z2.38 F1800.0
G1 X3.39 Y1.22 Z2.38 F1800.0
G1 X3.39 Y0.96 Z2.38 F1800.0
G1 X5.34 Y-0.96 Z2.38 F1800.0
G1 X5.34 Y-1.22 Z2.38 F1800.0
G1 X3.39 Y-3.15 Z2.38 F1800.0
G1 X3.39 Y-3.4 Z2.38 F1800.0
G1 X5.34 Y-5.33 Z2.38 F1800.0
G1 X5.34 Y-5.58 Z2.38 F1800.0
G1 X3.39 Y-7.51 Z2.38 F1800.0
G1 X3.39 Y-7.76 Z2.38 F1800.0
G1 X6.11 Y-8.47 Z2.38 F1800.0
G1 X5.67 Y-8.9 Z2.38 F1800.0
G1 X2.18 Y-8.9 Z2.38 F1800.0
G1 X3.16 Y-7.76 Z2.38 F1800.0
G1 X3.16 Y-7.51 Z2.38 F1800.0
G1 X1.21 Y-5.58 Z2.38 F1800.0
G1 X1.21 Y-5.33 Z2.38 F1800.0
G1 X3.16 Y-3.4 Z2.38 F1800.0
G1 X3.16 Y-3.15 Z2.38 F1800.0
G1 X1.21 Y-1.22 Z2.38 F1800.0
G1 X1.21 Y-0.96 Z2.38 F1800.0
G1 X3.16 Y0.96 Z2.38 F1800.0
G1 X3.16 Y1.22 Z2.38 F1800.0
G1 X1.21 Y3.15 Z2.38 F1800.0
G1 X1.21 Y3.4 Z2.38 F1800.0
G1 X3.16 Y5.33 Z2.38 F1800.0
G1 X3.16 Y5.58 Z2.38 F1800.0
G1 X1.21 Y7.51 Z2.38 F1800.0
G1 X1.21 Y7.76 Z2.38 F1800.0
G1 X3.93 Y8.47 Z2.38 F1800.0
G1 X3.49 Y8.9 Z2.38 F1800.0
G1 X0.0 Y8.9 Z2.38 F1800.0
G1 X0.98 Y7.76 Z2.38 F1800.0
G1 X0.98 Y7.51 Z2.38 F1800.0
G1 X-0.98 Y5.58 Z2.38 F1800.0
G1 X-0.98 Y5.33 Z2.38 F1800.0
G1 X0.98 Y3.4 Z2.38 F1800.0
G1 X0.98 Y3.15 Z2.38 F1800.0
G1 X-0.98 Y1.22 Z2.38 F1800.0
G1 X-0.98 Y0.96 Z2.38 F1800.0
G1 X0.98 Y-0.96 Z2.38 F1800.0
G1 X0.98 Y-1.22 Z2.38 F1800.0
G1 X-0.98 Y-3.15 Z2.38 F1800.0
G1 X-0.98 Y-3.4 Z2.38 F1800.0
G1 X0.98 Y-5.33 Z2.38 F1800.0
G1 X0.98 Y-5.58 Z2.38 F1800.0
G1 X-0.98 Y-7.51 Z2.38 F1800.0
G1 X-0.98 Y-7.76 Z2.38 F1800.0
G1 X1.75 Y-8.47 Z2.38 F1800.0
G1 X1.31 Y-8.9 Z2.38 F1800.0
G1 X-2.18 Y-8.9 Z2.38 F1800.0
G1 X-1.21 Y-7.76 Z2.38 F1800.0
G1 X-1.21 Y-7.51 Z2.38 F1800.0
G1 X-3.16 Y-5.58 Z2.38 F1800.0
G1 X-3.16 Y-5.33 Z2.38 F1800.0
G1 X-1.21 Y-3.4 Z2.38 F1800.0
G1 X-1.21 Y-3.15 Z2.38 F1800.0
G1 X-3.16 Y-1.22 Z2.38 F1800.0
G1 X-3.16 Y-0.96 Z2.38 F1800.0
G1 X-1.21 Y0.96 Z2.38 F1800.0
G1 X-1.21 Y1.22 Z2.38 F1800.0
G1 X-3.16 Y3.15 Z2.38 F1800.0
G1 X-3.16 Y3.4 Z2.38 F1800.0
G1 X-1.21 Y5.33 Z2.38 F1800.0
G1 X-1.21 Y5.58 Z2.38 F1800.0
G1 X-3.16 Y7.51 Z2.38 F1800.0
G1 X-3.16 Y7.76 Z2.38 F1800.0
G1 X-0.44 Y8.47 Z2.38 F1800.0
G1 X-0.87 Y8.9 Z2.38 F1800.0
G1 X-4.36 Y8.9 Z2.38 F1800.0
G1 X-3.39 Y7.76 Z2.38 F1800.0
G1 X-3.39 Y7.51 Z2.38 F1800.0
G1 X-5.34 Y5.58 Z2.38 F1800.0
G1 X-5.34 Y5.33 Z2.38 F1800.0
G1 X-3.39 Y3.4 Z2.38 F1800.0
G1 X-3.39 Y3.15 Z2.38 F1800.0
G1 X-5.34 Y1.22 Z2.38 F1800.0
G1 X-5.34 Y0.96 Z2.38 F1800.0
G1 X-3.39 Y-0.96 Z2.38 F1800.0
G1 X-3.39 Y-1.22 Z2.38 F1800.0
G1 X-5.34 Y-3.15 Z2.38 F1800.0
G1 X-5.34 Y-3.4 Z2.38 F1800.0
G1 X-3.39 Y-5.33 Z2.38 F1800.0
G1 X-3.39 Y-5.58 Z2.38 F1800.0
G1 X-5.34 Y-7.51 Z2.38 F1800.0
G1 X-5.34 Y-7.76 Z2.38 F1800.0
G1 X-2.62 Y-8.47 Z2.38 F1800.0
G1 X-3.05 Y-8.9 Z2.38 F1800.0
G1 X-6.55 Y-8.9 Z2.38 F1800.0
G1 X-5.57 Y-7.76 Z2.38 F1800.0
G1 X-5.57 Y-7.51 Z2.38 F1800.0
G1 X-7.52 Y-5.58 Z2.38 F1800.0
G1 X-7.52 Y-5.33 Z2.38 F1800.0
G1 X-5.57 Y-3.4 Z2.38 F1800.0
G1 X-5.57 Y-3.15 Z2.38 F1800.0
G1 X-7.52 Y-1.22 Z2.38 F1800.0
G1 X-7.52 Y-0.96 Z2.38 F1800.0
G1 X-5.57 Y0.96 Z2.38 F1800.0
G1 X-5.57 Y1.22 Z2.38 F1800.0
G1 X-7.52 Y3.15 Z2.38 F1800.0
G1 X-7.52 Y3.4 Z2.38 F1800.0
G1 X-5.57 Y5.33 Z2.38 F1800.0
G1 X-5.57 Y5.58 Z2.38 F1800.0
G1 X-7.52 Y7.51 Z2.38 F1800.0
G1 X-7.52 Y7.76 Z2.38 F1800.0
G1 X-4.8 Y8.47 Z2.38 F1800.0
G1 X-5.24 Y8.9 Z2.38 F1800.0
G1 X-8.73 Y8.9 Z2.38 F1800.0
G1 X-7.75 Y7.76 Z2.38 F1800.0
G1 X-7.75 Y7.51 Z2.38 F1800.0
G1 X-9.7 Y5.58 Z2.38 F1800.0
G1 X-9.7 Y5.33 Z2.38 F1800.0
G1 X-7.75 Y3.4 Z2.38 F1800.0
G1 X-7.75 Y3.15 Z2.38 F1800.0
G1 X-9.7 Y1.22 Z2.38 F1800.0
G1 X-9.7 Y0.96 Z2.38 F1800.0
G1 X-7.75 Y-0.96 Z2.38 F1800.0
G1 X-7.75 Y-1.22 Z2.38 F1800.0
G1 X-9.7 Y-3.15 Z2.38 F1800.0
G1 X-9.7 Y-3.4 Z2.38 F1800.0
G1 X-7.75 Y-5.33 Z2.38 F1800.0
G1 X-7.75 Y-5.58 Z2.38 F1800.0
G1 X-9.7 Y-7.51 Z2.38 F1800.0
G1 X-9.7 Y-7.76 Z2.38 F1800.0
G1 X-6.98 Y-8.47 Z2.38 F1800.0
G1 X-7.42 Y-8.9 Z2.38 F1800.0
G1 X-10.91 Y-8.9 Z2.38 F1800.0
G1 X-9.93 Y-7.76 Z2.38 F1800.0
G1 X-9.93 Y-7.51 Z2.38 F1800.0
G1 X-11.88 Y-5.58 Z2.38 F1800.0
G1 X-11.88 Y-5.33 Z2.38 F1800.0
G1 X-9.93 Y-3.4 Z2.38 F1800.0
G1 X-9.93 Y-3.15 Z2.38 F1800.0
G1 X-11.88 Y-1.22 Z2.38 F1800.0
G1 X-11.88 Y-0.96 Z2.38 F1800.0
G1 X-9.93 Y0.96 Z2.38 F1800.0
G1 X-9.93 Y1.22 Z2.38 F1800.0
G1 X-11.88 Y3.15 Z2.38 F1800.0
G1 X-11.88 Y3.4 Z2.38 F1800.0
G1 X-9.93 Y5.33 Z2.38 F1800.0
G1 X-9.93 Y5.58 Z2.38 F1800.0
G1 X-11.88 Y7.51 Z2.38 F1800.0
G1 X-11.88 Y7.76 Z2.38 F1800.0
G1 X-9.16 Y8.47 Z2.38 F1800.0
G1 X-9.6 Y8.9 Z2.38 F1800.0
G1 X-13.09 Y8.9 Z2.38 F1800.0
G1 X-12.11 Y7.76 Z2.38 F1800.0
G1 X-12.11 Y7.51 Z2.38 F1800.0
G1 X-14.07 Y5.58 Z2.38 F1800.0
G1 X-14.07 Y5.33 Z2.38 F1800.0
G1 X-12.11 Y3.4 Z2.38 F1800.0
G1 X-12.11 Y3.15 Z2.38 F1800.0
G1 X-14.07 Y1.22 Z2.38 F1800.0
G1 X-14.07 Y0.96 Z2.38 F1800.0
G1 X-12.11 Y-0.96 Z2.38 F1800.0
G1 X-12.11 Y-1.22 Z2.38 F1800.0
G1 X-14.07 Y-3.15 Z2.38 F1800.0
G1 X-14.07 Y-3.4 Z2.38 F1800.0
G1 X-12.11 Y-5.33 Z2.38 F1800.0
G1 X-12.11 Y-5.58 Z2.38 F1800.0
G1 X-14.07 Y-7.64 Z2.38 F1800.0
G1 X-11.35 Y-8.47 Z2.38 F1800.0
G1 X-11.78 Y-8.9 Z2.38 F1800.0
G1 X-15.27 Y-8.9 Z2.38 F1800.0
G1 X-14.3 Y-7.76 Z2.38 F1800.0
G1 X-14.3 Y-7.51 Z2.38 F1800.0
G1 X-16.25 Y-5.58 Z2.38 F1800.0
G1 X-16.25 Y-5.33 Z2.38 F1800.0
G1 X-14.3 Y-3.4 Z2.38 F1800.0
G1 X-14.3 Y-3.15 Z2.38 F1800.0
G1 X-16.25 Y-1.22 Z2.38 F1800.0
G1 X-16.25 Y-0.96 Z2.38 F1800.0
G1 X-14.3 Y0.96 Z2.38 F1800.0
G1 X-14.3 Y1.22 Z2.38 F1800.0
G1 X-16.25 Y3.15 Z2.38 F1800.0
G1 X-16.25 Y3.4 Z2.38 F1800.0
G1 X-14.3 Y5.33 Z2.38 F1800.0
G1 X-14.3 Y5.58 Z2.38 F1800.0
G1 X-16.25 Y7.51 Z2.38 F1800.0
G1 X-16.25 Y7.76 Z2.38 F1800.0
G1 X-13.53 Y8.47 Z2.38 F1800.0
G1 X-13.96 Y8.9 Z2.38 F1800.0
G1 X-17.45 Y8.9 Z2.38 F1800.0
G1 X-16.48 Y7.76 Z2.38 F1800.0
G1 X-16.48 Y7.51 Z2.38 F1800.0
G1 X-18.43 Y5.58 Z2.38 F1800.0
G1 X-18.43 Y5.33 Z2.38 F1800.0
G1 X-16.48 Y3.4 Z2.38 F1800.0
G1 X-16.48 Y3.15 Z2.38 F1800.0
G1 X-18.43 Y1.22 Z2.38 F1800.0
G1 X-18.43 Y0.96 Z2.38 F1800.0
G1 X-16.48 Y-0.96 Z2.38 F1800.0
G1 X-16.48 Y-1.22 Z2.38 F1800.0
G1 X-18.43 Y-3.15 Z2.38 F1800.0
G1 X-18.43 Y-3.4 Z2.38 F1800.0
G1 X-16.48 Y-5.33 Z2.38 F1800.0
G1 X-16.48 Y-5.58 Z2.38 F1800.0
G1 X-18.43 Y-7.51 Z2.38 F1800.0
G1 X-18.43 Y-7.76 Z2.38 F1800.0
G1 X-15.71 Y-8.47 Z2.38 F1800.0
G1 X-16.14 Y-8.9 Z2.38 F1800.0
G1 X-19.64 Y-8.9 Z2.38 F1800.0
G1 X-18.66 Y-7.76 Z2.38 F1800.0
G1 X-18.66 Y-7.51 Z2.38 F1800.0
G1 X-20.61 Y-5.58 Z2.38 F1800.0
G1 X-20.61 Y-5.33 Z2.38 F1800.0
G1 X-18.66 Y-3.4 Z2.38 F1800.0
G1 X-18.66 Y-3.15 Z2.38 F1800.0
G1 X-20.61 Y-1.22 Z2.38 F1800.0
G1 X-20.61 Y-0.96 Z2.38 F1800.0
G1 X-18.66 Y0.96 Z2.38 F1800.0
G1 X-18.66 Y1.22 Z2.38 F1800.0
G1 X-20.61 Y3.15 Z2.38 F1800.0
G1 X-20.61 Y3.4 Z2.38 F1800.0
G1 X-18.66 Y5.33 Z2.38 F1800.0
G1 X-18.66 Y5.58 Z2.38 F1800.0
G1 X-20.61 Y7.51 Z2.38 F1800.0
G1 X-20.61 Y7.76 Z2.38 F1800.0
G1 X-17.89 Y8.47 Z2.38 F1800.0
G1 X-18.33 Y8.9 Z2.38 F1800.0
G1 X-21.38 Y8.9 Z2.38 F1800.0
G1 X-20.84 Y7.76 Z2.38 F1800.0
G1 X-20.84 Y7.51 Z2.38 F1800.0
G1 X-22.79 Y5.58 Z2.38 F1800.0
G1 X-22.79 Y5.33 Z2.38 F1800.0
G1 X-20.84 Y3.4 Z2.38 F1800.0
G1 X-20.84 Y3.15 Z2.38 F1800.0
G1 X-22.79 Y1.22 Z2.38 F1800.0
G1 X-22.79 Y0.96 Z2.38 F1800.0
G1 X-20.84 Y-0.96 Z2.38 F1800.0
G1 X-20.84 Y-1.22 Z2.38 F1800.0
G1 X-22.79 Y-3.15 Z2.38 F1800.0
G1 X-22.79 Y-3.4 Z2.38 F1800.0
G1 X-20.84 Y-5.33 Z2.38 F1800.0
G1 X-20.84 Y-5.58 Z2.38 F1800.0
G1 X-22.79 Y-7.51 Z2.38 F1800.0
G1 X-22.79 Y-7.76 Z2.38 F1800.0
G1 X-20.07 Y-8.47 Z2.38 F1800.0
G1 X-20.51 Y-8.9 Z2.38 F1800.0
G1 X-23.56 Y-8.9 Z2.38 F1800.0
G1 X-23.02 Y-7.76 Z2.38 F1800.0
G1 X-23.02 Y5.58 Z2.38 F1800.0
G1 X-21.82 Y8.9 Z2.38 F1800.0
G1 X-24.44 Y8.9 Z2.38 F1800.0
G1 X-24.44 Y-8.9 Z2.38 F1800.0
G1 X-24.0 Y-8.9 Z2.38 F1800.0
M103
(</surroundingLoop>)
(</layer>)
(<layer> 2.7 )
(<surroundingLoop>)
(<boundaryPerimeter>)
(<boundaryPoint> X25.338 Y9.75 Z2.7 </boundaryPoint>)
(<boundaryPoint> X-25.338 Y9.75 Z2.7 </boundaryPoint>)
(<boundaryPoint> X-25.338 Y-9.75 Z2.7 </boundaryPoint>)
(<boundaryPoint> X25.338 Y-9.75 Z2.7 </boundaryPoint>)
(<loop> outer )
G1 X-23.65 Y-9.16 Z2.7 F3000.0
M101
G1 X24.75 Y-9.16 Z2.7 F1800.0
G1 X24.75 Y9.16 Z2.7 F1800.0
G1 X-24.75 Y9.16 Z2.7 F1800.0
G1 X-24.75 Y-9.16 Z2.7 F1800.0
G1 X-24.0 Y-9.16 Z2.7 F1800.0
G1 X-23.65 Y-9.16 Z2.7 F1800.0
M103
(</loop>)
(<perimeter> outer )
G1 X-23.65 Y-9.55 Z2.7 F3000.0
M101
G1 X25.14 Y-9.55 Z2.7 F1800.0
G1 X25.14 Y9.55 Z2.7 F1800.0
G1 X-25.14 Y9.55 Z2.7 F1800.0
G1 X-25.14 Y-9.55 Z2.7 F1800.0
G1 X-24.1 Y-9.55 Z2.7 F1800.0
M108 R30.0
M102
G1 X-24.0 Y-9.55 Z2.7 F1800.0
G1 X-23.65 Y-9.55 Z2.7 F1800.0
M108 R3.569
M103
(</perimeter>)
(</boundaryPerimeter>)
G1 X23.75 Y8.44 Z2.7 F3000.0
M108 R30.0
M101
G1 X24.49 Y8.73 Z2.7 F3000.0
M108 R3.569
G1 X24.49 Y8.29 Z2.7 F1800.0
G1 X23.04 Y7.75 Z2.7 F1800.0
G1 X-20.85 Y7.75 Z2.7 F1800.0
G1 X-24.49 Y8.73 Z2.7 F1800.0
G1 X-24.49 Y6.11 Z2.7 F1800.0
G1 X-23.04 Y5.57 Z2.7 F1800.0
G1 X-22.78 Y5.57 Z2.7 F1800.0
G1 X-20.85 Y7.52 Z2.7 F1800.0
G1 X-20.6 Y7.52 Z2.7 F1800.0
G1 X-18.67 Y5.57 Z2.7 F1800.0
G1 X-0.96 Y5.57 Z2.7 F1800.0
G1 X0.96 Y7.52 Z2.7 F1800.0
G1 X1.22 Y7.52 Z2.7 F1800.0
G1 X3.15 Y5.57 Z2.7 F1800.0
G1 X3.4 Y5.57 Z2.7 F1800.0
G1 X5.33 Y7.52 Z2.7 F1800.0
G1 X5.58 Y7.52 Z2.7 F1800.0
G1 X7.51 Y5.57 Z2.7 F1800.0
G1 X7.76 Y5.57 Z2.7 F1800.0
G1 X9.69 Y7.52 Z2.7 F1800.0
G1 X9.95 Y7.52 Z2.7 F1800.0
G1 X11.87 Y5.57 Z2.7 F1800.0
G1 X12.13 Y5.57 Z2.7 F1800.0
G1 X14.05 Y7.52 Z2.7 F1800.0
G1 X14.31 Y7.52 Z2.7 F1800.0
G1 X16.24 Y5.57 Z2.7 F1800.0
G1 X16.49 Y5.57 Z2.7 F1800.0
G1 X18.42 Y7.52 Z2.7 F1800.0
G1 X18.67 Y7.52 Z2.7 F1800.0
G1 X20.6 Y5.57 Z2.7 F1800.0
G1 X20.85 Y5.57 Z2.7 F1800.0
G1 X22.78 Y7.52 Z2.7 F1800.0
G1 X23.04 Y7.52 Z2.7 F1800.0
G1 X24.49 Y7.85 Z2.7 F1800.0
G1 X24.49 Y3.93 Z2.7 F1800.0
G1 X23.04 Y3.39 Z2.7 F1800.0
G1 X22.78 Y3.39 Z2.7 F1800.0
G1 X20.85 Y5.34 Z2.7 F1800.0
G1 X20.6 Y5.34 Z2.7 F1800.0
G1 X18.67 Y3.39 Z2.7 F1800.0
G1 X18.42 Y3.39 Z2.7 F1800.0
G1 X16.49 Y5.34 Z2.7 F1800.0
G1 X16.24 Y5.34 Z2.7 F1800.0
G1 X14.31 Y3.39 Z2.7 F1800.0
G1 X14.05 Y3.39 Z2.7 F1800.0
G1 X12.13 Y5.34 Z2.7 F1800.0
G1 X11.87 Y5.34 Z2.7 F1800.0
G1 X9.95 Y3.39 Z2.7 F1800.0
G1 X9.69 Y3.39 Z2.7 F1800.0
G1 X7.76 Y5.34 Z2.7 F1800.0
G1 X7.51 Y5.34 Z2.7 F1800.0
G1 X5.58 Y3.39 Z2.7 F1800.0
G1 X5.33 Y3.39 Z2.7 F1800.0
G1 X3.4 Y5.34 Z2.7 F1800.0
G1 X3.15 Y5.34 Z2.7 F1800.0
G1 X1.22 Y3.39 Z2.7 F1800.0
G1 X0.96 Y3.39 Z2.7 F1800.0
G1 X-0.96 Y5.34 Z2.7 F1800.0
G1 X-1.22 Y5.34 Z2.7 F1800.0
G1 X-3.15 Y3.39 Z2.7 F1800.0
G1 X-3.4 Y3.39 Z2.7 F1800.0
G1 X-5.33 Y5.34 Z2.7 F1800.0
G1 X-5.58 Y5.34 Z2.7 F1800.0
G1 X-7.51 Y3.39 Z2.7 F1800.0
G1 X-7.76 Y3.39 Z2.7 F1800.0
G1 X-9.69 Y5.34 Z2.7 F1800.0
G1 X-9.95 Y5.34 Z2.7 F1800.0
G1 X-11.87 Y3.39 Z2.7 F1800.0
G1 X-12.13 Y3.39 Z2.7 F1800.0
G1 X-14.05 Y5.34 Z2.7 F1800.0
G1 X-14.31 Y5.34 Z2.7 F1800.0
G1 X-16.24 Y3.39 Z2.7 F1800.0
G1 X-16.49 Y3.39 Z2.7 F1800.0
G1 X-18.42 Y5.34 Z2.7 F1800.0
G1 X-18.67 Y5.34 Z2.7 F1800.0
G1 X-20.6 Y3.39 Z2.7 F1800.0
G1 X-20.85 Y3.39 Z2.7 F1800.0
G1 X-22.78 Y5.34 Z2.7 F1800.0
G1 X-23.04 Y5.34 Z2.7 F1800.0
G1 X-24.49 Y5.67 Z2.7 F1800.0
G1 X-24.49 Y1.75 Z2.7 F1800.0
G1 X-23.04 Y1.21 Z2.7 F1800.0
G1 X-22.78 Y1.21 Z2.7 F1800.0
G1 X-20.85 Y3.16 Z2.7 F1800.0
G1 X-20.6 Y3.16 Z2.7 F1800.0
G1 X-18.67 Y1.21 Z2.7 F1800.0
G1 X-18.42 Y1.21 Z2.7 F1800.0
G1 X-16.49 Y3.16 Z2.7 F1800.0
G1 X-16.24 Y3.16 Z2.7 F1800.0
G1 X-14.31 Y1.21 Z2.7 F1800.0
G1 X-14.05 Y1.21 Z2.7 F1800.0
G1 X-12.13 Y3.16 Z2.7 F1800.0
G1 X-11.87 Y3.16 Z2.7 F1800.0
G1 X-9.95 Y1.21 Z2.7 F1800.0
G1 X-9.69 Y1.21 Z2.7 F1800.0
G1 X-7.76 Y3.16 Z2.7 F1800.0
G1 X-7.51 Y3.16 Z2.7 F1800.0
G1 X-5.58 Y1.21 Z2.7 F1800.0
G1 X-5.33 Y1.21 Z2.7 F1800.0
G1 X-3.4 Y3.16 Z2.7 F1800.0
G1 X-3.15 Y3.16 Z2.7 F1800.0
G1 X-1.22 Y1.21 Z2.7 F1800.0
G1 X-0.96 Y1.21 Z2.7 F1800.0
G1 X0.96 Y3.16 Z2.7 F1800.0
G1 X1.22 Y3.16 Z2.7 F1800.0
G1 X3.15 Y1.21 Z2.7 F1800.0
G1 X3.4 Y1.21 Z2.7 F1800.0
G1 X5.33 Y3.16 Z2.7 F1800.0
G1 X5.58 Y3.16 Z2.7 F1800.0
G1 X7.51 Y1.21 Z2.7 F1800.0
G1 X7.76 Y1.21 Z2.7 F1800.0
G1 X9.69 Y3.16 Z2.7 F1800.0
G1 X9.95 Y3.16 Z2.7 F1800.0
G1 X11.87 Y1.21 Z2.7 F1800.0
G1 X12.13 Y1.21 Z2.7 F1800.0
G1 X14.05 Y3.16 Z2.7 F1800.0
G1 X14.31 Y3.16 Z2.7 F1800.0
G1 X16.24 Y1.21 Z2.7 F1800.0
G1 X16.49 Y1.21 Z2.7 F1800.0
G1 X18.42 Y3.16 Z2.7 F1800.0
G1 X18.67 Y3.16 Z2.7 F1800.0
G1 X20.6 Y1.21 Z2.7 F1800.0
G1 X20.85 Y1.21 Z2.7 F1800.0
G1 X22.78 Y3.16 Z2.7 F1800.0
G1 X23.04 Y3.16 Z2.7 F1800.0
G1 X24.49 Y3.49 Z2.7 F1800.0
G1 X24.49 Y-0.44 Z2.7 F1800.0
G1 X23.04 Y-0.98 Z2.7 F1800.0
G1 X22.78 Y-0.98 Z2.7 F1800.0
G1 X20.85 Y0.98 Z2.7 F1800.0
G1 X20.6 Y0.98 Z2.7 F1800.0
G1 X18.67 Y-0.98 Z2.7 F1800.0
G1 X18.42 Y-0.98 Z2.7 F1800.0
G1 X16.49 Y0.98 Z2.7 F1800.0
G1 X16.24 Y0.98 Z2.7 F1800.0
G1 X14.31 Y-0.98 Z2.7 F1800.0
G1 X14.05 Y-0.98 Z2.7 F1800.0
G1 X12.13 Y0.98 Z2.7 F1800.0
G1 X11.87 Y0.98 Z2.7 F1800.0
G1 X9.95 Y-0.98 Z2.7 F1800.0
G1 X9.69 Y-0.98 Z2.7 F1800.0
G1 X7.76 Y0.98 Z2.7 F1800.0
G1 X7.51 Y0.98 Z2.7 F1800.0
G1 X5.58 Y-0.98 Z2.7 F1800.0
G1 X5.33 Y-0.98 Z2.7 F1800.0
G1 X3.4 Y0.98 Z2.7 F1800.0
G1 X3.15 Y0.98 Z2.7 F1800.0
G1 X1.22 Y-0.98 Z2.7 F1800.0
G1 X0.96 Y-0.98 Z2.7 F1800.0
G1 X-0.96 Y0.98 Z2.7 F1800.0
G1 X-1.22 Y0.98 Z2.7 F1800.0
G1 X-3.15 Y-0.98 Z2.7 F1800.0
G1 X-3.4 Y-0.98 Z2.7 F1800.0
G1 X-5.33 Y0.98 Z2.7 F1800.0
G1 X-5.58 Y0.98 Z2.7 F1800.0
G1 X-7.51 Y-0.98 Z2.7 F1800.0
G1 X-7.76 Y-0.98 Z2.7 F1800.0
G1 X-9.69 Y0.98 Z2.7 F1800.0
G1 X-9.95 Y0.98 Z2.7 F1800.0
G1 X-11.87 Y-0.98 Z2.7 F1800.0
G1 X-12.13 Y-0.98 Z2.7 F1800.0
G1 X-14.05 Y0.98 Z2.7 F1800.0
G1 X-14.31 Y0.98 Z2.7 F1800.0
G1 X-16.24 Y-0.98 Z2.7 F1800.0
G1 X-16.49 Y-0.98 Z2.7 F1800.0
G1 X-18.42 Y0.98 Z2.7 F1800.0
G1 X-18.67 Y0.98 Z2.7 F1800.0
G1 X-20.6 Y-0.98 Z2.7 F1800.0
G1 X-20.85 Y-0.98 Z2.7 F1800.0
G1 X-22.78 Y0.98 Z2.7 F1800.0
G1 X-23.04 Y0.98 Z2.7 F1800.0
G1 X-24.49 Y1.31 Z2.7 F1800.0
G1 X-24.49 Y-2.62 Z2.7 F1800.0
G1 X-23.04 Y-3.16 Z2.7 F1800.0
G1 X-22.78 Y-3.16 Z2.7 F1800.0
G1 X-20.85 Y-1.21 Z2.7 F1800.0
G1 X-20.6 Y-1.21 Z2.7 F1800.0
G1 X-18.67 Y-3.16 Z2.7 F1800.0
G1 X-18.42 Y-3.16 Z2.7 F1800.0
G1 X-16.49 Y-1.21 Z2.7 F1800.0
G1 X-16.24 Y-1.21 Z2.7 F1800.0
G1 X-14.31 Y-3.16 Z2.7 F1800.0
G1 X-14.05 Y-3.16 Z2.7 F1800.0
G1 X-12.13 Y-1.21 Z2.7 F1800.0
G1 X-11.87 Y-1.21 Z2.7 F1800.0
G1 X-9.95 Y-3.16 Z2.7 F1800.0
G1 X-9.69 Y-3.16 Z2.7 F1800.0
G1 X-7.76 Y-1.21 Z2.7 F1800.0
G1 X-7.51 Y-1.21 Z2.7 F1800.0
G1 X-5.58 Y-3.16 Z2.7 F1800.0
G1 X-5.33 Y-3.16 Z2.7 F1800.0
G1 X-3.4 Y-1.21 Z2.7 F1800.0
G1 X-3.15 Y-1.21 Z2.7 F1800.0
G1 X-1.22 Y-3.16 Z2.7 F1800.0
G1 X-0.96 Y-3.16 Z2.7 F1800.0
G1 X0.96 Y-1.21 Z2.7 F1800.0
G1 X1.22 Y-1.21 Z2.7 F1800.0
G1 X3.15 Y-3.16 Z2.7 F1800.0
G1 X3.4 Y-3.16 Z2.7 F1800.0
G1 X5.33 Y-1.21 Z2.7 F1800.0
G1 X5.58 Y-1.21 Z2.7 F1800.0
G1 X7.51 Y-3.16 Z2.7 F1800.0
G1 X7.76 Y-3.16 Z2.7 F1800.0
G1 X9.69 Y-1.21 Z2.7 F1800.0
G1 X9.95 Y-1.21 Z2.7 F1800.0
G1 X11.87 Y-3.16 Z2.7 F1800.0
G1 X12.13 Y-3.16 Z2.7 F1800.0
G1 X14.05 Y-1.21 Z2.7 F1800.0
G1 X14.31 Y-1.21 Z2.7 F1800.0
G1 X16.24 Y-3.16 Z2.7 F1800.0
G1 X16.49 Y-3.16 Z2.7 F1800.0
G1 X18.42 Y-1.21 Z2.7 F1800.0
G1 X18.67 Y-1.21 Z2.7 F1800.0
G1 X20.6 Y-3.16 Z2.7 F1800.0
G1 X20.85 Y-3.16 Z2.7 F1800.0
G1 X22.78 Y-1.21 Z2.7 F1800.0
G1 X23.04 Y-1.21 Z2.7 F1800.0
G1 X24.49 Y-0.87 Z2.7 F1800.0
G1 X24.49 Y-4.8 Z2.7 F1800.0
G1 X23.04 Y-5.34 Z2.7 F1800.0
G1 X22.78 Y-5.34 Z2.7 F1800.0
G1 X20.85 Y-3.39 Z2.7 F1800.0
G1 X20.6 Y-3.39 Z2.7 F1800.0
G1 X18.67 Y-5.34 Z2.7 F1800.0
G1 X18.42 Y-5.34 Z2.7 F1800.0
G1 X16.49 Y-3.39 Z2.7 F1800.0
G1 X16.24 Y-3.39 Z2.7 F1800.0
G1 X14.31 Y-5.34 Z2.7 F1800.0
G1 X14.05 Y-5.34 Z2.7 F1800.0
G1 X12.13 Y-3.39 Z2.7 F1800.0
G1 X11.87 Y-3.39 Z2.7 F1800.0
G1 X9.95 Y-5.34 Z2.7 F1800.0
G1 X9.69 Y-5.34 Z2.7 F1800.0
G1 X7.76 Y-3.39 Z2.7 F1800.0
G1 X7.51 Y-3.39 Z2.7 F1800.0
G1 X5.58 Y-5.34 Z2.7 F1800.0
G1 X5.33 Y-5.34 Z2.7 F1800.0
G1 X3.4 Y-3.39 Z2.7 F1800.0
G1 X3.15 Y-3.39 Z2.7 F1800.0
G1 X1.22 Y-5.34 Z2.7 F1800.0
G1 X0.96 Y-5.34 Z2.7 F1800.0
G1 X-0.96 Y-3.39 Z2.7 F1800.0
G1 X-18.67 Y-3.39 Z2.7 F1800.0
G1 X-20.6 Y-5.34 Z2.7 F1800.0
G1 X-20.85 Y-5.34 Z2.7 F1800.0
G1 X-22.78 Y-3.39 Z2.7 F1800.0
G1 X-23.04 Y-3.39 Z2.7 F1800.0
G1 X-24.49 Y-3.05 Z2.7 F1800.0
G1 X-24.49 Y-6.98 Z2.7 F1800.0
G1 X-23.04 Y-7.52 Z2.7 F1800.0
G1 X-22.78 Y-7.52 Z2.7 F1800.0
G1 X-20.85 Y-5.57 Z2.7 F1800.0
G1 X1.22 Y-5.57 Z2.7 F1800.0
G1 X3.15 Y-7.52 Z2.7 F1800.0
G1 X3.4 Y-7.52 Z2.7 F1800.0
G1 X5.33 Y-5.57 Z2.7 F1800.0
G1 X5.58 Y-5.57 Z2.7 F1800.0
G1 X7.51 Y-7.52 Z2.7 F1800.0
G1 X7.76 Y-7.52 Z2.7 F1800.0
G1 X9.69 Y-5.57 Z2.7 F1800.0
G1 X9.95 Y-5.57 Z2.7 F1800.0
G1 X11.87 Y-7.52 Z2.7 F1800.0
G1 X12.13 Y-7.52 Z2.7 F1800.0
G1 X14.05 Y-5.57 Z2.7 F1800.0
G1 X14.31 Y-5.57 Z2.7 F1800.0
G1 X16.24 Y-7.52 Z2.7 F1800.0
G1 X16.49 Y-7.52 Z2.7 F1800.0
G1 X18.42 Y-5.57 Z2.7 F1800.0
G1 X18.67 Y-5.57 Z2.7 F1800.0
G1 X20.6 Y-7.52 Z2.7 F1800.0
G1 X20.85 Y-7.52 Z2.7 F1800.0
G1 X22.78 Y-5.57 Z2.7 F1800.0
G1 X23.04 Y-5.57 Z2.7 F1800.0
G1 X24.49 Y-5.24 Z2.7 F1800.0
G1 X24.49 Y-8.73 Z2.7 F1800.0
G1 X20.85 Y-7.75 Z2.7 F1800.0
G1 X-23.04 Y-7.75 Z2.7 F1800.0
G1 X-24.49 Y-7.42 Z2.7 F1800.0
G1 X-24.49 Y-8.73 Z2.7 F1800.0
M103
(</surroundingLoop>)
(</layer>)
(<layer> 3.02 )
(<surroundingLoop>)
(<boundaryPerimeter>)
(<boundaryPoint> X25.338 Y9.75 Z3.02 </boundaryPoint>)
(<boundaryPoint> X-25.338 Y9.75 Z3.02 </boundaryPoint>)
(<boundaryPoint> X-25.338 Y-9.75 Z3.02 </boundaryPoint>)
(<boundaryPoint> X25.338 Y-9.75 Z3.02 </boundaryPoint>)
(<loop> outer )
G1 X-24.75 Y-8.78 Z3.02 F3000.0
M101
G1 X-24.75 Y-9.16 Z3.02 F1800.0
G1 X24.75 Y-9.16 Z3.02 F1800.0
G1 X24.75 Y9.16 Z3.02 F1800.0
G1 X-24.75 Y9.16 Z3.02 F1800.0
G1 X-24.75 Y-8.73 Z3.02 F1800.0
G1 X-24.75 Y-8.78 Z3.02 F1800.0
M103
(</loop>)
(<perimeter> outer )
G1 X-25.14 Y-8.73 Z3.02 F3000.0
M101
G1 X-25.14 Y-9.55 Z3.02 F1800.0
G1 X25.14 Y-9.55 Z3.02 F1800.0
G1 X25.14 Y9.55 Z3.02 F1800.0
G1 X-25.14 Y9.55 Z3.02 F1800.0
G1 X-25.14 Y-8.28 Z3.02 F1800.0
M108 R30.0
M102
G1 X-25.14 Y-8.73 Z3.02 F1800.0
M108 R3.569
M103
(</perimeter>)
(</boundaryPerimeter>)
G1 X23.64 Y-8.9 Z3.02 F3000.0
M108 R30.0
M101
G1 X24.44 Y-8.9 Z3.02 F3000.0
M108 R3.569
G1 X23.56 Y-8.9 Z3.02 F1800.0
G1 X23.02 Y-5.58 Z3.02 F1800.0
G1 X23.02 Y7.76 Z3.02 F1800.0
G1 X24.44 Y8.9 Z3.02 F1800.0
G1 X21.82 Y8.9 Z3.02 F1800.0
G1 X22.79 Y7.76 Z3.02 F1800.0
G1 X22.79 Y7.51 Z3.02 F1800.0
G1 X20.84 Y5.58 Z3.02 F1800.0
G1 X20.84 Y5.33 Z3.02 F1800.0
G1 X22.79 Y3.4 Z3.02 F1800.0
G1 X22.79 Y3.15 Z3.02 F1800.0
G1 X20.84 Y1.22 Z3.02 F1800.0
G1 X20.84 Y0.96 Z3.02 F1800.0
G1 X22.79 Y-0.96 Z3.02 F1800.0
G1 X22.79 Y-1.22 Z3.02 F1800.0
G1 X20.84 Y-3.15 Z3.02 F1800.0
G1 X20.84 Y-3.4 Z3.02 F1800.0
G1 X22.79 Y-5.33 Z3.02 F1800.0
G1 X22.79 Y-5.58 Z3.02 F1800.0
G1 X20.84 Y-7.51 Z3.02 F1800.0
G1 X20.84 Y-7.76 Z3.02 F1800.0
G1 X23.13 Y-8.9 Z3.02 F1800.0
G1 X19.64 Y-8.9 Z3.02 F1800.0
G1 X20.61 Y-7.76 Z3.02 F1800.0
G1 X20.61 Y-7.51 Z3.02 F1800.0
G1 X18.66 Y-5.58 Z3.02 F1800.0
G1 X18.66 Y-5.33 Z3.02 F1800.0
G1 X20.61 Y-3.4 Z3.02 F1800.0
G1 X20.61 Y-3.15 Z3.02 F1800.0
G1 X18.66 Y-1.22 Z3.02 F1800.0
G1 X18.66 Y-0.96 Z3.02 F1800.0
G1 X20.61 Y0.96 Z3.02 F1800.0
G1 X20.61 Y1.22 Z3.02 F1800.0
G1 X18.66 Y3.15 Z3.02 F1800.0
G1 X18.66 Y3.4 Z3.02 F1800.0
G1 X20.61 Y5.33 Z3.02 F1800.0
G1 X20.61 Y5.58 Z3.02 F1800.0
G1 X18.66 Y7.51 Z3.02 F1800.0
G1 X18.66 Y7.76 Z3.02 F1800.0
G1 X21.38 Y8.47 Z3.02 F1800.0
G1 X20.94 Y8.9 Z3.02 F1800.0
G1 X17.45 Y8.9 Z3.02 F1800.0
G1 X18.43 Y7.76 Z3.02 F1800.0
G1 X18.43 Y7.51 Z3.02 F1800.0
G1 X16.48 Y5.58 Z3.02 F1800.0
G1 X16.48 Y5.33 Z3.02 F1800.0
G1 X18.43 Y3.4 Z3.02 F1800.0
G1 X18.43 Y3.15 Z3.02 F1800.0
G1 X16.48 Y1.22 Z3.02 F1800.0
G1 X16.48 Y0.96 Z3.02 F1800.0
G1 X18.43 Y-0.96 Z3.02 F1800.0
G1 X18.43 Y-1.22 Z3.02 F1800.0
G1 X16.48 Y-3.15 Z3.02 F1800.0
G1 X16.48 Y-3.4 Z3.02 F1800.0
G1 X18.43 Y-5.33 Z3.02 F1800.0
G1 X18.43 Y-5.58 Z3.02 F1800.0
G1 X16.48 Y-7.51 Z3.02 F1800.0
G1 X16.48 Y-7.76 Z3.02 F1800.0
G1 X19.2 Y-8.47 Z3.02 F1800.0
G1 X18.76 Y-8.9 Z3.02 F1800.0
G1 X15.27 Y-8.9 Z3.02 F1800.0
G1 X16.25 Y-7.76 Z3.02 F1800.0
G1 X16.25 Y-7.51 Z3.02 F1800.0
G1 X14.3 Y-5.58 Z3.02 F1800.0
G1 X14.3 Y-5.33 Z3.02 F1800.0
G1 X16.25 Y-3.4 Z3.02 F1800.0
G1 X16.25 Y-3.15 Z3.02 F1800.0
G1 X14.3 Y-1.22 Z3.02 F1800.0
G1 X14.3 Y-0.96 Z3.02 F1800.0
G1 X16.25 Y0.96 Z3.02 F1800.0
G1 X16.25 Y1.22 Z3.02 F1800.0
G1 X14.3 Y3.15 Z3.02 F1800.0
G1 X14.3 Y3.4 Z3.02 F1800.0
G1 X16.25 Y5.33 Z3.02 F1800.0
G1 X16.25 Y5.58 Z3.02 F1800.0
G1 X14.3 Y7.51 Z3.02 F1800.0
G1 X14.3 Y7.76 Z3.02 F1800.0
G1 X17.02 Y8.47 Z3.02 F1800.0
G1 X16.58 Y8.9 Z3.02 F1800.0
G1 X13.09 Y8.9 Z3.02 F1800.0
G1 X14.07 Y7.76 Z3.02 F1800.0
G1 X14.07 Y7.51 Z3.02 F1800.0
G1 X12.11 Y5.58 Z3.02 F1800.0
G1 X12.11 Y5.33 Z3.02 F1800.0
G1 X14.07 Y3.4 Z3.02 F1800.0
G1 X14.07 Y3.15 Z3.02 F1800.0
G1 X12.11 Y1.22 Z3.02 F1800.0
G1 X12.11 Y0.96 Z3.02 F1800.0
G1 X14.07 Y-0.96 Z3.02 F1800.0
G1 X14.07 Y-1.22 Z3.02 F1800.0
G1 X12.11 Y-3.15 Z3.02 F1800.0
G1 X12.11 Y-3.4 Z3.02 F1800.0
G1 X14.07 Y-5.33 Z3.02 F1800.0
G1 X14.07 Y-5.58 Z3.02 F1800.0
G1 X12.11 Y-7.51 Z3.02 F1800.0
G1 X12.11 Y-7.76 Z3.02 F1800.0
G1 X14.84 Y-8.47 Z3.02 F1800.0
G1 X14.4 Y-8.9 Z3.02 F1800.0
G1 X10.91 Y-8.9 Z3.02 F1800.0
G1 X11.88 Y-7.76 Z3.02 F1800.0
G1 X11.88 Y-7.51 Z3.02 F1800.0
G1 X9.93 Y-5.58 Z3.02 F1800.0
G1 X9.93 Y-5.33 Z3.02 F1800.0
G1 X11.88 Y-3.4 Z3.02 F1800.0
G1 X11.88 Y-3.15 Z3.02 F1800.0
G1 X9.93 Y-1.22 Z3.02 F1800.0
G1 X9.93 Y-0.96 Z3.02 F1800.0
G1 X11.88 Y0.96 Z3.02 F1800.0
G1 X11.88 Y1.22 Z3.02 F1800.0
G1 X9.93 Y3.15 Z3.02 F1800.0
G1 X9.93 Y3.4 Z3.02 F1800.0
G1 X11.88 Y5.33 Z3.02 F1800.0
G1 X11.88 Y5.58 Z3.02 F1800.0
G1 X9.93 Y7.51 Z3.02 F1800.0
G1 X9.93 Y7.76 Z3.02 F1800.0
G1 X12.65 Y8.47 Z3.02 F1800.0
G1 X12.22 Y8.9 Z3.02 F1800.0
G1 X8.73 Y8.9 Z3.02 F1800.0
G1 X9.7 Y7.76 Z3.02 F1800.0
G1 X9.7 Y7.51 Z3.02 F1800.0
G1 X7.75 Y5.58 Z3.02 F1800.0
G1 X7.75 Y5.33 Z3.02 F1800.0
G1 X9.7 Y3.4 Z3.02 F1800.0
G1 X9.7 Y3.15 Z3.02 F1800.0
G1 X7.75 Y1.22 Z3.02 F1800.0
G1 X7.75 Y0.96 Z3.02 F1800.0
G1 X9.7 Y-0.96 Z3.02 F1800.0
G1 X9.7 Y-1.22 Z3.02 F1800.0
G1 X7.75 Y-3.15 Z3.02 F1800.0
G1 X7.75 Y-3.4 Z3.02 F1800.0
G1 X9.7 Y-5.33 Z3.02 F1800.0
G1 X9.7 Y-5.58 Z3.02 F1800.0
G1 X7.75 Y-7.51 Z3.02 F1800.0
G1 X7.75 Y-7.76 Z3.02 F1800.0
G1 X10.47 Y-8.47 Z3.02 F1800.0
G1 X10.04 Y-8.9 Z3.02 F1800.0
G1 X6.55 Y-8.9 Z3.02 F1800.0
G1 X7.52 Y-7.76 Z3.02 F1800.0
G1 X7.52 Y-7.51 Z3.02 F1800.0
G1 X5.57 Y-5.58 Z3.02 F1800.0
G1 X5.57 Y-5.33 Z3.02 F1800.0
G1 X7.52 Y-3.4 Z3.02 F1800.0
G1 X7.52 Y-3.15 Z3.02 F1800.0
G1 X5.57 Y-1.22 Z3.02 F1800.0
G1 X5.57 Y-0.96 Z3.02 F1800.0
G1 X7.52 Y0.96 Z3.02 F1800.0
G1 X7.52 Y1.22 Z3.02 F1800.0
G1 X5.57 Y3.15 Z3.02 F1800.0
G1 X5.57 Y3.4 Z3.02 F1800.0
G1 X7.52 Y5.33 Z3.02 F1800.0
G1 X7.52 Y5.58 Z3.02 F1800.0
G1 X5.57 Y7.64 Z3.02 F1800.0
G1 X8.29 Y8.47 Z3.02 F1800.0
G1 X7.85 Y8.9 Z3.02 F1800.0
G1 X4.36 Y8.9 Z3.02 F1800.0
G1 X5.34 Y7.76 Z3.02 F1800.0
G1 X5.34 Y7.51 Z3.02 F1800.0
G1 X3.39 Y5.58 Z3.02 F1800.0
G1 X3.39 Y5.33 Z3.02 F1800.0
G1 X5.34 Y3.4 Z3.02 F1800.0
G1 X5.34 Y3.15 Z3.02 F1800.0
G1 X3.39 Y1.22 Z3.02 F1800.0
G1 X3.39 Y0.96 Z3.02 F1800.0
G1 X5.34 Y-0.96 Z3.02 F1800.0
G1 X5.34 Y-1.22 Z3.02 F1800.0
G1 X3.39 Y-3.15 Z3.02 F1800.0
G1 X3.39 Y-3.4 Z3.02 F1800.0
G1 X5.34 Y-5.33 Z3.02 F1800.0
G1 X5.34 Y-5.58 Z3.02 F1800.0
G1 X3.39 Y-7.51 Z3.02 F1800.0
G1 X3.39 Y-7.76 Z3.02 F1800.0
G1 X6.11 Y-8.47 Z3.02 F1800.0
G1 X5.67 Y-8.9 Z3.02 F1800.0
G1 X2.18 Y-8.9 Z3.02 F1800.0
G1 X3.16 Y-7.76 Z3.02 F1800.0
G1 X3.16 Y-7.51 Z3.02 F1800.0
G1 X1.21 Y-5.58 Z3.02 F1800.0
G1 X1.21 Y-5.33 Z3.02 F1800.0
G1 X3.16 Y-3.4 Z3.02 F1800.0
G1 X3.16 Y-3.15 Z3.02 F1800.0
G1 X1.21 Y-1.22 Z3.02 F1800.0
G1 X1.21 Y-0.96 Z3.02 F1800.0
G1 X3.16 Y0.96 Z3.02 F1800.0
G1 X3.16 Y1.22 Z3.02 F1800.0
G1 X1.21 Y3.15 Z3.02 F1800.0
G1 X1.21 Y3.4 Z3.02 F1800.0
G1 X3.16 Y5.33 Z3.02 F1800.0
G1 X3.16 Y5.58 Z3.02 F1800.0
G1 X1.21 Y7.51 Z3.02 F1800.0
G1 X1.21 Y7.76 Z3.02 F1800.0
G1 X3.93 Y8.47 Z3.02 F1800.0
G1 X3.49 Y8.9 Z3.02 F1800.0
G1 X0.0 Y8.9 Z3.02 F1800.0
G1 X0.98 Y7.76 Z3.02 F1800.0
G1 X0.98 Y7.51 Z3.02 F1800.0
G1 X-0.98 Y5.58 Z3.02 F1800.0
G1 X-0.98 Y5.33 Z3.02 F1800.0
G1 X0.98 Y3.4 Z3.02 F1800.0
G1 X0.98 Y3.15 Z3.02 F1800.0
G1 X-0.98 Y1.22 Z3.02 F1800.0
G1 X-0.98 Y0.96 Z3.02 F1800.0
G1 X0.98 Y-0.96 Z3.02 F1800.0
G1 X0.98 Y-1.22 Z3.02 F1800.0
G1 X-0.98 Y-3.15 Z3.02 F1800.0
G1 X-0.98 Y-3.4 Z3.02 F1800.0
G1 X0.98 Y-5.33 Z3.02 F1800.0
G1 X0.98 Y-5.58 Z3.02 F1800.0
G1 X-0.98 Y-7.51 Z3.02 F1800.0
G1 X-0.98 Y-7.76 Z3.02 F1800.0
G1 X1.75 Y-8.47 Z3.02 F1800.0
G1 X1.31 Y-8.9 Z3.02 F1800.0
G1 X-2.18 Y-8.9 Z3.02 F1800.0
G1 X-1.21 Y-7.76 Z3.02 F1800.0
G1 X-1.21 Y-7.51 Z3.02 F1800.0
G1 X-3.16 Y-5.58 Z3.02 F1800.0
G1 X-3.16 Y-5.33 Z3.02 F1800.0
G1 X-1.21 Y-3.4 Z3.02 F1800.0
G1 X-1.21 Y-3.15 Z3.02 F1800.0
G1 X-3.16 Y-1.22 Z3.02 F1800.0
G1 X-3.16 Y-0.96 Z3.02 F1800.0
G1 X-1.21 Y0.96 Z3.02 F1800.0
G1 X-1.21 Y1.22 Z3.02 F1800.0
G1 X-3.16 Y3.15 Z3.02 F1800.0
G1 X-3.16 Y3.4 Z3.02 F1800.0
G1 X-1.21 Y5.33 Z3.02 F1800.0
G1 X-1.21 Y5.58 Z3.02 F1800.0
G1 X-3.16 Y7.51 Z3.02 F1800.0
G1 X-3.16 Y7.76 Z3.02 F1800.0
G1 X-0.44 Y8.47 Z3.02 F1800.0
G1 X-0.87 Y8.9 Z3.02 F1800.0
G1 X-4.36 Y8.9 Z3.02 F1800.0
G1 X-3.39 Y7.76 Z3.02 F1800.0
G1 X-3.39 Y7.51 Z3.02 F1800.0
G1 X-5.34 Y5.58 Z3.02 F1800.0
G1 X-5.34 Y5.33 Z3.02 F1800.0
G1 X-3.39 Y3.4 Z3.02 F1800.0
G1 X-3.39 Y3.15 Z3.02 F1800.0
G1 X-5.34 Y1.22 Z3.02 F1800.0
G1 X-5.34 Y0.96 Z3.02 F1800.0
G1 X-3.39 Y-0.96 Z3.02 F1800.0
G1 X-3.39 Y-1.22 Z3.02 F1800.0
G1 X-5.34 Y-3.15 Z3.02 F1800.0
G1 X-5.34 Y-3.4 Z3.02 F1800.0
G1 X-3.39 Y-5.33 Z3.02 F1800.0
G1 X-3.39 Y-5.58 Z3.02 F1800.0
G1 X-5.34 Y-7.51 Z3.02 F1800.0
G1 X-5.34 Y-7.76 Z3.02 F1800.0
G1 X-2.62 Y-8.47 Z3.02 F1800.0
G1 X-3.05 Y-8.9 Z3.02 F1800.0
G1 X-6.55 Y-8.9 Z3.02 F1800.0
G1 X-5.57 Y-7.76 Z3.02 F1800.0
G1 X-5.57 Y-7.51 Z3.02 F1800.0
G1 X-7.52 Y-5.58 Z3.02 F1800.0
G1 X-7.52 Y-5.33 Z3.02 F1800.0
G1 X-5.57 Y-3.4 Z3.02 F1800.0
G1 X-5.57 Y-3.15 Z3.02 F1800.0
G1 X-7.52 Y-1.22 Z3.02 F1800.0
G1 X-7.52 Y-0.96 Z3.02 F1800.0
G1 X-5.57 Y0.96 Z3.02 F1800.0
G1 X-5.57 Y1.22 Z3.02 F1800.0
G1 X-7.52 Y3.15 Z3.02 F1800.0
G1 X-7.52 Y3.4 Z3.02 F1800.0
G1 X-5.57 Y5.33 Z3.02 F1800.0
G1 X-5.57 Y5.58 Z3.02 F1800.0
G1 X-7.52 Y7.51 Z3.02 F1800.0
G1 X-7.52 Y7.76 Z3.02 F1800.0
G1 X-4.8 Y8.47 Z3.02 F1800.0
G1 X-5.24 Y8.9 Z3.02 F1800.0
G1 X-8.73 Y8.9 Z3.02 F1800.0
G1 X-7.75 Y7.76 Z3.02 F1800.0
G1 X-7.75 Y7.51 Z3.02 F1800.0
G1 X-9.7 Y5.58 Z3.02 F1800.0
G1 X-9.7 Y5.33 Z3.02 F1800.0
G1 X-7.75 Y3.4 Z3.02 F1800.0
G1 X-7.75 Y3.15 Z3.02 F1800.0
G1 X-9.7 Y1.22 Z3.02 F1800.0
G1 X-9.7 Y0.96 Z3.02 F1800.0
G1 X-7.75 Y-0.96 Z3.02 F1800.0
G1 X-7.75 Y-1.22 Z3.02 F1800.0
G1 X-9.7 Y-3.15 Z3.02 F1800.0
G1 X-9.7 Y-3.4 Z3.02 F1800.0
G1 X-7.75 Y-5.33 Z3.02 F1800.0
G1 X-7.75 Y-5.58 Z3.02 F1800.0
G1 X-9.7 Y-7.51 Z3.02 F1800.0
G1 X-9.7 Y-7.76 Z3.02 F1800.0
G1 X-6.98 Y-8.47 Z3.02 F1800.0
G1 X-7.42 Y-8.9 Z3.02 F1800.0
G1 X-10.91 Y-8.9 Z3.02 F1800.0
G1 X-9.93 Y-7.76 Z3.02 F1800.0
G1 X-9.93 Y-7.51 Z3.02 F1800.0
G1 X-11.88 Y-5.58 Z3.02 F1800.0
G1 X-11.88 Y-5.33 Z3.02 F1800.0
G1 X-9.93 Y-3.4 Z3.02 F1800.0
G1 X-9.93 Y-3.15 Z3.02 F1800.0
G1 X-11.88 Y-1.22 Z3.02 F1800.0
G1 X-11.88 Y-0.96 Z3.02 F1800.0
G1 X-9.93 Y0.96 Z3.02 F1800.0
G1 X-9.93 Y1.22 Z3.02 F1800.0
G1 X-11.88 Y3.15 Z3.02 F1800.0
G1 X-11.88 Y3.4 Z3.02 F1800.0
G1 X-9.93 Y5.33 Z3.02 F1800.0
G1 X-9.93 Y5.58 Z3.02 F1800.0
G1 X-11.88 Y7.51 Z3.02 F1800.0
G1 X-11.88 Y7.76 Z3.02 F1800.0
G1 X-9.16 Y8.47 Z3.02 F1800.0
G1 X-9.6 Y8.9 Z3.02 F1800.0
G1 X-13.09 Y8.9 Z3.02 F1800.0
G1 X-12.11 Y7.76 Z3.02 F1800.0
G1 X-12.11 Y7.51 Z3.02 F1800.0
G1 X-14.07 Y5.58 Z3.02 F1800.0
G1 X-14.07 Y5.33 Z3.02 F1800.0
G1 X-12.11 Y3.4 Z3.02 F1800.0
G1 X-12.11 Y3.15 Z3.02 F1800.0
G1 X-14.07 Y1.22 Z3.02 F1800.0
G1 X-14.07 Y0.96 Z3.02 F1800.0
G1 X-12.11 Y-0.96 Z3.02 F1800.0
G1 X-12.11 Y-1.22 Z3.02 F1800.0
G1 X-14.07 Y-3.15 Z3.02 F1800.0
G1 X-14.07 Y-3.4 Z3.02 F1800.0
G1 X-12.11 Y-5.33 Z3.02 F1800.0
G1 X-12.11 Y-5.58 Z3.02 F1800.0
G1 X-14.07 Y-7.64 Z3.02 F1800.0
G1 X-11.35 Y-8.47 Z3.02 F1800.0
G1 X-11.78 Y-8.9 Z3.02 F1800.0
G1 X-15.27 Y-8.9 Z3.02 F1800.0
G1 X-14.3 Y-7.76 Z3.02 F1800.0
G1 X-14.3 Y-7.51 Z3.02 F1800.0
G1 X-16.25 Y-5.58 Z3.02 F1800.0
G1 X-16.25 Y-5.33 Z3.02 F1800.0
G1 X-14.3 Y-3.4 Z3.02 F1800.0
G1 X-14.3 Y-3.15 Z3.02 F1800.0
G1 X-16.25 Y-1.22 Z3.02 F1800.0
G1 X-16.25 Y-0.96 Z3.02 F1800.0
G1 X-14.3 Y0.96 Z3.02 F1800.0
G1 X-14.3 Y1.22 Z3.02 F1800.0
G1 X-16.25 Y3.15 Z3.02 F1800.0
G1 X-16.25 Y3.4 Z3.02 F1800.0
G1 X-14.3 Y5.33 Z3.02 F1800.0
G1 X-14.3 Y5.58 Z3.02 F1800.0
G1 X-16.25 Y7.51 Z3.02 F1800.0
G1 X-16.25 Y7.76 Z3.02 F1800.0
G1 X-13.53 Y8.47 Z3.02 F1800.0
G1 X-13.96 Y8.9 Z3.02 F1800.0
G1 X-17.45 Y8.9 Z3.02 F1800.0
G1 X-16.48 Y7.76 Z3.02 F1800.0
G1 X-16.48 Y7.51 Z3.02 F1800.0
G1 X-18.43 Y5.58 Z3.02 F1800.0
G1 X-18.43 Y5.33 Z3.02 F1800.0
G1 X-16.48 Y3.4 Z3.02 F1800.0
G1 X-16.48 Y3.15 Z3.02 F1800.0
G1 X-18.43 Y1.22 Z3.02 F1800.0
G1 X-18.43 Y0.96 Z3.02 F1800.0
G1 X-16.48 Y-0.96 Z3.02 F1800.0
G1 X-16.48 Y-1.22 Z3.02 F1800.0
G1 X-18.43 Y-3.15 Z3.02 F1800.0
G1 X-18.43 Y-3.4 Z3.02 F1800.0
G1 X-16.48 Y-5.33 Z3.02 F1800.0
G1 X-16.48 Y-5.58 Z3.02 F1800.0
G1 X-18.43 Y-7.51 Z3.02 F1800.0
G1 X-18.43 Y-7.76 Z3.02 F1800.0
G1 X-15.71 Y-8.47 Z3.02 F1800.0
G1 X-16.14 Y-8.9 Z3.02 F1800.0
G1 X-19.64 Y-8.9 Z3.02 F1800.0
G1 X-18.66 Y-7.76 Z3.02 F1800.0
G1 X-18.66 Y-7.51 Z3.02 F1800.0
G1 X-20.61 Y-5.58 Z3.02 F1800.0
G1 X-20.61 Y-5.33 Z3.02 F1800.0
G1 X-18.66 Y-3.4 Z3.02 F1800.0
G1 X-18.66 Y-3.15 Z3.02 F1800.0
G1 X-20.61 Y-1.22 Z3.02 F1800.0
G1 X-20.61 Y-0.96 Z3.02 F1800.0
G1 X-18.66 Y0.96 Z3.02 F1800.0
G1 X-18.66 Y1.22 Z3.02 F1800.0
G1 X-20.61 Y3.15 Z3.02 F1800.0
G1 X-20.61 Y3.4 Z3.02 F1800.0
G1 X-18.66 Y5.33 Z3.02 F1800.0
G1 X-18.66 Y5.58 Z3.02 F1800.0
G1 X-20.61 Y7.51 Z3.02 F1800.0
G1 X-20.61 Y7.76 Z3.02 F1800.0
G1 X-17.89 Y8.47 Z3.02 F1800.0
G1 X-18.33 Y8.9 Z3.02 F1800.0
G1 X-21.38 Y8.9 Z3.02 F1800.0
G1 X-20.84 Y7.76 Z3.02 F1800.0
G1 X-20.84 Y7.51 Z3.02 F1800.0
G1 X-22.79 Y5.58 Z3.02 F1800.0
G1 X-22.79 Y5.33 Z3.02 F1800.0
G1 X-20.84 Y3.4 Z3.02 F1800.0
G1 X-20.84 Y3.15 Z3.02 F1800.0
G1 X-22.79 Y1.22 Z3.02 F1800.0
G1 X-22.79 Y0.96 Z3.02 F1800.0
G1 X-20.84 Y-0.96 Z3.02 F1800.0
G1 X-20.84 Y-1.22 Z3.02 F1800.0
G1 X-22.79 Y-3.15 Z3.02 F1800.0
G1 X-22.79 Y-3.4 Z3.02 F1800.0
G1 X-20.84 Y-5.33 Z3.02 F1800.0
G1 X-20.84 Y-5.58 Z3.02 F1800.0
G1 X-22.79 Y-7.51 Z3.02 F1800.0
G1 X-22.79 Y-7.76 Z3.02 F1800.0
G1 X-20.07 Y-8.47 Z3.02 F1800.0
G1 X-20.51 Y-8.9 Z3.02 F1800.0
G1 X-23.56 Y-8.9 Z3.02 F1800.0
G1 X-23.02 Y-7.76 Z3.02 F1800.0
G1 X-23.02 Y5.58 Z3.02 F1800.0
G1 X-21.82 Y8.9 Z3.02 F1800.0
G1 X-24.44 Y8.9 Z3.02 F1800.0
G1 X-24.44 Y-8.9 Z3.02 F1800.0
G1 X-24.0 Y-8.9 Z3.02 F1800.0
M103
(</surroundingLoop>)
(</layer>)
(<layer> 3.34 )
(<surroundingLoop>)
(<boundaryPerimeter>)
(<boundaryPoint> X25.338 Y9.75 Z3.34 </boundaryPoint>)
(<boundaryPoint> X-25.338 Y9.75 Z3.34 </boundaryPoint>)
(<boundaryPoint> X-25.338 Y-9.75 Z3.34 </boundaryPoint>)
(<boundaryPoint> X25.338 Y-9.75 Z3.34 </boundaryPoint>)
(<loop> outer )
G1 X-24.25 Y-9.16 Z3.34 F3000.0
M101
G1 X-24.0 Y-9.16 Z3.34 F1800.0
G1 X24.75 Y-9.16 Z3.34 F1800.0
G1 X24.75 Y9.16 Z3.34 F1800.0
G1 X-24.75 Y9.16 Z3.34 F1800.0
G1 X-24.75 Y-9.16 Z3.34 F1800.0
G1 X-24.25 Y-9.16 Z3.34 F1800.0
M103
(</loop>)
(<perimeter> outer )
G1 X-24.25 Y-9.55 Z3.34 F3000.0
M101
G1 X-24.0 Y-9.55 Z3.34 F1800.0
G1 X25.14 Y-9.55 Z3.34 F1800.0
G1 X25.14 Y9.55 Z3.34 F1800.0
G1 X-25.14 Y9.55 Z3.34 F1800.0
G1 X-25.14 Y-9.55 Z3.34 F1800.0
G1 X-24.7 Y-9.55 Z3.34 F1800.0
M108 R30.0
M102
G1 X-24.25 Y-9.55 Z3.34 F1800.0
M108 R3.569
M103
(</perimeter>)
(</boundaryPerimeter>)
G1 X23.74 Y8.45 Z3.34 F3000.0
M108 R30.0
M101
G1 X24.49 Y8.73 Z3.34 F3000.0
M108 R3.569
G1 X-24.49 Y8.73 Z3.34 F1800.0
G1 X-24.49 Y8.29 Z3.34 F1800.0
G1 X24.49 Y8.29 Z3.34 F1800.0
G1 X24.49 Y7.85 Z3.34 F1800.0
G1 X-24.49 Y7.85 Z3.34 F1800.0
G1 X-24.49 Y7.42 Z3.34 F1800.0
G1 X24.49 Y7.42 Z3.34 F1800.0
G1 X24.49 Y6.98 Z3.34 F1800.0
G1 X-24.49 Y6.98 Z3.34 F1800.0
G1 X-24.49 Y6.55 Z3.34 F1800.0
G1 X24.49 Y6.55 Z3.34 F1800.0
G1 X24.49 Y6.11 Z3.34 F1800.0
G1 X-24.49 Y6.11 Z3.34 F1800.0
G1 X-24.49 Y5.67 Z3.34 F1800.0
G1 X24.49 Y5.67 Z3.34 F1800.0
G1 X24.49 Y5.24 Z3.34 F1800.0
G1 X-24.49 Y5.24 Z3.34 F1800.0
G1 X-24.49 Y4.8 Z3.34 F1800.0
G1 X24.49 Y4.8 Z3.34 F1800.0
G1 X24.49 Y4.36 Z3.34 F1800.0
G1 X-24.49 Y4.36 Z3.34 F1800.0
G1 X-24.49 Y3.93 Z3.34 F1800.0
G1 X24.49 Y3.93 Z3.34 F1800.0
G1 X24.49 Y3.49 Z3.34 F1800.0
G1 X-24.49 Y3.49 Z3.34 F1800.0
G1 X-24.49 Y3.05 Z3.34 F1800.0
G1 X24.49 Y3.05 Z3.34 F1800.0
G1 X24.49 Y2.62 Z3.34 F1800.0
G1 X-24.49 Y2.62 Z3.34 F1800.0
G1 X-24.49 Y2.18 Z3.34 F1800.0
G1 X24.49 Y2.18 Z3.34 F1800.0
G1 X24.49 Y1.75 Z3.34 F1800.0
G1 X-24.49 Y1.75 Z3.34 F1800.0
G1 X-24.49 Y1.31 Z3.34 F1800.0
G1 X24.49 Y1.31 Z3.34 F1800.0
G1 X24.49 Y0.87 Z3.34 F1800.0
G1 X-24.49 Y0.87 Z3.34 F1800.0
G1 X-24.49 Y0.44 Z3.34 F1800.0
G1 X24.49 Y0.44 Z3.34 F1800.0
G1 X24.49 Y-0.0 Z3.34 F1800.0
G1 X-24.49 Y0.0 Z3.34 F1800.0
G1 X-24.49 Y-0.44 Z3.34 F1800.0
G1 X24.49 Y-0.44 Z3.34 F1800.0
G1 X24.49 Y-0.87 Z3.34 F1800.0
G1 X-24.49 Y-0.87 Z3.34 F1800.0
G1 X-24.49 Y-1.31 Z3.34 F1800.0
G1 X24.49 Y-1.31 Z3.34 F1800.0
G1 X24.49 Y-1.75 Z3.34 F1800.0
G1 X-24.49 Y-1.75 Z3.34 F1800.0
G1 X-24.49 Y-2.18 Z3.34 F1800.0
G1 X24.49 Y-2.18 Z3.34 F1800.0
G1 X24.49 Y-2.62 Z3.34 F1800.0
G1 X-24.49 Y-2.62 Z3.34 F1800.0
G1 X-24.49 Y-3.05 Z3.34 F1800.0
G1 X24.49 Y-3.05 Z3.34 F1800.0
G1 X24.49 Y-3.49 Z3.34 F1800.0
G1 X-24.49 Y-3.49 Z3.34 F1800.0
G1 X-24.49 Y-3.93 Z3.34 F1800.0
G1 X24.49 Y-3.93 Z3.34 F1800.0
G1 X24.49 Y-4.36 Z3.34 F1800.0
G1 X-24.49 Y-4.36 Z3.34 F1800.0
G1 X-24.49 Y-4.8 Z3.34 F1800.0
G1 X24.49 Y-4.8 Z3.34 F1800.0
G1 X24.49 Y-5.24 Z3.34 F1800.0
G1 X-24.49 Y-5.24 Z3.34 F1800.0
G1 X-24.49 Y-5.67 Z3.34 F1800.0
G1 X24.49 Y-5.67 Z3.34 F1800.0
G1 X24.49 Y-6.11 Z3.34 F1800.0
G1 X-24.49 Y-6.11 Z3.34 F1800.0
G1 X-24.49 Y-6.55 Z3.34 F1800.0
G1 X24.49 Y-6.55 Z3.34 F1800.0
G1 X24.49 Y-6.98 Z3.34 F1800.0
G1 X-24.49 Y-6.98 Z3.34 F1800.0
G1 X-24.49 Y-7.42 Z3.34 F1800.0
G1 X24.49 Y-7.42 Z3.34 F1800.0
G1 X24.49 Y-7.85 Z3.34 F1800.0
G1 X-24.49 Y-7.85 Z3.34 F1800.0
G1 X-24.49 Y-8.29 Z3.34 F1800.0
G1 X24.49 Y-8.29 Z3.34 F1800.0
G1 X24.49 Y-8.73 Z3.34 F1800.0
G1 X-24.49 Y-8.73 Z3.34 F1800.0
M103
(</surroundingLoop>)
(</layer>)
(<layer> 3.66 )
(<surroundingLoop>)
(<boundaryPerimeter>)
(<boundaryPoint> X25.338 Y9.75 Z3.66 </boundaryPoint>)
