(** This GCode was generated by ReplicatorG 0034 **)
(*  using Skeinforge (35)  *)
(*  for a Single headed Thing-O-Matic  *)
(*  on 2012/04/19 23:10:17 (-0400) *)
(<alteration>)
(**** beginning of start.gcode ****)
(This file is for a MakerBot Thing-O-Matic)
(**** begin initialization commands ****)
G21 (set units to mm)
G90 (set positioning to absolute)
M108 R5.0 (set extruder speed)
M103 (Make sure extruder is off)
M104 S225 T0 (set extruder temperature)
M109 S120 T0 (set heated-build-platform temperature)
(**** end initialization commands ****)
(**** begin homing ****)
G162 Z F1000 (home Z axis maximum)
G92 Z10 (set Z to 0)
G1 Z0.0 (move z down 10)
G162 Z F150 (home Z axis maximum)
G161 X Y F2500 (home XY axes minimum)
M132 X Y Z A B (Recall stored home offsets for XYZAB axis)
(**** end homing ****)
(**** begin pre-wipe commands ****)
( Some people have had problems with the nozzle hitting )
( bolts or wipers during this pre-extrusion warmup.     )
( If this happens to you, you can change the values for )
( the X and Y positions in the following code.          )
( The goal is to have the toolhead wipe its initial     )
( extrusion near the edge of the platform, [anchor it]  )
( so as not to have it interfere with the print.        )
( This file can be found in:                            )
( replicatorg/skein_engines/skeinforge-##/skeinforge_application/ )
( prefs/<profile name [e.g. Thingomatic-ABP-Mk7]>/alterations )
G1 X25.0 Y-60.0 Z10.0 F3300.0 (move to waiting position)
M6 T0 (wait for toolhead parts, nozzle, HBP, etc., to reach temperature)
G0 X25 Y-57 (Position Nozzle)
G0 Z0.6     (Position Height)
M108 R4.0   (Set Extruder Speed)
M101        (Start Extruder)
G4 P1500    (Create Anchor)
(**** end pre-wipe commands ****)
(**** end of start.gcode ****)
(</alteration>)
(<creation> skeinforge </creation>)
(<version> 10.11.05 </version>)
(<extruderInitialization>)
(<craftTypeName> extrusion </craftTypeName>)
M105
(<bridgeWidthMultiplier> 1.0 </bridgeWidthMultiplier>)
(<decimalPlacesCarried> 3 </decimalPlacesCarried>)
(<layerThickness> 0.32 </layerThickness>)
(<threadSequenceString> loops perimeter infill </threadSequenceString>)
(<operatingFeedRatePerSecond> 30.0 </operatingFeedRatePerSecond>)
(<operatingFlowRate> 3.56914845556 </operatingFlowRate>)
(<orbitalFeedRatePerSecond> 15.0 </orbitalFeedRatePerSecond>)
(<travelFeedRatePerSecond> 50.0 </travelFeedRatePerSecond>)
(<perimeterWidth> 0.393 </perimeterWidth>)
(<profileName> ABS </profileName>)
(<procedureDone> carve,bottom </procedureDone>)
(<procedureDone> preface </procedureDone>)
(<procedureDone> inset </procedureDone>)
(<procedureDone> fill </procedureDone>)
(<procedureDone> speed </procedureDone>)
(<procedureDone> raft </procedureDone>)
(<procedureDone> jitter </procedureDone>)
(<procedureDone> comb </procedureDone>)
(<procedureDone> cool </procedureDone>)
(<procedureDone> outline </procedureDone>)
(<procedureDone> reversal </procedureDone>)
(<procedureDone> export </procedureDone>)
(</extruderInitialization>)
(<extrusion>)
;M113 S1.0
M108 R3.569
(<layer> 0.46 )
(<surroundingLoop>)
(<boundaryPerimeter>)
(<boundaryPoint> X20.693 Y-21.013 Z0.46 </boundaryPoint>)
(<boundaryPoint> X20.693 Y20.693 Z0.46 </boundaryPoint>)
(<boundaryPoint> X-21.013 Y20.693 Z0.46 </boundaryPoint>)
(<boundaryPoint> X-21.013 Y-21.013 Z0.46 </boundaryPoint>)
(<loop> inner )
M108 R2.141
G1 X22.5 Y-22.82 Z0.46 F1080.0
M101
G1 X-22.82 Y-22.82 Z0.46 F1080.0
G1 X-22.82 Y22.5 Z0.46 F1080.0
G1 X22.5 Y22.5 Z0.46 F1080.0
G1 X22.5 Y-22.55 Z0.46 F1080.0
M108 R30.0
M102
G1 X22.5 Y-22.82 Z0.46 F1080.0
M108 R2.141
M103
G1 X0.64 Y-13.51 Z0.46 F3000.0
M108 R30.0
M101
G1 X-0.09 Y-13.2 Z0.46 F3000.0
M108 R2.141
G1 X-13.2 Y-13.2 Z0.46 F1080.0
G1 X-13.2 Y16.3 Z0.46 F1080.0
G1 X16.3 Y16.3 Z0.46 F1080.0
G1 X16.3 Y-13.2 Z0.46 F1080.0
G1 X0.18 Y-13.2 Z0.46 F1080.0
M108 R30.0
M102
G1 X0.0 Y-13.2 Z0.46 F1080.0
G1 X-0.09 Y-13.2 Z0.46 F1080.0
M108 R2.141
M103
(</loop>)
(<loop> outer )
G1 X-0.01 Y-19.62 Z0.46 F3000.0
M108 R30.0
M101
G1 X0.0 Y-20.42 Z0.46 F3000.0
M108 R2.141
G1 X20.1 Y-20.42 Z0.46 F1080.0
G1 X20.1 Y20.1 Z0.46 F1080.0
G1 X-20.42 Y20.1 Z0.46 F1080.0
G1 X-20.42 Y-20.42 Z0.46 F1080.0
G1 X0.0 Y-20.42 Z0.46 F1080.0
M103
(</loop>)
(<perimeter> outer )
G1 X0.0 Y-20.82 Z0.46 F3000.0
M101
G1 X20.5 Y-20.82 Z0.46 F1080.0
G1 X20.5 Y20.5 Z0.46 F1080.0
G1 X-20.82 Y20.5 Z0.46 F1080.0
G1 X-20.82 Y-20.82 Z0.46 F1080.0
G1 X-0.27 Y-20.82 Z0.46 F1080.0
M108 R30.0
M102
G1 X0.0 Y-20.82 Z0.46 F1080.0
M108 R2.141
M103
(</perimeter>)
(</boundaryPerimeter>)
(<surroundingLoop>)
(<boundaryPerimeter>)
(<boundaryPoint> X15.713 Y-12.611 Z0.46 </boundaryPoint>)
(<boundaryPoint> X-12.611 Y-12.611 Z0.46 </boundaryPoint>)
(<boundaryPoint> X-12.611 Y15.713 Z0.46 </boundaryPoint>)
(<boundaryPoint> X15.713 Y15.713 Z0.46 </boundaryPoint>)
(<perimeter> inner )
G1 X0.0 Y-13.61 Z0.46 F3000.0
M108 R30.0
M101
G1 X0.0 Y-12.81 Z0.46 F3000.0
M108 R2.141
G1 X-12.81 Y-12.81 Z0.46 F1080.0
G1 X-12.81 Y15.91 Z0.46 F1080.0
G1 X15.91 Y15.91 Z0.46 F1080.0
G1 X15.91 Y-12.81 Z0.46 F1080.0
G1 X0.27 Y-12.81 Z0.46 F1080.0
M108 R30.0
M102
G1 X0.0 Y-12.81 Z0.46 F1080.0
M108 R2.141
M103
(</perimeter>)
(</boundaryPerimeter>)
(</surroundingLoop>)
G1 X0.1 Y-12.89 Z0.46 F3000.0
G1 X15.85 Y-12.75 Z0.46 F3000.0
G1 X15.85 Y15.85 Z0.46 F3000.0
G1 X14.75 Y15.99 Z0.46 F3000.0
G1 X16.65 Y19.43 Z0.46 F1800.0
M108 R30.0
M101
G1 X16.89 Y19.85 Z0.46 F1800.0
M108 R2.141
G1 X16.89 Y-20.17 Z0.46 F1080.0
G1 X16.49 Y-20.17 Z0.46 F1080.0
G1 X16.49 Y-13.46 Z0.46 F1080.0
G1 X16.1 Y-13.46 Z0.46 F1080.0
G1 X16.1 Y-20.17 Z0.46 F1080.0
G1 X15.71 Y-20.17 Z0.46 F1080.0
G1 X15.71 Y-13.46 Z0.46 F1080.0
G1 X15.32 Y-13.46 Z0.46 F1080.0
G1 X15.32 Y-20.17 Z0.46 F1080.0
G1 X14.92 Y-20.17 Z0.46 F1080.0
G1 X14.92 Y-13.46 Z0.46 F1080.0
G1 X14.53 Y-13.46 Z0.46 F1080.0
G1 X14.53 Y-20.17 Z0.46 F1080.0
G1 X14.14 Y-20.17 Z0.46 F1080.0
G1 X14.14 Y-13.46 Z0.46 F1080.0
G1 X13.74 Y-13.46 Z0.46 F1080.0
G1 X13.74 Y-20.17 Z0.46 F1080.0
G1 X13.35 Y-20.17 Z0.46 F1080.0
G1 X13.35 Y-13.46 Z0.46 F1080.0
G1 X12.96 Y-13.46 Z0.46 F1080.0
G1 X12.96 Y-20.17 Z0.46 F1080.0
G1 X12.57 Y-20.17 Z0.46 F1080.0
G1 X12.57 Y-13.46 Z0.46 F1080.0
G1 X12.17 Y-13.46 Z0.46 F1080.0
G1 X12.17 Y-20.17 Z0.46 F1080.0
G1 X11.78 Y-20.17 Z0.46 F1080.0
G1 X11.78 Y-13.46 Z0.46 F1080.0
G1 X11.39 Y-13.46 Z0.46 F1080.0
G1 X11.39 Y-20.17 Z0.46 F1080.0
G1 X11.0 Y-20.17 Z0.46 F1080.0
G1 X11.0 Y-13.46 Z0.46 F1080.0
G1 X10.6 Y-13.46 Z0.46 F1080.0
G1 X10.6 Y-20.17 Z0.46 F1080.0
G1 X10.21 Y-20.17 Z0.46 F1080.0
G1 X10.21 Y-13.46 Z0.46 F1080.0
G1 X9.82 Y-13.46 Z0.46 F1080.0
G1 X9.82 Y-20.17 Z0.46 F1080.0
G1 X9.43 Y-20.17 Z0.46 F1080.0
G1 X9.43 Y-13.46 Z0.46 F1080.0
G1 X9.03 Y-13.46 Z0.46 F1080.0
G1 X9.03 Y-20.17 Z0.46 F1080.0
G1 X8.64 Y-20.17 Z0.46 F1080.0
G1 X8.64 Y-13.46 Z0.46 F1080.0
G1 X8.25 Y-13.46 Z0.46 F1080.0
G1 X8.25 Y-20.17 Z0.46 F1080.0
G1 X7.85 Y-20.17 Z0.46 F1080.0
G1 X7.85 Y-13.46 Z0.46 F1080.0
G1 X7.46 Y-13.46 Z0.46 F1080.0
G1 X7.46 Y-20.17 Z0.46 F1080.0
G1 X7.07 Y-20.17 Z0.46 F1080.0
G1 X7.07 Y-13.46 Z0.46 F1080.0
G1 X6.68 Y-13.46 Z0.46 F1080.0
G1 X6.68 Y-20.17 Z0.46 F1080.0
G1 X6.28 Y-20.17 Z0.46 F1080.0
G1 X6.28 Y-13.46 Z0.46 F1080.0
G1 X5.89 Y-13.46 Z0.46 F1080.0
G1 X5.89 Y-20.17 Z0.46 F1080.0
G1 X5.5 Y-20.17 Z0.46 F1080.0
G1 X5.5 Y-13.46 Z0.46 F1080.0
G1 X5.11 Y-13.46 Z0.46 F1080.0
G1 X5.11 Y-20.17 Z0.46 F1080.0
G1 X4.71 Y-20.17 Z0.46 F1080.0
G1 X4.71 Y-13.46 Z0.46 F1080.0
G1 X4.32 Y-13.46 Z0.46 F1080.0
G1 X4.32 Y-20.17 Z0.46 F1080.0
G1 X3.93 Y-20.17 Z0.46 F1080.0
G1 X3.93 Y-13.46 Z0.46 F1080.0
G1 X3.53 Y-13.46 Z0.46 F1080.0
G1 X3.53 Y-20.17 Z0.46 F1080.0
G1 X3.14 Y-20.17 Z0.46 F1080.0
G1 X3.14 Y-13.46 Z0.46 F1080.0
G1 X2.75 Y-13.46 Z0.46 F1080.0
G1 X2.75 Y-20.17 Z0.46 F1080.0
G1 X2.36 Y-20.17 Z0.46 F1080.0
G1 X2.36 Y-13.46 Z0.46 F1080.0
G1 X1.96 Y-13.46 Z0.46 F1080.0
G1 X1.96 Y-20.17 Z0.46 F1080.0
G1 X1.57 Y-20.17 Z0.46 F1080.0
G1 X1.57 Y-13.46 Z0.46 F1080.0
G1 X1.18 Y-13.46 Z0.46 F1080.0
G1 X1.18 Y-20.17 Z0.46 F1080.0
G1 X0.79 Y-20.17 Z0.46 F1080.0
G1 X0.79 Y-13.46 Z0.46 F1080.0
G1 X0.39 Y-13.46 Z0.46 F1080.0
G1 X0.39 Y-20.17 Z0.46 F1080.0
G1 X-0.0 Y-20.17 Z0.46 F1080.0
G1 X-0.0 Y-13.46 Z0.46 F1080.0
G1 X-0.39 Y-13.46 Z0.46 F1080.0
G1 X-0.39 Y-20.17 Z0.46 F1080.0
G1 X-0.79 Y-20.17 Z0.46 F1080.0
G1 X-0.79 Y-13.46 Z0.46 F1080.0
G1 X-1.18 Y-13.46 Z0.46 F1080.0
G1 X-1.18 Y-20.17 Z0.46 F1080.0
G1 X-1.57 Y-20.17 Z0.46 F1080.0
G1 X-1.57 Y-13.46 Z0.46 F1080.0
G1 X-1.96 Y-13.46 Z0.46 F1080.0
G1 X-1.96 Y-20.17 Z0.46 F1080.0
G1 X-2.36 Y-20.17 Z0.46 F1080.0
G1 X-2.36 Y-13.46 Z0.46 F1080.0
G1 X-2.75 Y-13.46 Z0.46 F1080.0
G1 X-2.75 Y-20.17 Z0.46 F1080.0
G1 X-3.14 Y-20.17 Z0.46 F1080.0
G1 X-3.14 Y-13.46 Z0.46 F1080.0
G1 X-3.53 Y-13.46 Z0.46 F1080.0
G1 X-3.53 Y-20.17 Z0.46 F1080.0
G1 X-3.93 Y-20.17 Z0.46 F1080.0
G1 X-3.93 Y-13.46 Z0.46 F1080.0
G1 X-4.32 Y-13.46 Z0.46 F1080.0
G1 X-4.32 Y-20.17 Z0.46 F1080.0
G1 X-4.71 Y-20.17 Z0.46 F1080.0
G1 X-4.71 Y-13.46 Z0.46 F1080.0
G1 X-5.11 Y-13.46 Z0.46 F1080.0
G1 X-5.11 Y-20.17 Z0.46 F1080.0
G1 X-5.5 Y-20.17 Z0.46 F1080.0
G1 X-5.5 Y-13.46 Z0.46 F1080.0
G1 X-5.89 Y-13.46 Z0.46 F1080.0
G1 X-5.89 Y-20.17 Z0.46 F1080.0
G1 X-6.28 Y-20.17 Z0.46 F1080.0
G1 X-6.28 Y-13.46 Z0.46 F1080.0
G1 X-6.68 Y-13.46 Z0.46 F1080.0
G1 X-6.68 Y-20.17 Z0.46 F1080.0
G1 X-7.07 Y-20.17 Z0.46 F1080.0
G1 X-7.07 Y-13.46 Z0.46 F1080.0
G1 X-7.46 Y-13.46 Z0.46 F1080.0
G1 X-7.46 Y-20.17 Z0.46 F1080.0
G1 X-7.85 Y-20.17 Z0.46 F1080.0
G1 X-7.85 Y-13.46 Z0.46 F1080.0
G1 X-8.25 Y-13.46 Z0.46 F1080.0
G1 X-8.25 Y-20.17 Z0.46 F1080.0
G1 X-8.64 Y-20.17 Z0.46 F1080.0
G1 X-8.64 Y-13.46 Z0.46 F1080.0
G1 X-9.03 Y-13.46 Z0.46 F1080.0
G1 X-9.03 Y-20.17 Z0.46 F1080.0
G1 X-9.43 Y-20.17 Z0.46 F1080.0
G1 X-9.43 Y-13.46 Z0.46 F1080.0
G1 X-9.82 Y-13.46 Z0.46 F1080.0
G1 X-9.82 Y-20.17 Z0.46 F1080.0
G1 X-10.21 Y-20.17 Z0.46 F1080.0
G1 X-10.21 Y-13.46 Z0.46 F1080.0
G1 X-10.6 Y-13.46 Z0.46 F1080.0
G1 X-10.6 Y-20.17 Z0.46 F1080.0
G1 X-11.0 Y-20.17 Z0.46 F1080.0
G1 X-11.0 Y-13.46 Z0.46 F1080.0
G1 X-11.39 Y-13.46 Z0.46 F1080.0
G1 X-11.39 Y-20.17 Z0.46 F1080.0
G1 X-11.78 Y-20.17 Z0.46 F1080.0
G1 X-11.78 Y-13.46 Z0.46 F1080.0
G1 X-12.17 Y-13.46 Z0.46 F1080.0
G1 X-12.17 Y-20.17 Z0.46 F1080.0
G1 X-12.57 Y-20.17 Z0.46 F1080.0
G1 X-12.57 Y-13.46 Z0.46 F1080.0
G1 X-12.96 Y-13.46 Z0.46 F1080.0
G1 X-12.96 Y-20.17 Z0.46 F1080.0
G1 X-13.35 Y-20.17 Z0.46 F1080.0
G1 X-13.35 Y-13.73 Z0.46 F1080.0
M108 R30.0
M102
G1 X-13.35 Y-13.46 Z0.46 F1080.0
M108 R2.141
M103
G1 X-13.72 Y-19.69 Z0.46 F1800.0
M108 R30.0
M101
G1 X-13.74 Y-20.17 Z0.46 F1800.0
M108 R2.141
G1 X-13.74 Y19.85 Z0.46 F1080.0
M103
G1 X-14.14 Y19.85 Z0.46 F1800.0
M101
G1 X-14.14 Y-20.17 Z0.46 F1080.0
G1 X-14.53 Y-20.17 Z0.46 F1080.0
G1 X-14.53 Y19.85 Z0.46 F1080.0
M103
G1 X-14.92 Y19.85 Z0.46 F1800.0
M101
G1 X-14.92 Y-20.17 Z0.46 F1080.0
G1 X-15.32 Y-20.17 Z0.46 F1080.0
G1 X-15.32 Y19.85 Z0.46 F1080.0
M103
G1 X-15.71 Y19.85 Z0.46 F1800.0
M101
G1 X-15.71 Y-20.17 Z0.46 F1080.0
G1 X-16.1 Y-20.17 Z0.46 F1080.0
G1 X-16.1 Y19.85 Z0.46 F1080.0
M103
G1 X-16.49 Y19.85 Z0.46 F1800.0
M101
G1 X-16.49 Y-20.17 Z0.46 F1080.0
G1 X-16.89 Y-20.17 Z0.46 F1080.0
G1 X-16.89 Y19.85 Z0.46 F1080.0
M103
G1 X-17.28 Y19.85 Z0.46 F1800.0
M101
G1 X-17.28 Y-20.17 Z0.46 F1080.0
G1 X-17.67 Y-20.17 Z0.46 F1080.0
G1 X-17.67 Y19.85 Z0.46 F1080.0
M103
G1 X-18.06 Y19.85 Z0.46 F1800.0
M101
G1 X-18.06 Y-20.17 Z0.46 F1080.0
G1 X-18.46 Y-20.17 Z0.46 F1080.0
G1 X-18.46 Y19.85 Z0.46 F1080.0
M103
G1 X-18.85 Y19.85 Z0.46 F1800.0
M101
G1 X-18.85 Y-20.17 Z0.46 F1080.0
G1 X-19.24 Y-20.17 Z0.46 F1080.0
G1 X-19.24 Y19.85 Z0.46 F1080.0
M103
G1 X-19.64 Y19.85 Z0.46 F1800.0
M101
G1 X-19.64 Y-20.17 Z0.46 F1080.0
G1 X-20.03 Y-20.17 Z0.46 F1080.0
G1 X-20.03 Y19.58 Z0.46 F1080.0
M108 R30.0
M102
G1 X-20.03 Y19.85 Z0.46 F1080.0
M108 R2.141
M103
G1 X-13.83 Y19.85 Z0.46 F1800.0
M108 R30.0
M101
G1 X-13.35 Y19.85 Z0.46 F1800.0
M108 R2.141
G1 X-13.35 Y16.56 Z0.46 F1080.0
M103
G1 X-12.96 Y16.56 Z0.46 F1800.0
M101
G1 X-12.96 Y19.85 Z0.46 F1080.0
M103
G1 X-12.57 Y19.85 Z0.46 F1800.0
M101
G1 X-12.57 Y16.56 Z0.46 F1080.0
M103
G1 X-12.17 Y16.56 Z0.46 F1800.0
M101
G1 X-12.17 Y19.85 Z0.46 F1080.0
M103
G1 X-11.78 Y19.85 Z0.46 F1800.0
M101
G1 X-11.78 Y16.56 Z0.46 F1080.0
M103
G1 X-11.39 Y16.56 Z0.46 F1800.0
M101
G1 X-11.39 Y19.85 Z0.46 F1080.0
M103
G1 X-11.0 Y19.85 Z0.46 F1800.0
M101
G1 X-11.0 Y16.56 Z0.46 F1080.0
M103
G1 X-10.6 Y16.56 Z0.46 F1800.0
M101
G1 X-10.6 Y19.85 Z0.46 F1080.0
M103
G1 X-10.21 Y19.85 Z0.46 F1800.0
M101
G1 X-10.21 Y16.56 Z0.46 F1080.0
M103
G1 X-9.82 Y16.56 Z0.46 F1800.0
M101
G1 X-9.82 Y19.85 Z0.46 F1080.0
M103
G1 X-9.43 Y19.85 Z0.46 F1800.0
M101
G1 X-9.43 Y16.56 Z0.46 F1080.0
M103
G1 X-9.03 Y16.56 Z0.46 F1800.0
M101
G1 X-9.03 Y19.85 Z0.46 F1080.0
M103
G1 X-8.64 Y19.85 Z0.46 F1800.0
M101
G1 X-8.64 Y16.56 Z0.46 F1080.0
M103
G1 X-8.25 Y16.56 Z0.46 F1800.0
M101
G1 X-8.25 Y19.85 Z0.46 F1080.0
M103
G1 X-7.85 Y19.85 Z0.46 F1800.0
M101
G1 X-7.85 Y16.56 Z0.46 F1080.0
M103
G1 X-7.46 Y16.56 Z0.46 F1800.0
M101
G1 X-7.46 Y19.85 Z0.46 F1080.0
M103
G1 X-7.07 Y19.85 Z0.46 F1800.0
M101
G1 X-7.07 Y16.56 Z0.46 F1080.0
M103
G1 X-6.68 Y16.56 Z0.46 F1800.0
M101
G1 X-6.68 Y19.85 Z0.46 F1080.0
M103
G1 X-6.28 Y19.85 Z0.46 F1800.0
M101
G1 X-6.28 Y16.56 Z0.46 F1080.0
M103
G1 X-5.89 Y16.56 Z0.46 F1800.0
M101
G1 X-5.89 Y19.85 Z0.46 F1080.0
M103
G1 X-5.5 Y19.85 Z0.46 F1800.0
M101
G1 X-5.5 Y16.56 Z0.46 F1080.0
M103
G1 X-5.11 Y16.56 Z0.46 F1800.0
M101
G1 X-5.11 Y19.85 Z0.46 F1080.0
M103
G1 X-4.71 Y19.85 Z0.46 F1800.0
M101
G1 X-4.71 Y16.56 Z0.46 F1080.0
M103
G1 X-4.32 Y16.56 Z0.46 F1800.0
M101
G1 X-4.32 Y19.85 Z0.46 F1080.0
M103
G1 X-3.93 Y19.85 Z0.46 F1800.0
M101
G1 X-3.93 Y16.56 Z0.46 F1080.0
M103
G1 X-3.53 Y16.56 Z0.46 F1800.0
M101
G1 X-3.53 Y19.85 Z0.46 F1080.0
M103
G1 X-3.14 Y19.85 Z0.46 F1800.0
M101
G1 X-3.14 Y16.56 Z0.46 F1080.0
M103
G1 X-2.75 Y16.56 Z0.46 F1800.0
M101
G1 X-2.75 Y19.85 Z0.46 F1080.0
M103
G1 X-2.36 Y19.85 Z0.46 F1800.0
M101
G1 X-2.36 Y16.56 Z0.46 F1080.0
M103
G1 X-1.96 Y16.56 Z0.46 F1800.0
M101
G1 X-1.96 Y19.85 Z0.46 F1080.0
M103
G1 X-1.57 Y19.85 Z0.46 F1800.0
M101
G1 X-1.57 Y16.56 Z0.46 F1080.0
M103
G1 X-1.18 Y16.56 Z0.46 F1800.0
M101
G1 X-1.18 Y19.85 Z0.46 F1080.0
M103
G1 X-0.79 Y19.85 Z0.46 F1800.0
M101
G1 X-0.79 Y16.56 Z0.46 F1080.0
M103
G1 X-0.39 Y16.56 Z0.46 F1800.0
M101
G1 X-0.39 Y19.85 Z0.46 F1080.0
M103
G1 X0.0 Y19.85 Z0.46 F1800.0
M101
G1 X0.0 Y16.56 Z0.46 F1080.0
M103
G1 X0.39 Y16.56 Z0.46 F1800.0
M101
G1 X0.39 Y19.85 Z0.46 F1080.0
M103
G1 X0.79 Y19.85 Z0.46 F1800.0
M101
G1 X0.79 Y16.56 Z0.46 F1080.0
M103
G1 X1.18 Y16.56 Z0.46 F1800.0
M101
G1 X1.18 Y19.85 Z0.46 F1080.0
M103
G1 X1.57 Y19.85 Z0.46 F1800.0
M101
G1 X1.57 Y16.56 Z0.46 F1080.0
M103
G1 X1.96 Y16.56 Z0.46 F1800.0
M101
G1 X1.96 Y19.85 Z0.46 F1080.0
M103
G1 X2.36 Y19.85 Z0.46 F1800.0
M101
G1 X2.36 Y16.56 Z0.46 F1080.0
M103
G1 X2.75 Y16.56 Z0.46 F1800.0
M101
G1 X2.75 Y19.85 Z0.46 F1080.0
M103
G1 X3.14 Y19.85 Z0.46 F1800.0
M101
G1 X3.14 Y16.56 Z0.46 F1080.0
M103
G1 X3.53 Y16.56 Z0.46 F1800.0
M101
G1 X3.53 Y19.85 Z0.46 F1080.0
M103
G1 X3.93 Y19.85 Z0.46 F1800.0
M101
G1 X3.93 Y16.56 Z0.46 F1080.0
M103
G1 X4.32 Y16.56 Z0.46 F1800.0
M101
G1 X4.32 Y19.85 Z0.46 F1080.0
M103
G1 X4.71 Y19.85 Z0.46 F1800.0
M101
G1 X4.71 Y16.56 Z0.46 F1080.0
M103
G1 X5.11 Y16.56 Z0.46 F1800.0
M101
G1 X5.11 Y19.85 Z0.46 F1080.0
M103
G1 X5.5 Y19.85 Z0.46 F1800.0
M101
G1 X5.5 Y16.56 Z0.46 F1080.0
M103
G1 X5.89 Y16.56 Z0.46 F1800.0
M101
G1 X5.89 Y19.85 Z0.46 F1080.0
M103
G1 X6.28 Y19.85 Z0.46 F1800.0
M101
G1 X6.28 Y16.56 Z0.46 F1080.0
M103
G1 X6.68 Y16.56 Z0.46 F1800.0
M101
G1 X6.68 Y19.85 Z0.46 F1080.0
M103
G1 X7.07 Y19.85 Z0.46 F1800.0
M101
G1 X7.07 Y16.56 Z0.46 F1080.0
M103
G1 X7.46 Y16.56 Z0.46 F1800.0
M101
G1 X7.46 Y19.85 Z0.46 F1080.0
M103
G1 X7.85 Y19.85 Z0.46 F1800.0
M101
G1 X7.85 Y16.56 Z0.46 F1080.0
M103
G1 X8.25 Y16.56 Z0.46 F1800.0
M101
G1 X8.25 Y19.85 Z0.46 F1080.0
M103
G1 X8.64 Y19.85 Z0.46 F1800.0
M101
G1 X8.64 Y16.56 Z0.46 F1080.0
M103
G1 X9.03 Y16.56 Z0.46 F1800.0
M101
G1 X9.03 Y19.85 Z0.46 F1080.0
M103
G1 X9.43 Y19.85 Z0.46 F1800.0
M101
G1 X9.43 Y16.56 Z0.46 F1080.0
M103
G1 X9.82 Y16.56 Z0.46 F1800.0
M101
G1 X9.82 Y19.85 Z0.46 F1080.0
M103
G1 X10.21 Y19.85 Z0.46 F1800.0
M101
G1 X10.21 Y16.56 Z0.46 F1080.0
M103
G1 X10.6 Y16.56 Z0.46 F1800.0
M101
G1 X10.6 Y19.85 Z0.46 F1080.0
M103
G1 X11.0 Y19.85 Z0.46 F1800.0
M101
G1 X11.0 Y16.56 Z0.46 F1080.0
M103
G1 X11.39 Y16.56 Z0.46 F1800.0
M101
G1 X11.39 Y19.85 Z0.46 F1080.0
M103
G1 X11.78 Y19.85 Z0.46 F1800.0
M101
G1 X11.78 Y16.56 Z0.46 F1080.0
M103
G1 X12.17 Y16.56 Z0.46 F1800.0
M101
G1 X12.17 Y19.85 Z0.46 F1080.0
M103
G1 X12.57 Y19.85 Z0.46 F1800.0
M101
G1 X12.57 Y16.56 Z0.46 F1080.0
M103
G1 X12.96 Y16.56 Z0.46 F1800.0
M101
G1 X12.96 Y19.85 Z0.46 F1080.0
M103
G1 X13.35 Y19.85 Z0.46 F1800.0
M101
G1 X13.35 Y16.56 Z0.46 F1080.0
M103
G1 X13.74 Y16.56 Z0.46 F1800.0
M101
G1 X13.74 Y19.85 Z0.46 F1080.0
M103
G1 X14.14 Y19.85 Z0.46 F1800.0
M101
G1 X14.14 Y16.56 Z0.46 F1080.0
M103
G1 X14.53 Y16.56 Z0.46 F1800.0
M101
G1 X14.53 Y19.85 Z0.46 F1080.0
M103
G1 X14.92 Y19.85 Z0.46 F1800.0
M101
G1 X14.92 Y16.56 Z0.46 F1080.0
M103
G1 X15.32 Y16.56 Z0.46 F1800.0
M101
G1 X15.32 Y19.85 Z0.46 F1080.0
M103
G1 X15.71 Y19.85 Z0.46 F1800.0
M101
G1 X15.71 Y16.56 Z0.46 F1080.0
M103
G1 X16.1 Y16.56 Z0.46 F1800.0
M101
G1 X16.1 Y19.85 Z0.46 F1080.0
M103
G1 X16.49 Y19.85 Z0.46 F1800.0
M101
G1 X16.49 Y16.83 Z0.46 F1080.0
M108 R30.0
M102
G1 X16.49 Y16.56 Z0.46 F1080.0
M108 R2.141
M103
G1 X17.51 Y19.4 Z0.46 F1800.0
M108 R30.0
M101
G1 X17.67 Y19.85 Z0.46 F1800.0
M108 R2.141
G1 X17.67 Y-20.17 Z0.46 F1080.0
G1 X17.28 Y-20.17 Z0.46 F1080.0
G1 X17.28 Y19.58 Z0.46 F1080.0
M108 R30.0
M102
G1 X17.28 Y19.85 Z0.46 F1080.0
M108 R2.141
M103
G1 X17.98 Y19.85 Z0.46 F1800.0
M108 R30.0
M101
G1 X18.46 Y19.85 Z0.46 F1800.0
M108 R2.141
G1 X18.46 Y-20.17 Z0.46 F1080.0
G1 X18.06 Y-20.17 Z0.46 F1080.0
G1 X18.06 Y19.58 Z0.46 F1080.0
M108 R30.0
M102
G1 X18.06 Y19.85 Z0.46 F1080.0
M108 R2.141
M103
G1 X18.76 Y19.85 Z0.46 F1800.0
M108 R30.0
M101
G1 X19.24 Y19.85 Z0.46 F1800.0
M108 R2.141
G1 X19.24 Y-20.17 Z0.46 F1080.0
G1 X18.85 Y-20.17 Z0.46 F1080.0
G1 X18.85 Y19.58 Z0.46 F1080.0
M108 R30.0
M102
G1 X18.85 Y19.85 Z0.46 F1080.0
M108 R2.141
M103
G1 X19.63 Y-19.69 Z0.46 F1800.0
M108 R30.0
M101
G1 X19.64 Y-20.17 Z0.46 F1800.0
M108 R2.141
G1 X19.64 Y19.58 Z0.46 F1080.0
M108 R30.0
M102
G1 X19.64 Y19.85 Z0.46 F1080.0
M108 R2.141
M103
(</surroundingLoop>)
(</layer>)
(<layer> 0.78 )
(<surroundingLoop>)
(<boundaryPerimeter>)
(<boundaryPoint> X20.693 Y-21.013 Z0.78 </boundaryPoint>)
(<boundaryPoint> X20.693 Y20.693 Z0.78 </boundaryPoint>)
(<boundaryPoint> X-21.013 Y20.693 Z0.78 </boundaryPoint>)
(<boundaryPoint> X-21.013 Y-21.013 Z0.78 </boundaryPoint>)
(<loop> inner )
M108 R3.569
G1 X16.66 Y16.87 Z0.73 F3000.0
M108 R30.0
M101
G1 X16.1 Y16.3 Z0.78 F3000.0
M108 R3.569
G1 X16.3 Y16.3 Z0.78 F1800.0
G1 X16.3 Y-13.2 Z0.78 F1800.0
G1 X-13.2 Y-13.2 Z0.78 F1800.0
G1 X-13.2 Y16.3 Z0.78 F1800.0
G1 X15.65 Y16.3 Z0.78 F1800.0
M108 R30.0
M102
G1 X16.1 Y16.3 Z0.78 F1800.0
M108 R3.569
M103
(</loop>)
(<loop> outer )
G1 X16.1 Y19.3 Z0.78 F3000.0
M108 R30.0
M101
G1 X16.1 Y20.1 Z0.78 F3000.0
M108 R3.569
G1 X-20.42 Y20.1 Z0.78 F1800.0
G1 X-20.42 Y-20.42 Z0.78 F1800.0
G1 X20.1 Y-20.42 Z0.78 F1800.0
G1 X20.1 Y16.3 Z0.78 F1800.0
G1 X20.1 Y20.1 Z0.78 F1800.0
G1 X16.1 Y20.1 Z0.78 F1800.0
M103
(</loop>)
(<perimeter> outer )
G1 X16.1 Y20.5 Z0.78 F3000.0
M101
G1 X-20.82 Y20.5 Z0.78 F1800.0
G1 X-20.82 Y-20.82 Z0.78 F1800.0
G1 X20.5 Y-20.82 Z0.78 F1800.0
G1 X20.5 Y16.3 Z0.78 F1800.0
G1 X20.5 Y20.5 Z0.78 F1800.0
G1 X16.55 Y20.5 Z0.78 F1800.0
M108 R30.0
M102
G1 X16.1 Y20.5 Z0.78 F1800.0
M108 R3.569
M103
(</perimeter>)
(</boundaryPerimeter>)
(<surroundingLoop>)
(<boundaryPerimeter>)
(<boundaryPoint> X15.713 Y-12.611 Z0.78 </boundaryPoint>)
(<boundaryPoint> X-12.611 Y-12.611 Z0.78 </boundaryPoint>)
(<boundaryPoint> X-12.611 Y15.713 Z0.78 </boundaryPoint>)
(<boundaryPoint> X15.713 Y15.713 Z0.78 </boundaryPoint>)
(<perimeter> inner )
G1 X15.94 Y16.71 Z0.78 F3000.0
M108 R30.0
M101
G1 X15.91 Y15.91 Z0.78 F3000.0
M108 R3.569
G1 X15.91 Y-12.81 Z0.78 F1800.0
G1 X-12.81 Y-12.81 Z0.78 F1800.0
G1 X-12.81 Y15.91 Z0.78 F1800.0
G1 X15.91 Y15.91 Z0.78 F1800.0
M103
(</perimeter>)
(</boundaryPerimeter>)
(</surroundingLoop>)
G1 X16.56 Y16.1 Z0.78 F3000.0
M101
G1 X19.85 Y16.1 Z0.78 F1800.0
M103
G1 X19.85 Y16.49 Z0.78 F3000.0
M101
G1 X17.01 Y16.49 Z0.78 F1800.0
M108 R30.0
M102
G1 X16.56 Y16.49 Z0.78 F1800.0
M108 R3.569
M103
G1 X19.07 Y15.89 Z0.78 F3000.0
M108 R30.0
M101
G1 X19.85 Y15.71 Z0.78 F3000.0
M108 R3.569
G1 X16.56 Y15.71 Z0.78 F1800.0
M103
G1 X16.56 Y15.32 Z0.78 F3000.0
M101
G1 X19.85 Y15.32 Z0.78 F1800.0
M103
G1 X19.85 Y14.92 Z0.78 F3000.0
M101
G1 X16.56 Y14.92 Z0.78 F1800.0
M103
G1 X16.56 Y14.53 Z0.78 F3000.0
M101
G1 X19.85 Y14.53 Z0.78 F1800.0
M103
G1 X19.85 Y14.14 Z0.78 F3000.0
M101
G1 X16.56 Y14.14 Z0.78 F1800.0
M103
G1 X16.56 Y13.74 Z0.78 F3000.0
M101
G1 X19.85 Y13.74 Z0.78 F1800.0
M103
G1 X19.85 Y13.35 Z0.78 F3000.0
M101
G1 X16.56 Y13.35 Z0.78 F1800.0
M103
G1 X16.56 Y12.96 Z0.78 F3000.0
M101
G1 X19.85 Y12.96 Z0.78 F1800.0
M103
G1 X19.85 Y12.57 Z0.78 F3000.0
M101
G1 X16.56 Y12.57 Z0.78 F1800.0
M103
G1 X16.56 Y12.17 Z0.78 F3000.0
M101
G1 X19.85 Y12.17 Z0.78 F1800.0
M103
G1 X19.85 Y11.78 Z0.78 F3000.0
M101
G1 X16.56 Y11.78 Z0.78 F1800.0
M103
G1 X16.56 Y11.39 Z0.78 F3000.0
M101
G1 X19.85 Y11.39 Z0.78 F1800.0
M103
G1 X19.85 Y11.0 Z0.78 F3000.0
M101
G1 X16.56 Y11.0 Z0.78 F1800.0
M103
G1 X16.56 Y10.6 Z0.78 F3000.0
M101
G1 X19.85 Y10.6 Z0.78 F1800.0
M103
G1 X19.85 Y10.21 Z0.78 F3000.0
M101
G1 X16.56 Y10.21 Z0.78 F1800.0
M103
G1 X16.56 Y9.82 Z0.78 F3000.0
M101
G1 X19.85 Y9.82 Z0.78 F1800.0
M103
G1 X19.85 Y9.43 Z0.78 F3000.0
M101
G1 X16.56 Y9.43 Z0.78 F1800.0
M103
G1 X16.56 Y9.03 Z0.78 F3000.0
M101
G1 X19.85 Y9.03 Z0.78 F1800.0
M103
G1 X19.85 Y8.64 Z0.78 F3000.0
M101
G1 X16.56 Y8.64 Z0.78 F1800.0
M103
G1 X16.56 Y8.25 Z0.78 F3000.0
M101
G1 X19.85 Y8.25 Z0.78 F1800.0
M103
G1 X19.85 Y7.85 Z0.78 F3000.0
M101
G1 X16.56 Y7.85 Z0.78 F1800.0
M103
G1 X16.56 Y7.46 Z0.78 F3000.0
M101
G1 X19.85 Y7.46 Z0.78 F1800.0
M103
G1 X19.85 Y7.07 Z0.78 F3000.0
M101
G1 X16.56 Y7.07 Z0.78 F1800.0
M103
G1 X16.56 Y6.68 Z0.78 F3000.0
M101
G1 X19.85 Y6.68 Z0.78 F1800.0
M103
G1 X19.85 Y6.28 Z0.78 F3000.0
M101
G1 X16.56 Y6.28 Z0.78 F1800.0
M103
G1 X16.56 Y5.89 Z0.78 F3000.0
M101
G1 X19.85 Y5.89 Z0.78 F1800.0
M103
G1 X19.85 Y5.5 Z0.78 F3000.0
M101
G1 X16.56 Y5.5 Z0.78 F1800.0
M103
G1 X16.56 Y5.11 Z0.78 F3000.0
M101
G1 X19.85 Y5.11 Z0.78 F1800.0
M103
G1 X19.85 Y4.71 Z0.78 F3000.0
M101
G1 X16.56 Y4.71 Z0.78 F1800.0
M103
G1 X16.56 Y4.32 Z0.78 F3000.0
M101
G1 X19.85 Y4.32 Z0.78 F1800.0
M103
G1 X19.85 Y3.93 Z0.78 F3000.0
M101
G1 X16.56 Y3.93 Z0.78 F1800.0
M103
G1 X16.56 Y3.53 Z0.78 F3000.0
M101
G1 X19.85 Y3.53 Z0.78 F1800.0
M103
G1 X19.85 Y3.14 Z0.78 F3000.0
M101
G1 X16.56 Y3.14 Z0.78 F1800.0
M103
G1 X16.56 Y2.75 Z0.78 F3000.0
M101
G1 X19.85 Y2.75 Z0.78 F1800.0
M103
G1 X19.85 Y2.36 Z0.78 F3000.0
M101
G1 X16.56 Y2.36 Z0.78 F1800.0
M103
G1 X16.56 Y1.96 Z0.78 F3000.0
M101
G1 X19.85 Y1.96 Z0.78 F1800.0
M103
G1 X19.85 Y1.57 Z0.78 F3000.0
M101
G1 X16.56 Y1.57 Z0.78 F1800.0
M103
G1 X16.56 Y1.18 Z0.78 F3000.0
M101
G1 X19.85 Y1.18 Z0.78 F1800.0
M103
G1 X19.85 Y0.79 Z0.78 F3000.0
M101
G1 X16.56 Y0.79 Z0.78 F1800.0
M103
G1 X16.56 Y0.39 Z0.78 F3000.0
M101
G1 X19.85 Y0.39 Z0.78 F1800.0
M103
G1 X19.85 Y-0.0 Z0.78 F3000.0
M101
G1 X16.56 Y-0.0 Z0.78 F1800.0
M103
G1 X16.56 Y-0.39 Z0.78 F3000.0
M101
G1 X19.85 Y-0.39 Z0.78 F1800.0
M103
G1 X19.85 Y-0.79 Z0.78 F3000.0
M101
G1 X16.56 Y-0.79 Z0.78 F1800.0
M103
G1 X16.56 Y-1.18 Z0.78 F3000.0
M101
G1 X19.85 Y-1.18 Z0.78 F1800.0
M103
G1 X19.85 Y-1.57 Z0.78 F3000.0
M101
G1 X16.56 Y-1.57 Z0.78 F1800.0
M103
G1 X16.56 Y-1.96 Z0.78 F3000.0
M101
G1 X19.85 Y-1.96 Z0.78 F1800.0
M103
G1 X19.85 Y-2.36 Z0.78 F3000.0
M101
G1 X16.56 Y-2.36 Z0.78 F1800.0
M103
G1 X16.56 Y-2.75 Z0.78 F3000.0
M101
G1 X19.85 Y-2.75 Z0.78 F1800.0
M103
G1 X19.85 Y-3.14 Z0.78 F3000.0
M101
G1 X16.56 Y-3.14 Z0.78 F1800.0
M103
G1 X16.56 Y-3.53 Z0.78 F3000.0
M101
G1 X19.85 Y-3.53 Z0.78 F1800.0
M103
G1 X19.85 Y-3.93 Z0.78 F3000.0
M101
G1 X16.56 Y-3.93 Z0.78 F1800.0
M103
G1 X16.56 Y-4.32 Z0.78 F3000.0
M101
G1 X19.85 Y-4.32 Z0.78 F1800.0
M103
G1 X19.85 Y-4.71 Z0.78 F3000.0
M101
G1 X16.56 Y-4.71 Z0.78 F1800.0
M103
G1 X16.56 Y-5.11 Z0.78 F3000.0
M101
G1 X19.85 Y-5.11 Z0.78 F1800.0
M103
G1 X19.85 Y-5.5 Z0.78 F3000.0
M101
G1 X16.56 Y-5.5 Z0.78 F1800.0
M103
G1 X16.56 Y-5.89 Z0.78 F3000.0
M101
G1 X19.85 Y-5.89 Z0.78 F1800.0
M103
G1 X19.85 Y-6.28 Z0.78 F3000.0
M101
G1 X16.56 Y-6.28 Z0.78 F1800.0
M103
G1 X16.56 Y-6.68 Z0.78 F3000.0
M101
G1 X19.85 Y-6.68 Z0.78 F1800.0
M103
G1 X19.85 Y-7.07 Z0.78 F3000.0
M101
G1 X16.56 Y-7.07 Z0.78 F1800.0
M103
G1 X16.56 Y-7.46 Z0.78 F3000.0
M101
G1 X19.85 Y-7.46 Z0.78 F1800.0
M103
G1 X19.85 Y-7.85 Z0.78 F3000.0
M101
G1 X16.56 Y-7.85 Z0.78 F1800.0
M103
G1 X16.56 Y-8.25 Z0.78 F3000.0
M101
G1 X19.85 Y-8.25 Z0.78 F1800.0
M103
G1 X19.85 Y-8.64 Z0.78 F3000.0
M101
G1 X16.56 Y-8.64 Z0.78 F1800.0
M103
G1 X16.56 Y-9.03 Z0.78 F3000.0
M101
G1 X19.85 Y-9.03 Z0.78 F1800.0
M103
G1 X19.85 Y-9.43 Z0.78 F3000.0
M101
G1 X16.56 Y-9.43 Z0.78 F1800.0
M103
G1 X16.56 Y-9.82 Z0.78 F3000.0
M101
G1 X19.85 Y-9.82 Z0.78 F1800.0
M103
G1 X19.85 Y-10.21 Z0.78 F3000.0
M101
G1 X16.56 Y-10.21 Z0.78 F1800.0
M103
G1 X16.56 Y-10.6 Z0.78 F3000.0
M101
G1 X19.85 Y-10.6 Z0.78 F1800.0
M103
G1 X19.85 Y-11.0 Z0.78 F3000.0
M101
G1 X16.56 Y-11.0 Z0.78 F1800.0
M103
G1 X16.56 Y-11.39 Z0.78 F3000.0
M101
G1 X19.85 Y-11.39 Z0.78 F1800.0
M103
G1 X19.85 Y-11.78 Z0.78 F3000.0
M101
G1 X16.56 Y-11.78 Z0.78 F1800.0
M103
G1 X16.56 Y-12.17 Z0.78 F3000.0
M101
G1 X19.85 Y-12.17 Z0.78 F1800.0
M103
G1 X19.85 Y-12.57 Z0.78 F3000.0
M101
G1 X16.56 Y-12.57 Z0.78 F1800.0
M103
G1 X16.56 Y-12.96 Z0.78 F3000.0
M101
G1 X19.85 Y-12.96 Z0.78 F1800.0
M103
G1 X19.85 Y-13.35 Z0.78 F3000.0
M101
G1 X17.01 Y-13.35 Z0.78 F1800.0
M108 R30.0
M102
G1 X16.56 Y-13.35 Z0.78 F1800.0
M108 R3.569
M103
G1 X19.05 Y-13.65 Z0.78 F3000.0
M108 R30.0
M101
G1 X19.85 Y-13.74 Z0.78 F3000.0
M108 R3.569
G1 X-20.17 Y-13.74 Z0.78 F1800.0
G1 X-20.17 Y-13.35 Z0.78 F1800.0
G1 X-13.46 Y-13.35 Z0.78 F1800.0
G1 X-13.46 Y-12.96 Z0.78 F1800.0
G1 X-20.17 Y-12.96 Z0.78 F1800.0
G1 X-20.17 Y-12.57 Z0.78 F1800.0
G1 X-13.46 Y-12.57 Z0.78 F1800.0
G1 X-13.46 Y-12.17 Z0.78 F1800.0
G1 X-20.17 Y-12.17 Z0.78 F1800.0
G1 X-20.17 Y-11.78 Z0.78 F1800.0
G1 X-13.46 Y-11.78 Z0.78 F1800.0
G1 X-13.46 Y-11.39 Z0.78 F1800.0
G1 X-20.17 Y-11.39 Z0.78 F1800.0
G1 X-20.17 Y-11.0 Z0.78 F1800.0
G1 X-13.46 Y-11.0 Z0.78 F1800.0
G1 X-13.46 Y-10.6 Z0.78 F1800.0
G1 X-20.17 Y-10.6 Z0.78 F1800.0
G1 X-20.17 Y-10.21 Z0.78 F1800.0
G1 X-13.46 Y-10.21 Z0.78 F1800.0
G1 X-13.46 Y-9.82 Z0.78 F1800.0
G1 X-20.17 Y-9.82 Z0.78 F1800.0
G1 X-20.17 Y-9.43 Z0.78 F1800.0
G1 X-13.46 Y-9.43 Z0.78 F1800.0
G1 X-13.46 Y-9.03 Z0.78 F1800.0
G1 X-20.17 Y-9.03 Z0.78 F1800.0
G1 X-20.17 Y-8.64 Z0.78 F1800.0
G1 X-13.46 Y-8.64 Z0.78 F1800.0
G1 X-13.46 Y-8.25 Z0.78 F1800.0
G1 X-20.17 Y-8.25 Z0.78 F1800.0
G1 X-20.17 Y-7.85 Z0.78 F1800.0
G1 X-13.46 Y-7.85 Z0.78 F1800.0
G1 X-13.46 Y-7.46 Z0.78 F1800.0
G1 X-20.17 Y-7.46 Z0.78 F1800.0
G1 X-20.17 Y-7.07 Z0.78 F1800.0
G1 X-13.46 Y-7.07 Z0.78 F1800.0
G1 X-13.46 Y-6.68 Z0.78 F1800.0
G1 X-20.17 Y-6.68 Z0.78 F1800.0
G1 X-20.17 Y-6.28 Z0.78 F1800.0
G1 X-13.46 Y-6.28 Z0.78 F1800.0
G1 X-13.46 Y-5.89 Z0.78 F1800.0
G1 X-20.17 Y-5.89 Z0.78 F1800.0
G1 X-20.17 Y-5.5 Z0.78 F1800.0
G1 X-13.46 Y-5.5 Z0.78 F1800.0
G1 X-13.46 Y-5.11 Z0.78 F1800.0
G1 X-20.17 Y-5.11 Z0.78 F1800.0
G1 X-20.17 Y-4.71 Z0.78 F1800.0
G1 X-13.46 Y-4.71 Z0.78 F1800.0
G1 X-13.46 Y-4.32 Z0.78 F1800.0
G1 X-20.17 Y-4.32 Z0.78 F1800.0
G1 X-20.17 Y-3.93 Z0.78 F1800.0
G1 X-13.46 Y-3.93 Z0.78 F1800.0
G1 X-13.46 Y-3.53 Z0.78 F1800.0
G1 X-20.17 Y-3.53 Z0.78 F1800.0
G1 X-20.17 Y-3.14 Z0.78 F1800.0
G1 X-13.46 Y-3.14 Z0.78 F1800.0
G1 X-13.46 Y-2.75 Z0.78 F1800.0
G1 X-20.17 Y-2.75 Z0.78 F1800.0
G1 X-20.17 Y-2.36 Z0.78 F1800.0
G1 X-13.46 Y-2.36 Z0.78 F1800.0
G1 X-13.46 Y-1.96 Z0.78 F1800.0
G1 X-20.17 Y-1.96 Z0.78 F1800.0
G1 X-20.17 Y-1.57 Z0.78 F1800.0
G1 X-13.46 Y-1.57 Z0.78 F1800.0
G1 X-13.46 Y-1.18 Z0.78 F1800.0
G1 X-20.17 Y-1.18 Z0.78 F1800.0
G1 X-20.17 Y-0.79 Z0.78 F1800.0
G1 X-13.46 Y-0.79 Z0.78 F1800.0
G1 X-13.46 Y-0.39 Z0.78 F1800.0
G1 X-20.17 Y-0.39 Z0.78 F1800.0
G1 X-20.17 Y0.0 Z0.78 F1800.0
G1 X-13.46 Y0.0 Z0.78 F1800.0
G1 X-13.46 Y0.39 Z0.78 F1800.0
G1 X-20.17 Y0.39 Z0.78 F1800.0
G1 X-20.17 Y0.79 Z0.78 F1800.0
G1 X-13.46 Y0.79 Z0.78 F1800.0
G1 X-13.46 Y1.18 Z0.78 F1800.0
G1 X-20.17 Y1.18 Z0.78 F1800.0
G1 X-20.17 Y1.57 Z0.78 F1800.0
G1 X-13.46 Y1.57 Z0.78 F1800.0
G1 X-13.46 Y1.96 Z0.78 F1800.0
G1 X-20.17 Y1.96 Z0.78 F1800.0
G1 X-20.17 Y2.36 Z0.78 F1800.0
G1 X-13.46 Y2.36 Z0.78 F1800.0
G1 X-13.46 Y2.75 Z0.78 F1800.0
G1 X-20.17 Y2.75 Z0.78 F1800.0
G1 X-20.17 Y3.14 Z0.78 F1800.0
G1 X-13.46 Y3.14 Z0.78 F1800.0
G1 X-13.46 Y3.53 Z0.78 F1800.0
G1 X-20.17 Y3.53 Z0.78 F1800.0
G1 X-20.17 Y3.93 Z0.78 F1800.0
G1 X-13.46 Y3.93 Z0.78 F1800.0
G1 X-13.46 Y4.32 Z0.78 F1800.0
G1 X-20.17 Y4.32 Z0.78 F1800.0
G1 X-20.17 Y4.71 Z0.78 F1800.0
G1 X-13.46 Y4.71 Z0.78 F1800.0
G1 X-13.46 Y5.11 Z0.78 F1800.0
G1 X-20.17 Y5.11 Z0.78 F1800.0
G1 X-20.17 Y5.5 Z0.78 F1800.0
G1 X-13.46 Y5.5 Z0.78 F1800.0
G1 X-13.46 Y5.89 Z0.78 F1800.0
G1 X-20.17 Y5.89 Z0.78 F1800.0
G1 X-20.17 Y6.28 Z0.78 F1800.0
G1 X-13.46 Y6.28 Z0.78 F1800.0
G1 X-13.46 Y6.68 Z0.78 F1800.0
G1 X-20.17 Y6.68 Z0.78 F1800.0
G1 X-20.17 Y7.07 Z0.78 F1800.0
G1 X-13.46 Y7.07 Z0.78 F1800.0
G1 X-13.46 Y7.46 Z0.78 F1800.0
G1 X-20.17 Y7.46 Z0.78 F1800.0
G1 X-20.17 Y7.85 Z0.78 F1800.0
G1 X-13.46 Y7.85 Z0.78 F1800.0
G1 X-13.46 Y8.25 Z0.78 F1800.0
G1 X-20.17 Y8.25 Z0.78 F1800.0
G1 X-20.17 Y8.64 Z0.78 F1800.0
G1 X-13.46 Y8.64 Z0.78 F1800.0
G1 X-13.46 Y9.03 Z0.78 F1800.0
G1 X-20.17 Y9.03 Z0.78 F1800.0
G1 X-20.17 Y9.43 Z0.78 F1800.0
G1 X-13.46 Y9.43 Z0.78 F1800.0
G1 X-13.46 Y9.82 Z0.78 F1800.0
G1 X-20.17 Y9.82 Z0.78 F1800.0
G1 X-20.17 Y10.21 Z0.78 F1800.0
G1 X-13.46 Y10.21 Z0.78 F1800.0
G1 X-13.46 Y10.6 Z0.78 F1800.0
G1 X-20.17 Y10.6 Z0.78 F1800.0
G1 X-20.17 Y11.0 Z0.78 F1800.0
G1 X-13.46 Y11.0 Z0.78 F1800.0
G1 X-13.46 Y11.39 Z0.78 F1800.0
G1 X-20.17 Y11.39 Z0.78 F1800.0
G1 X-20.17 Y11.78 Z0.78 F1800.0
G1 X-13.46 Y11.78 Z0.78 F1800.0
G1 X-13.46 Y12.17 Z0.78 F1800.0
G1 X-20.17 Y12.17 Z0.78 F1800.0
G1 X-20.17 Y12.57 Z0.78 F1800.0
G1 X-13.46 Y12.57 Z0.78 F1800.0
G1 X-13.46 Y12.96 Z0.78 F1800.0
G1 X-20.17 Y12.96 Z0.78 F1800.0
G1 X-20.17 Y13.35 Z0.78 F1800.0
G1 X-13.46 Y13.35 Z0.78 F1800.0
G1 X-13.46 Y13.74 Z0.78 F1800.0
G1 X-20.17 Y13.74 Z0.78 F1800.0
G1 X-20.17 Y14.14 Z0.78 F1800.0
G1 X-13.46 Y14.14 Z0.78 F1800.0
G1 X-13.46 Y14.53 Z0.78 F1800.0
G1 X-20.17 Y14.53 Z0.78 F1800.0
G1 X-20.17 Y14.92 Z0.78 F1800.0
G1 X-13.46 Y14.92 Z0.78 F1800.0
G1 X-13.46 Y15.32 Z0.78 F1800.0
G1 X-20.17 Y15.32 Z0.78 F1800.0
G1 X-20.17 Y15.71 Z0.78 F1800.0
G1 X-13.46 Y15.71 Z0.78 F1800.0
G1 X-13.46 Y16.1 Z0.78 F1800.0
G1 X-20.17 Y16.1 Z0.78 F1800.0
G1 X-20.17 Y16.49 Z0.78 F1800.0
G1 X-13.91 Y16.49 Z0.78 F1800.0
M108 R30.0
M102
G1 X-13.46 Y16.49 Z0.78 F1800.0
M108 R3.569
M103
G1 X-20.0 Y-13.36 Z0.78 F3000.0
M108 R30.0
M101
G1 X-20.17 Y-14.14 Z0.78 F3000.0
M108 R3.569
G1 X19.85 Y-14.14 Z0.78 F1800.0
M103
G1 X19.85 Y-14.53 Z0.78 F3000.0
M101
G1 X-20.17 Y-14.53 Z0.78 F1800.0
G1 X-20.17 Y-14.92 Z0.78 F1800.0
G1 X19.85 Y-14.92 Z0.78 F1800.0
M103
G1 X19.85 Y-15.32 Z0.78 F3000.0
M101
G1 X-20.17 Y-15.32 Z0.78 F1800.0
G1 X-20.17 Y-15.71 Z0.78 F1800.0
G1 X19.85 Y-15.71 Z0.78 F1800.0
M103
G1 X19.85 Y-16.1 Z0.78 F3000.0
M101
G1 X-20.17 Y-16.1 Z0.78 F1800.0
G1 X-20.17 Y-16.49 Z0.78 F1800.0
G1 X19.85 Y-16.49 Z0.78 F1800.0
M103
G1 X19.85 Y-16.89 Z0.78 F3000.0
M101
G1 X-20.17 Y-16.89 Z0.78 F1800.0
G1 X-20.17 Y-17.28 Z0.78 F1800.0
G1 X19.85 Y-17.28 Z0.78 F1800.0
M103
G1 X19.85 Y-17.67 Z0.78 F3000.0
M101
G1 X-20.17 Y-17.67 Z0.78 F1800.0
G1 X-20.17 Y-18.06 Z0.78 F1800.0
G1 X19.85 Y-18.06 Z0.78 F1800.0
M103
G1 X19.85 Y-18.46 Z0.78 F3000.0
M101
G1 X-20.17 Y-18.46 Z0.78 F1800.0
G1 X-20.17 Y-18.85 Z0.78 F1800.0
G1 X19.85 Y-18.85 Z0.78 F1800.0
M103
G1 X19.85 Y-19.24 Z0.78 F3000.0
M101
G1 X-20.17 Y-19.24 Z0.78 F1800.0
G1 X-20.17 Y-19.64 Z0.78 F1800.0
G1 X19.85 Y-19.64 Z0.78 F1800.0
M103
G1 X19.85 Y-20.03 Z0.78 F3000.0
M101
G1 X-19.72 Y-20.03 Z0.78 F1800.0
M108 R30.0
M102
G1 X-20.17 Y-20.03 Z0.78 F1800.0
M108 R3.569
M103
G1 X-12.21 Y-12.89 Z0.78 F3000.0
G1 X15.85 Y-12.75 Z0.78 F3000.0
G1 X15.99 Y13.42 Z0.78 F3000.0
G1 X19.28 Y16.71 Z0.78 F3000.0
M108 R30.0
M101
G1 X19.85 Y17.28 Z0.78 F3000.0
M108 R3.569
G1 X-20.17 Y17.28 Z0.78 F1800.0
G1 X-20.17 Y16.89 Z0.78 F1800.0
G1 X19.4 Y16.89 Z0.78 F1800.0
M108 R30.0
M102
G1 X19.85 Y16.89 Z0.78 F1800.0
M108 R3.569
M103
G1 X19.85 Y17.26 Z0.78 F3000.0
M108 R30.0
M101
G1 X19.85 Y18.06 Z0.78 F3000.0
M108 R3.569
G1 X-20.17 Y18.06 Z0.78 F1800.0
G1 X-20.17 Y17.67 Z0.78 F1800.0
G1 X19.4 Y17.67 Z0.78 F1800.0
M108 R30.0
M102
G1 X19.85 Y17.67 Z0.78 F1800.0
M108 R3.569
M103
G1 X19.85 Y18.05 Z0.78 F3000.0
M108 R30.0
M101
G1 X19.85 Y18.85 Z0.78 F3000.0
M108 R3.569
G1 X-20.17 Y18.85 Z0.78 F1800.0
G1 X-20.17 Y18.46 Z0.78 F1800.0
G1 X19.4 Y18.46 Z0.78 F1800.0
M108 R30.0
M102
G1 X19.85 Y18.46 Z0.78 F1800.0
M108 R3.569
M103
G1 X19.85 Y18.84 Z0.78 F3000.0
M108 R30.0
M101
G1 X19.85 Y19.64 Z0.78 F3000.0
M108 R3.569
G1 X-20.17 Y19.64 Z0.78 F1800.0
G1 X-20.17 Y19.24 Z0.78 F1800.0
G1 X19.4 Y19.24 Z0.78 F1800.0
M108 R30.0
M102
G1 X19.85 Y19.24 Z0.78 F1800.0
M108 R3.569
M103
(</surroundingLoop>)
(</layer>)
(<operatingLayerEnd> </operatingLayerEnd>)
(<layer> 1.1 )
(<surroundingLoop>)
(<boundaryPerimeter>)
(<boundaryPoint> X20.693 Y-21.013 Z1.1 </boundaryPoint>)
(<boundaryPoint> X20.693 Y20.693 Z1.1 </boundaryPoint>)
(<boundaryPoint> X-21.013 Y20.693 Z1.1 </boundaryPoint>)
(<boundaryPoint> X-21.013 Y-21.013 Z1.1 </boundaryPoint>)
(<loop> inner )
G1 X16.89 Y16.56 Z1.05 F3000.0
M108 R30.0
M101
G1 X16.3 Y16.02 Z1.1 F3000.0
M108 R3.569
G1 X16.3 Y-13.2 Z1.1 F1800.0
G1 X-13.2 Y-13.2 Z1.1 F1800.0
G1 X-13.2 Y16.3 Z1.1 F1800.0
G1 X16.13 Y16.3 Z1.1 F1800.0
M108 R30.0
M102
G1 X16.3 Y16.3 Z1.1 F1800.0
G1 X16.3 Y16.02 Z1.1 F1800.0
M108 R3.569
M103
(</loop>)
(<loop> outer )
G1 X19.3 Y16.02 Z1.1 F3000.0
M108 R30.0
M101
G1 X20.1 Y16.02 Z1.1 F3000.0
M108 R3.569
G1 X20.1 Y16.3 Z1.1 F1800.0
G1 X20.1 Y20.1 Z1.1 F1800.0
G1 X-20.42 Y20.1 Z1.1 F1800.0
G1 X-20.42 Y-20.42 Z1.1 F1800.0
G1 X20.1 Y-20.42 Z1.1 F1800.0
G1 X20.1 Y16.02 Z1.1 F1800.0
M103
(</loop>)
(<perimeter> outer )
G1 X20.5 Y16.02 Z1.1 F3000.0
M101
G1 X20.5 Y16.3 Z1.1 F1800.0
G1 X20.5 Y20.5 Z1.1 F1800.0
G1 X-20.82 Y20.5 Z1.1 F1800.0
G1 X-20.82 Y-20.82 Z1.1 F1800.0
G1 X20.5 Y-20.82 Z1.1 F1800.0
G1 X20.5 Y15.57 Z1.1 F1800.0
M108 R30.0
M102
G1 X20.5 Y16.02 Z1.1 F1800.0
M108 R3.569
M103
(</perimeter>)
(</boundaryPerimeter>)
(<surroundingLoop>)
(<boundaryPerimeter>)
(<boundaryPoint> X15.713 Y-12.611 Z1.1 </boundaryPoint>)
(<boundaryPoint> X-12.611 Y-12.611 Z1.1 </boundaryPoint>)
(<boundaryPoint> X-12.611 Y15.713 Z1.1 </boundaryPoint>)
(<boundaryPoint> X15.713 Y15.713 Z1.1 </boundaryPoint>)
(<perimeter> inner )
G1 X16.71 Y15.93 Z1.1 F3000.0
M108 R30.0
M101
G1 X15.91 Y15.91 Z1.1 F3000.0
M108 R3.569
G1 X15.91 Y-12.81 Z1.1 F1800.0
G1 X-12.81 Y-12.81 Z1.1 F1800.0
G1 X-12.81 Y15.91 Z1.1 F1800.0
G1 X15.46 Y15.91 Z1.1 F1800.0
M108 R30.0
M102
G1 X15.91 Y15.91 Z1.1 F1800.0
M108 R3.569
M103
(</perimeter>)
(</boundaryPerimeter>)
(</surroundingLoop>)
G1 X17.16 Y19.1 Z1.1 F3000.0
M108 R30.0
M101
G1 X17.45 Y19.85 Z1.1 F3000.0
M108 R3.569
G1 X17.89 Y19.41 Z1.1 F1800.0
G1 X19.2 Y-20.17 Z1.1 F1800.0
G1 X14.84 Y-20.17 Z1.1 F1800.0
G1 X14.3 Y-18.67 Z1.1 F1800.0
G1 X14.3 Y-18.42 Z1.1 F1800.0
G1 X16.36 Y-16.49 Z1.1 F1800.0
G1 X16.14 Y-13.46 Z1.1 F1800.0
G1 X12.65 Y-13.46 Z1.1 F1800.0
G1 X12.11 Y-16.24 Z1.1 F1800.0
G1 X12.11 Y-16.49 Z1.1 F1800.0
G1 X14.07 Y-18.42 Z1.1 F1800.0
G1 X14.07 Y-18.67 Z1.1 F1800.0
G1 X14.4 Y-20.17 Z1.1 F1800.0
G1 X10.47 Y-20.17 Z1.1 F1800.0
G1 X9.93 Y-18.67 Z1.1 F1800.0
G1 X9.93 Y-18.42 Z1.1 F1800.0
G1 X11.88 Y-16.49 Z1.1 F1800.0
G1 X12.22 Y-13.46 Z1.1 F1800.0
G1 X8.29 Y-13.46 Z1.1 F1800.0
G1 X7.75 Y-16.24 Z1.1 F1800.0
G1 X7.75 Y-16.49 Z1.1 F1800.0
G1 X9.7 Y-18.42 Z1.1 F1800.0
G1 X9.7 Y-18.67 Z1.1 F1800.0
G1 X10.04 Y-20.17 Z1.1 F1800.0
G1 X6.11 Y-20.17 Z1.1 F1800.0
G1 X5.57 Y-18.67 Z1.1 F1800.0
G1 X5.57 Y-18.42 Z1.1 F1800.0
G1 X7.52 Y-16.49 Z1.1 F1800.0
G1 X7.85 Y-13.46 Z1.1 F1800.0
G1 X3.93 Y-13.46 Z1.1 F1800.0
G1 X3.39 Y-16.24 Z1.1 F1800.0
G1 X3.39 Y-16.49 Z1.1 F1800.0
G1 X5.34 Y-18.42 Z1.1 F1800.0
G1 X5.34 Y-18.67 Z1.1 F1800.0
G1 X5.67 Y-20.17 Z1.1 F1800.0
G1 X1.75 Y-20.17 Z1.1 F1800.0
G1 X1.21 Y-18.67 Z1.1 F1800.0
G1 X1.21 Y-18.42 Z1.1 F1800.0
G1 X3.16 Y-16.49 Z1.1 F1800.0
G1 X3.49 Y-13.46 Z1.1 F1800.0
G1 X-0.44 Y-13.46 Z1.1 F1800.0
G1 X-0.98 Y-16.24 Z1.1 F1800.0
G1 X-0.98 Y-16.49 Z1.1 F1800.0
G1 X0.98 Y-18.42 Z1.1 F1800.0
G1 X0.98 Y-18.67 Z1.1 F1800.0
G1 X1.31 Y-20.17 Z1.1 F1800.0
G1 X-2.62 Y-20.17 Z1.1 F1800.0
G1 X-3.16 Y-18.67 Z1.1 F1800.0
G1 X-3.16 Y-18.42 Z1.1 F1800.0
G1 X-1.21 Y-16.49 Z1.1 F1800.0
G1 X-0.87 Y-13.46 Z1.1 F1800.0
G1 X-4.8 Y-13.46 Z1.1 F1800.0
G1 X-5.34 Y-16.24 Z1.1 F1800.0
G1 X-5.34 Y-16.49 Z1.1 F1800.0
G1 X-3.39 Y-18.42 Z1.1 F1800.0
G1 X-3.39 Y-18.67 Z1.1 F1800.0
G1 X-3.05 Y-20.17 Z1.1 F1800.0
G1 X-6.98 Y-20.17 Z1.1 F1800.0
G1 X-7.52 Y-18.67 Z1.1 F1800.0
G1 X-7.52 Y-18.42 Z1.1 F1800.0
G1 X-5.57 Y-16.49 Z1.1 F1800.0
G1 X-5.24 Y-13.46 Z1.1 F1800.0
G1 X-9.16 Y-13.46 Z1.1 F1800.0
G1 X-9.7 Y-16.24 Z1.1 F1800.0
G1 X-9.7 Y-16.49 Z1.1 F1800.0
G1 X-7.75 Y-18.42 Z1.1 F1800.0
G1 X-7.75 Y-18.67 Z1.1 F1800.0
G1 X-7.42 Y-20.17 Z1.1 F1800.0
G1 X-11.35 Y-20.17 Z1.1 F1800.0
G1 X-11.88 Y-18.67 Z1.1 F1800.0
G1 X-11.88 Y-18.42 Z1.1 F1800.0
G1 X-9.93 Y-16.49 Z1.1 F1800.0
G1 X-9.6 Y-13.46 Z1.1 F1800.0
G1 X-13.09 Y-13.46 Z1.1 F1800.0
G1 X-14.07 Y-16.24 Z1.1 F1800.0
G1 X-14.07 Y-16.49 Z1.1 F1800.0
G1 X-12.11 Y-18.42 Z1.1 F1800.0
G1 X-12.11 Y-18.67 Z1.1 F1800.0
G1 X-11.78 Y-20.17 Z1.1 F1800.0
G1 X-15.71 Y-20.17 Z1.1 F1800.0
G1 X-16.25 Y-18.67 Z1.1 F1800.0
G1 X-16.25 Y-18.42 Z1.1 F1800.0
G1 X-14.3 Y-16.49 Z1.1 F1800.0
G1 X-14.3 Y-16.24 Z1.1 F1800.0
G1 X-16.25 Y-14.31 Z1.1 F1800.0
G1 X-16.25 Y16.49 Z1.1 F1800.0
G1 X-17.02 Y19.41 Z1.1 F1800.0
G1 X-16.58 Y19.85 Z1.1 F1800.0
G1 X-16.14 Y19.41 Z1.1 F1800.0
G1 X-15.71 Y19.41 Z1.1 F1800.0
G1 X-15.27 Y19.85 Z1.1 F1800.0
G1 X-14.84 Y19.41 Z1.1 F1800.0
G1 X-14.4 Y19.85 Z1.1 F1800.0
G1 X-13.96 Y19.41 Z1.1 F1800.0
G1 X-14.18 Y18.67 Z1.1 F1800.0
G1 X-14.18 Y18.42 Z1.1 F1800.0
G1 X-13.09 Y16.56 Z1.1 F1800.0
G1 X-12.65 Y16.99 Z1.1 F1800.0
G1 X-13.53 Y19.41 Z1.1 F1800.0
G1 X-13.09 Y19.85 Z1.1 F1800.0
G1 X-12.65 Y19.41 Z1.1 F1800.0
G1 X-12.22 Y16.99 Z1.1 F1800.0
G1 X-11.78 Y16.56 Z1.1 F1800.0
G1 X-11.35 Y16.99 Z1.1 F1800.0
G1 X-10.91 Y16.56 Z1.1 F1800.0
G1 X-10.47 Y16.99 Z1.1 F1800.0
G1 X-11.78 Y19.41 Z1.1 F1800.0
G1 X-10.91 Y19.85 Z1.1 F1800.0
G1 X-10.47 Y19.41 Z1.1 F1800.0
G1 X-10.04 Y19.85 Z1.1 F1800.0
G1 X-9.6 Y19.41 Z1.1 F1800.0
G1 X-9.82 Y18.67 Z1.1 F1800.0
G1 X-9.6 Y16.99 Z1.1 F1800.0
G1 X-8.73 Y16.56 Z1.1 F1800.0
G1 X-8.29 Y16.99 Z1.1 F1800.0
G1 X-9.16 Y19.41 Z1.1 F1800.0
G1 X-8.73 Y19.85 Z1.1 F1800.0
G1 X-8.29 Y19.41 Z1.1 F1800.0
G1 X-7.85 Y16.99 Z1.1 F1800.0
G1 X-7.42 Y16.56 Z1.1 F1800.0
G1 X-7.11 Y16.87 Z1.1 F1800.0
G1 X-6.98 Y16.56 Z1.1 F1800.0
G1 X-6.58 Y16.73 Z1.1 F1800.0
G1 X-6.55 Y16.56 Z1.1 F1800.0
G1 X-6.11 Y16.99 Z1.1 F1800.0
G1 X-6.98 Y19.41 Z1.1 F1800.0
G1 X-6.55 Y19.85 Z1.1 F1800.0
G1 X-6.11 Y19.41 Z1.1 F1800.0
G1 X-5.67 Y19.85 Z1.1 F1800.0
G1 X-5.24 Y19.41 Z1.1 F1800.0
G1 X-5.45 Y18.67 Z1.1 F1800.0
G1 X-5.24 Y16.99 Z1.1 F1800.0
G1 X-4.8 Y16.99 Z1.1 F1800.0
G1 X-4.36 Y16.56 Z1.1 F1800.0
G1 X-3.93 Y16.99 Z1.1 F1800.0
G1 X-4.8 Y19.41 Z1.1 F1800.0
G1 X-4.36 Y19.85 Z1.1 F1800.0
G1 X-3.93 Y19.41 Z1.1 F1800.0
G1 X-3.49 Y16.99 Z1.1 F1800.0
G1 X-3.05 Y16.56 Z1.1 F1800.0
G1 X-2.75 Y16.87 Z1.1 F1800.0
G1 X-2.22 Y16.73 Z1.1 F1800.0
G1 X-2.18 Y16.56 Z1.1 F1800.0
G1 X-1.75 Y16.99 Z1.1 F1800.0
G1 X-3.05 Y19.41 Z1.1 F1800.0
G1 X-2.18 Y19.85 Z1.1 F1800.0
G1 X-1.75 Y19.41 Z1.1 F1800.0
G1 X-1.21 Y18.54 Z1.1 F1800.0
G1 X-0.87 Y16.99 Z1.1 F1800.0
G1 X-0.44 Y16.99 Z1.1 F1800.0
G1 X0.0 Y16.56 Z1.1 F1800.0
G1 X0.44 Y16.99 Z1.1 F1800.0
G1 X-0.44 Y19.41 Z1.1 F1800.0
G1 X0.0 Y19.85 Z1.1 F1800.0
G1 X0.44 Y19.41 Z1.1 F1800.0
G1 X0.87 Y19.85 Z1.1 F1800.0
G1 X1.31 Y19.41 Z1.1 F1800.0
G1 X1.31 Y16.99 Z1.1 F1800.0
G1 X2.18 Y16.56 Z1.1 F1800.0
G1 X2.62 Y16.99 Z1.1 F1800.0
G1 X1.75 Y19.41 Z1.1 F1800.0
G1 X2.18 Y19.85 Z1.1 F1800.0
G1 X2.62 Y19.41 Z1.1 F1800.0
G1 X3.16 Y18.42 Z1.1 F1800.0
G1 X3.49 Y16.99 Z1.1 F1800.0
G1 X3.93 Y16.99 Z1.1 F1800.0
G1 X4.36 Y16.56 Z1.1 F1800.0
G1 X4.8 Y16.99 Z1.1 F1800.0
G1 X3.93 Y19.41 Z1.1 F1800.0
G1 X4.36 Y19.85 Z1.1 F1800.0
G1 X4.8 Y19.41 Z1.1 F1800.0
G1 X5.24 Y16.99 Z1.1 F1800.0
G1 X5.67 Y16.56 Z1.1 F1800.0
G1 X5.98 Y16.87 Z1.1 F1800.0
G1 X6.51 Y16.73 Z1.1 F1800.0
G1 X6.55 Y16.56 Z1.1 F1800.0
G1 X6.98 Y16.99 Z1.1 F1800.0
G1 X5.67 Y19.41 Z1.1 F1800.0
G1 X6.55 Y19.85 Z1.1 F1800.0
G1 X6.98 Y19.41 Z1.1 F1800.0
G1 X7.64 Y18.42 Z1.1 F1800.0
G1 X7.85 Y16.99 Z1.1 F1800.0
G1 X8.29 Y16.99 Z1.1 F1800.0
G1 X8.73 Y16.56 Z1.1 F1800.0
G1 X9.16 Y16.99 Z1.1 F1800.0
G1 X8.29 Y19.41 Z1.1 F1800.0
G1 X8.73 Y19.85 Z1.1 F1800.0
G1 X9.16 Y19.41 Z1.1 F1800.0
G1 X9.6 Y19.85 Z1.1 F1800.0
G1 X10.04 Y19.41 Z1.1 F1800.0
G1 X10.47 Y16.99 Z1.1 F1800.0
G1 X10.91 Y16.56 Z1.1 F1800.0
G1 X11.35 Y16.99 Z1.1 F1800.0
G1 X10.47 Y19.41 Z1.1 F1800.0
G1 X10.91 Y19.85 Z1.1 F1800.0
G1 X11.35 Y19.41 Z1.1 F1800.0
G1 X12.0 Y18.42 Z1.1 F1800.0
G1 X12.22 Y16.99 Z1.1 F1800.0
G1 X13.09 Y16.56 Z1.1 F1800.0
G1 X13.53 Y16.99 Z1.1 F1800.0
G1 X12.65 Y19.41 Z1.1 F1800.0
G1 X13.09 Y19.85 Z1.1 F1800.0
G1 X13.53 Y19.41 Z1.1 F1800.0
G1 X13.96 Y19.85 Z1.1 F1800.0
G1 X14.4 Y19.41 Z1.1 F1800.0
G1 X14.4 Y16.99 Z1.1 F1800.0
G1 X14.84 Y16.99 Z1.1 F1800.0
G1 X15.27 Y16.56 Z1.1 F1800.0
G1 X15.71 Y16.99 Z1.1 F1800.0
G1 X16.36 Y18.42 Z1.1 F1800.0
G1 X16.36 Y18.67 Z1.1 F1800.0
G1 X16.58 Y19.41 Z1.1 F1800.0
G1 X16.14 Y19.85 Z1.1 F1800.0
G1 X15.71 Y19.41 Z1.1 F1800.0
G1 X15.59 Y19.53 Z1.1 F1800.0
M108 R30.0
M102
G1 X15.27 Y19.85 Z1.1 F1800.0
M108 R3.569
M103
G1 X19.55 Y-19.37 Z1.1 F3000.0
M108 R30.0
M101
G1 X19.64 Y-20.17 Z1.1 F3000.0
M108 R3.569
G1 X19.64 Y19.4 Z1.1 F1800.0
M108 R30.0
M102
G1 X19.64 Y19.85 Z1.1 F1800.0
M108 R3.569
M103
G1 X-16.65 Y19.85 Z1.1 F3000.0
M108 R30.0
M101
G1 X-17.45 Y19.85 Z1.1 F3000.0
M108 R3.569
G1 X-18.33 Y19.41 Z1.1 F1800.0
G1 X-18.43 Y18.42 Z1.1 F1800.0
G1 X-16.48 Y16.49 Z1.1 F1800.0
G1 X-16.48 Y16.24 Z1.1 F1800.0
G1 X-18.43 Y14.31 Z1.1 F1800.0
G1 X-18.43 Y14.05 Z1.1 F1800.0
G1 X-16.48 Y12.13 Z1.1 F1800.0
G1 X-16.48 Y11.87 Z1.1 F1800.0
G1 X-18.43 Y9.95 Z1.1 F1800.0
G1 X-18.43 Y9.69 Z1.1 F1800.0
G1 X-16.48 Y7.76 Z1.1 F1800.0
G1 X-16.48 Y7.51 Z1.1 F1800.0
G1 X-18.43 Y5.58 Z1.1 F1800.0
G1 X-18.43 Y5.33 Z1.1 F1800.0
G1 X-16.48 Y3.4 Z1.1 F1800.0
G1 X-16.48 Y3.15 Z1.1 F1800.0
G1 X-18.43 Y1.22 Z1.1 F1800.0
G1 X-18.43 Y0.96 Z1.1 F1800.0
G1 X-16.48 Y-0.96 Z1.1 F1800.0
G1 X-16.48 Y-1.22 Z1.1 F1800.0
G1 X-18.43 Y-3.15 Z1.1 F1800.0
G1 X-18.43 Y-3.4 Z1.1 F1800.0
G1 X-16.48 Y-5.33 Z1.1 F1800.0
G1 X-16.48 Y-5.58 Z1.1 F1800.0
G1 X-18.43 Y-7.51 Z1.1 F1800.0
G1 X-18.43 Y-7.76 Z1.1 F1800.0
G1 X-16.48 Y-9.69 Z1.1 F1800.0
G1 X-16.48 Y-9.95 Z1.1 F1800.0
G1 X-18.43 Y-11.87 Z1.1 F1800.0
G1 X-18.43 Y-12.13 Z1.1 F1800.0
G1 X-16.48 Y-14.05 Z1.1 F1800.0
G1 X-16.48 Y-14.31 Z1.1 F1800.0
G1 X-18.43 Y-16.24 Z1.1 F1800.0
G1 X-18.43 Y-16.49 Z1.1 F1800.0
G1 X-16.48 Y-18.42 Z1.1 F1800.0
G1 X-16.48 Y-18.67 Z1.1 F1800.0
G1 X-16.14 Y-20.17 Z1.1 F1800.0
G1 X-19.64 Y-20.17 Z1.1 F1800.0
G1 X-18.66 Y-16.49 Z1.1 F1800.0
G1 X-18.66 Y18.67 Z1.1 F1800.0
G1 X-19.2 Y19.41 Z1.1 F1800.0
G1 X-19.64 Y19.85 Z1.1 F1800.0
M103
G1 X-20.07 Y19.85 Z1.1 F3000.0
M101
G1 X-20.07 Y-19.72 Z1.1 F1800.0
M108 R30.0
M102
G1 X-20.07 Y-20.17 Z1.1 F1800.0
M108 R3.569
M103
(</surroundingLoop>)
(</layer>)
(<layer> 1.42 )
(<surroundingLoop>)
(<boundaryPerimeter>)
(<boundaryPoint> X20.693 Y-21.013 Z1.42 </boundaryPoint>)
(<boundaryPoint> X20.693 Y20.693 Z1.42 </boundaryPoint>)
(<boundaryPoint> X-21.013 Y20.693 Z1.42 </boundaryPoint>)
(<boundaryPoint> X-21.013 Y-21.013 Z1.42 </boundaryPoint>)
(<loop> inner )
G1 X-13.74 Y-13.77 Z1.39 F3000.0
M108 R30.0
M101
G1 X-13.18 Y-13.2 Z1.42 F3000.0
M108 R3.569
G1 X-13.2 Y-13.2 Z1.42 F1800.0
G1 X-13.2 Y16.3 Z1.42 F1800.0
G1 X16.3 Y16.3 Z1.42 F1800.0
G1 X16.3 Y-13.2 Z1.42 F1800.0
G1 X-12.73 Y-13.2 Z1.42 F1800.0
M108 R30.0
M102
G1 X-13.18 Y-13.2 Z1.42 F1800.0
M108 R3.569
M103
(</loop>)
(<loop> outer )
G1 X-13.18 Y-19.62 Z1.42 F3000.0
M108 R30.0
M101
G1 X-13.18 Y-20.42 Z1.42 F3000.0
M108 R3.569
G1 X20.1 Y-20.42 Z1.42 F1800.0
G1 X20.1 Y20.1 Z1.42 F1800.0
G1 X-20.42 Y20.1 Z1.42 F1800.0
G1 X-20.42 Y-13.2 Z1.42 F1800.0
G1 X-20.42 Y-20.42 Z1.42 F1800.0
G1 X-13.18 Y-20.42 Z1.42 F1800.0
M103
(</loop>)
(<perimeter> outer )
G1 X-13.18 Y-20.82 Z1.42 F3000.0
M101
G1 X20.5 Y-20.82 Z1.42 F1800.0
G1 X20.5 Y20.5 Z1.42 F1800.0
G1 X-20.82 Y20.5 Z1.42 F1800.0
G1 X-20.82 Y-13.2 Z1.42 F1800.0
G1 X-20.82 Y-20.82 Z1.42 F1800.0
G1 X-13.63 Y-20.82 Z1.42 F1800.0
M108 R30.0
M102
G1 X-13.18 Y-20.82 Z1.42 F1800.0
M108 R3.569
M103
(</perimeter>)
(</boundaryPerimeter>)
(<surroundingLoop>)
(<boundaryPerimeter>)
(<boundaryPoint> X15.713 Y-12.611 Z1.42 </boundaryPoint>)
(<boundaryPoint> X-12.611 Y-12.611 Z1.42 </boundaryPoint>)
(<boundaryPoint> X-12.611 Y15.713 Z1.42 </boundaryPoint>)
(<boundaryPoint> X15.713 Y15.713 Z1.42 </boundaryPoint>)
(<perimeter> inner )
G1 X-12.85 Y-13.61 Z1.42 F3000.0
M108 R30.0
M101
G1 X-12.81 Y-12.81 Z1.42 F3000.0
M108 R3.569
G1 X-12.81 Y15.91 Z1.42 F1800.0
G1 X15.91 Y15.91 Z1.42 F1800.0
G1 X15.91 Y-12.81 Z1.42 F1800.0
G1 X-12.36 Y-12.81 Z1.42 F1800.0
M108 R30.0
M102
G1 X-12.81 Y-12.81 Z1.42 F1800.0
M108 R3.569
M103
(</perimeter>)
(</boundaryPerimeter>)
(</surroundingLoop>)
G1 X-13.13 Y-12.08 Z1.42 F3000.0
M108 R30.0
M101
G1 X-13.46 Y-11.35 Z1.42 F3000.0
M108 R3.569
G1 X-13.46 Y-13.09 Z1.42 F1800.0
G1 X-16.24 Y-14.07 Z1.42 F1800.0
G1 X-16.49 Y-14.07 Z1.42 F1800.0
G1 X-18.42 Y-12.11 Z1.42 F1800.0
G1 X-18.67 Y-12.11 Z1.42 F1800.0
G1 X-20.17 Y-13.53 Z1.42 F1800.0
G1 X-20.17 Y-9.6 Z1.42 F1800.0
G1 X-18.67 Y-11.88 Z1.42 F1800.0
G1 X-18.42 Y-11.88 Z1.42 F1800.0
G1 X-16.49 Y-9.93 Z1.42 F1800.0
G1 X-16.24 Y-9.93 Z1.42 F1800.0
G1 X-13.46 Y-10.91 Z1.42 F1800.0
G1 X-13.46 Y-7.42 Z1.42 F1800.0
G1 X-16.24 Y-9.7 Z1.42 F1800.0
G1 X-16.49 Y-9.7 Z1.42 F1800.0
G1 X-18.42 Y-7.75 Z1.42 F1800.0
G1 X-18.67 Y-7.75 Z1.42 F1800.0
G1 X-20.17 Y-9.16 Z1.42 F1800.0
G1 X-20.17 Y-5.24 Z1.42 F1800.0
G1 X-18.67 Y-7.52 Z1.42 F1800.0
G1 X-18.42 Y-7.52 Z1.42 F1800.0
G1 X-16.49 Y-5.57 Z1.42 F1800.0
G1 X-16.24 Y-5.57 Z1.42 F1800.0
G1 X-13.46 Y-6.98 Z1.42 F1800.0
G1 X-13.46 Y-3.05 Z1.42 F1800.0
G1 X-16.24 Y-5.34 Z1.42 F1800.0
G1 X-16.49 Y-5.34 Z1.42 F1800.0
G1 X-18.42 Y-3.39 Z1.42 F1800.0
G1 X-18.67 Y-3.39 Z1.42 F1800.0
G1 X-20.17 Y-4.8 Z1.42 F1800.0
G1 X-20.17 Y-0.87 Z1.42 F1800.0
G1 X-18.67 Y-3.16 Z1.42 F1800.0
G1 X-18.42 Y-3.16 Z1.42 F1800.0
G1 X-16.49 Y-1.21 Z1.42 F1800.0
G1 X-16.24 Y-1.21 Z1.42 F1800.0
G1 X-13.46 Y-2.62 Z1.42 F1800.0
G1 X-13.46 Y1.31 Z1.42 F1800.0
G1 X-16.24 Y-0.98 Z1.42 F1800.0
G1 X-16.49 Y-0.98 Z1.42 F1800.0
G1 X-18.42 Y0.98 Z1.42 F1800.0
G1 X-18.67 Y0.98 Z1.42 F1800.0
G1 X-20.17 Y-0.44 Z1.42 F1800.0
G1 X-20.17 Y3.49 Z1.42 F1800.0
G1 X-18.67 Y1.21 Z1.42 F1800.0
G1 X-18.42 Y1.21 Z1.42 F1800.0
G1 X-16.49 Y3.16 Z1.42 F1800.0
G1 X-16.24 Y3.16 Z1.42 F1800.0
G1 X-13.46 Y1.75 Z1.42 F1800.0
G1 X-13.46 Y5.67 Z1.42 F1800.0
G1 X-16.24 Y3.39 Z1.42 F1800.0
G1 X-16.49 Y3.39 Z1.42 F1800.0
G1 X-18.42 Y5.34 Z1.42 F1800.0
G1 X-18.67 Y5.34 Z1.42 F1800.0
G1 X-20.17 Y3.93 Z1.42 F1800.0
G1 X-20.17 Y7.85 Z1.42 F1800.0
G1 X-18.67 Y5.57 Z1.42 F1800.0
G1 X-18.42 Y5.57 Z1.42 F1800.0
G1 X-16.49 Y7.52 Z1.42 F1800.0
G1 X-16.24 Y7.52 Z1.42 F1800.0
G1 X-13.46 Y6.11 Z1.42 F1800.0
G1 X-13.46 Y10.04 Z1.42 F1800.0
G1 X-16.24 Y7.75 Z1.42 F1800.0
G1 X-16.49 Y7.75 Z1.42 F1800.0
G1 X-18.42 Y9.7 Z1.42 F1800.0
G1 X-18.67 Y9.7 Z1.42 F1800.0
G1 X-20.17 Y8.29 Z1.42 F1800.0
G1 X-20.17 Y12.22 Z1.42 F1800.0
G1 X-18.67 Y9.93 Z1.42 F1800.0
G1 X-18.42 Y9.93 Z1.42 F1800.0
G1 X-16.49 Y11.88 Z1.42 F1800.0
G1 X-16.24 Y11.88 Z1.42 F1800.0
G1 X-13.46 Y10.47 Z1.42 F1800.0
G1 X-13.46 Y14.4 Z1.42 F1800.0
G1 X-16.24 Y12.11 Z1.42 F1800.0
G1 X-16.49 Y12.11 Z1.42 F1800.0
G1 X-18.42 Y14.07 Z1.42 F1800.0
G1 X-18.67 Y14.07 Z1.42 F1800.0
G1 X-20.17 Y12.65 Z1.42 F1800.0
G1 X-20.17 Y16.58 Z1.42 F1800.0
G1 X-18.67 Y14.3 Z1.42 F1800.0
G1 X-18.42 Y14.3 Z1.42 F1800.0
G1 X-16.49 Y16.25 Z1.42 F1800.0
G1 X-13.46 Y16.14 Z1.42 F1800.0
G1 X-13.46 Y15.29 Z1.42 F1800.0
M108 R30.0
M102
G1 X-13.46 Y14.84 Z1.42 F1800.0
M108 R3.569
M103
G1 X-12.89 Y14.96 Z1.42 F3000.0
G1 X-12.75 Y15.85 Z1.42 F3000.0
G1 X-7.36 Y15.99 Z1.42 F3000.0
G1 X19.06 Y19.53 Z1.42 F3000.0
M108 R30.0
M101
G1 X19.85 Y19.64 Z1.42 F3000.0
M108 R3.569
G1 X19.41 Y18.76 Z1.42 F1800.0
G1 X-18.67 Y18.66 Z1.42 F1800.0
G1 X-20.17 Y19.64 Z1.42 F1800.0
G1 X-20.17 Y17.02 Z1.42 F1800.0
G1 X-18.67 Y18.43 Z1.42 F1800.0
G1 X-18.42 Y18.43 Z1.42 F1800.0
G1 X-16.49 Y16.48 Z1.42 F1800.0
G1 X-16.24 Y16.48 Z1.42 F1800.0
G1 X-14.31 Y18.43 Z1.42 F1800.0
G1 X16.49 Y18.43 Z1.42 F1800.0
G1 X19.41 Y17.89 Z1.42 F1800.0
G1 X19.85 Y17.45 Z1.42 F1800.0
G1 X19.41 Y17.02 Z1.42 F1800.0
G1 X19.41 Y16.58 Z1.42 F1800.0
G1 X19.85 Y16.14 Z1.42 F1800.0
G1 X19.41 Y15.71 Z1.42 F1800.0
G1 X16.99 Y15.71 Z1.42 F1800.0
G1 X16.56 Y15.27 Z1.42 F1800.0
G1 X16.99 Y14.84 Z1.42 F1800.0
G1 X16.99 Y14.4 Z1.42 F1800.0
G1 X19.85 Y15.27 Z1.42 F1800.0
G1 X19.54 Y14.71 Z1.42 F1800.0
G1 X19.41 Y13.96 Z1.42 F1800.0
G1 X16.99 Y13.53 Z1.42 F1800.0
G1 X16.56 Y13.09 Z1.42 F1800.0
G1 X16.99 Y12.65 Z1.42 F1800.0
G1 X19.41 Y13.53 Z1.42 F1800.0
G1 X19.85 Y13.09 Z1.42 F1800.0
G1 X19.41 Y12.22 Z1.42 F1800.0
G1 X16.99 Y12.22 Z1.42 F1800.0
G1 X16.56 Y11.78 Z1.42 F1800.0
G1 X16.99 Y11.35 Z1.42 F1800.0
G1 X16.56 Y10.91 Z1.42 F1800.0
G1 X16.99 Y10.47 Z1.42 F1800.0
G1 X19.41 Y11.35 Z1.42 F1800.0
G1 X19.85 Y10.91 Z1.42 F1800.0
G1 X19.41 Y10.47 Z1.42 F1800.0
G1 X16.99 Y10.04 Z1.42 F1800.0
G1 X16.56 Y9.6 Z1.42 F1800.0
G1 X16.99 Y9.16 Z1.42 F1800.0
G1 X16.56 Y8.73 Z1.42 F1800.0
G1 X16.99 Y7.85 Z1.42 F1800.0
G1 X19.41 Y9.16 Z1.42 F1800.0
G1 X19.85 Y8.73 Z1.42 F1800.0
G1 X19.68 Y8.69 Z1.42 F1800.0
G1 X19.41 Y7.42 Z1.42 F1800.0
G1 X16.99 Y6.98 Z1.42 F1800.0
G1 X16.56 Y6.55 Z1.42 F1800.0
G1 X16.99 Y5.67 Z1.42 F1800.0
G1 X19.41 Y6.98 Z1.42 F1800.0
G1 X19.85 Y6.55 Z1.42 F1800.0
G1 X19.54 Y5.98 Z1.42 F1800.0
G1 X19.41 Y5.24 Z1.42 F1800.0
G1 X16.99 Y4.8 Z1.42 F1800.0
G1 X16.56 Y4.36 Z1.42 F1800.0
G1 X16.99 Y3.93 Z1.42 F1800.0
G1 X16.99 Y3.49 Z1.42 F1800.0
G1 X19.85 Y4.36 Z1.42 F1800.0
G1 X19.54 Y3.8 Z1.42 F1800.0
G1 X19.41 Y3.05 Z1.42 F1800.0
G1 X16.99 Y2.62 Z1.42 F1800.0
G1 X16.56 Y2.18 Z1.42 F1800.0
G1 X16.99 Y1.75 Z1.42 F1800.0
G1 X19.41 Y2.62 Z1.42 F1800.0
G1 X19.85 Y2.18 Z1.42 F1800.0
G1 X19.41 Y1.31 Z1.42 F1800.0
G1 X16.99 Y1.31 Z1.42 F1800.0
G1 X16.56 Y0.87 Z1.42 F1800.0
G1 X16.99 Y0.44 Z1.42 F1800.0
G1 X16.56 Y-0.0 Z1.42 F1800.0
G1 X16.99 Y-0.87 Z1.42 F1800.0
G1 X19.41 Y0.44 Z1.42 F1800.0
G1 X19.85 Y-0.0 Z1.42 F1800.0
G1 X19.68 Y-0.03 Z1.42 F1800.0
G1 X19.41 Y-1.31 Z1.42 F1800.0
G1 X16.99 Y-1.75 Z1.42 F1800.0
G1 X16.56 Y-2.18 Z1.42 F1800.0
G1 X16.99 Y-2.62 Z1.42 F1800.0
G1 X19.41 Y-1.75 Z1.42 F1800.0
G1 X19.85 Y-2.18 Z1.42 F1800.0
G1 X19.41 Y-2.62 Z1.42 F1800.0
G1 X19.41 Y-3.05 Z1.42 F1800.0
G1 X19.85 Y-3.49 Z1.42 F1800.0
G1 X19.41 Y-3.93 Z1.42 F1800.0
G1 X16.99 Y-3.93 Z1.42 F1800.0
G1 X16.56 Y-4.36 Z1.42 F1800.0
G1 X16.99 Y-4.8 Z1.42 F1800.0
G1 X16.99 Y-5.24 Z1.42 F1800.0
G1 X19.85 Y-4.36 Z1.42 F1800.0
G1 X19.54 Y-4.93 Z1.42 F1800.0
G1 X19.41 Y-5.67 Z1.42 F1800.0
G1 X16.99 Y-6.11 Z1.42 F1800.0
G1 X16.56 Y-6.55 Z1.42 F1800.0
G1 X16.99 Y-6.98 Z1.42 F1800.0
G1 X19.41 Y-6.11 Z1.42 F1800.0
G1 X19.85 Y-6.55 Z1.42 F1800.0
G1 X19.41 Y-7.42 Z1.42 F1800.0
G1 X16.99 Y-7.42 Z1.42 F1800.0
G1 X16.56 Y-7.85 Z1.42 F1800.0
G1 X16.99 Y-8.29 Z1.42 F1800.0
G1 X16.56 Y-8.73 Z1.42 F1800.0
G1 X16.99 Y-9.16 Z1.42 F1800.0
G1 X19.41 Y-8.29 Z1.42 F1800.0
G1 X19.85 Y-8.73 Z1.42 F1800.0
G1 X19.41 Y-9.16 Z1.42 F1800.0
G1 X16.99 Y-9.6 Z1.42 F1800.0
G1 X16.56 Y-10.04 Z1.42 F1800.0
G1 X16.99 Y-10.47 Z1.42 F1800.0
G1 X16.56 Y-10.91 Z1.42 F1800.0
G1 X16.99 Y-11.78 Z1.42 F1800.0
G1 X19.41 Y-10.47 Z1.42 F1800.0
G1 X19.85 Y-10.91 Z1.42 F1800.0
G1 X19.68 Y-10.94 Z1.42 F1800.0
G1 X19.41 Y-12.22 Z1.42 F1800.0
G1 X16.99 Y-12.65 Z1.42 F1800.0
G1 X16.56 Y-13.09 Z1.42 F1800.0
G1 X19.4 Y-13.09 Z1.42 F1800.0
M108 R30.0
M102
G1 X19.85 Y-13.09 Z1.42 F1800.0
M108 R3.569
M103
G1 X19.85 Y-14.47 Z1.42 F3000.0
M108 R30.0
M101
G1 X19.85 Y-15.27 Z1.42 F3000.0
M108 R3.569
G1 X19.41 Y-15.71 Z1.42 F1800.0
G1 X19.41 Y-16.14 Z1.42 F1800.0
G1 X16.24 Y-16.25 Z1.42 F1800.0
G1 X14.31 Y-14.18 Z1.42 F1800.0
G1 X14.05 Y-14.18 Z1.42 F1800.0
G1 X12.13 Y-16.25 Z1.42 F1800.0
G1 X11.87 Y-16.25 Z1.42 F1800.0
G1 X9.95 Y-14.18 Z1.42 F1800.0
G1 X9.69 Y-14.18 Z1.42 F1800.0
G1 X7.76 Y-16.25 Z1.42 F1800.0
G1 X7.51 Y-16.25 Z1.42 F1800.0
G1 X5.58 Y-14.18 Z1.42 F1800.0
G1 X5.33 Y-14.18 Z1.42 F1800.0
G1 X3.4 Y-16.25 Z1.42 F1800.0
G1 X3.15 Y-16.25 Z1.42 F1800.0
G1 X1.22 Y-14.18 Z1.42 F1800.0
G1 X0.96 Y-14.18 Z1.42 F1800.0
G1 X-0.96 Y-16.25 Z1.42 F1800.0
G1 X-1.22 Y-16.25 Z1.42 F1800.0
G1 X-3.15 Y-14.18 Z1.42 F1800.0
G1 X-3.4 Y-14.18 Z1.42 F1800.0
G1 X-5.33 Y-16.25 Z1.42 F1800.0
G1 X-5.58 Y-16.25 Z1.42 F1800.0
G1 X-7.51 Y-14.18 Z1.42 F1800.0
G1 X-7.76 Y-14.18 Z1.42 F1800.0
G1 X-9.69 Y-16.25 Z1.42 F1800.0
G1 X-9.95 Y-16.25 Z1.42 F1800.0
G1 X-11.87 Y-14.18 Z1.42 F1800.0
G1 X-12.13 Y-14.18 Z1.42 F1800.0
G1 X-14.05 Y-16.25 Z1.42 F1800.0
G1 X-14.31 Y-16.25 Z1.42 F1800.0
G1 X-16.24 Y-14.3 Z1.42 F1800.0
G1 X-16.49 Y-14.3 Z1.42 F1800.0
G1 X-18.42 Y-16.25 Z1.42 F1800.0
G1 X-18.67 Y-16.25 Z1.42 F1800.0
G1 X-20.17 Y-13.96 Z1.42 F1800.0
G1 X-20.17 Y-17.45 Z1.42 F1800.0
G1 X-18.67 Y-16.48 Z1.42 F1800.0
G1 X-18.42 Y-16.48 Z1.42 F1800.0
G1 X-16.49 Y-18.43 Z1.42 F1800.0
G1 X-16.24 Y-18.43 Z1.42 F1800.0
G1 X-14.31 Y-16.48 Z1.42 F1800.0
G1 X-14.05 Y-16.48 Z1.42 F1800.0
G1 X-12.13 Y-18.43 Z1.42 F1800.0
G1 X-11.87 Y-18.43 Z1.42 F1800.0
G1 X-9.95 Y-16.48 Z1.42 F1800.0
G1 X-9.69 Y-16.48 Z1.42 F1800.0
G1 X-7.76 Y-18.43 Z1.42 F1800.0
G1 X-7.51 Y-18.43 Z1.42 F1800.0
G1 X-5.58 Y-16.48 Z1.42 F1800.0
G1 X-5.33 Y-16.48 Z1.42 F1800.0
G1 X-3.4 Y-18.43 Z1.42 F1800.0
G1 X-3.15 Y-18.43 Z1.42 F1800.0
G1 X-1.22 Y-16.48 Z1.42 F1800.0
G1 X-0.96 Y-16.48 Z1.42 F1800.0
G1 X0.96 Y-18.43 Z1.42 F1800.0
G1 X1.22 Y-18.43 Z1.42 F1800.0
G1 X3.15 Y-16.48 Z1.42 F1800.0
G1 X3.4 Y-16.48 Z1.42 F1800.0
G1 X5.33 Y-18.43 Z1.42 F1800.0
G1 X5.58 Y-18.43 Z1.42 F1800.0
G1 X7.51 Y-16.48 Z1.42 F1800.0
G1 X7.76 Y-16.48 Z1.42 F1800.0
G1 X9.69 Y-18.43 Z1.42 F1800.0
G1 X9.95 Y-18.43 Z1.42 F1800.0
G1 X11.87 Y-16.48 Z1.42 F1800.0
G1 X12.13 Y-16.48 Z1.42 F1800.0
G1 X14.05 Y-18.43 Z1.42 F1800.0
G1 X14.31 Y-18.43 Z1.42 F1800.0
G1 X16.24 Y-16.48 Z1.42 F1800.0
G1 X16.49 Y-16.48 Z1.42 F1800.0
G1 X19.41 Y-17.02 Z1.42 F1800.0
G1 X19.53 Y-17.14 Z1.42 F1800.0
M108 R30.0
M102
G1 X19.85 Y-17.45 Z1.42 F1800.0
M108 R3.569
M103
G1 X19.85 Y-18.84 Z1.42 F3000.0
M108 R30.0
M101
G1 X19.85 Y-19.64 Z1.42 F3000.0
M108 R3.569
G1 X19.41 Y-19.2 Z1.42 F1800.0
G1 X14.31 Y-18.66 Z1.42 F1800.0
G1 X-16.49 Y-18.66 Z1.42 F1800.0
G1 X-20.17 Y-17.89 Z1.42 F1800.0
G1 X-20.17 Y-20.07 Z1.42 F1800.0
G1 X19.4 Y-20.07 Z1.42 F1800.0
M108 R30.0
M102
G1 X19.85 Y-20.07 Z1.42 F1800.0
M108 R3.569
M103
(</surroundingLoop>)
(</layer>)
(<layer> 1.74 )
(<surroundingLoop>)
(<boundaryPerimeter>)
(<boundaryPoint> X20.693 Y-21.013 Z1.74 </boundaryPoint>)
(<boundaryPoint> X20.693 Y20.693 Z1.74 </boundaryPoint>)
(<boundaryPoint> X-21.013 Y20.693 Z1.74 </boundaryPoint>)
(<boundaryPoint> X-21.013 Y-21.013 Z1.74 </boundaryPoint>)
(<loop> inner )
G1 X16.66 Y-13.6 Z1.71 F3000.0
M108 R30.0
M101
G1 X16.3 Y-12.88 Z1.74 F3000.0
M108 R3.569
G1 X16.3 Y-13.2 Z1.74 F1800.0
G1 X-13.2 Y-13.2 Z1.74 F1800.0
G1 X-13.2 Y16.3 Z1.74 F1800.0
G1 X16.3 Y16.3 Z1.74 F1800.0
G1 X16.3 Y-12.43 Z1.74 F1800.0
M108 R30.0
M102
G1 X16.3 Y-12.88 Z1.74 F1800.0
M108 R3.569
M103
(</loop>)
(<loop> outer )
G1 X19.3 Y-12.88 Z1.74 F3000.0
M108 R30.0
M101
G1 X20.1 Y-12.88 Z1.74 F3000.0
M108 R3.569
G1 X20.1 Y20.1 Z1.74 F1800.0
G1 X-20.42 Y20.1 Z1.74 F1800.0
G1 X-20.42 Y-20.42 Z1.74 F1800.0
G1 X20.1 Y-20.42 Z1.74 F1800.0
G1 X20.1 Y-13.2 Z1.74 F1800.0
G1 X20.1 Y-12.88 Z1.74 F1800.0
M103
(</loop>)
(<perimeter> outer )
G1 X20.5 Y-12.88 Z1.74 F3000.0
M101
G1 X20.5 Y20.5 Z1.74 F1800.0
G1 X-20.82 Y20.5 Z1.74 F1800.0
G1 X-20.82 Y-20.82 Z1.74 F1800.0
G1 X20.5 Y-20.82 Z1.74 F1800.0
G1 X20.5 Y-13.33 Z1.74 F1800.0
M108 R30.0
M102
G1 X20.5 Y-13.2 Z1.74 F1800.0
G1 X20.5 Y-12.88 Z1.74 F1800.0
M108 R3.569
M103
(</perimeter>)
(</boundaryPerimeter>)
(<surroundingLoop>)
(<boundaryPerimeter>)
(<boundaryPoint> X15.713 Y-12.611 Z1.74 </boundaryPoint>)
(<boundaryPoint> X-12.611 Y-12.611 Z1.74 </boundaryPoint>)
(<boundaryPoint> X-12.611 Y15.713 Z1.74 </boundaryPoint>)
(<boundaryPoint> X15.713 Y15.713 Z1.74 </boundaryPoint>)
(<perimeter> inner )
G1 X16.71 Y-12.82 Z1.74 F3000.0
M108 R30.0
M101
G1 X15.91 Y-12.81 Z1.74 F3000.0
M108 R3.569
G1 X-12.81 Y-12.81 Z1.74 F1800.0
G1 X-12.81 Y15.91 Z1.74 F1800.0
G1 X15.91 Y15.91 Z1.74 F1800.0
G1 X15.91 Y-12.36 Z1.74 F1800.0
M108 R30.0
M102
G1 X15.91 Y-12.81 Z1.74 F1800.0
M108 R3.569
M103
(</perimeter>)
(</boundaryPerimeter>)
(</surroundingLoop>)
G1 X19.27 Y-19.45 Z1.74 F3000.0
M108 R30.0
M101
G1 X19.64 Y-20.17 Z1.74 F3000.0
M108 R3.569
G1 X19.64 Y19.4 Z1.74 F1800.0
M108 R30.0
M102
G1 X19.64 Y19.85 Z1.74 F1800.0
M108 R3.569
M103
G1 X18.25 Y19.85 Z1.74 F3000.0
M108 R30.0
M101
G1 X17.45 Y19.85 Z1.74 F3000.0
M108 R3.569
G1 X17.89 Y19.41 Z1.74 F1800.0
G1 X19.2 Y-20.17 Z1.74 F1800.0
G1 X14.84 Y-20.17 Z1.74 F1800.0
G1 X14.3 Y-18.67 Z1.74 F1800.0
G1 X14.3 Y-18.42 Z1.74 F1800.0
G1 X16.36 Y-16.49 Z1.74 F1800.0
G1 X16.14 Y-13.46 Z1.74 F1800.0
G1 X12.65 Y-13.46 Z1.74 F1800.0
G1 X12.11 Y-16.24 Z1.74 F1800.0
G1 X12.11 Y-16.49 Z1.74 F1800.0
G1 X14.07 Y-18.42 Z1.74 F1800.0
G1 X14.07 Y-18.67 Z1.74 F1800.0
G1 X14.4 Y-20.17 Z1.74 F1800.0
G1 X10.47 Y-20.17 Z1.74 F1800.0
G1 X9.93 Y-18.67 Z1.74 F1800.0
G1 X9.93 Y-18.42 Z1.74 F1800.0
G1 X11.88 Y-16.49 Z1.74 F1800.0
G1 X12.22 Y-13.46 Z1.74 F1800.0
G1 X8.29 Y-13.46 Z1.74 F1800.0
G1 X7.75 Y-16.24 Z1.74 F1800.0
G1 X7.75 Y-16.49 Z1.74 F1800.0
G1 X9.7 Y-18.42 Z1.74 F1800.0
G1 X9.7 Y-18.67 Z1.74 F1800.0
G1 X10.04 Y-20.17 Z1.74 F1800.0
G1 X6.11 Y-20.17 Z1.74 F1800.0
G1 X5.57 Y-18.67 Z1.74 F1800.0
G1 X5.57 Y-18.42 Z1.74 F1800.0
G1 X7.52 Y-16.49 Z1.74 F1800.0
G1 X7.85 Y-13.46 Z1.74 F1800.0
G1 X3.93 Y-13.46 Z1.74 F1800.0
G1 X3.39 Y-16.24 Z1.74 F1800.0
G1 X3.39 Y-16.49 Z1.74 F1800.0
G1 X5.34 Y-18.42 Z1.74 F1800.0
G1 X5.34 Y-18.67 Z1.74 F1800.0
G1 X5.67 Y-20.17 Z1.74 F1800.0
G1 X1.75 Y-20.17 Z1.74 F1800.0
G1 X1.21 Y-18.67 Z1.74 F1800.0
G1 X1.21 Y-18.42 Z1.74 F1800.0
G1 X3.16 Y-16.49 Z1.74 F1800.0
G1 X3.49 Y-13.46 Z1.74 F1800.0
G1 X-0.44 Y-13.46 Z1.74 F1800.0
G1 X-0.98 Y-16.24 Z1.74 F1800.0
G1 X-0.98 Y-16.49 Z1.74 F1800.0
G1 X0.98 Y-18.42 Z1.74 F1800.0
G1 X0.98 Y-18.67 Z1.74 F1800.0
G1 X1.31 Y-20.17 Z1.74 F1800.0
G1 X-2.62 Y-20.17 Z1.74 F1800.0
G1 X-3.16 Y-18.67 Z1.74 F1800.0
G1 X-3.16 Y-18.42 Z1.74 F1800.0
G1 X-1.21 Y-16.49 Z1.74 F1800.0
G1 X-0.87 Y-13.46 Z1.74 F1800.0
G1 X-4.8 Y-13.46 Z1.74 F1800.0
G1 X-5.34 Y-16.24 Z1.74 F1800.0
G1 X-5.34 Y-16.49 Z1.74 F1800.0
G1 X-3.39 Y-18.42 Z1.74 F1800.0
G1 X-3.39 Y-18.67 Z1.74 F1800.0
G1 X-3.05 Y-20.17 Z1.74 F1800.0
G1 X-6.98 Y-20.17 Z1.74 F1800.0
G1 X-7.52 Y-18.67 Z1.74 F1800.0
G1 X-7.52 Y-18.42 Z1.74 F1800.0
G1 X-5.57 Y-16.49 Z1.74 F1800.0
G1 X-5.24 Y-13.46 Z1.74 F1800.0
G1 X-9.16 Y-13.46 Z1.74 F1800.0
G1 X-9.7 Y-16.24 Z1.74 F1800.0
G1 X-9.7 Y-16.49 Z1.74 F1800.0
G1 X-7.75 Y-18.42 Z1.74 F1800.0
G1 X-7.75 Y-18.67 Z1.74 F1800.0
G1 X-7.42 Y-20.17 Z1.74 F1800.0
G1 X-11.35 Y-20.17 Z1.74 F1800.0
G1 X-11.88 Y-18.67 Z1.74 F1800.0
G1 X-11.88 Y-18.42 Z1.74 F1800.0
G1 X-9.93 Y-16.49 Z1.74 F1800.0
G1 X-9.6 Y-13.46 Z1.74 F1800.0
G1 X-13.09 Y-13.46 Z1.74 F1800.0
G1 X-14.07 Y-16.24 Z1.74 F1800.0
G1 X-14.07 Y-16.49 Z1.74 F1800.0
G1 X-12.11 Y-18.42 Z1.74 F1800.0
G1 X-12.11 Y-18.67 Z1.74 F1800.0
G1 X-11.78 Y-20.17 Z1.74 F1800.0
G1 X-15.71 Y-20.17 Z1.74 F1800.0
G1 X-16.25 Y-18.67 Z1.74 F1800.0
G1 X-16.25 Y-18.42 Z1.74 F1800.0
G1 X-14.3 Y-16.49 Z1.74 F1800.0
G1 X-14.3 Y-16.24 Z1.74 F1800.0
G1 X-16.25 Y-14.31 Z1.74 F1800.0
G1 X-16.25 Y16.49 Z1.74 F1800.0
G1 X-17.02 Y19.41 Z1.74 F1800.0
G1 X-16.58 Y19.85 Z1.74 F1800.0
G1 X-16.14 Y19.41 Z1.74 F1800.0
G1 X-15.71 Y19.41 Z1.74 F1800.0
G1 X-15.27 Y19.85 Z1.74 F1800.0
G1 X-14.84 Y19.41 Z1.74 F1800.0
G1 X-14.4 Y19.85 Z1.74 F1800.0
G1 X-13.96 Y19.41 Z1.74 F1800.0
G1 X-14.18 Y18.67 Z1.74 F1800.0
G1 X-14.18 Y18.42 Z1.74 F1800.0
G1 X-13.09 Y16.56 Z1.74 F1800.0
G1 X-12.65 Y16.99 Z1.74 F1800.0
G1 X-13.53 Y19.41 Z1.74 F1800.0
G1 X-13.09 Y19.85 Z1.74 F1800.0
G1 X-12.65 Y19.41 Z1.74 F1800.0
G1 X-12.22 Y16.99 Z1.74 F1800.0
G1 X-11.78 Y16.56 Z1.74 F1800.0
G1 X-11.35 Y16.99 Z1.74 F1800.0
G1 X-10.91 Y16.56 Z1.74 F1800.0
G1 X-10.47 Y16.99 Z1.74 F1800.0
G1 X-11.78 Y19.41 Z1.74 F1800.0
G1 X-10.91 Y19.85 Z1.74 F1800.0
G1 X-10.47 Y19.41 Z1.74 F1800.0
G1 X-10.04 Y19.85 Z1.74 F1800.0
G1 X-9.6 Y19.41 Z1.74 F1800.0
G1 X-9.82 Y18.67 Z1.74 F1800.0
G1 X-9.6 Y16.99 Z1.74 F1800.0
G1 X-8.73 Y16.56 Z1.74 F1800.0
G1 X-8.29 Y16.99 Z1.74 F1800.0
G1 X-9.16 Y19.41 Z1.74 F1800.0
G1 X-8.73 Y19.85 Z1.74 F1800.0
G1 X-8.29 Y19.41 Z1.74 F1800.0
G1 X-7.85 Y16.99 Z1.74 F1800.0
G1 X-7.42 Y16.56 Z1.74 F1800.0
G1 X-7.11 Y16.87 Z1.74 F1800.0
G1 X-6.98 Y16.56 Z1.74 F1800.0
G1 X-6.58 Y16.73 Z1.74 F1800.0
G1 X-6.55 Y16.56 Z1.74 F1800.0
G1 X-6.11 Y16.99 Z1.74 F1800.0
G1 X-6.98 Y19.41 Z1.74 F1800.0
G1 X-6.55 Y19.85 Z1.74 F1800.0
G1 X-6.11 Y19.41 Z1.74 F1800.0
G1 X-5.67 Y19.85 Z1.74 F1800.0
G1 X-5.24 Y19.41 Z1.74 F1800.0
G1 X-5.45 Y18.67 Z1.74 F1800.0
G1 X-5.24 Y16.99 Z1.74 F1800.0
G1 X-4.8 Y16.99 Z1.74 F1800.0
G1 X-4.36 Y16.56 Z1.74 F1800.0
G1 X-3.93 Y16.99 Z1.74 F1800.0
G1 X-4.8 Y19.41 Z1.74 F1800.0
G1 X-4.36 Y19.85 Z1.74 F1800.0
G1 X-3.93 Y19.41 Z1.74 F1800.0
G1 X-3.49 Y16.99 Z1.74 F1800.0
G1 X-3.05 Y16.56 Z1.74 F1800.0
G1 X-2.75 Y16.87 Z1.74 F1800.0
G1 X-2.22 Y16.73 Z1.74 F1800.0
G1 X-2.18 Y16.56 Z1.74 F1800.0
G1 X-1.75 Y16.99 Z1.74 F1800.0
G1 X-3.05 Y19.41 Z1.74 F1800.0
G1 X-2.18 Y19.85 Z1.74 F1800.0
G1 X-1.75 Y19.41 Z1.74 F1800.0
G1 X-1.21 Y18.54 Z1.74 F1800.0
G1 X-0.87 Y16.99 Z1.74 F1800.0
G1 X-0.44 Y16.99 Z1.74 F1800.0
G1 X0.0 Y16.56 Z1.74 F1800.0
G1 X0.44 Y16.99 Z1.74 F1800.0
G1 X-0.44 Y19.41 Z1.74 F1800.0
G1 X0.0 Y19.85 Z1.74 F1800.0
G1 X0.44 Y19.41 Z1.74 F1800.0
G1 X0.87 Y19.85 Z1.74 F1800.0
G1 X1.31 Y19.41 Z1.74 F1800.0
G1 X1.31 Y16.99 Z1.74 F1800.0
G1 X2.18 Y16.56 Z1.74 F1800.0
G1 X2.62 Y16.99 Z1.74 F1800.0
G1 X1.75 Y19.41 Z1.74 F1800.0
G1 X2.18 Y19.85 Z1.74 F1800.0
G1 X2.62 Y19.41 Z1.74 F1800.0
G1 X3.16 Y18.42 Z1.74 F1800.0
G1 X3.49 Y16.99 Z1.74 F1800.0
G1 X3.93 Y16.99 Z1.74 F1800.0
G1 X4.36 Y16.56 Z1.74 F1800.0
G1 X4.8 Y16.99 Z1.74 F1800.0
G1 X3.93 Y19.41 Z1.74 F1800.0
G1 X4.36 Y19.85 Z1.74 F1800.0
G1 X4.8 Y19.41 Z1.74 F1800.0
G1 X5.24 Y16.99 Z1.74 F1800.0
G1 X5.67 Y16.56 Z1.74 F1800.0
G1 X5.98 Y16.87 Z1.74 F1800.0
G1 X6.51 Y16.73 Z1.74 F1800.0
G1 X6.55 Y16.56 Z1.74 F1800.0
G1 X6.98 Y16.99 Z1.74 F1800.0
G1 X5.67 Y19.41 Z1.74 F1800.0
G1 X6.55 Y19.85 Z1.74 F1800.0
G1 X6.98 Y19.41 Z1.74 F1800.0
G1 X7.64 Y18.42 Z1.74 F1800.0
G1 X7.85 Y16.99 Z1.74 F1800.0
G1 X8.29 Y16.99 Z1.74 F1800.0
G1 X8.73 Y16.56 Z1.74 F1800.0
G1 X9.16 Y16.99 Z1.74 F1800.0
G1 X8.29 Y19.41 Z1.74 F1800.0
G1 X8.73 Y19.85 Z1.74 F1800.0
G1 X9.16 Y19.41 Z1.74 F1800.0
G1 X9.6 Y19.85 Z1.74 F1800.0
G1 X10.04 Y19.41 Z1.74 F1800.0
G1 X10.47 Y16.99 Z1.74 F1800.0
G1 X10.91 Y16.56 Z1.74 F1800.0
G1 X11.35 Y16.99 Z1.74 F1800.0
G1 X10.47 Y19.41 Z1.74 F1800.0
G1 X10.91 Y19.85 Z1.74 F1800.0
G1 X11.35 Y19.41 Z1.74 F1800.0
G1 X12.0 Y18.42 Z1.74 F1800.0
G1 X12.22 Y16.99 Z1.74 F1800.0
G1 X13.09 Y16.56 Z1.74 F1800.0
G1 X13.53 Y16.99 Z1.74 F1800.0
G1 X12.65 Y19.41 Z1.74 F1800.0
G1 X13.09 Y19.85 Z1.74 F1800.0
G1 X13.53 Y19.41 Z1.74 F1800.0
G1 X13.96 Y19.85 Z1.74 F1800.0
G1 X14.4 Y19.41 Z1.74 F1800.0
G1 X14.4 Y16.99 Z1.74 F1800.0
G1 X14.84 Y16.99 Z1.74 F1800.0
G1 X15.27 Y16.56 Z1.74 F1800.0
G1 X15.71 Y16.99 Z1.74 F1800.0
G1 X16.36 Y18.42 Z1.74 F1800.0
G1 X16.36 Y18.67 Z1.74 F1800.0
G1 X16.58 Y19.41 Z1.74 F1800.0
G1 X16.14 Y19.85 Z1.74 F1800.0
G1 X15.71 Y19.41 Z1.74 F1800.0
G1 X15.59 Y19.53 Z1.74 F1800.0
M108 R30.0
M102
G1 X15.27 Y19.85 Z1.74 F1800.0
M108 R3.569
M103
G1 X-16.65 Y19.85 Z1.74 F3000.0
M108 R30.0
M101
G1 X-17.45 Y19.85 Z1.74 F3000.0
M108 R3.569
G1 X-18.33 Y19.41 Z1.74 F1800.0
G1 X-18.43 Y18.42 Z1.74 F1800.0
G1 X-16.48 Y16.49 Z1.74 F1800.0
G1 X-16.48 Y16.24 Z1.74 F1800.0
G1 X-18.43 Y14.31 Z1.74 F1800.0
G1 X-18.43 Y14.05 Z1.74 F1800.0
G1 X-16.48 Y12.13 Z1.74 F1800.0
G1 X-16.48 Y11.87 Z1.74 F1800.0
G1 X-18.43 Y9.95 Z1.74 F1800.0
G1 X-18.43 Y9.69 Z1.74 F1800.0
G1 X-16.48 Y7.76 Z1.74 F1800.0
G1 X-16.48 Y7.51 Z1.74 F1800.0
G1 X-18.43 Y5.58 Z1.74 F1800.0
G1 X-18.43 Y5.33 Z1.74 F1800.0
G1 X-16.48 Y3.4 Z1.74 F1800.0
G1 X-16.48 Y3.15 Z1.74 F1800.0
G1 X-18.43 Y1.22 Z1.74 F1800.0
G1 X-18.43 Y0.96 Z1.74 F1800.0
G1 X-16.48 Y-0.96 Z1.74 F1800.0
G1 X-16.48 Y-1.22 Z1.74 F1800.0
G1 X-18.43 Y-3.15 Z1.74 F1800.0
G1 X-18.43 Y-3.4 Z1.74 F1800.0
G1 X-16.48 Y-5.33 Z1.74 F1800.0
G1 X-16.48 Y-5.58 Z1.74 F1800.0
G1 X-18.43 Y-7.51 Z1.74 F1800.0
G1 X-18.43 Y-7.76 Z1.74 F1800.0
G1 X-16.48 Y-9.69 Z1.74 F1800.0
G1 X-16.48 Y-9.95 Z1.74 F1800.0
G1 X-18.43 Y-11.87 Z1.74 F1800.0
G1 X-18.43 Y-12.13 Z1.74 F1800.0
G1 X-16.48 Y-14.05 Z1.74 F1800.0
G1 X-16.48 Y-14.31 Z1.74 F1800.0
G1 X-18.43 Y-16.24 Z1.74 F1800.0
G1 X-18.43 Y-16.49 Z1.74 F1800.0
G1 X-16.48 Y-18.42 Z1.74 F1800.0
G1 X-16.48 Y-18.67 Z1.74 F1800.0
G1 X-16.14 Y-20.17 Z1.74 F1800.0
G1 X-19.64 Y-20.17 Z1.74 F1800.0
G1 X-18.66 Y-16.49 Z1.74 F1800.0
G1 X-18.66 Y18.67 Z1.74 F1800.0
G1 X-19.2 Y19.41 Z1.74 F1800.0
G1 X-19.64 Y19.85 Z1.74 F1800.0
M103
G1 X-20.07 Y19.85 Z1.74 F3000.0
M101
G1 X-20.07 Y-19.72 Z1.74 F1800.0
M108 R30.0
M102
G1 X-20.07 Y-20.17 Z1.74 F1800.0
M108 R3.569
M103
(</surroundingLoop>)
(</layer>)
(<layer> 2.06 )
(<surroundingLoop>)
(<boundaryPerimeter>)
(<boundaryPoint> X20.693 Y-21.013 Z2.06 </boundaryPoint>)
(<boundaryPoint> X20.693 Y20.693 Z2.06 </boundaryPoint>)
(<boundaryPoint> X-21.013 Y20.693 Z2.06 </boundaryPoint>)
(<boundaryPoint> X-21.013 Y-21.013 Z2.06 </boundaryPoint>)
(<loop> inner )
G1 X-13.76 Y-13.61 Z2.03 F3000.0
M108 R30.0
M101
G1 X-13.2 Y-13.04 Z2.06 F3000.0
M108 R3.569
G1 X-13.2 Y16.3 Z2.06 F1800.0
G1 X16.3 Y16.3 Z2.06 F1800.0
G1 X16.3 Y-13.2 Z2.06 F1800.0
G1 X-12.91 Y-13.2 Z2.06 F1800.0
M108 R30.0
M102
G1 X-13.2 Y-13.2 Z2.06 F1800.0
G1 X-13.2 Y-13.04 Z2.06 F1800.0
M108 R3.569
M103
(</loop>)
(<loop> outer )
G1 X-19.62 Y-13.18 Z2.06 F3000.0
M108 R30.0
M101
G1 X-20.42 Y-13.2 Z2.06 F3000.0
M108 R3.569
G1 X-20.42 Y-20.42 Z2.06 F1800.0
G1 X20.1 Y-20.42 Z2.06 F1800.0
G1 X20.1 Y20.1 Z2.06 F1800.0
G1 X-20.42 Y20.1 Z2.06 F1800.0
G1 X-20.42 Y-13.2 Z2.06 F1800.0
M103
(</loop>)
(<perimeter> outer )
G1 X-20.82 Y-13.2 Z2.06 F3000.0
M101
G1 X-20.82 Y-20.82 Z2.06 F1800.0
G1 X20.5 Y-20.82 Z2.06 F1800.0
G1 X20.5 Y20.5 Z2.06 F1800.0
G1 X-20.82 Y20.5 Z2.06 F1800.0
G1 X-20.82 Y-12.75 Z2.06 F1800.0
M108 R30.0
M102
G1 X-20.82 Y-13.2 Z2.06 F1800.0
M108 R3.569
M103
(</perimeter>)
(</boundaryPerimeter>)
(<surroundingLoop>)
(<boundaryPerimeter>)
(<boundaryPoint> X15.713 Y-12.611 Z2.06 </boundaryPoint>)
(<boundaryPoint> X-12.611 Y-12.611 Z2.06 </boundaryPoint>)
(<boundaryPoint> X-12.611 Y15.713 Z2.06 </boundaryPoint>)
(<boundaryPoint> X15.713 Y15.713 Z2.06 </boundaryPoint>)
(<perimeter> inner )
G1 X-13.61 Y-12.85 Z2.06 F3000.0
M108 R30.0
M101
G1 X-12.81 Y-12.81 Z2.06 F3000.0
M108 R3.569
G1 X-12.81 Y15.91 Z2.06 F1800.0
G1 X15.91 Y15.91 Z2.06 F1800.0
G1 X15.91 Y-12.81 Z2.06 F1800.0
G1 X-12.36 Y-12.81 Z2.06 F1800.0
M108 R30.0
M102
G1 X-12.81 Y-12.81 Z2.06 F1800.0
M108 R3.569
M103
(</perimeter>)
(</boundaryPerimeter>)
(</surroundingLoop>)
G1 X-13.13 Y-12.08 Z2.06 F3000.0
M108 R30.0
M101
G1 X-13.46 Y-11.35 Z2.06 F3000.0
M108 R3.569
G1 X-13.46 Y-13.09 Z2.06 F1800.0
G1 X-16.24 Y-14.07 Z2.06 F1800.0
G1 X-16.49 Y-14.07 Z2.06 F1800.0
G1 X-18.42 Y-12.11 Z2.06 F1800.0
G1 X-18.67 Y-12.11 Z2.06 F1800.0
G1 X-20.17 Y-13.53 Z2.06 F1800.0
G1 X-20.17 Y-9.6 Z2.06 F1800.0
G1 X-18.67 Y-11.88 Z2.06 F1800.0
G1 X-18.42 Y-11.88 Z2.06 F1800.0
G1 X-16.49 Y-9.93 Z2.06 F1800.0
G1 X-16.24 Y-9.93 Z2.06 F1800.0
G1 X-13.46 Y-10.91 Z2.06 F1800.0
G1 X-13.46 Y-7.42 Z2.06 F1800.0
G1 X-16.24 Y-9.7 Z2.06 F1800.0
G1 X-16.49 Y-9.7 Z2.06 F1800.0
G1 X-18.42 Y-7.75 Z2.06 F1800.0
G1 X-18.67 Y-7.75 Z2.06 F1800.0
G1 X-20.17 Y-9.16 Z2.06 F1800.0
G1 X-20.17 Y-5.24 Z2.06 F1800.0
G1 X-18.67 Y-7.52 Z2.06 F1800.0
G1 X-18.42 Y-7.52 Z2.06 F1800.0
G1 X-16.49 Y-5.57 Z2.06 F1800.0
G1 X-16.24 Y-5.57 Z2.06 F1800.0
G1 X-13.46 Y-6.98 Z2.06 F1800.0
G1 X-13.46 Y-3.05 Z2.06 F1800.0
G1 X-16.24 Y-5.34 Z2.06 F1800.0
G1 X-16.49 Y-5.34 Z2.06 F1800.0
G1 X-18.42 Y-3.39 Z2.06 F1800.0
G1 X-18.67 Y-3.39 Z2.06 F1800.0
G1 X-20.17 Y-4.8 Z2.06 F1800.0
G1 X-20.17 Y-0.87 Z2.06 F1800.0
G1 X-18.67 Y-3.16 Z2.06 F1800.0
G1 X-18.42 Y-3.16 Z2.06 F1800.0
G1 X-16.49 Y-1.21 Z2.06 F1800.0
G1 X-16.24 Y-1.21 Z2.06 F1800.0
G1 X-13.46 Y-2.62 Z2.06 F1800.0
G1 X-13.46 Y1.31 Z2.06 F1800.0
G1 X-16.24 Y-0.98 Z2.06 F1800.0
G1 X-16.49 Y-0.98 Z2.06 F1800.0
G1 X-18.42 Y0.98 Z2.06 F1800.0
G1 X-18.67 Y0.98 Z2.06 F1800.0
G1 X-20.17 Y-0.44 Z2.06 F1800.0
G1 X-20.17 Y3.49 Z2.06 F1800.0
G1 X-18.67 Y1.21 Z2.06 F1800.0
G1 X-18.42 Y1.21 Z2.06 F1800.0
G1 X-16.49 Y3.16 Z2.06 F1800.0
G1 X-16.24 Y3.16 Z2.06 F1800.0
G1 X-13.46 Y1.75 Z2.06 F1800.0
G1 X-13.46 Y5.67 Z2.06 F1800.0
G1 X-16.24 Y3.39 Z2.06 F1800.0
G1 X-16.49 Y3.39 Z2.06 F1800.0
G1 X-18.42 Y5.34 Z2.06 F1800.0
G1 X-18.67 Y5.34 Z2.06 F1800.0
G1 X-20.17 Y3.93 Z2.06 F1800.0
G1 X-20.17 Y7.85 Z2.06 F1800.0
G1 X-18.67 Y5.57 Z2.06 F1800.0
G1 X-18.42 Y5.57 Z2.06 F1800.0
G1 X-16.49 Y7.52 Z2.06 F1800.0
G1 X-16.24 Y7.52 Z2.06 F1800.0
G1 X-13.46 Y6.11 Z2.06 F1800.0
G1 X-13.46 Y10.04 Z2.06 F1800.0
G1 X-16.24 Y7.75 Z2.06 F1800.0
G1 X-16.49 Y7.75 Z2.06 F1800.0
G1 X-18.42 Y9.7 Z2.06 F1800.0
G1 X-18.67 Y9.7 Z2.06 F1800.0
G1 X-20.17 Y8.29 Z2.06 F1800.0
G1 X-20.17 Y12.22 Z2.06 F1800.0
G1 X-18.67 Y9.93 Z2.06 F1800.0
G1 X-18.42 Y9.93 Z2.06 F1800.0
G1 X-16.49 Y11.88 Z2.06 F1800.0
G1 X-16.24 Y11.88 Z2.06 F1800.0
G1 X-13.46 Y10.47 Z2.06 F1800.0
G1 X-13.46 Y14.4 Z2.06 F1800.0
G1 X-16.24 Y12.11 Z2.06 F1800.0
G1 X-16.49 Y12.11 Z2.06 F1800.0
G1 X-18.42 Y14.07 Z2.06 F1800.0
G1 X-18.67 Y14.07 Z2.06 F1800.0
G1 X-20.17 Y12.65 Z2.06 F1800.0
G1 X-20.17 Y16.58 Z2.06 F1800.0
G1 X-18.67 Y14.3 Z2.06 F1800.0
G1 X-18.42 Y14.3 Z2.06 F1800.0
G1 X-16.49 Y16.25 Z2.06 F1800.0
G1 X-13.46 Y16.14 Z2.06 F1800.0
G1 X-13.46 Y15.29 Z2.06 F1800.0
M108 R30.0
M102
G1 X-13.46 Y14.84 Z2.06 F1800.0
M108 R3.569
M103
G1 X-12.89 Y14.96 Z2.06 F3000.0
G1 X-12.75 Y15.85 Z2.06 F3000.0
G1 X-7.36 Y15.99 Z2.06 F3000.0
G1 X19.06 Y19.53 Z2.06 F3000.0
M108 R30.0
M101
G1 X19.85 Y19.64 Z2.06 F3000.0
M108 R3.569
G1 X19.41 Y18.76 Z2.06 F1800.0
G1 X-18.67 Y18.66 Z2.06 F1800.0
G1 X-20.17 Y19.64 Z2.06 F1800.0
G1 X-20.17 Y17.02 Z2.06 F1800.0
G1 X-18.67 Y18.43 Z2.06 F1800.0
G1 X-18.42 Y18.43 Z2.06 F1800.0
G1 X-16.49 Y16.48 Z2.06 F1800.0
G1 X-16.24 Y16.48 Z2.06 F1800.0
G1 X-14.31 Y18.43 Z2.06 F1800.0
G1 X16.49 Y18.43 Z2.06 F1800.0
G1 X19.41 Y17.89 Z2.06 F1800.0
G1 X19.85 Y17.45 Z2.06 F1800.0
G1 X19.41 Y17.02 Z2.06 F1800.0
G1 X19.41 Y16.58 Z2.06 F1800.0
G1 X19.85 Y16.14 Z2.06 F1800.0
G1 X19.41 Y15.71 Z2.06 F1800.0
G1 X16.99 Y15.71 Z2.06 F1800.0
G1 X16.56 Y15.27 Z2.06 F1800.0
G1 X16.99 Y14.84 Z2.06 F1800.0
G1 X16.99 Y14.4 Z2.06 F1800.0
G1 X19.85 Y15.27 Z2.06 F1800.0
G1 X19.54 Y14.71 Z2.06 F1800.0
G1 X19.41 Y13.96 Z2.06 F1800.0
G1 X16.99 Y13.53 Z2.06 F1800.0
G1 X16.56 Y13.09 Z2.06 F1800.0
G1 X16.99 Y12.65 Z2.06 F1800.0
G1 X19.41 Y13.53 Z2.06 F1800.0
G1 X19.85 Y13.09 Z2.06 F1800.0
G1 X19.41 Y12.22 Z2.06 F1800.0
G1 X16.99 Y12.22 Z2.06 F1800.0
G1 X16.56 Y11.78 Z2.06 F1800.0
G1 X16.99 Y11.35 Z2.06 F1800.0
G1 X16.56 Y10.91 Z2.06 F1800.0
G1 X16.99 Y10.47 Z2.06 F1800.0
G1 X19.41 Y11.35 Z2.06 F1800.0
G1 X19.85 Y10.91 Z2.06 F1800.0
G1 X19.41 Y10.47 Z2.06 F1800.0
G1 X16.99 Y10.04 Z2.06 F1800.0
G1 X16.56 Y9.6 Z2.06 F1800.0
G1 X16.99 Y9.16 Z2.06 F1800.0
G1 X16.56 Y8.73 Z2.06 F1800.0
G1 X16.99 Y7.85 Z2.06 F1800.0
G1 X19.41 Y9.16 Z2.06 F1800.0
G1 X19.85 Y8.73 Z2.06 F1800.0
G1 X19.68 Y8.69 Z2.06 F1800.0
G1 X19.41 Y7.42 Z2.06 F1800.0
G1 X16.99 Y6.98 Z2.06 F1800.0
G1 X16.56 Y6.55 Z2.06 F1800.0
G1 X16.99 Y5.67 Z2.06 F1800.0
G1 X19.41 Y6.98 Z2.06 F1800.0
G1 X19.85 Y6.55 Z2.06 F1800.0
G1 X19.54 Y5.98 Z2.06 F1800.0
G1 X19.41 Y5.24 Z2.06 F1800.0
G1 X16.99 Y4.8 Z2.06 F1800.0
G1 X16.56 Y4.36 Z2.06 F1800.0
G1 X16.99 Y3.93 Z2.06 F1800.0
G1 X16.99 Y3.49 Z2.06 F1800.0
G1 X19.85 Y4.36 Z2.06 F1800.0
G1 X19.54 Y3.8 Z2.06 F1800.0
G1 X19.41 Y3.05 Z2.06 F1800.0
G1 X16.99 Y2.62 Z2.06 F1800.0
G1 X16.56 Y2.18 Z2.06 F1800.0
G1 X16.99 Y1.75 Z2.06 F1800.0
G1 X19.41 Y2.62 Z2.06 F1800.0
G1 X19.85 Y2.18 Z2.06 F1800.0
G1 X19.41 Y1.31 Z2.06 F1800.0
G1 X16.99 Y1.31 Z2.06 F1800.0
G1 X16.56 Y0.87 Z2.06 F1800.0
G1 X16.99 Y0.44 Z2.06 F1800.0
G1 X16.56 Y-0.0 Z2.06 F1800.0
G1 X16.99 Y-0.87 Z2.06 F1800.0
G1 X19.41 Y0.44 Z2.06 F1800.0
G1 X19.85 Y-0.0 Z2.06 F1800.0
G1 X19.68 Y-0.03 Z2.06 F1800.0
G1 X19.41 Y-1.31 Z2.06 F1800.0
G1 X16.99 Y-1.75 Z2.06 F1800.0
G1 X16.56 Y-2.18 Z2.06 F1800.0
G1 X16.99 Y-2.62 Z2.06 F1800.0
G1 X19.41 Y-1.75 Z2.06 F1800.0
G1 X19.85 Y-2.18 Z2.06 F1800.0
G1 X19.41 Y-2.62 Z2.06 F1800.0
G1 X19.41 Y-3.05 Z2.06 F1800.0
G1 X19.85 Y-3.49 Z2.06 F1800.0
G1 X19.41 Y-3.93 Z2.06 F1800.0
G1 X16.99 Y-3.93 Z2.06 F1800.0
G1 X16.56 Y-4.36 Z2.06 F1800.0
G1 X16.99 Y-4.8 Z2.06 F1800.0
G1 X16.99 Y-5.24 Z2.06 F1800.0
G1 X19.85 Y-4.36 Z2.06 F1800.0
G1 X19.54 Y-4.93 Z2.06 F1800.0
G1 X19.41 Y-5.67 Z2.06 F1800.0
G1 X16.99 Y-6.11 Z2.06 F1800.0
G1 X16.56 Y-6.55 Z2.06 F1800.0
G1 X16.99 Y-6.98 Z2.06 F1800.0
G1 X19.41 Y-6.11 Z2.06 F1800.0
G1 X19.85 Y-6.55 Z2.06 F1800.0
G1 X19.41 Y-7.42 Z2.06 F1800.0
G1 X16.99 Y-7.42 Z2.06 F1800.0
G1 X16.56 Y-7.85 Z2.06 F1800.0
G1 X16.99 Y-8.29 Z2.06 F1800.0
G1 X16.56 Y-8.73 Z2.06 F1800.0
G1 X16.99 Y-9.16 Z2.06 F1800.0
G1 X19.41 Y-8.29 Z2.06 F1800.0
G1 X19.85 Y-8.73 Z2.06 F1800.0
G1 X19.41 Y-9.16 Z2.06 F1800.0
G1 X16.99 Y-9.6 Z2.06 F1800.0
G1 X16.56 Y-10.04 Z2.06 F1800.0
G1 X16.99 Y-10.47 Z2.06 F1800.0
G1 X16.56 Y-10.91 Z2.06 F1800.0
G1 X16.99 Y-11.78 Z2.06 F1800.0
G1 X19.41 Y-10.47 Z2.06 F1800.0
G1 X19.85 Y-10.91 Z2.06 F1800.0
G1 X19.68 Y-10.94 Z2.06 F1800.0
G1 X19.41 Y-12.22 Z2.06 F1800.0
G1 X16.99 Y-12.65 Z2.06 F1800.0
G1 X16.56 Y-13.09 Z2.06 F1800.0
G1 X19.4 Y-13.09 Z2.06 F1800.0
M108 R30.0
M102
G1 X19.85 Y-13.09 Z2.06 F1800.0
M108 R3.569
M103
G1 X19.85 Y-14.47 Z2.06 F3000.0
M108 R30.0
M101
G1 X19.85 Y-15.27 Z2.06 F3000.0
M108 R3.569
G1 X19.41 Y-15.71 Z2.06 F1800.0
G1 X19.41 Y-16.14 Z2.06 F1800.0
G1 X16.24 Y-16.25 Z2.06 F1800.0
G1 X14.31 Y-14.18 Z2.06 F1800.0
G1 X14.05 Y-14.18 Z2.06 F1800.0
G1 X12.13 Y-16.25 Z2.06 F1800.0
G1 X11.87 Y-16.25 Z2.06 F1800.0
G1 X9.95 Y-14.18 Z2.06 F1800.0
G1 X9.69 Y-14.18 Z2.06 F1800.0
G1 X7.76 Y-16.25 Z2.06 F1800.0
G1 X7.51 Y-16.25 Z2.06 F1800.0
G1 X5.58 Y-14.18 Z2.06 F1800.0
G1 X5.33 Y-14.18 Z2.06 F1800.0
G1 X3.4 Y-16.25 Z2.06 F1800.0
G1 X3.15 Y-16.25 Z2.06 F1800.0
G1 X1.22 Y-14.18 Z2.06 F1800.0
G1 X0.96 Y-14.18 Z2.06 F1800.0
G1 X-0.96 Y-16.25 Z2.06 F1800.0
G1 X-1.22 Y-16.25 Z2.06 F1800.0
G1 X-3.15 Y-14.18 Z2.06 F1800.0
G1 X-3.4 Y-14.18 Z2.06 F1800.0
G1 X-5.33 Y-16.25 Z2.06 F1800.0
G1 X-5.58 Y-16.25 Z2.06 F1800.0
G1 X-7.51 Y-14.18 Z2.06 F1800.0
G1 X-7.76 Y-14.18 Z2.06 F1800.0
G1 X-9.69 Y-16.25 Z2.06 F1800.0
G1 X-9.95 Y-16.25 Z2.06 F1800.0
G1 X-11.87 Y-14.18 Z2.06 F1800.0
G1 X-12.13 Y-14.18 Z2.06 F1800.0
G1 X-14.05 Y-16.25 Z2.06 F1800.0
G1 X-14.31 Y-16.25 Z2.06 F1800.0
G1 X-16.24 Y-14.3 Z2.06 F1800.0
G1 X-16.49 Y-14.3 Z2.06 F1800.0
G1 X-18.42 Y-16.25 Z2.06 F1800.0
G1 X-18.67 Y-16.25 Z2.06 F1800.0
G1 X-20.17 Y-13.96 Z2.06 F1800.0
G1 X-20.17 Y-17.45 Z2.06 F1800.0
G1 X-18.67 Y-16.48 Z2.06 F1800.0
G1 X-18.42 Y-16.48 Z2.06 F1800.0
G1 X-16.49 Y-18.43 Z2.06 F1800.0
G1 X-16.24 Y-18.43 Z2.06 F1800.0
G1 X-14.31 Y-16.48 Z2.06 F1800.0
G1 X-14.05 Y-16.48 Z2.06 F1800.0
G1 X-12.13 Y-18.43 Z2.06 F1800.0
G1 X-11.87 Y-18.43 Z2.06 F1800.0
G1 X-9.95 Y-16.48 Z2.06 F1800.0
G1 X-9.69 Y-16.48 Z2.06 F1800.0
G1 X-7.76 Y-18.43 Z2.06 F1800.0
G1 X-7.51 Y-18.43 Z2.06 F1800.0
G1 X-5.58 Y-16.48 Z2.06 F1800.0
G1 X-5.33 Y-16.48 Z2.06 F1800.0
G1 X-3.4 Y-18.43 Z2.06 F1800.0
G1 X-3.15 Y-18.43 Z2.06 F1800.0
G1 X-1.22 Y-16.48 Z2.06 F1800.0
G1 X-0.96 Y-16.48 Z2.06 F1800.0
G1 X0.96 Y-18.43 Z2.06 F1800.0
G1 X1.22 Y-18.43 Z2.06 F1800.0
G1 X3.15 Y-16.48 Z2.06 F1800.0
G1 X3.4 Y-16.48 Z2.06 F1800.0
G1 X5.33 Y-18.43 Z2.06 F1800.0
G1 X5.58 Y-18.43 Z2.06 F1800.0
G1 X7.51 Y-16.48 Z2.06 F1800.0
G1 X7.76 Y-16.48 Z2.06 F1800.0
G1 X9.69 Y-18.43 Z2.06 F1800.0
G1 X9.95 Y-18.43 Z2.06 F1800.0
G1 X11.87 Y-16.48 Z2.06 F1800.0
G1 X12.13 Y-16.48 Z2.06 F1800.0
G1 X14.05 Y-18.43 Z2.06 F1800.0
G1 X14.31 Y-18.43 Z2.06 F1800.0
G1 X16.24 Y-16.48 Z2.06 F1800.0
G1 X16.49 Y-16.48 Z2.06 F1800.0
G1 X19.41 Y-17.02 Z2.06 F1800.0
G1 X19.53 Y-17.14 Z2.06 F1800.0
M108 R30.0
M102
G1 X19.85 Y-17.45 Z2.06 F1800.0
M108 R3.569
M103
G1 X19.85 Y-18.84 Z2.06 F3000.0
M108 R30.0
M101
G1 X19.85 Y-19.64 Z2.06 F3000.0
M108 R3.569
G1 X19.41 Y-19.2 Z2.06 F1800.0
G1 X14.31 Y-18.66 Z2.06 F1800.0
G1 X-16.49 Y-18.66 Z2.06 F1800.0
G1 X-20.17 Y-17.89 Z2.06 F1800.0
G1 X-20.17 Y-20.07 Z2.06 F1800.0
G1 X19.4 Y-20.07 Z2.06 F1800.0
M108 R30.0
M102
G1 X19.85 Y-20.07 Z2.06 F1800.0
M108 R3.569
M103
(</surroundingLoop>)
(</layer>)
(<layer> 2.38 )
(<surroundingLoop>)
(<boundaryPerimeter>)
(<boundaryPoint> X20.693 Y-21.013 Z2.38 </boundaryPoint>)
(<boundaryPoint> X20.693 Y20.693 Z2.38 </boundaryPoint>)
(<boundaryPoint> X-21.013 Y20.693 Z2.38 </boundaryPoint>)
(<boundaryPoint> X-21.013 Y-21.013 Z2.38 </boundaryPoint>)
(<loop> inner )
G1 X16.66 Y-13.78 Z2.35 F3000.0
M108 R30.0
M101
G1 X16.3 Y-13.06 Z2.38 F3000.0
M108 R3.569
G1 X16.3 Y-13.2 Z2.38 F1800.0
G1 X-13.2 Y-13.2 Z2.38 F1800.0
G1 X-13.2 Y16.3 Z2.38 F1800.0
G1 X16.3 Y16.3 Z2.38 F1800.0
G1 X16.3 Y-12.61 Z2.38 F1800.0
M108 R30.0
M102
G1 X16.3 Y-13.06 Z2.38 F1800.0
M108 R3.569
M103
(</loop>)
(<loop> outer )
G1 X19.31 Y-13.17 Z2.38 F3000.0
M108 R30.0
M101
G1 X20.1 Y-13.2 Z2.38 F3000.0
M108 R3.569
G1 X20.1 Y20.1 Z2.38 F1800.0
G1 X-20.42 Y20.1 Z2.38 F1800.0
G1 X-20.42 Y-20.42 Z2.38 F1800.0
G1 X20.1 Y-20.42 Z2.38 F1800.0
G1 X20.1 Y-13.2 Z2.38 F1800.0
M103
(</loop>)
(<perimeter> outer )
G1 X20.5 Y-13.2 Z2.38 F3000.0
M101
G1 X20.5 Y20.5 Z2.38 F1800.0
G1 X-20.82 Y20.5 Z2.38 F1800.0
G1 X-20.82 Y-20.82 Z2.38 F1800.0
G1 X20.5 Y-20.82 Z2.38 F1800.0
G1 X20.5 Y-13.65 Z2.38 F1800.0
M108 R30.0
M102
G1 X20.5 Y-13.2 Z2.38 F1800.0
M108 R3.569
M103
(</perimeter>)
(</boundaryPerimeter>)
(<surroundingLoop>)
(<boundaryPerimeter>)
(<boundaryPoint> X15.713 Y-12.611 Z2.38 </boundaryPoint>)
(<boundaryPoint> X-12.611 Y-12.611 Z2.38 </boundaryPoint>)
(<boundaryPoint> X-12.611 Y15.713 Z2.38 </boundaryPoint>)
(<boundaryPoint> X15.713 Y15.713 Z2.38 </boundaryPoint>)
(<perimeter> inner )
G1 X16.71 Y-12.88 Z2.38 F3000.0
M108 R30.0
M101
G1 X15.91 Y-12.81 Z2.38 F3000.0
M108 R3.569
G1 X-12.81 Y-12.81 Z2.38 F1800.0
G1 X-12.81 Y15.91 Z2.38 F1800.0
G1 X15.91 Y15.91 Z2.38 F1800.0
G1 X15.91 Y-12.36 Z2.38 F1800.0
M108 R30.0
M102
G1 X15.91 Y-12.81 Z2.38 F1800.0
M108 R3.569
M103
(</perimeter>)
(</boundaryPerimeter>)
(</surroundingLoop>)
G1 X19.27 Y-19.45 Z2.38 F3000.0
M108 R30.0
M101
G1 X19.64 Y-20.17 Z2.38 F3000.0
M108 R3.569
G1 X19.64 Y19.4 Z2.38 F1800.0
M108 R30.0
M102
G1 X19.64 Y19.85 Z2.38 F1800.0
M108 R3.569
M103
G1 X18.25 Y19.85 Z2.38 F3000.0
M108 R30.0
M101
G1 X17.45 Y19.85 Z2.38 F3000.0
M108 R3.569
G1 X17.89 Y19.41 Z2.38 F1800.0
G1 X19.2 Y-20.17 Z2.38 F1800.0
G1 X14.84 Y-20.17 Z2.38 F1800.0
G1 X14.3 Y-18.67 Z2.38 F1800.0
G1 X14.3 Y-18.42 Z2.38 F1800.0
G1 X16.36 Y-16.49 Z2.38 F1800.0
G1 X16.14 Y-13.46 Z2.38 F1800.0
G1 X12.65 Y-13.46 Z2.38 F1800.0
G1 X12.11 Y-16.24 Z2.38 F1800.0
G1 X12.11 Y-16.49 Z2.38 F1800.0
G1 X14.07 Y-18.42 Z2.38 F1800.0
G1 X14.07 Y-18.67 Z2.38 F1800.0
G1 X14.4 Y-20.17 Z2.38 F1800.0
G1 X10.47 Y-20.17 Z2.38 F1800.0
G1 X9.93 Y-18.67 Z2.38 F1800.0
G1 X9.93 Y-18.42 Z2.38 F1800.0
G1 X11.88 Y-16.49 Z2.38 F1800.0
G1 X12.22 Y-13.46 Z2.38 F1800.0
G1 X8.29 Y-13.46 Z2.38 F1800.0
G1 X7.75 Y-16.24 Z2.38 F1800.0
G1 X7.75 Y-16.49 Z2.38 F1800.0
G1 X9.7 Y-18.42 Z2.38 F1800.0
G1 X9.7 Y-18.67 Z2.38 F1800.0
G1 X10.04 Y-20.17 Z2.38 F1800.0
G1 X6.11 Y-20.17 Z2.38 F1800.0
G1 X5.57 Y-18.67 Z2.38 F1800.0
G1 X5.57 Y-18.42 Z2.38 F1800.0
G1 X7.52 Y-16.49 Z2.38 F1800.0
G1 X7.85 Y-13.46 Z2.38 F1800.0
G1 X3.93 Y-13.46 Z2.38 F1800.0
G1 X3.39 Y-16.24 Z2.38 F1800.0
G1 X3.39 Y-16.49 Z2.38 F1800.0
G1 X5.34 Y-18.42 Z2.38 F1800.0
G1 X5.34 Y-18.67 Z2.38 F1800.0
G1 X5.67 Y-20.17 Z2.38 F1800.0
G1 X1.75 Y-20.17 Z2.38 F1800.0
G1 X1.21 Y-18.67 Z2.38 F1800.0
G1 X1.21 Y-18.42 Z2.38 F1800.0
G1 X3.16 Y-16.49 Z2.38 F1800.0
G1 X3.49 Y-13.46 Z2.38 F1800.0
G1 X-0.44 Y-13.46 Z2.38 F1800.0
G1 X-0.98 Y-16.24 Z2.38 F1800.0
G1 X-0.98 Y-16.49 Z2.38 F1800.0
G1 X0.98 Y-18.42 Z2.38 F1800.0
G1 X0.98 Y-18.67 Z2.38 F1800.0
G1 X1.31 Y-20.17 Z2.38 F1800.0
G1 X-2.62 Y-20.17 Z2.38 F1800.0
G1 X-3.16 Y-18.67 Z2.38 F1800.0
G1 X-3.16 Y-18.42 Z2.38 F1800.0
G1 X-1.21 Y-16.49 Z2.38 F1800.0
G1 X-0.87 Y-13.46 Z2.38 F1800.0
G1 X-4.8 Y-13.46 Z2.38 F1800.0
G1 X-5.34 Y-16.24 Z2.38 F1800.0
G1 X-5.34 Y-16.49 Z2.38 F1800.0
G1 X-3.39 Y-18.42 Z2.38 F1800.0
G1 X-3.39 Y-18.67 Z2.38 F1800.0
G1 X-3.05 Y-20.17 Z2.38 F1800.0
G1 X-6.98 Y-20.17 Z2.38 F1800.0
G1 X-7.52 Y-18.67 Z2.38 F1800.0
G1 X-7.52 Y-18.42 Z2.38 F1800.0
G1 X-5.57 Y-16.49 Z2.38 F1800.0
G1 X-5.24 Y-13.46 Z2.38 F1800.0
G1 X-9.16 Y-13.46 Z2.38 F1800.0
G1 X-9.7 Y-16.24 Z2.38 F1800.0
G1 X-9.7 Y-16.49 Z2.38 F1800.0
G1 X-7.75 Y-18.42 Z2.38 F1800.0
G1 X-7.75 Y-18.67 Z2.38 F1800.0
G1 X-7.42 Y-20.17 Z2.38 F1800.0
G1 X-11.35 Y-20.17 Z2.38 F1800.0
G1 X-11.88 Y-18.67 Z2.38 F1800.0
G1 X-11.88 Y-18.42 Z2.38 F1800.0
G1 X-9.93 Y-16.49 Z2.38 F1800.0
G1 X-9.6 Y-13.46 Z2.38 F1800.0
G1 X-13.09 Y-13.46 Z2.38 F1800.0
G1 X-14.07 Y-16.24 Z2.38 F1800.0
G1 X-14.07 Y-16.49 Z2.38 F1800.0
G1 X-12.11 Y-18.42 Z2.38 F1800.0
G1 X-12.11 Y-18.67 Z2.38 F1800.0
G1 X-11.78 Y-20.17 Z2.38 F1800.0
G1 X-15.71 Y-20.17 Z2.38 F1800.0
G1 X-16.25 Y-18.67 Z2.38 F1800.0
G1 X-16.25 Y-18.42 Z2.38 F1800.0
G1 X-14.3 Y-16.49 Z2.38 F1800.0
G1 X-14.3 Y-16.24 Z2.38 F1800.0
G1 X-16.25 Y-14.31 Z2.38 F1800.0
G1 X-16.25 Y16.49 Z2.38 F1800.0
G1 X-17.02 Y19.41 Z2.38 F1800.0
G1 X-16.58 Y19.85 Z2.38 F1800.0
G1 X-16.14 Y19.41 Z2.38 F1800.0
G1 X-15.71 Y19.41 Z2.38 F1800.0
G1 X-15.27 Y19.85 Z2.38 F1800.0
G1 X-14.84 Y19.41 Z2.38 F1800.0
G1 X-14.4 Y19.85 Z2.38 F1800.0
G1 X-13.96 Y19.41 Z2.38 F1800.0
G1 X-14.18 Y18.67 Z2.38 F1800.0
G1 X-14.18 Y18.42 Z2.38 F1800.0
G1 X-13.09 Y16.56 Z2.38 F1800.0
G1 X-12.65 Y16.99 Z2.38 F1800.0
G1 X-13.53 Y19.41 Z2.38 F1800.0
G1 X-13.09 Y19.85 Z2.38 F1800.0
G1 X-12.65 Y19.41 Z2.38 F1800.0
G1 X-12.22 Y16.99 Z2.38 F1800.0
G1 X-11.78 Y16.56 Z2.38 F1800.0
G1 X-11.35 Y16.99 Z2.38 F1800.0
G1 X-10.91 Y16.56 Z2.38 F1800.0
G1 X-10.47 Y16.99 Z2.38 F1800.0
G1 X-11.78 Y19.41 Z2.38 F1800.0
G1 X-10.91 Y19.85 Z2.38 F1800.0
G1 X-10.47 Y19.41 Z2.38 F1800.0
G1 X-10.04 Y19.85 Z2.38 F1800.0
G1 X-9.6 Y19.41 Z2.38 F1800.0
G1 X-9.82 Y18.67 Z2.38 F1800.0
G1 X-9.6 Y16.99 Z2.38 F1800.0
G1 X-8.73 Y16.56 Z2.38 F1800.0
G1 X-8.29 Y16.99 Z2.38 F1800.0
G1 X-9.16 Y19.41 Z2.38 F1800.0
G1 X-8.73 Y19.85 Z2.38 F1800.0
G1 X-8.29 Y19.41 Z2.38 F1800.0
G1 X-7.85 Y16.99 Z2.38 F1800.0
G1 X-7.42 Y16.56 Z2.38 F1800.0
G1 X-7.11 Y16.87 Z2.38 F1800.0
G1 X-6.98 Y16.56 Z2.38 F1800.0
G1 X-6.58 Y16.73 Z2.38 F1800.0
G1 X-6.55 Y16.56 Z2.38 F1800.0
G1 X-6.11 Y16.99 Z2.38 F1800.0
G1 X-6.98 Y19.41 Z2.38 F1800.0
G1 X-6.55 Y19.85 Z2.38 F1800.0
G1 X-6.11 Y19.41 Z2.38 F1800.0
G1 X-5.67 Y19.85 Z2.38 F1800.0
G1 X-5.24 Y19.41 Z2.38 F1800.0
G1 X-5.45 Y18.67 Z2.38 F1800.0
G1 X-5.24 Y16.99 Z2.38 F1800.0
G1 X-4.8 Y16.99 Z2.38 F1800.0
G1 X-4.36 Y16.56 Z2.38 F1800.0
G1 X-3.93 Y16.99 Z2.38 F1800.0
G1 X-4.8 Y19.41 Z2.38 F1800.0
G1 X-4.36 Y19.85 Z2.38 F1800.0
G1 X-3.93 Y19.41 Z2.38 F1800.0
G1 X-3.49 Y16.99 Z2.38 F1800.0
G1 X-3.05 Y16.56 Z2.38 F1800.0
G1 X-2.75 Y16.87 Z2.38 F1800.0
G1 X-2.22 Y16.73 Z2.38 F1800.0
G1 X-2.18 Y16.56 Z2.38 F1800.0
G1 X-1.75 Y16.99 Z2.38 F1800.0
G1 X-3.05 Y19.41 Z2.38 F1800.0
G1 X-2.18 Y19.85 Z2.38 F1800.0
G1 X-1.75 Y19.41 Z2.38 F1800.0
G1 X-1.21 Y18.54 Z2.38 F1800.0
G1 X-0.87 Y16.99 Z2.38 F1800.0
G1 X-0.44 Y16.99 Z2.38 F1800.0
G1 X0.0 Y16.56 Z2.38 F1800.0
G1 X0.44 Y16.99 Z2.38 F1800.0
G1 X-0.44 Y19.41 Z2.38 F1800.0
G1 X0.0 Y19.85 Z2.38 F1800.0
G1 X0.44 Y19.41 Z2.38 F1800.0
G1 X0.87 Y19.85 Z2.38 F1800.0
G1 X1.31 Y19.41 Z2.38 F1800.0
G1 X1.31 Y16.99 Z2.38 F1800.0
G1 X2.18 Y16.56 Z2.38 F1800.0
G1 X2.62 Y16.99 Z2.38 F1800.0
G1 X1.75 Y19.41 Z2.38 F1800.0
G1 X2.18 Y19.85 Z2.38 F1800.0
G1 X2.62 Y19.41 Z2.38 F1800.0
G1 X3.16 Y18.42 Z2.38 F1800.0
G1 X3.49 Y16.99 Z2.38 F1800.0
G1 X3.93 Y16.99 Z2.38 F1800.0
G1 X4.36 Y16.56 Z2.38 F1800.0
G1 X4.8 Y16.99 Z2.38 F1800.0
G1 X3.93 Y19.41 Z2.38 F1800.0
G1 X4.36 Y19.85 Z2.38 F1800.0
G1 X4.8 Y19.41 Z2.38 F1800.0
G1 X5.24 Y16.99 Z2.38 F1800.0
G1 X5.67 Y16.56 Z2.38 F1800.0
G1 X5.98 Y16.87 Z2.38 F1800.0
G1 X6.51 Y16.73 Z2.38 F1800.0
G1 X6.55 Y16.56 Z2.38 F1800.0
G1 X6.98 Y16.99 Z2.38 F1800.0
G1 X5.67 Y19.41 Z2.38 F1800.0
G1 X6.55 Y19.85 Z2.38 F1800.0
G1 X6.98 Y19.41 Z2.38 F1800.0
G1 X7.64 Y18.42 Z2.38 F1800.0
G1 X7.85 Y16.99 Z2.38 F1800.0
G1 X8.29 Y16.99 Z2.38 F1800.0
G1 X8.73 Y16.56 Z2.38 F1800.0
G1 X9.16 Y16.99 Z2.38 F1800.0
G1 X8.29 Y19.41 Z2.38 F1800.0
G1 X8.73 Y19.85 Z2.38 F1800.0
G1 X9.16 Y19.41 Z2.38 F1800.0
G1 X9.6 Y19.85 Z2.38 F1800.0
G1 X10.04 Y19.41 Z2.38 F1800.0
G1 X10.47 Y16.99 Z2.38 F1800.0
G1 X10.91 Y16.56 Z2.38 F1800.0
G1 X11.35 Y16.99 Z2.38 F1800.0
G1 X10.47 Y19.41 Z2.38 F1800.0
G1 X10.91 Y19.85 Z2.38 F1800.0
G1 X11.35 Y19.41 Z2.38 F1800.0
G1 X12.0 Y18.42 Z2.38 F1800.0
G1 X12.22 Y16.99 Z2.38 F1800.0
G1 X13.09 Y16.56 Z2.38 F1800.0
G1 X13.53 Y16.99 Z2.38 F1800.0
G1 X12.65 Y19.41 Z2.38 F1800.0
G1 X13.09 Y19.85 Z2.38 F1800.0
G1 X13.53 Y19.41 Z2.38 F1800.0
G1 X13.96 Y19.85 Z2.38 F1800.0
G1 X14.4 Y19.41 Z2.38 F1800.0
G1 X14.4 Y16.99 Z2.38 F1800.0
G1 X14.84 Y16.99 Z2.38 F1800.0
G1 X15.27 Y16.56 Z2.38 F1800.0
G1 X15.71 Y16.99 Z2.38 F1800.0
G1 X16.36 Y18.42 Z2.38 F1800.0
G1 X16.36 Y18.67 Z2.38 F1800.0
G1 X16.58 Y19.41 Z2.38 F1800.0
G1 X16.14 Y19.85 Z2.38 F1800.0
G1 X15.71 Y19.41 Z2.38 F1800.0
G1 X15.59 Y19.53 Z2.38 F1800.0
M108 R30.0
M102
G1 X15.27 Y19.85 Z2.38 F1800.0
M108 R3.569
M103
G1 X-16.65 Y19.85 Z2.38 F3000.0
M108 R30.0
M101
G1 X-17.45 Y19.85 Z2.38 F3000.0
M108 R3.569
G1 X-18.33 Y19.41 Z2.38 F1800.0
G1 X-18.43 Y18.42 Z2.38 F1800.0
G1 X-16.48 Y16.49 Z2.38 F1800.0
G1 X-16.48 Y16.24 Z2.38 F1800.0
G1 X-18.43 Y14.31 Z2.38 F1800.0
G1 X-18.43 Y14.05 Z2.38 F1800.0
G1 X-16.48 Y12.13 Z2.38 F1800.0
G1 X-16.48 Y11.87 Z2.38 F1800.0
G1 X-18.43 Y9.95 Z2.38 F1800.0
G1 X-18.43 Y9.69 Z2.38 F1800.0
G1 X-16.48 Y7.76 Z2.38 F1800.0
G1 X-16.48 Y7.51 Z2.38 F1800.0
G1 X-18.43 Y5.58 Z2.38 F1800.0
G1 X-18.43 Y5.33 Z2.38 F1800.0
G1 X-16.48 Y3.4 Z2.38 F1800.0
G1 X-16.48 Y3.15 Z2.38 F1800.0
G1 X-18.43 Y1.22 Z2.38 F1800.0
G1 X-18.43 Y0.96 Z2.38 F1800.0
G1 X-16.48 Y-0.96 Z2.38 F1800.0
G1 X-16.48 Y-1.22 Z2.38 F1800.0
G1 X-18.43 Y-3.15 Z2.38 F1800.0
G1 X-18.43 Y-3.4 Z2.38 F1800.0
G1 X-16.48 Y-5.33 Z2.38 F1800.0
G1 X-16.48 Y-5.58 Z2.38 F1800.0
G1 X-18.43 Y-7.51 Z2.38 F1800.0
G1 X-18.43 Y-7.76 Z2.38 F1800.0
G1 X-16.48 Y-9.69 Z2.38 F1800.0
G1 X-16.48 Y-9.95 Z2.38 F1800.0
G1 X-18.43 Y-11.87 Z2.38 F1800.0
G1 X-18.43 Y-12.13 Z2.38 F1800.0
G1 X-16.48 Y-14.05 Z2.38 F1800.0
G1 X-16.48 Y-14.31 Z2.38 F1800.0
G1 X-18.43 Y-16.24 Z2.38 F1800.0
G1 X-18.43 Y-16.49 Z2.38 F1800.0
G1 X-16.48 Y-18.42 Z2.38 F1800.0
G1 X-16.48 Y-18.67 Z2.38 F1800.0
G1 X-16.14 Y-20.17 Z2.38 F1800.0
G1 X-19.64 Y-20.17 Z2.38 F1800.0
G1 X-18.66 Y-16.49 Z2.38 F1800.0
G1 X-18.66 Y18.67 Z2.38 F1800.0
G1 X-19.2 Y19.41 Z2.38 F1800.0
G1 X-19.64 Y19.85 Z2.38 F1800.0
M103
G1 X-20.07 Y19.85 Z2.38 F3000.0
M101
G1 X-20.07 Y-19.72 Z2.38 F1800.0
M108 R30.0
M102
G1 X-20.07 Y-20.17 Z2.38 F1800.0
M108 R3.569
M103
(</surroundingLoop>)
(</layer>)
(<layer> 2.7 )
(<surroundingLoop>)
(<boundaryPerimeter>)
(<boundaryPoint> X20.693 Y-21.013 Z2.7 </boundaryPoint>)
(<boundaryPoint> X20.693 Y20.693 Z2.7 </boundaryPoint>)
(<boundaryPoint> X-21.013 Y20.693 Z2.7 </boundaryPoint>)
(<boundaryPoint> X-21.013 Y-21.013 Z2.7 </boundaryPoint>)
(<loop> inner )
G1 X-13.75 Y-13.43 Z2.68 F3000.0
M108 R30.0
M101
G1 X-13.2 Y-12.85 Z2.7 F3000.0
M108 R3.569
G1 X-13.2 Y16.3 Z2.7 F1800.0
G1 X16.3 Y16.3 Z2.7 F1800.0
G1 X16.3 Y-13.2 Z2.7 F1800.0
G1 X-13.1 Y-13.2 Z2.7 F1800.0
M108 R30.0
M102
G1 X-13.2 Y-13.2 Z2.7 F1800.0
G1 X-13.2 Y-12.85 Z2.7 F1800.0
M108 R3.569
M103
(</loop>)
(<loop> outer )
G1 X-19.62 Y-12.85 Z2.7 F3000.0
M108 R30.0
M101
G1 X-20.42 Y-12.85 Z2.7 F3000.0
M108 R3.569
G1 X-20.42 Y-13.2 Z2.7 F1800.0
G1 X-20.42 Y-20.42 Z2.7 F1800.0
G1 X20.1 Y-20.42 Z2.7 F1800.0
G1 X20.1 Y20.1 Z2.7 F1800.0
G1 X-20.42 Y20.1 Z2.7 F1800.0
G1 X-20.42 Y-12.85 Z2.7 F1800.0
M103
(</loop>)
(<perimeter> outer )
G1 X-20.82 Y-12.85 Z2.7 F3000.0
M101
G1 X-20.82 Y-13.2 Z2.7 F1800.0
G1 X-20.82 Y-20.82 Z2.7 F1800.0
G1 X20.5 Y-20.82 Z2.7 F1800.0
G1 X20.5 Y20.5 Z2.7 F1800.0
G1 X-20.82 Y20.5 Z2.7 F1800.0
G1 X-20.82 Y-12.4 Z2.7 F1800.0
M108 R30.0
M102
G1 X-20.82 Y-12.85 Z2.7 F1800.0
M108 R3.569
M103
(</perimeter>)
(</boundaryPerimeter>)
(<surroundingLoop>)
(<boundaryPerimeter>)
(<boundaryPoint> X15.713 Y-12.611 Z2.7 </boundaryPoint>)
(<boundaryPoint> X-12.611 Y-12.611 Z2.7 </boundaryPoint>)
(<boundaryPoint> X-12.611 Y15.713 Z2.7 </boundaryPoint>)
(<boundaryPoint> X15.713 Y15.713 Z2.7 </boundaryPoint>)
(<perimeter> inner )
G1 X-13.61 Y-12.81 Z2.7 F3000.0
M108 R30.0
M101
G1 X-12.81 Y-12.81 Z2.7 F3000.0
M108 R3.569
G1 X-12.81 Y15.91 Z2.7 F1800.0
G1 X15.91 Y15.91 Z2.7 F1800.0
G1 X15.91 Y-12.81 Z2.7 F1800.0
G1 X-12.36 Y-12.81 Z2.7 F1800.0
M108 R30.0
M102
G1 X-12.81 Y-12.81 Z2.7 F1800.0
M108 R3.569
M103
(</perimeter>)
(</boundaryPerimeter>)
(</surroundingLoop>)
G1 X-19.38 Y-13.84 Z2.7 F3000.0
M108 R30.0
M101
G1 X-20.17 Y-13.96 Z2.7 F3000.0
M108 R3.569
G1 X19.85 Y-13.96 Z2.7 F1800.0
M103
G1 X19.85 Y-14.4 Z2.7 F3000.0
M101
G1 X-20.17 Y-14.4 Z2.7 F1800.0
G1 X-20.17 Y-14.84 Z2.7 F1800.0
G1 X19.85 Y-14.84 Z2.7 F1800.0
M103
G1 X19.85 Y-15.27 Z2.7 F3000.0
M101
G1 X-20.17 Y-15.27 Z2.7 F1800.0
G1 X-20.17 Y-15.71 Z2.7 F1800.0
G1 X19.85 Y-15.71 Z2.7 F1800.0
M103
G1 X19.85 Y-16.14 Z2.7 F3000.0
M101
G1 X-20.17 Y-16.14 Z2.7 F1800.0
G1 X-20.17 Y-16.58 Z2.7 F1800.0
G1 X19.85 Y-16.58 Z2.7 F1800.0
M103
G1 X19.85 Y-17.02 Z2.7 F3000.0
M101
G1 X-20.17 Y-17.02 Z2.7 F1800.0
G1 X-20.17 Y-17.45 Z2.7 F1800.0
G1 X19.85 Y-17.45 Z2.7 F1800.0
M103
G1 X19.85 Y-17.89 Z2.7 F3000.0
M101
G1 X-20.17 Y-17.89 Z2.7 F1800.0
G1 X-20.17 Y-18.33 Z2.7 F1800.0
G1 X19.85 Y-18.33 Z2.7 F1800.0
M103
G1 X19.85 Y-18.76 Z2.7 F3000.0
M101
G1 X-20.17 Y-18.76 Z2.7 F1800.0
G1 X-20.17 Y-19.2 Z2.7 F1800.0
G1 X19.85 Y-19.2 Z2.7 F1800.0
M103
G1 X19.85 Y-19.64 Z2.7 F3000.0
M101
G1 X-20.17 Y-19.64 Z2.7 F1800.0
G1 X-20.17 Y-20.07 Z2.7 F1800.0
G1 X19.4 Y-20.07 Z2.7 F1800.0
M108 R30.0
M102
G1 X19.85 Y-20.07 Z2.7 F1800.0
M108 R3.569
M103
G1 X19.85 Y-14.33 Z2.7 F3000.0
M108 R30.0
M101
G1 X19.85 Y-13.53 Z2.7 F3000.0
M108 R3.569
G1 X-20.17 Y-13.53 Z2.7 F1800.0
G1 X-20.17 Y-13.09 Z2.7 F1800.0
G1 X-13.46 Y-13.09 Z2.7 F1800.0
G1 X-13.46 Y-12.65 Z2.7 F1800.0
G1 X-20.17 Y-12.65 Z2.7 F1800.0
G1 X-20.17 Y-12.22 Z2.7 F1800.0
G1 X-13.46 Y-12.22 Z2.7 F1800.0
G1 X-13.46 Y-11.78 Z2.7 F1800.0
G1 X-20.17 Y-11.78 Z2.7 F1800.0
G1 X-20.17 Y-11.35 Z2.7 F1800.0
G1 X-13.46 Y-11.35 Z2.7 F1800.0
G1 X-13.46 Y-10.91 Z2.7 F1800.0
G1 X-20.17 Y-10.91 Z2.7 F1800.0
G1 X-20.17 Y-10.47 Z2.7 F1800.0
G1 X-13.46 Y-10.47 Z2.7 F1800.0
G1 X-13.46 Y-10.04 Z2.7 F1800.0
G1 X-20.17 Y-10.04 Z2.7 F1800.0
G1 X-20.17 Y-9.6 Z2.7 F1800.0
G1 X-13.46 Y-9.6 Z2.7 F1800.0
G1 X-13.46 Y-9.16 Z2.7 F1800.0
G1 X-20.17 Y-9.16 Z2.7 F1800.0
G1 X-20.17 Y-8.73 Z2.7 F1800.0
G1 X-13.46 Y-8.73 Z2.7 F1800.0
G1 X-13.46 Y-8.29 Z2.7 F1800.0
G1 X-20.17 Y-8.29 Z2.7 F1800.0
G1 X-20.17 Y-7.85 Z2.7 F1800.0
G1 X-13.46 Y-7.85 Z2.7 F1800.0
G1 X-13.46 Y-7.42 Z2.7 F1800.0
G1 X-20.17 Y-7.42 Z2.7 F1800.0
G1 X-20.17 Y-6.98 Z2.7 F1800.0
G1 X-13.46 Y-6.98 Z2.7 F1800.0
G1 X-13.46 Y-6.55 Z2.7 F1800.0
G1 X-20.17 Y-6.55 Z2.7 F1800.0
G1 X-20.17 Y-6.11 Z2.7 F1800.0
G1 X-13.46 Y-6.11 Z2.7 F1800.0
G1 X-13.46 Y-5.67 Z2.7 F1800.0
G1 X-20.17 Y-5.67 Z2.7 F1800.0
G1 X-20.17 Y-5.24 Z2.7 F1800.0
G1 X-13.46 Y-5.24 Z2.7 F1800.0
G1 X-13.46 Y-4.8 Z2.7 F1800.0
G1 X-20.17 Y-4.8 Z2.7 F1800.0
G1 X-20.17 Y-4.36 Z2.7 F1800.0
G1 X-13.46 Y-4.36 Z2.7 F1800.0
G1 X-13.46 Y-3.93 Z2.7 F1800.0
G1 X-20.17 Y-3.93 Z2.7 F1800.0
G1 X-20.17 Y-3.49 Z2.7 F1800.0
G1 X-13.46 Y-3.49 Z2.7 F1800.0
G1 X-13.46 Y-3.05 Z2.7 F1800.0
G1 X-20.17 Y-3.05 Z2.7 F1800.0
G1 X-20.17 Y-2.62 Z2.7 F1800.0
G1 X-13.46 Y-2.62 Z2.7 F1800.0
G1 X-13.46 Y-2.18 Z2.7 F1800.0
G1 X-20.17 Y-2.18 Z2.7 F1800.0
G1 X-20.17 Y-1.75 Z2.7 F1800.0
G1 X-13.46 Y-1.75 Z2.7 F1800.0
G1 X-13.46 Y-1.31 Z2.7 F1800.0
G1 X-20.17 Y-1.31 Z2.7 F1800.0
G1 X-20.17 Y-0.87 Z2.7 F1800.0
G1 X-13.46 Y-0.87 Z2.7 F1800.0
G1 X-13.46 Y-0.44 Z2.7 F1800.0
G1 X-20.17 Y-0.44 Z2.7 F1800.0
G1 X-20.17 Y0.0 Z2.7 F1800.0
G1 X-13.46 Y0.0 Z2.7 F1800.0
G1 X-13.46 Y0.44 Z2.7 F1800.0
G1 X-20.17 Y0.44 Z2.7 F1800.0
G1 X-20.17 Y0.87 Z2.7 F1800.0
G1 X-13.46 Y0.87 Z2.7 F1800.0
G1 X-13.46 Y1.31 Z2.7 F1800.0
G1 X-20.17 Y1.31 Z2.7 F1800.0
G1 X-20.17 Y1.75 Z2.7 F1800.0
G1 X-13.46 Y1.75 Z2.7 F1800.0
G1 X-13.46 Y2.18 Z2.7 F1800.0
G1 X-20.17 Y2.18 Z2.7 F1800.0
G1 X-20.17 Y2.62 Z2.7 F1800.0
G1 X-13.46 Y2.62 Z2.7 F1800.0
G1 X-13.46 Y3.05 Z2.7 F1800.0
G1 X-20.17 Y3.05 Z2.7 F1800.0
G1 X-20.17 Y3.49 Z2.7 F1800.0
G1 X-13.46 Y3.49 Z2.7 F1800.0
G1 X-13.46 Y3.93 Z2.7 F1800.0
G1 X-20.17 Y3.93 Z2.7 F1800.0
G1 X-20.17 Y4.36 Z2.7 F1800.0
G1 X-13.46 Y4.36 Z2.7 F1800.0
G1 X-13.46 Y4.8 Z2.7 F1800.0
G1 X-20.17 Y4.8 Z2.7 F1800.0
G1 X-20.17 Y5.24 Z2.7 F1800.0
G1 X-13.46 Y5.24 Z2.7 F1800.0
G1 X-13.46 Y5.67 Z2.7 F1800.0
G1 X-20.17 Y5.67 Z2.7 F1800.0
G1 X-20.17 Y6.11 Z2.7 F1800.0
G1 X-13.46 Y6.11 Z2.7 F1800.0
G1 X-13.46 Y6.55 Z2.7 F1800.0
G1 X-20.17 Y6.55 Z2.7 F1800.0
G1 X-20.17 Y6.98 Z2.7 F1800.0
G1 X-13.46 Y6.98 Z2.7 F1800.0
G1 X-13.46 Y7.42 Z2.7 F1800.0
G1 X-20.17 Y7.42 Z2.7 F1800.0
G1 X-20.17 Y7.85 Z2.7 F1800.0
G1 X-13.46 Y7.85 Z2.7 F1800.0
G1 X-13.46 Y8.29 Z2.7 F1800.0
G1 X-20.17 Y8.29 Z2.7 F1800.0
G1 X-20.17 Y8.73 Z2.7 F1800.0
G1 X-13.46 Y8.73 Z2.7 F1800.0
G1 X-13.46 Y9.16 Z2.7 F1800.0
G1 X-20.17 Y9.16 Z2.7 F1800.0
G1 X-20.17 Y9.6 Z2.7 F1800.0
G1 X-13.46 Y9.6 Z2.7 F1800.0
G1 X-13.46 Y10.04 Z2.7 F1800.0
G1 X-20.17 Y10.04 Z2.7 F1800.0
G1 X-20.17 Y10.47 Z2.7 F1800.0
G1 X-13.46 Y10.47 Z2.7 F1800.0
G1 X-13.46 Y10.91 Z2.7 F1800.0
G1 X-20.17 Y10.91 Z2.7 F1800.0
G1 X-20.17 Y11.35 Z2.7 F1800.0
G1 X-13.46 Y11.35 Z2.7 F1800.0
G1 X-13.46 Y11.78 Z2.7 F1800.0
G1 X-20.17 Y11.78 Z2.7 F1800.0
G1 X-20.17 Y12.22 Z2.7 F1800.0
G1 X-13.46 Y12.22 Z2.7 F1800.0
G1 X-13.46 Y12.65 Z2.7 F1800.0
G1 X-20.17 Y12.65 Z2.7 F1800.0
G1 X-20.17 Y13.09 Z2.7 F1800.0
G1 X-13.46 Y13.09 Z2.7 F1800.0
G1 X-13.46 Y13.53 Z2.7 F1800.0
G1 X-20.17 Y13.53 Z2.7 F1800.0
G1 X-20.17 Y13.96 Z2.7 F1800.0
G1 X-13.46 Y13.96 Z2.7 F1800.0
G1 X-13.46 Y14.4 Z2.7 F1800.0
G1 X-20.17 Y14.4 Z2.7 F1800.0
G1 X-20.17 Y14.84 Z2.7 F1800.0
G1 X-13.46 Y14.84 Z2.7 F1800.0
G1 X-13.46 Y15.27 Z2.7 F1800.0
G1 X-20.17 Y15.27 Z2.7 F1800.0
G1 X-20.17 Y15.71 Z2.7 F1800.0
G1 X-13.46 Y15.71 Z2.7 F1800.0
G1 X-13.46 Y16.14 Z2.7 F1800.0
G1 X-19.72 Y16.14 Z2.7 F1800.0
M108 R30.0
M102
G1 X-20.17 Y16.14 Z2.7 F1800.0
M108 R3.569
M103
G1 X19.05 Y17.0 Z2.7 F3000.0
M108 R30.0
M101
G1 X19.85 Y17.02 Z2.7 F3000.0
M108 R3.569
G1 X-20.17 Y17.02 Z2.7 F1800.0
G1 X-20.17 Y16.58 Z2.7 F1800.0
G1 X19.4 Y16.58 Z2.7 F1800.0
M108 R30.0
M102
G1 X19.85 Y16.58 Z2.7 F1800.0
M108 R3.569
M103
G1 X19.85 Y17.09 Z2.7 F3000.0
M108 R30.0
M101
G1 X19.85 Y17.89 Z2.7 F3000.0
M108 R3.569
G1 X-20.17 Y17.89 Z2.7 F1800.0
G1 X-20.17 Y17.45 Z2.7 F1800.0
G1 X19.4 Y17.45 Z2.7 F1800.0
M108 R30.0
M102
G1 X19.85 Y17.45 Z2.7 F1800.0
M108 R3.569
M103
G1 X19.85 Y17.96 Z2.7 F3000.0
M108 R30.0
M101
G1 X19.85 Y18.76 Z2.7 F3000.0
M108 R3.569
G1 X-20.17 Y18.76 Z2.7 F1800.0
G1 X-20.17 Y18.33 Z2.7 F1800.0
G1 X19.4 Y18.33 Z2.7 F1800.0
M108 R30.0
M102
G1 X19.85 Y18.33 Z2.7 F1800.0
M108 R3.569
M103
G1 X19.85 Y18.84 Z2.7 F3000.0
M108 R30.0
M101
G1 X19.85 Y19.64 Z2.7 F3000.0
M108 R3.569
G1 X-20.17 Y19.64 Z2.7 F1800.0
G1 X-20.17 Y19.2 Z2.7 F1800.0
G1 X19.4 Y19.2 Z2.7 F1800.0
M108 R30.0
M102
G1 X19.85 Y19.2 Z2.7 F1800.0
M108 R3.569
M103
G1 X19.85 Y16.07 Z2.7 F3000.0
M108 R30.0
M101
G1 X19.85 Y15.27 Z2.7 F3000.0
M108 R3.569
G1 X19.41 Y15.71 Z2.7 F1800.0
G1 X16.99 Y15.71 Z2.7 F1800.0
G1 X16.56 Y15.27 Z2.7 F1800.0
G1 X16.73 Y15.24 Z2.7 F1800.0
G1 X16.99 Y13.96 Z2.7 F1800.0
G1 X19.41 Y13.53 Z2.7 F1800.0
G1 X19.85 Y13.09 Z2.7 F1800.0
G1 X19.41 Y12.65 Z2.7 F1800.0
G1 X16.99 Y13.53 Z2.7 F1800.0
G1 X16.56 Y13.09 Z2.7 F1800.0
G1 X16.87 Y12.53 Z2.7 F1800.0
G1 X16.99 Y11.78 Z2.7 F1800.0
G1 X19.41 Y11.35 Z2.7 F1800.0
G1 X19.85 Y10.91 Z2.7 F1800.0
G1 X19.41 Y10.04 Z2.7 F1800.0
G1 X16.99 Y11.35 Z2.7 F1800.0
G1 X16.56 Y10.91 Z2.7 F1800.0
G1 X16.87 Y10.34 Z2.7 F1800.0
G1 X16.99 Y9.6 Z2.7 F1800.0
G1 X19.41 Y9.16 Z2.7 F1800.0
G1 X19.85 Y8.73 Z2.7 F1800.0
G1 X19.41 Y8.29 Z2.7 F1800.0
G1 X16.99 Y9.16 Z2.7 F1800.0
G1 X16.56 Y8.73 Z2.7 F1800.0
G1 X16.73 Y8.69 Z2.7 F1800.0
G1 X16.99 Y7.42 Z2.7 F1800.0
G1 X19.41 Y7.42 Z2.7 F1800.0
G1 X19.85 Y6.55 Z2.7 F1800.0
G1 X19.41 Y5.67 Z2.7 F1800.0
G1 X16.99 Y6.98 Z2.7 F1800.0
G1 X16.56 Y6.55 Z2.7 F1800.0
G1 X16.87 Y5.98 Z2.7 F1800.0
G1 X16.99 Y5.24 Z2.7 F1800.0
G1 X19.41 Y4.8 Z2.7 F1800.0
G1 X19.85 Y4.36 Z2.7 F1800.0
G1 X19.41 Y3.93 Z2.7 F1800.0
G1 X19.41 Y3.49 Z2.7 F1800.0
G1 X16.99 Y4.8 Z2.7 F1800.0
G1 X16.56 Y4.36 Z2.7 F1800.0
G1 X16.73 Y4.33 Z2.7 F1800.0
G1 X16.99 Y3.05 Z2.7 F1800.0
G1 X19.41 Y2.62 Z2.7 F1800.0
G1 X19.85 Y2.18 Z2.7 F1800.0
G1 X19.41 Y1.75 Z2.7 F1800.0
G1 X16.99 Y2.62 Z2.7 F1800.0
G1 X16.56 Y2.18 Z2.7 F1800.0
G1 X16.87 Y1.62 Z2.7 F1800.0
G1 X16.99 Y0.87 Z2.7 F1800.0
G1 X19.41 Y0.44 Z2.7 F1800.0
G1 X19.85 Y-0.0 Z2.7 F1800.0
G1 X19.41 Y-0.87 Z2.7 F1800.0
G1 X16.99 Y0.44 Z2.7 F1800.0
G1 X16.56 Y-0.0 Z2.7 F1800.0
G1 X16.73 Y-0.03 Z2.7 F1800.0
G1 X16.99 Y-1.31 Z2.7 F1800.0
G1 X19.41 Y-1.75 Z2.7 F1800.0
G1 X19.85 Y-2.18 Z2.7 F1800.0
G1 X19.41 Y-3.05 Z2.7 F1800.0
G1 X16.99 Y-1.75 Z2.7 F1800.0
G1 X16.56 Y-2.18 Z2.7 F1800.0
G1 X16.87 Y-2.75 Z2.7 F1800.0
G1 X16.99 Y-3.49 Z2.7 F1800.0
G1 X19.41 Y-3.93 Z2.7 F1800.0
G1 X19.85 Y-4.36 Z2.7 F1800.0
G1 X19.41 Y-4.8 Z2.7 F1800.0
G1 X19.41 Y-5.24 Z2.7 F1800.0
G1 X16.56 Y-4.36 Z2.7 F1800.0
G1 X16.87 Y-4.93 Z2.7 F1800.0
G1 X16.99 Y-5.67 Z2.7 F1800.0
G1 X19.41 Y-6.11 Z2.7 F1800.0
G1 X19.85 Y-6.55 Z2.7 F1800.0
G1 X19.41 Y-6.98 Z2.7 F1800.0
G1 X16.99 Y-6.11 Z2.7 F1800.0
G1 X16.56 Y-6.55 Z2.7 F1800.0
G1 X16.87 Y-7.11 Z2.7 F1800.0
G1 X16.99 Y-7.85 Z2.7 F1800.0
G1 X19.41 Y-8.29 Z2.7 F1800.0
G1 X19.85 Y-8.73 Z2.7 F1800.0
G1 X19.41 Y-9.6 Z2.7 F1800.0
G1 X16.99 Y-8.29 Z2.7 F1800.0
G1 X16.56 Y-8.73 Z2.7 F1800.0
G1 X16.87 Y-9.29 Z2.7 F1800.0
G1 X16.99 Y-10.04 Z2.7 F1800.0
G1 X19.41 Y-10.47 Z2.7 F1800.0
G1 X19.85 Y-10.91 Z2.7 F1800.0
G1 X19.41 Y-11.35 Z2.7 F1800.0
G1 X16.99 Y-10.47 Z2.7 F1800.0
G1 X16.56 Y-10.91 Z2.7 F1800.0
G1 X16.73 Y-10.94 Z2.7 F1800.0
G1 X16.99 Y-12.22 Z2.7 F1800.0
G1 X19.41 Y-12.65 Z2.7 F1800.0
G1 X19.85 Y-13.09 Z2.7 F1800.0
G1 X16.56 Y-13.09 Z2.7 F1800.0
M103
(</surroundingLoop>)
(</layer>)
(<layer> 3.02 )
(<surroundingLoop>)
(<boundaryPerimeter>)
(<boundaryPoint> X20.693 Y-21.013 Z3.02 </boundaryPoint>)
(<boundaryPoint> X20.693 Y20.693 Z3.02 </boundaryPoint>)
(<boundaryPoint> X-21.013 Y20.693 Z3.02 </boundaryPoint>)
(<boundaryPoint> X-21.013 Y-21.013 Z3.02 </boundaryPoint>)
(<loop> inner )
G1 X16.25 Y-13.2 Z3.02 F3000.0
M101
G1 X-13.2 Y-13.2 Z3.02 F1800.0
G1 X-13.2 Y16.3 Z3.02 F1800.0
G1 X16.3 Y16.3 Z3.02 F1800.0
G1 X16.3 Y-12.8 Z3.02 F1800.0
M108 R30.0
M102
G1 X16.3 Y-13.2 Z3.02 F1800.0
G1 X16.25 Y-13.2 Z3.02 F1800.0
M108 R3.569
M103
(</loop>)
(<loop> outer )
G1 X19.3 Y-13.2 Z3.02 F3000.0
M108 R30.0
M101
G1 X20.1 Y-13.2 Z3.02 F3000.0
M108 R3.569
G1 X20.1 Y20.1 Z3.02 F1800.0
G1 X-20.42 Y20.1 Z3.02 F1800.0
G1 X-20.42 Y-20.42 Z3.02 F1800.0
G1 X20.1 Y-20.42 Z3.02 F1800.0
G1 X20.1 Y-13.2 Z3.02 F1800.0
M103
(</loop>)
(<perimeter> outer )
G1 X20.5 Y-13.2 Z3.02 F3000.0
M101
G1 X20.5 Y20.5 Z3.02 F1800.0
G1 X-20.82 Y20.5 Z3.02 F1800.0
G1 X-20.82 Y-20.82 Z3.02 F1800.0
G1 X20.5 Y-20.82 Z3.02 F1800.0
G1 X20.5 Y-13.65 Z3.02 F1800.0
M108 R30.0
M102
G1 X20.5 Y-13.2 Z3.02 F1800.0
M108 R3.569
M103
(</perimeter>)
(</boundaryPerimeter>)
(<surroundingLoop>)
(<boundaryPerimeter>)
(<boundaryPoint> X15.713 Y-12.611 Z3.02 </boundaryPoint>)
(<boundaryPoint> X-12.611 Y-12.611 Z3.02 </boundaryPoint>)
