(** This GCode was generated by ReplicatorG 0034 **)
(*  using Skeinforge (35)  *)
(*  for a Single headed Thing-O-Matic  *)
(*  on 2012/04/23 23:56:28 (-0400) *)
(<alteration>)
(**** beginning of start.gcode ****)
(This file is for a MakerBot Thing-O-Matic)
(**** begin initialization commands ****)
G21 (set units to mm)
G90 (set positioning to absolute)
M108 R5.0 (set extruder speed)
M103 (Make sure extruder is off)
M104 S225 T0 (set extruder temperature)
M109 S120 T0 (set heated-build-platform temperature)
(**** end initialization commands ****)
(**** begin homing ****)
G162 Z F1000 (home Z axis maximum)
G92 Z10 (set Z to 0)
G1 Z0.0 (move z down 10)
G162 Z F150 (home Z axis maximum)
G161 X Y F2500 (home XY axes minimum)
M132 X Y Z A B (Recall stored home offsets for XYZAB axis)
(**** end homing ****)
(**** begin pre-wipe commands ****)
( Some people have had problems with the nozzle hitting )
( bolts or wipers during this pre-extrusion warmup.     )
( If this happens to you, you can change the values for )
( the X and Y positions in the following code.          )
( The goal is to have the toolhead wipe its initial     )
( extrusion near the edge of the platform, [anchor it]  )
( so as not to have it interfere with the print.        )
( This file can be found in:                            )
( replicatorg/skein_engines/skeinforge-##/skeinforge_application/ )
( prefs/<profile name [e.g. Thingomatic-ABP-Mk7]>/alterations )
G1 X25.0 Y-60.0 Z10.0 F3300.0 (move to waiting position)
M6 T0 (wait for toolhead parts, nozzle, HBP, etc., to reach temperature)
G0 X25 Y-57 (Position Nozzle)
G0 Z0.6     (Position Height)
M108 R4.0   (Set Extruder Speed)
M101        (Start Extruder)
G4 P1500    (Create Anchor)
(**** end pre-wipe commands ****)
(**** end of start.gcode ****)
(</alteration>)
(<creation> skeinforge </creation>)
(<version> 10.11.05 </version>)
(<extruderInitialization>)
(<craftTypeName> extrusion </craftTypeName>)
M105
(<bridgeWidthMultiplier> 1.0 </bridgeWidthMultiplier>)
(<decimalPlacesCarried> 3 </decimalPlacesCarried>)
(<layerThickness> 0.32 </layerThickness>)
(<threadSequenceString> loops perimeter infill </threadSequenceString>)
(<operatingFeedRatePerSecond> 30.0 </operatingFeedRatePerSecond>)
(<operatingFlowRate> 3.56914845556 </operatingFlowRate>)
(<orbitalFeedRatePerSecond> 15.0 </orbitalFeedRatePerSecond>)
(<travelFeedRatePerSecond> 50.0 </travelFeedRatePerSecond>)
(<perimeterWidth> 0.393 </perimeterWidth>)
(<profileName> ABS </profileName>)
(<procedureDone> carve,bottom </procedureDone>)
(<procedureDone> preface </procedureDone>)
(<procedureDone> inset </procedureDone>)
(<procedureDone> fill </procedureDone>)
(<procedureDone> speed </procedureDone>)
(<procedureDone> raft </procedureDone>)
(<procedureDone> jitter </procedureDone>)
(<procedureDone> comb </procedureDone>)
(<procedureDone> cool </procedureDone>)
(<procedureDone> outline </procedureDone>)
(<procedureDone> reversal </procedureDone>)
(<procedureDone> export </procedureDone>)
(</extruderInitialization>)
(<extrusion>)
;M113 S1.0
M108 R3.569
(<layer> 0.46 )
(<surroundingLoop>)
(<boundaryPerimeter>)
(<boundaryPoint> X23.641 Y11.617 Z0.46 </boundaryPoint>)
(<boundaryPoint> X-23.675 Y11.617 Z0.46 </boundaryPoint>)
(<boundaryPoint> X-23.675 Y-11.617 Z0.46 </boundaryPoint>)
(<boundaryPoint> X23.641 Y-11.617 Z0.46 </boundaryPoint>)
(<loop> inner )
M108 R2.141
G1 X25.45 Y-13.42 Z0.46 F1080.0
M101
G1 X-25.48 Y-13.42 Z0.46 F1080.0
G1 X-25.48 Y13.42 Z0.46 F1080.0
G1 X25.45 Y13.42 Z0.46 F1080.0
G1 X25.45 Y-13.15 Z0.46 F1080.0
M108 R30.0
M102
G1 X25.45 Y-13.42 Z0.46 F1080.0
M108 R2.141
M103
G1 X-4.48 Y-0.41 Z0.46 F3000.0
M108 R30.0
M101
G1 X-5.21 Y-0.09 Z0.46 F3000.0
M108 R2.141
G1 X-5.73 Y-2.18 Z0.46 F1080.0
G1 X-7.22 Y-3.86 Z0.46 F1080.0
G1 X-9.31 Y-4.65 Z0.46 F1080.0
G1 X-11.54 Y-4.38 Z0.46 F1080.0
G1 X-13.39 Y-3.11 Z0.46 F1080.0
G1 X-14.43 Y-1.12 Z0.46 F1080.0
G1 X-14.43 Y1.12 Z0.46 F1080.0
G1 X-13.39 Y3.11 Z0.46 F1080.0
G1 X-11.54 Y4.38 Z0.46 F1080.0
G1 X-9.31 Y4.65 Z0.46 F1080.0
G1 X-7.22 Y3.86 Z0.46 F1080.0
G1 X-5.73 Y2.18 Z0.46 F1080.0
G1 X-5.23 Y0.17 Z0.46 F1080.0
M108 R30.0
M102
G1 X-5.19 Y-0.0 Z0.46 F1080.0
G1 X-5.21 Y-0.09 Z0.46 F1080.0
M108 R2.141
M103
(</loop>)
(<loop> outer )
G1 X-5.21 Y-10.23 Z0.46 F3000.0
M108 R30.0
M101
G1 X-5.21 Y-11.03 Z0.46 F3000.0
M108 R2.141
G1 X23.05 Y-11.03 Z0.46 F1080.0
G1 X23.05 Y11.03 Z0.46 F1080.0
G1 X-5.19 Y11.03 Z0.46 F1080.0
G1 X-23.09 Y11.03 Z0.46 F1080.0
G1 X-23.09 Y-11.03 Z0.46 F1080.0
G1 X-5.21 Y-11.03 Z0.46 F1080.0
M103
(</loop>)
(<perimeter> outer )
G1 X-5.21 Y-11.42 Z0.46 F3000.0
M101
G1 X23.45 Y-11.42 Z0.46 F1080.0
G1 X23.45 Y11.42 Z0.46 F1080.0
G1 X-5.19 Y11.42 Z0.46 F1080.0
G1 X-23.48 Y11.42 Z0.46 F1080.0
G1 X-23.48 Y-11.42 Z0.46 F1080.0
G1 X-5.48 Y-11.42 Z0.46 F1080.0
M108 R30.0
M102
G1 X-5.21 Y-11.42 Z0.46 F1080.0
M108 R2.141
M103
(</perimeter>)
(</boundaryPerimeter>)
(<surroundingLoop>)
(<boundaryPerimeter>)
(<boundaryPoint> X-11.325 Y3.815 Z0.46 </boundaryPoint>)
(<boundaryPoint> X-9.386 Y4.05 Z0.46 </boundaryPoint>)
(<boundaryPoint> X-7.56 Y3.358 Z0.46 </boundaryPoint>)
(<boundaryPoint> X-6.266 Y1.896 Z0.46 </boundaryPoint>)
(<boundaryPoint> X-5.798 Y0.0 Z0.46 </boundaryPoint>)
(<boundaryPoint> X-6.266 Y-1.896 Z0.46 </boundaryPoint>)
(<boundaryPoint> X-7.56 Y-3.358 Z0.46 </boundaryPoint>)
(<boundaryPoint> X-9.386 Y-4.05 Z0.46 </boundaryPoint>)
(<boundaryPoint> X-11.325 Y-3.815 Z0.46 </boundaryPoint>)
(<boundaryPoint> X-12.932 Y-2.706 Z0.46 </boundaryPoint>)
(<boundaryPoint> X-13.84 Y-0.976 Z0.46 </boundaryPoint>)
(<boundaryPoint> X-13.84 Y0.976 Z0.46 </boundaryPoint>)
(<boundaryPoint> X-12.932 Y2.706 Z0.46 </boundaryPoint>)
(<perimeter> inner )
G1 X-7.83 Y-4.52 Z0.46 F3000.0
M108 R30.0
M101
G1 X-8.11 Y-3.78 Z0.46 F3000.0
M108 R2.141
G1 X-9.36 Y-4.25 Z0.46 F1080.0
G1 X-11.4 Y-4.0 Z0.46 F1080.0
G1 X-13.08 Y-2.84 Z0.46 F1080.0
G1 X-14.04 Y-1.02 Z0.46 F1080.0
G1 X-14.04 Y1.02 Z0.46 F1080.0
G1 X-13.08 Y2.84 Z0.46 F1080.0
G1 X-11.4 Y4.0 Z0.46 F1080.0
G1 X-9.36 Y4.25 Z0.46 F1080.0
G1 X-8.09 Y3.77 Z0.46 F1080.0
G1 X-7.45 Y3.53 Z0.46 F1080.0
G1 X-6.09 Y1.99 Z0.46 F1080.0
G1 X-5.6 Y0.0 Z0.46 F1080.0
G1 X-6.09 Y-1.99 Z0.46 F1080.0
G1 X-7.45 Y-3.53 Z0.46 F1080.0
G1 X-7.86 Y-3.68 Z0.46 F1080.0
M108 R30.0
M102
G1 X-8.11 Y-3.78 Z0.46 F1080.0
M108 R2.141
M103
(</perimeter>)
(</boundaryPerimeter>)
(</surroundingLoop>)
G1 X-7.41 Y-3.58 Z0.46 F3000.0
G1 X-6.03 Y-2.02 Z0.46 F3000.0
G1 X-5.53 Y0.0 Z0.46 F3000.0
G1 X-6.03 Y2.02 Z0.46 F3000.0
G1 X-7.56 Y3.99 Z0.46 F1800.0
M108 R30.0
M101
G1 X-7.85 Y4.37 Z0.46 F1800.0
M108 R2.141
G1 X-7.85 Y10.77 Z0.46 F1080.0
G1 X-7.46 Y10.77 Z0.46 F1080.0
G1 X-7.46 Y4.22 Z0.46 F1080.0
G1 X-7.07 Y4.08 Z0.46 F1080.0
G1 X-7.07 Y10.77 Z0.46 F1080.0
G1 X-6.68 Y10.77 Z0.46 F1080.0
G1 X-6.68 Y3.63 Z0.46 F1080.0
G1 X-6.28 Y3.19 Z0.46 F1080.0
G1 X-6.28 Y10.77 Z0.46 F1080.0
G1 X-5.89 Y10.77 Z0.46 F1080.0
G1 X-5.89 Y2.75 Z0.46 F1080.0
G1 X-5.5 Y2.3 Z0.46 F1080.0
G1 X-5.5 Y10.5 Z0.46 F1080.0
M108 R30.0
M102
G1 X-5.5 Y10.77 Z0.46 F1080.0
M108 R2.141
M103
G1 X-8.42 Y5.1 Z0.46 F1800.0
M108 R30.0
M101
G1 X-8.64 Y4.67 Z0.46 F1800.0
M108 R2.141
G1 X-8.64 Y10.77 Z0.46 F1080.0
G1 X-8.25 Y10.77 Z0.46 F1080.0
G1 X-8.25 Y4.79 Z0.46 F1080.0
M108 R30.0
M102
G1 X-8.25 Y4.52 Z0.46 F1080.0
M108 R2.141
M103
G1 X-8.97 Y4.75 Z0.46 F1800.0
M108 R30.0
M101
G1 X-9.43 Y4.9 Z0.46 F1800.0
M108 R2.141
G1 X-9.43 Y10.77 Z0.46 F1080.0
G1 X-9.03 Y10.77 Z0.46 F1080.0
G1 X-9.03 Y5.09 Z0.46 F1080.0
M108 R30.0
M102
G1 X-9.03 Y4.82 Z0.46 F1080.0
M108 R2.141
M103
G1 X-9.73 Y4.81 Z0.46 F1800.0
M108 R30.0
M101
G1 X-10.21 Y4.8 Z0.46 F1800.0
M108 R2.141
G1 X-10.21 Y10.77 Z0.46 F1080.0
G1 X-9.82 Y10.77 Z0.46 F1080.0
G1 X-9.82 Y5.12 Z0.46 F1080.0
M108 R30.0
M102
G1 X-9.82 Y4.85 Z0.46 F1080.0
M108 R2.141
M103
G1 X-10.52 Y4.76 Z0.46 F1800.0
M108 R30.0
M101
G1 X-11.0 Y4.71 Z0.46 F1800.0
M108 R2.141
G1 X-11.0 Y10.77 Z0.46 F1080.0
G1 X-10.6 Y10.77 Z0.46 F1080.0
G1 X-10.6 Y5.02 Z0.46 F1080.0
M108 R30.0
M102
G1 X-10.6 Y4.75 Z0.46 F1080.0
M108 R2.141
M103
G1 X-12.92 Y3.65 Z0.46 F1800.0
M108 R30.0
M101
G1 X-13.35 Y3.44 Z0.46 F1800.0
M108 R2.141
G1 X-13.35 Y10.77 Z0.46 F1080.0
G1 X-12.96 Y10.77 Z0.46 F1080.0
G1 X-12.96 Y3.71 Z0.46 F1080.0
G1 X-12.57 Y3.99 Z0.46 F1080.0
G1 X-12.57 Y10.77 Z0.46 F1080.0
G1 X-12.17 Y10.77 Z0.46 F1080.0
G1 X-12.17 Y4.26 Z0.46 F1080.0
G1 X-11.78 Y4.53 Z0.46 F1080.0
G1 X-11.78 Y10.77 Z0.46 F1080.0
G1 X-11.39 Y10.77 Z0.46 F1080.0
G1 X-11.39 Y4.93 Z0.46 F1080.0
M108 R30.0
M102
G1 X-11.39 Y4.66 Z0.46 F1080.0
M108 R2.141
M103
G1 X-13.78 Y2.55 Z0.46 F1800.0
M108 R30.0
M101
G1 X-14.14 Y2.23 Z0.46 F1800.0
M108 R2.141
G1 X-14.14 Y10.77 Z0.46 F1080.0
G1 X-13.74 Y10.77 Z0.46 F1080.0
G1 X-13.74 Y3.25 Z0.46 F1080.0
M108 R30.0
M102
G1 X-13.74 Y2.98 Z0.46 F1080.0
M108 R2.141
M103
G1 X-14.45 Y-1.01 Z0.46 F1800.0
M108 R30.0
M101
G1 X-14.53 Y-1.48 Z0.46 F1800.0
M108 R2.141
G1 X-14.53 Y-10.77 Z0.46 F1080.0
G1 X-14.92 Y-10.77 Z0.46 F1080.0
G1 X-14.92 Y10.77 Z0.46 F1080.0
G1 X-14.53 Y10.77 Z0.46 F1080.0
G1 X-14.53 Y1.75 Z0.46 F1080.0
M108 R30.0
M102
G1 X-14.53 Y1.48 Z0.46 F1080.0
M108 R2.141
M103
G1 X-13.83 Y-2.5 Z0.46 F1800.0
M108 R30.0
M101
G1 X-13.74 Y-2.98 Z0.46 F1800.0
M108 R2.141
G1 X-13.74 Y-10.77 Z0.46 F1080.0
G1 X-14.14 Y-10.77 Z0.46 F1080.0
G1 X-14.14 Y-2.5 Z0.46 F1080.0
M108 R30.0
M102
G1 X-14.14 Y-2.23 Z0.46 F1080.0
M108 R2.141
M103
G1 X-11.75 Y-4.34 Z0.46 F1800.0
M108 R30.0
M101
G1 X-11.39 Y-4.66 Z0.46 F1800.0
M108 R2.141
G1 X-11.39 Y-10.77 Z0.46 F1080.0
G1 X-11.78 Y-10.77 Z0.46 F1080.0
G1 X-11.78 Y-4.53 Z0.46 F1080.0
G1 X-12.17 Y-4.26 Z0.46 F1080.0
G1 X-12.17 Y-10.77 Z0.46 F1080.0
G1 X-12.57 Y-10.77 Z0.46 F1080.0
G1 X-12.57 Y-3.99 Z0.46 F1080.0
G1 X-12.96 Y-3.71 Z0.46 F1080.0
G1 X-12.96 Y-10.77 Z0.46 F1080.0
G1 X-13.35 Y-10.77 Z0.46 F1080.0
G1 X-13.35 Y-3.71 Z0.46 F1080.0
M108 R30.0
M102
G1 X-13.35 Y-3.44 Z0.46 F1080.0
M108 R2.141
M103
G1 X-11.04 Y-4.55 Z0.46 F1800.0
M108 R30.0
M101
G1 X-10.6 Y-4.75 Z0.46 F1800.0
M108 R2.141
G1 X-10.6 Y-10.77 Z0.46 F1080.0
G1 X-11.0 Y-10.77 Z0.46 F1080.0
G1 X-11.0 Y-4.98 Z0.46 F1080.0
M108 R30.0
M102
G1 X-11.0 Y-4.71 Z0.46 F1080.0
M108 R2.141
M103
G1 X-10.29 Y-4.79 Z0.46 F1800.0
M108 R30.0
M101
G1 X-9.82 Y-4.85 Z0.46 F1800.0
M108 R2.141
G1 X-9.82 Y-10.77 Z0.46 F1080.0
G1 X-10.21 Y-10.77 Z0.46 F1080.0
G1 X-10.21 Y-5.07 Z0.46 F1080.0
M108 R30.0
M102
G1 X-10.21 Y-4.8 Z0.46 F1080.0
M108 R2.141
M103
G1 X-9.51 Y-4.81 Z0.46 F1800.0
M108 R30.0
M101
G1 X-9.03 Y-4.82 Z0.46 F1800.0
M108 R2.141
G1 X-9.03 Y-10.77 Z0.46 F1080.0
G1 X-9.43 Y-10.77 Z0.46 F1080.0
G1 X-9.43 Y-5.17 Z0.46 F1080.0
M108 R30.0
M102
G1 X-9.43 Y-4.9 Z0.46 F1080.0
M108 R2.141
M103
G1 X-8.7 Y-4.67 Z0.46 F1800.0
M108 R30.0
M101
G1 X-8.25 Y-4.52 Z0.46 F1800.0
M108 R2.141
G1 X-8.25 Y-10.77 Z0.46 F1080.0
G1 X-8.64 Y-10.77 Z0.46 F1080.0
G1 X-8.64 Y-4.94 Z0.46 F1080.0
M108 R30.0
M102
G1 X-8.64 Y-4.67 Z0.46 F1080.0
M108 R2.141
M103
G1 X-5.43 Y-1.08 Z0.46 F1800.0
M108 R30.0
M101
G1 X-5.11 Y-0.72 Z0.46 F1800.0
M108 R2.141
G1 X-5.11 Y-10.77 Z0.46 F1080.0
G1 X-5.5 Y-10.77 Z0.46 F1080.0
G1 X-5.5 Y-2.3 Z0.46 F1080.0
G1 X-5.89 Y-2.75 Z0.46 F1080.0
G1 X-5.89 Y-10.77 Z0.46 F1080.0
G1 X-6.28 Y-10.77 Z0.46 F1080.0
G1 X-6.28 Y-3.19 Z0.46 F1080.0
G1 X-6.68 Y-3.63 Z0.46 F1080.0
G1 X-6.68 Y-10.77 Z0.46 F1080.0
G1 X-7.07 Y-10.77 Z0.46 F1080.0
G1 X-7.07 Y-4.08 Z0.46 F1080.0
G1 X-7.46 Y-4.22 Z0.46 F1080.0
G1 X-7.46 Y-10.77 Z0.46 F1080.0
G1 X-7.85 Y-10.77 Z0.46 F1080.0
G1 X-7.85 Y-4.64 Z0.46 F1080.0
M108 R30.0
M102
G1 X-7.85 Y-4.37 Z0.46 F1080.0
M108 R2.141
M103
G1 X22.31 Y-10.67 Z0.46 F1800.0
M108 R30.0
M101
G1 X22.78 Y-10.77 Z0.46 F1800.0
M108 R2.141
G1 X22.78 Y10.77 Z0.46 F1080.0
G1 X22.38 Y10.77 Z0.46 F1080.0
G1 X22.38 Y-10.77 Z0.46 F1080.0
G1 X21.99 Y-10.77 Z0.46 F1080.0
G1 X21.99 Y10.77 Z0.46 F1080.0
G1 X21.6 Y10.77 Z0.46 F1080.0
G1 X21.6 Y-10.77 Z0.46 F1080.0
G1 X21.21 Y-10.77 Z0.46 F1080.0
G1 X21.21 Y10.77 Z0.46 F1080.0
G1 X20.81 Y10.77 Z0.46 F1080.0
G1 X20.81 Y-10.77 Z0.46 F1080.0
G1 X20.42 Y-10.77 Z0.46 F1080.0
G1 X20.42 Y10.77 Z0.46 F1080.0
G1 X20.03 Y10.77 Z0.46 F1080.0
G1 X20.03 Y-10.77 Z0.46 F1080.0
G1 X19.64 Y-10.77 Z0.46 F1080.0
G1 X19.64 Y10.77 Z0.46 F1080.0
G1 X19.24 Y10.77 Z0.46 F1080.0
G1 X19.24 Y-10.77 Z0.46 F1080.0
G1 X18.85 Y-10.77 Z0.46 F1080.0
G1 X18.85 Y10.77 Z0.46 F1080.0
G1 X18.46 Y10.77 Z0.46 F1080.0
G1 X18.46 Y-10.77 Z0.46 F1080.0
G1 X18.06 Y-10.77 Z0.46 F1080.0
G1 X18.06 Y10.77 Z0.46 F1080.0
G1 X17.67 Y10.77 Z0.46 F1080.0
G1 X17.67 Y-10.77 Z0.46 F1080.0
G1 X17.28 Y-10.77 Z0.46 F1080.0
G1 X17.28 Y10.77 Z0.46 F1080.0
G1 X16.89 Y10.77 Z0.46 F1080.0
G1 X16.89 Y-10.77 Z0.46 F1080.0
G1 X16.49 Y-10.77 Z0.46 F1080.0
G1 X16.49 Y10.77 Z0.46 F1080.0
G1 X16.1 Y10.77 Z0.46 F1080.0
G1 X16.1 Y-10.77 Z0.46 F1080.0
G1 X15.71 Y-10.77 Z0.46 F1080.0
G1 X15.71 Y10.77 Z0.46 F1080.0
G1 X15.32 Y10.77 Z0.46 F1080.0
G1 X15.32 Y-10.77 Z0.46 F1080.0
G1 X14.92 Y-10.77 Z0.46 F1080.0
G1 X14.92 Y10.77 Z0.46 F1080.0
G1 X14.53 Y10.77 Z0.46 F1080.0
G1 X14.53 Y-10.77 Z0.46 F1080.0
G1 X14.14 Y-10.77 Z0.46 F1080.0
G1 X14.14 Y10.77 Z0.46 F1080.0
G1 X13.74 Y10.77 Z0.46 F1080.0
G1 X13.74 Y-10.77 Z0.46 F1080.0
G1 X13.35 Y-10.77 Z0.46 F1080.0
G1 X13.35 Y10.77 Z0.46 F1080.0
G1 X12.96 Y10.77 Z0.46 F1080.0
G1 X12.96 Y-10.77 Z0.46 F1080.0
G1 X12.57 Y-10.77 Z0.46 F1080.0
G1 X12.57 Y10.77 Z0.46 F1080.0
G1 X12.17 Y10.77 Z0.46 F1080.0
G1 X12.17 Y-10.77 Z0.46 F1080.0
G1 X11.78 Y-10.77 Z0.46 F1080.0
G1 X11.78 Y10.77 Z0.46 F1080.0
G1 X11.39 Y10.77 Z0.46 F1080.0
G1 X11.39 Y-10.77 Z0.46 F1080.0
G1 X11.0 Y-10.77 Z0.46 F1080.0
G1 X11.0 Y10.77 Z0.46 F1080.0
G1 X10.6 Y10.77 Z0.46 F1080.0
G1 X10.6 Y-10.77 Z0.46 F1080.0
G1 X10.21 Y-10.77 Z0.46 F1080.0
G1 X10.21 Y10.77 Z0.46 F1080.0
G1 X9.82 Y10.77 Z0.46 F1080.0
G1 X9.82 Y-10.77 Z0.46 F1080.0
G1 X9.43 Y-10.77 Z0.46 F1080.0
G1 X9.43 Y10.77 Z0.46 F1080.0
G1 X9.03 Y10.77 Z0.46 F1080.0
G1 X9.03 Y-10.77 Z0.46 F1080.0
G1 X8.64 Y-10.77 Z0.46 F1080.0
G1 X8.64 Y10.77 Z0.46 F1080.0
G1 X8.25 Y10.77 Z0.46 F1080.0
G1 X8.25 Y-10.77 Z0.46 F1080.0
G1 X7.85 Y-10.77 Z0.46 F1080.0
G1 X7.85 Y10.77 Z0.46 F1080.0
G1 X7.46 Y10.77 Z0.46 F1080.0
G1 X7.46 Y-10.77 Z0.46 F1080.0
G1 X7.07 Y-10.77 Z0.46 F1080.0
G1 X7.07 Y10.77 Z0.46 F1080.0
G1 X6.68 Y10.77 Z0.46 F1080.0
G1 X6.68 Y-10.77 Z0.46 F1080.0
G1 X6.28 Y-10.77 Z0.46 F1080.0
G1 X6.28 Y10.77 Z0.46 F1080.0
G1 X5.89 Y10.77 Z0.46 F1080.0
G1 X5.89 Y-10.77 Z0.46 F1080.0
G1 X5.5 Y-10.77 Z0.46 F1080.0
G1 X5.5 Y10.77 Z0.46 F1080.0
G1 X5.11 Y10.77 Z0.46 F1080.0
G1 X5.11 Y-10.77 Z0.46 F1080.0
G1 X4.71 Y-10.77 Z0.46 F1080.0
G1 X4.71 Y10.77 Z0.46 F1080.0
G1 X4.32 Y10.77 Z0.46 F1080.0
G1 X4.32 Y-10.77 Z0.46 F1080.0
G1 X3.93 Y-10.77 Z0.46 F1080.0
G1 X3.93 Y10.77 Z0.46 F1080.0
G1 X3.53 Y10.77 Z0.46 F1080.0
G1 X3.53 Y-10.77 Z0.46 F1080.0
G1 X3.14 Y-10.77 Z0.46 F1080.0
G1 X3.14 Y10.77 Z0.46 F1080.0
G1 X2.75 Y10.77 Z0.46 F1080.0
G1 X2.75 Y-10.77 Z0.46 F1080.0
G1 X2.36 Y-10.77 Z0.46 F1080.0
G1 X2.36 Y10.77 Z0.46 F1080.0
G1 X1.96 Y10.77 Z0.46 F1080.0
G1 X1.96 Y-10.77 Z0.46 F1080.0
G1 X1.57 Y-10.77 Z0.46 F1080.0
G1 X1.57 Y10.77 Z0.46 F1080.0
G1 X1.18 Y10.77 Z0.46 F1080.0
G1 X1.18 Y-10.77 Z0.46 F1080.0
G1 X0.79 Y-10.77 Z0.46 F1080.0
G1 X0.79 Y10.77 Z0.46 F1080.0
G1 X0.39 Y10.77 Z0.46 F1080.0
G1 X0.39 Y-10.77 Z0.46 F1080.0
G1 X-0.0 Y-10.77 Z0.46 F1080.0
G1 X0.0 Y10.77 Z0.46 F1080.0
G1 X-0.39 Y10.77 Z0.46 F1080.0
G1 X-0.39 Y-10.77 Z0.46 F1080.0
G1 X-0.79 Y-10.77 Z0.46 F1080.0
G1 X-0.79 Y10.77 Z0.46 F1080.0
G1 X-1.18 Y10.77 Z0.46 F1080.0
G1 X-1.18 Y-10.77 Z0.46 F1080.0
G1 X-1.57 Y-10.77 Z0.46 F1080.0
G1 X-1.57 Y10.77 Z0.46 F1080.0
G1 X-1.96 Y10.77 Z0.46 F1080.0
G1 X-1.96 Y-10.77 Z0.46 F1080.0
G1 X-2.36 Y-10.77 Z0.46 F1080.0
G1 X-2.36 Y10.77 Z0.46 F1080.0
G1 X-2.75 Y10.77 Z0.46 F1080.0
G1 X-2.75 Y-10.77 Z0.46 F1080.0
G1 X-3.14 Y-10.77 Z0.46 F1080.0
G1 X-3.14 Y10.77 Z0.46 F1080.0
G1 X-3.53 Y10.77 Z0.46 F1080.0
G1 X-3.53 Y-10.77 Z0.46 F1080.0
G1 X-3.93 Y-10.77 Z0.46 F1080.0
G1 X-3.93 Y10.77 Z0.46 F1080.0
G1 X-4.32 Y10.77 Z0.46 F1080.0
G1 X-4.32 Y-10.77 Z0.46 F1080.0
G1 X-4.71 Y-10.77 Z0.46 F1080.0
G1 X-4.71 Y10.77 Z0.46 F1080.0
G1 X-5.11 Y10.77 Z0.46 F1080.0
G1 X-5.11 Y0.99 Z0.46 F1080.0
M108 R30.0
M102
G1 X-5.11 Y0.72 Z0.46 F1080.0
M108 R2.141
M103
G1 X-7.41 Y3.58 Z0.46 F3000.0
G1 X-14.96 Y10.45 Z0.46 F1800.0
M108 R30.0
M101
G1 X-15.32 Y10.77 Z0.46 F1800.0
M108 R2.141
G1 X-15.32 Y-10.77 Z0.46 F1080.0
G1 X-15.71 Y-10.77 Z0.46 F1080.0
G1 X-15.71 Y10.77 Z0.46 F1080.0
G1 X-16.1 Y10.77 Z0.46 F1080.0
G1 X-16.1 Y-10.77 Z0.46 F1080.0
G1 X-16.49 Y-10.77 Z0.46 F1080.0
G1 X-16.49 Y10.77 Z0.46 F1080.0
G1 X-16.89 Y10.77 Z0.46 F1080.0
G1 X-16.89 Y-10.77 Z0.46 F1080.0
G1 X-17.28 Y-10.77 Z0.46 F1080.0
G1 X-17.28 Y10.77 Z0.46 F1080.0
G1 X-17.67 Y10.77 Z0.46 F1080.0
G1 X-17.67 Y-10.77 Z0.46 F1080.0
G1 X-18.06 Y-10.77 Z0.46 F1080.0
G1 X-18.06 Y10.77 Z0.46 F1080.0
G1 X-18.46 Y10.77 Z0.46 F1080.0
G1 X-18.46 Y-10.77 Z0.46 F1080.0
G1 X-18.85 Y-10.77 Z0.46 F1080.0
G1 X-18.85 Y10.77 Z0.46 F1080.0
G1 X-19.24 Y10.77 Z0.46 F1080.0
G1 X-19.24 Y-10.77 Z0.46 F1080.0
G1 X-19.64 Y-10.77 Z0.46 F1080.0
G1 X-19.64 Y10.77 Z0.46 F1080.0
G1 X-20.03 Y10.77 Z0.46 F1080.0
G1 X-20.03 Y-10.77 Z0.46 F1080.0
G1 X-20.42 Y-10.77 Z0.46 F1080.0
G1 X-20.42 Y10.77 Z0.46 F1080.0
G1 X-20.81 Y10.77 Z0.46 F1080.0
G1 X-20.81 Y-10.77 Z0.46 F1080.0
G1 X-21.21 Y-10.77 Z0.46 F1080.0
G1 X-21.21 Y10.77 Z0.46 F1080.0
G1 X-21.6 Y10.77 Z0.46 F1080.0
G1 X-21.6 Y-10.77 Z0.46 F1080.0
G1 X-21.99 Y-10.77 Z0.46 F1080.0
G1 X-21.99 Y10.77 Z0.46 F1080.0
G1 X-22.38 Y10.77 Z0.46 F1080.0
G1 X-22.38 Y-10.77 Z0.46 F1080.0
G1 X-22.78 Y-10.77 Z0.46 F1080.0
G1 X-22.78 Y10.5 Z0.46 F1080.0
M108 R30.0
M102
G1 X-22.78 Y10.77 Z0.46 F1080.0
M108 R2.141
M103
(</surroundingLoop>)
(</layer>)
(<layer> 0.78 )
(<surroundingLoop>)
(<boundaryPerimeter>)
(<boundaryPoint> X23.641 Y11.617 Z0.78 </boundaryPoint>)
(<boundaryPoint> X-23.675 Y11.617 Z0.78 </boundaryPoint>)
(<boundaryPoint> X-23.675 Y-11.617 Z0.78 </boundaryPoint>)
(<boundaryPoint> X23.641 Y-11.617 Z0.78 </boundaryPoint>)
(<loop> inner )
M108 R3.569
G1 X-14.09 Y3.44 Z0.76 F3000.0
M108 R30.0
M101
G1 X-13.48 Y2.93 Z0.78 F3000.0
M108 R3.569
G1 X-13.39 Y3.11 Z0.78 F1800.0
G1 X-11.54 Y4.38 Z0.78 F1800.0
G1 X-9.31 Y4.65 Z0.78 F1800.0
G1 X-7.22 Y3.86 Z0.78 F1800.0
G1 X-5.73 Y2.18 Z0.78 F1800.0
G1 X-5.19 Y-0.0 Z0.78 F1800.0
G1 X-5.73 Y-2.18 Z0.78 F1800.0
G1 X-7.22 Y-3.86 Z0.78 F1800.0
G1 X-9.31 Y-4.65 Z0.78 F1800.0
G1 X-11.54 Y-4.38 Z0.78 F1800.0
G1 X-13.39 Y-3.11 Z0.78 F1800.0
G1 X-14.43 Y-1.12 Z0.78 F1800.0
G1 X-14.43 Y1.12 Z0.78 F1800.0
G1 X-13.69 Y2.53 Z0.78 F1800.0
M108 R30.0
M102
G1 X-13.48 Y2.93 Z0.78 F1800.0
M108 R3.569
M103
(</loop>)
(<loop> outer )
G1 X-13.4 Y10.23 Z0.78 F3000.0
M108 R30.0
M101
G1 X-13.39 Y11.03 Z0.78 F3000.0
M108 R3.569
G1 X-23.09 Y11.03 Z0.78 F1800.0
G1 X-23.09 Y-11.03 Z0.78 F1800.0
G1 X23.05 Y-11.03 Z0.78 F1800.0
G1 X23.05 Y11.03 Z0.78 F1800.0
G1 X-13.39 Y11.03 Z0.78 F1800.0
M103
(</loop>)
(<perimeter> outer )
G1 X-13.39 Y11.42 Z0.78 F3000.0
M101
G1 X-23.48 Y11.42 Z0.78 F1800.0
G1 X-23.48 Y-11.42 Z0.78 F1800.0
G1 X23.45 Y-11.42 Z0.78 F1800.0
G1 X23.45 Y11.42 Z0.78 F1800.0
G1 X-12.94 Y11.42 Z0.78 F1800.0
M108 R30.0
M102
G1 X-13.39 Y11.42 Z0.78 F1800.0
M108 R3.569
M103
(</perimeter>)
(</boundaryPerimeter>)
(<surroundingLoop>)
(<boundaryPerimeter>)
(<boundaryPoint> X-11.325 Y3.815 Z0.78 </boundaryPoint>)
(<boundaryPoint> X-9.386 Y4.05 Z0.78 </boundaryPoint>)
(<boundaryPoint> X-7.56 Y3.358 Z0.78 </boundaryPoint>)
(<boundaryPoint> X-6.266 Y1.896 Z0.78 </boundaryPoint>)
(<boundaryPoint> X-5.798 Y0.0 Z0.78 </boundaryPoint>)
(<boundaryPoint> X-6.266 Y-1.896 Z0.78 </boundaryPoint>)
(<boundaryPoint> X-7.56 Y-3.358 Z0.78 </boundaryPoint>)
(<boundaryPoint> X-9.386 Y-4.05 Z0.78 </boundaryPoint>)
(<boundaryPoint> X-11.325 Y-3.815 Z0.78 </boundaryPoint>)
(<boundaryPoint> X-12.932 Y-2.706 Z0.78 </boundaryPoint>)
(<boundaryPoint> X-13.84 Y-0.976 Z0.78 </boundaryPoint>)
(<boundaryPoint> X-13.84 Y0.976 Z0.78 </boundaryPoint>)
(<boundaryPoint> X-12.932 Y2.706 Z0.78 </boundaryPoint>)
(<perimeter> inner )
G1 X-11.6 Y4.78 Z0.78 F3000.0
M108 R30.0
M101
G1 X-11.4 Y4.0 Z0.78 F3000.0
M108 R3.569
G1 X-9.36 Y4.25 Z0.78 F1800.0
G1 X-7.45 Y3.53 Z0.78 F1800.0
G1 X-6.09 Y1.99 Z0.78 F1800.0
G1 X-5.6 Y0.0 Z0.78 F1800.0
G1 X-6.09 Y-1.99 Z0.78 F1800.0
G1 X-7.45 Y-3.53 Z0.78 F1800.0
G1 X-9.36 Y-4.25 Z0.78 F1800.0
G1 X-11.4 Y-4.0 Z0.78 F1800.0
G1 X-13.08 Y-2.84 Z0.78 F1800.0
G1 X-14.04 Y-1.02 Z0.78 F1800.0
G1 X-14.04 Y1.02 Z0.78 F1800.0
G1 X-13.08 Y2.84 Z0.78 F1800.0
G1 X-11.4 Y4.0 Z0.78 F1800.0
M103
(</perimeter>)
(</boundaryPerimeter>)
(</surroundingLoop>)
G1 X-12.08 Y4.32 Z0.78 F3000.0
M101
G1 X-22.83 Y4.32 Z0.78 F1800.0
G1 X-22.83 Y3.93 Z0.78 F1800.0
G1 X-12.65 Y3.93 Z0.78 F1800.0
G1 X-13.22 Y3.53 Z0.78 F1800.0
G1 X-22.83 Y3.53 Z0.78 F1800.0
G1 X-22.83 Y3.14 Z0.78 F1800.0
G1 X-13.66 Y3.14 Z0.78 F1800.0
G1 X-13.86 Y2.75 Z0.78 F1800.0
G1 X-22.83 Y2.75 Z0.78 F1800.0
G1 X-22.83 Y2.36 Z0.78 F1800.0
G1 X-14.07 Y2.36 Z0.78 F1800.0
M103
G1 X-14.28 Y1.96 Z0.78 F3000.0
M101
G1 X-22.83 Y1.96 Z0.78 F1800.0
G1 X-22.83 Y1.57 Z0.78 F1800.0
G1 X-14.48 Y1.57 Z0.78 F1800.0
G1 X-14.69 Y1.18 Z0.78 F1800.0
G1 X-22.83 Y1.18 Z0.78 F1800.0
G1 X-22.83 Y0.79 Z0.78 F1800.0
G1 X-14.69 Y0.79 Z0.78 F1800.0
G1 X-14.69 Y0.39 Z0.78 F1800.0
G1 X-22.83 Y0.39 Z0.78 F1800.0
G1 X-22.83 Y0.0 Z0.78 F1800.0
G1 X-14.69 Y0.0 Z0.78 F1800.0
G1 X-14.69 Y-0.39 Z0.78 F1800.0
G1 X-22.83 Y-0.39 Z0.78 F1800.0
G1 X-22.83 Y-0.79 Z0.78 F1800.0
G1 X-14.69 Y-0.79 Z0.78 F1800.0
G1 X-14.69 Y-1.18 Z0.78 F1800.0
G1 X-22.83 Y-1.18 Z0.78 F1800.0
G1 X-22.83 Y-1.57 Z0.78 F1800.0
G1 X-14.48 Y-1.57 Z0.78 F1800.0
M103
G1 X-14.28 Y-1.96 Z0.78 F3000.0
M101
G1 X-22.83 Y-1.96 Z0.78 F1800.0
G1 X-22.83 Y-2.36 Z0.78 F1800.0
G1 X-14.07 Y-2.36 Z0.78 F1800.0
G1 X-13.86 Y-2.75 Z0.78 F1800.0
G1 X-22.83 Y-2.75 Z0.78 F1800.0
G1 X-22.83 Y-3.14 Z0.78 F1800.0
G1 X-13.66 Y-3.14 Z0.78 F1800.0
M103
G1 X-13.22 Y-3.53 Z0.78 F3000.0
M101
G1 X-22.83 Y-3.53 Z0.78 F1800.0
G1 X-22.83 Y-3.93 Z0.78 F1800.0
G1 X-12.65 Y-3.93 Z0.78 F1800.0
M103
G1 X-12.08 Y-4.32 Z0.78 F3000.0
M101
G1 X-22.83 Y-4.32 Z0.78 F1800.0
G1 X-22.83 Y-4.71 Z0.78 F1800.0
G1 X-11.39 Y-4.71 Z0.78 F1800.0
M108 R30.0
M102
G1 X-10.94 Y-4.71 Z0.78 F1800.0
M108 R3.569
M103
G1 X-9.55 Y-4.71 Z0.78 F3000.0
M108 R30.0
M101
G1 X-8.75 Y-4.71 Z0.78 F3000.0
M108 R3.569
G1 X22.8 Y-4.71 Z0.78 F1800.0
M103
G1 X22.8 Y-5.11 Z0.78 F3000.0
M101
G1 X-22.83 Y-5.11 Z0.78 F1800.0
G1 X-22.83 Y-5.5 Z0.78 F1800.0
G1 X22.8 Y-5.5 Z0.78 F1800.0
M103
G1 X22.8 Y-5.89 Z0.78 F3000.0
M101
G1 X-22.83 Y-5.89 Z0.78 F1800.0
G1 X-22.83 Y-6.28 Z0.78 F1800.0
G1 X22.8 Y-6.28 Z0.78 F1800.0
M103
G1 X22.8 Y-6.68 Z0.78 F3000.0
M101
G1 X-22.83 Y-6.68 Z0.78 F1800.0
G1 X-22.83 Y-7.07 Z0.78 F1800.0
G1 X22.8 Y-7.07 Z0.78 F1800.0
M103
G1 X22.8 Y-7.46 Z0.78 F3000.0
M101
G1 X-22.83 Y-7.46 Z0.78 F1800.0
G1 X-22.83 Y-7.85 Z0.78 F1800.0
G1 X22.8 Y-7.85 Z0.78 F1800.0
M103
G1 X22.8 Y-8.25 Z0.78 F3000.0
M101
G1 X-22.83 Y-8.25 Z0.78 F1800.0
G1 X-22.83 Y-8.64 Z0.78 F1800.0
G1 X22.8 Y-8.64 Z0.78 F1800.0
M103
G1 X22.8 Y-9.03 Z0.78 F3000.0
M101
G1 X-22.83 Y-9.03 Z0.78 F1800.0
G1 X-22.83 Y-9.43 Z0.78 F1800.0
G1 X22.8 Y-9.43 Z0.78 F1800.0
M103
G1 X22.8 Y-9.82 Z0.78 F3000.0
M101
G1 X-22.83 Y-9.82 Z0.78 F1800.0
G1 X-22.83 Y-10.21 Z0.78 F1800.0
G1 X22.8 Y-10.21 Z0.78 F1800.0
M103
G1 X22.8 Y-10.6 Z0.78 F3000.0
M101
G1 X-22.38 Y-10.6 Z0.78 F1800.0
M108 R30.0
M102
G1 X-22.83 Y-10.6 Z0.78 F1800.0
M108 R3.569
M103
G1 X22.0 Y-4.43 Z0.78 F3000.0
M108 R30.0
M101
G1 X22.8 Y-4.32 Z0.78 F3000.0
M108 R3.569
G1 X-7.71 Y-4.32 Z0.78 F1800.0
M103
G1 X-6.94 Y-3.93 Z0.78 F3000.0
M101
G1 X22.8 Y-3.93 Z0.78 F1800.0
M103
G1 X22.8 Y-3.53 Z0.78 F3000.0
M101
G1 X-6.59 Y-3.53 Z0.78 F1800.0
G1 X-6.24 Y-3.14 Z0.78 F1800.0
G1 X22.8 Y-3.14 Z0.78 F1800.0
M103
G1 X22.8 Y-2.75 Z0.78 F3000.0
M101
G1 X-5.89 Y-2.75 Z0.78 F1800.0
G1 X-5.55 Y-2.36 Z0.78 F1800.0
G1 X22.8 Y-2.36 Z0.78 F1800.0
M103
G1 X22.8 Y-1.96 Z0.78 F3000.0
M101
G1 X-5.41 Y-1.96 Z0.78 F1800.0
G1 X-5.32 Y-1.57 Z0.78 F1800.0
G1 X22.8 Y-1.57 Z0.78 F1800.0
M103
G1 X22.8 Y-1.18 Z0.78 F3000.0
M101
G1 X-5.22 Y-1.18 Z0.78 F1800.0
G1 X-5.12 Y-0.79 Z0.78 F1800.0
G1 X22.8 Y-0.79 Z0.78 F1800.0
M103
G1 X22.8 Y-0.39 Z0.78 F3000.0
M101
G1 X-5.03 Y-0.39 Z0.78 F1800.0
G1 X-4.93 Y0.0 Z0.78 F1800.0
G1 X22.8 Y-0.0 Z0.78 F1800.0
M103
G1 X22.8 Y0.39 Z0.78 F3000.0
M101
G1 X-5.03 Y0.39 Z0.78 F1800.0
G1 X-5.12 Y0.79 Z0.78 F1800.0
G1 X22.8 Y0.79 Z0.78 F1800.0
M103
G1 X22.8 Y1.18 Z0.78 F3000.0
M101
G1 X-5.22 Y1.18 Z0.78 F1800.0
G1 X-5.32 Y1.57 Z0.78 F1800.0
G1 X22.8 Y1.57 Z0.78 F1800.0
M103
G1 X22.8 Y1.96 Z0.78 F3000.0
M101
G1 X-5.41 Y1.96 Z0.78 F1800.0
M103
G1 X-5.55 Y2.36 Z0.78 F3000.0
M101
G1 X22.8 Y2.36 Z0.78 F1800.0
M103
G1 X22.8 Y2.75 Z0.78 F3000.0
M101
G1 X-5.89 Y2.75 Z0.78 F1800.0
G1 X-6.24 Y3.14 Z0.78 F1800.0
G1 X22.8 Y3.14 Z0.78 F1800.0
M103
G1 X22.8 Y3.53 Z0.78 F3000.0
M101
G1 X-6.59 Y3.53 Z0.78 F1800.0
G1 X-6.94 Y3.93 Z0.78 F1800.0
G1 X22.8 Y3.93 Z0.78 F1800.0
M103
G1 X22.8 Y4.32 Z0.78 F3000.0
M101
G1 X-7.26 Y4.32 Z0.78 F1800.0
M108 R30.0
M102
G1 X-7.71 Y4.32 Z0.78 F1800.0
M108 R3.569
M103
G1 X-8.0 Y4.43 Z0.78 F3000.0
M108 R30.0
M101
G1 X-8.75 Y4.71 Z0.78 F3000.0
M108 R3.569
G1 X22.8 Y4.71 Z0.78 F1800.0
M103
G1 X22.8 Y5.11 Z0.78 F3000.0
M101
G1 X-22.83 Y5.11 Z0.78 F1800.0
G1 X-22.83 Y4.71 Z0.78 F1800.0
G1 X-11.39 Y4.71 Z0.78 F1800.0
M108 R30.0
M102
G1 X-10.94 Y4.71 Z0.78 F1800.0
M108 R3.569
M103
G1 X22.0 Y5.86 Z0.78 F3000.0
M108 R30.0
M101
G1 X22.8 Y5.89 Z0.78 F3000.0
M108 R3.569
G1 X-22.83 Y5.89 Z0.78 F1800.0
G1 X-22.83 Y5.5 Z0.78 F1800.0
G1 X22.35 Y5.5 Z0.78 F1800.0
M108 R30.0
M102
G1 X22.8 Y5.5 Z0.78 F1800.0
M108 R3.569
M103
G1 X22.8 Y5.88 Z0.78 F3000.0
M108 R30.0
M101
G1 X22.8 Y6.68 Z0.78 F3000.0
M108 R3.569
G1 X-22.83 Y6.68 Z0.78 F1800.0
G1 X-22.83 Y6.28 Z0.78 F1800.0
G1 X22.35 Y6.28 Z0.78 F1800.0
M108 R30.0
M102
G1 X22.8 Y6.28 Z0.78 F1800.0
M108 R3.569
M103
G1 X22.8 Y6.66 Z0.78 F3000.0
M108 R30.0
M101
G1 X22.8 Y7.46 Z0.78 F3000.0
M108 R3.569
G1 X-22.83 Y7.46 Z0.78 F1800.0
G1 X-22.83 Y7.07 Z0.78 F1800.0
G1 X22.35 Y7.07 Z0.78 F1800.0
M108 R30.0
M102
G1 X22.8 Y7.07 Z0.78 F1800.0
M108 R3.569
M103
G1 X22.8 Y7.45 Z0.78 F3000.0
M108 R30.0
M101
G1 X22.8 Y8.25 Z0.78 F3000.0
M108 R3.569
G1 X-22.83 Y8.25 Z0.78 F1800.0
G1 X-22.83 Y7.85 Z0.78 F1800.0
G1 X22.35 Y7.85 Z0.78 F1800.0
M108 R30.0
M102
G1 X22.8 Y7.85 Z0.78 F1800.0
M108 R3.569
M103
G1 X22.8 Y8.23 Z0.78 F3000.0
M108 R30.0
M101
G1 X22.8 Y9.03 Z0.78 F3000.0
M108 R3.569
G1 X-22.83 Y9.03 Z0.78 F1800.0
G1 X-22.83 Y8.64 Z0.78 F1800.0
G1 X22.35 Y8.64 Z0.78 F1800.0
M108 R30.0
M102
G1 X22.8 Y8.64 Z0.78 F1800.0
M108 R3.569
M103
G1 X22.8 Y9.02 Z0.78 F3000.0
M108 R30.0
M101
G1 X22.8 Y9.82 Z0.78 F3000.0
M108 R3.569
G1 X-22.83 Y9.82 Z0.78 F1800.0
G1 X-22.83 Y9.43 Z0.78 F1800.0
G1 X22.35 Y9.43 Z0.78 F1800.0
M108 R30.0
M102
G1 X22.8 Y9.43 Z0.78 F1800.0
M108 R3.569
M103
G1 X22.8 Y9.8 Z0.78 F3000.0
M108 R30.0
M101
G1 X22.8 Y10.6 Z0.78 F3000.0
M108 R3.569
G1 X-22.83 Y10.6 Z0.78 F1800.0
G1 X-22.83 Y10.21 Z0.78 F1800.0
G1 X22.35 Y10.21 Z0.78 F1800.0
M108 R30.0
M102
G1 X22.8 Y10.21 Z0.78 F1800.0
M108 R3.569
M103
(</surroundingLoop>)
(</layer>)
(<operatingLayerEnd> </operatingLayerEnd>)
(<layer> 1.1 )
(<surroundingLoop>)
(<boundaryPerimeter>)
(<boundaryPoint> X23.641 Y11.617 Z1.1 </boundaryPoint>)
(<boundaryPoint> X-23.675 Y11.617 Z1.1 </boundaryPoint>)
(<boundaryPoint> X-23.675 Y-11.617 Z1.1 </boundaryPoint>)
(<boundaryPoint> X23.641 Y-11.617 Z1.1 </boundaryPoint>)
(<loop> inner )
G1 X-0.08 Y5.3 Z1.09 F3000.0
M108 R30.0
M101
G1 X-0.86 Y5.13 Z1.1 F3000.0
M108 R3.569
G1 X-0.86 Y-7.11 Z1.1 F1800.0
G1 X-19.02 Y-7.11 Z1.1 F1800.0
G1 X-19.02 Y5.41 Z1.1 F1800.0
G1 X-1.03 Y5.41 Z1.1 F1800.0
M108 R30.0
M102
G1 X-0.86 Y5.41 Z1.1 F1800.0
G1 X-0.86 Y5.13 Z1.1 F1800.0
M108 R3.569
M103
(</loop>)
(<loop> inner )
G1 X7.77 Y5.13 Z1.1 F3000.0
M108 R30.0
M101
G1 X8.57 Y5.13 Z1.1 F3000.0
M108 R3.569
G1 X8.57 Y5.41 Z1.1 F1800.0
G1 X22.29 Y5.41 Z1.1 F1800.0
G1 X22.29 Y-7.11 Z1.1 F1800.0
G1 X8.57 Y-7.11 Z1.1 F1800.0
G1 X8.57 Y4.68 Z1.1 F1800.0
M108 R30.0
M102
G1 X8.57 Y5.13 Z1.1 F1800.0
M108 R3.569
M103
(</loop>)
(<loop> outer )
G1 X8.57 Y10.23 Z1.1 F3000.0
M108 R30.0
M101
G1 X8.57 Y11.03 Z1.1 F3000.0
M108 R3.569
G1 X-23.09 Y11.03 Z1.1 F1800.0
G1 X-23.09 Y-11.03 Z1.1 F1800.0
G1 X23.05 Y-11.03 Z1.1 F1800.0
G1 X23.05 Y11.03 Z1.1 F1800.0
G1 X8.57 Y11.03 Z1.1 F1800.0
M103
(</loop>)
(<perimeter> outer )
G1 X8.57 Y11.42 Z1.1 F3000.0
M101
G1 X-23.48 Y11.42 Z1.1 F1800.0
G1 X-23.48 Y-11.42 Z1.1 F1800.0
G1 X23.45 Y-11.42 Z1.1 F1800.0
G1 X23.45 Y11.42 Z1.1 F1800.0
G1 X9.02 Y11.42 Z1.1 F1800.0
M108 R30.0
M102
G1 X8.57 Y11.42 Z1.1 F1800.0
M108 R3.569
M103
(</perimeter>)
(</boundaryPerimeter>)
(<surroundingLoop>)
(<boundaryPerimeter>)
(<boundaryPoint> X9.161 Y-6.517 Z1.1 </boundaryPoint>)
(<boundaryPoint> X9.161 Y4.817 Z1.1 </boundaryPoint>)
(<boundaryPoint> X21.703 Y4.817 Z1.1 </boundaryPoint>)
(<boundaryPoint> X21.703 Y-6.517 Z1.1 </boundaryPoint>)
(<perimeter> inner )
G1 X8.92 Y5.81 Z1.1 F3000.0
M108 R30.0
M101
G1 X8.97 Y5.01 Z1.1 F3000.0
M108 R3.569
G1 X21.9 Y5.01 Z1.1 F1800.0
G1 X21.9 Y-6.71 Z1.1 F1800.0
G1 X8.97 Y-6.71 Z1.1 F1800.0
G1 X8.97 Y4.56 Z1.1 F1800.0
M108 R30.0
M102
G1 X8.97 Y5.01 Z1.1 F1800.0
M108 R3.569
M103
(</perimeter>)
(</boundaryPerimeter>)
(</surroundingLoop>)
(<surroundingLoop>)
(<boundaryPerimeter>)
(<boundaryPoint> X-1.452 Y-6.517 Z1.1 </boundaryPoint>)
(<boundaryPoint> X-18.432 Y-6.517 Z1.1 </boundaryPoint>)
(<boundaryPoint> X-18.432 Y4.817 Z1.1 </boundaryPoint>)
(<boundaryPoint> X-1.452 Y4.817 Z1.1 </boundaryPoint>)
(<perimeter> inner )
G1 X-0.46 Y5.01 Z1.1 F3000.0
M108 R30.0
M101
G1 X-1.26 Y5.01 Z1.1 F3000.0
M108 R3.569
G1 X-1.26 Y-6.71 Z1.1 F1800.0
G1 X-18.63 Y-6.71 Z1.1 F1800.0
G1 X-18.63 Y5.01 Z1.1 F1800.0
G1 X-1.71 Y5.01 Z1.1 F1800.0
M108 R30.0
M102
G1 X-1.26 Y5.01 Z1.1 F1800.0
M108 R3.569
M103
(</perimeter>)
(</boundaryPerimeter>)
(</surroundingLoop>)
G1 X4.51 Y-10.03 Z1.1 F3000.0
M108 R30.0
M101
G1 X4.8 Y-10.77 Z1.1 F3000.0
M108 R3.569
G1 X6.55 Y-10.77 Z1.1 F1800.0
G1 X5.34 Y-9.95 Z1.1 F1800.0
G1 X5.34 Y-9.69 Z1.1 F1800.0
G1 X3.39 Y-7.76 Z1.1 F1800.0
G1 X3.39 Y-7.51 Z1.1 F1800.0
G1 X5.34 Y-5.58 Z1.1 F1800.0
G1 X5.34 Y-5.33 Z1.1 F1800.0
G1 X3.39 Y-3.4 Z1.1 F1800.0
G1 X3.39 Y-3.15 Z1.1 F1800.0
G1 X5.34 Y-1.22 Z1.1 F1800.0
G1 X5.34 Y-0.96 Z1.1 F1800.0
G1 X3.39 Y0.96 Z1.1 F1800.0
G1 X3.39 Y1.22 Z1.1 F1800.0
G1 X5.34 Y3.15 Z1.1 F1800.0
G1 X5.34 Y3.4 Z1.1 F1800.0
G1 X3.39 Y5.33 Z1.1 F1800.0
G1 X3.39 Y5.58 Z1.1 F1800.0
G1 X5.34 Y7.51 Z1.1 F1800.0
G1 X5.34 Y7.76 Z1.1 F1800.0
G1 X6.55 Y10.77 Z1.1 F1800.0
G1 X3.05 Y10.77 Z1.1 F1800.0
G1 X3.27 Y9.95 Z1.1 F1800.0
G1 X3.27 Y9.69 Z1.1 F1800.0
G1 X1.21 Y7.76 Z1.1 F1800.0
G1 X1.21 Y7.51 Z1.1 F1800.0
G1 X3.16 Y5.58 Z1.1 F1800.0
G1 X3.16 Y5.33 Z1.1 F1800.0
G1 X1.21 Y3.4 Z1.1 F1800.0
G1 X1.21 Y3.15 Z1.1 F1800.0
G1 X3.16 Y1.22 Z1.1 F1800.0
G1 X3.16 Y0.96 Z1.1 F1800.0
G1 X1.21 Y-0.96 Z1.1 F1800.0
G1 X1.21 Y-1.22 Z1.1 F1800.0
G1 X3.16 Y-3.15 Z1.1 F1800.0
G1 X3.16 Y-3.4 Z1.1 F1800.0
G1 X1.21 Y-5.33 Z1.1 F1800.0
G1 X1.21 Y-5.58 Z1.1 F1800.0
G1 X3.16 Y-7.51 Z1.1 F1800.0
G1 X3.16 Y-7.76 Z1.1 F1800.0
G1 X4.36 Y-10.77 Z1.1 F1800.0
G1 X0.87 Y-10.77 Z1.1 F1800.0
G1 X1.09 Y-9.95 Z1.1 F1800.0
G1 X1.09 Y-9.69 Z1.1 F1800.0
G1 X-0.98 Y-7.76 Z1.1 F1800.0
G1 X-0.98 Y-7.51 Z1.1 F1800.0
G1 X0.98 Y-5.58 Z1.1 F1800.0
G1 X0.98 Y7.76 Z1.1 F1800.0
G1 X2.62 Y10.77 Z1.1 F1800.0
G1 X-1.75 Y10.77 Z1.1 F1800.0
G1 X-1.09 Y9.95 Z1.1 F1800.0
G1 X-1.09 Y9.69 Z1.1 F1800.0
G1 X-3.16 Y7.76 Z1.1 F1800.0
G1 X-3.16 Y7.51 Z1.1 F1800.0
G1 X-2.62 Y5.66 Z1.1 F1800.0
G1 X-2.18 Y6.1 Z1.1 F1800.0
G1 X-1.75 Y6.1 Z1.1 F1800.0
G1 X-1.63 Y5.98 Z1.1 F1800.0
M108 R30.0
M102
G1 X-1.31 Y5.66 Z1.1 F1800.0
M108 R3.569
M103
G1 X-2.69 Y5.66 Z1.1 F3000.0
M108 R30.0
M101
G1 X-3.49 Y5.66 Z1.1 F3000.0
M108 R3.569
G1 X-3.39 Y7.76 Z1.1 F1800.0
G1 X-2.18 Y10.77 Z1.1 F1800.0
G1 X-6.11 Y10.77 Z1.1 F1800.0
G1 X-5.45 Y9.95 Z1.1 F1800.0
G1 X-5.45 Y9.69 Z1.1 F1800.0
G1 X-7.52 Y7.76 Z1.1 F1800.0
G1 X-7.42 Y6.1 Z1.1 F1800.0
G1 X-6.98 Y5.66 Z1.1 F1800.0
G1 X-6.55 Y6.1 Z1.1 F1800.0
G1 X-6.11 Y6.1 Z1.1 F1800.0
G1 X-5.99 Y5.98 Z1.1 F1800.0
M108 R30.0
M102
G1 X-5.67 Y5.66 Z1.1 F1800.0
M108 R3.569
M103
G1 X-7.05 Y5.66 Z1.1 F3000.0
M108 R30.0
M101
G1 X-7.85 Y5.66 Z1.1 F3000.0
M108 R3.569
G1 X-7.75 Y7.76 Z1.1 F1800.0
G1 X-6.55 Y10.77 Z1.1 F1800.0
G1 X-10.47 Y10.77 Z1.1 F1800.0
G1 X-9.82 Y9.95 Z1.1 F1800.0
G1 X-9.82 Y9.69 Z1.1 F1800.0
G1 X-11.88 Y7.76 Z1.1 F1800.0
G1 X-11.78 Y6.1 Z1.1 F1800.0
G1 X-11.35 Y5.66 Z1.1 F1800.0
G1 X-10.91 Y6.1 Z1.1 F1800.0
G1 X-10.47 Y6.1 Z1.1 F1800.0
G1 X-10.35 Y5.98 Z1.1 F1800.0
M108 R30.0
M102
G1 X-10.04 Y5.66 Z1.1 F1800.0
M108 R3.569
M103
G1 X-11.42 Y5.66 Z1.1 F3000.0
M108 R30.0
M101
G1 X-12.22 Y5.66 Z1.1 F3000.0
M108 R3.569
G1 X-12.11 Y7.76 Z1.1 F1800.0
G1 X-10.91 Y10.77 Z1.1 F1800.0
G1 X-14.4 Y10.77 Z1.1 F1800.0
G1 X-14.18 Y9.95 Z1.1 F1800.0
G1 X-14.18 Y9.69 Z1.1 F1800.0
G1 X-16.25 Y7.76 Z1.1 F1800.0
G1 X-16.25 Y7.51 Z1.1 F1800.0
G1 X-15.71 Y5.66 Z1.1 F1800.0
G1 X-15.27 Y6.1 Z1.1 F1800.0
G1 X-14.84 Y6.1 Z1.1 F1800.0
G1 X-14.72 Y5.98 Z1.1 F1800.0
M108 R30.0
M102
G1 X-14.4 Y5.66 Z1.1 F1800.0
M108 R3.569
M103
G1 X-15.78 Y5.66 Z1.1 F3000.0
M108 R30.0
M101
G1 X-16.58 Y5.66 Z1.1 F3000.0
M108 R3.569
G1 X-16.48 Y7.76 Z1.1 F1800.0
G1 X-14.84 Y10.77 Z1.1 F1800.0
G1 X-18.76 Y10.77 Z1.1 F1800.0
G1 X-18.54 Y9.95 Z1.1 F1800.0
G1 X-18.54 Y9.69 Z1.1 F1800.0
G1 X-20.61 Y7.76 Z1.1 F1800.0
G1 X-20.61 Y7.51 Z1.1 F1800.0
G1 X-19.08 Y5.98 Z1.1 F1800.0
M108 R30.0
M102
G1 X-18.76 Y5.66 Z1.1 F1800.0
M108 R3.569
M103
G1 X-21.02 Y10.06 Z1.1 F3000.0
M108 R30.0
M101
G1 X-21.38 Y10.77 Z1.1 F3000.0
M108 R3.569
G1 X-19.2 Y10.77 Z1.1 F1800.0
G1 X-20.84 Y7.76 Z1.1 F1800.0
G1 X-20.84 Y-9.95 Z1.1 F1800.0
G1 X-19.64 Y-10.77 Z1.1 F1800.0
G1 X-22.69 Y-10.77 Z1.1 F1800.0
G1 X-22.69 Y10.77 Z1.1 F1800.0
G1 X-22.27 Y10.77 Z1.1 F1800.0
M108 R30.0
M102
G1 X-21.82 Y10.77 Z1.1 F1800.0
M108 R3.569
M103
G1 X-18.9 Y-6.57 Z1.1 F3000.0
M108 R30.0
M101
G1 X-18.76 Y-7.36 Z1.1 F3000.0
M108 R3.569
G1 X-18.66 Y-7.51 Z1.1 F1800.0
G1 X-18.66 Y-7.76 Z1.1 F1800.0
G1 X-20.61 Y-9.69 Z1.1 F1800.0
G1 X-20.61 Y-9.95 Z1.1 F1800.0
G1 X-18.76 Y-10.77 Z1.1 F1800.0
G1 X-15.27 Y-10.77 Z1.1 F1800.0
G1 X-16.48 Y-9.95 Z1.1 F1800.0
G1 X-16.48 Y-9.69 Z1.1 F1800.0
G1 X-18.43 Y-7.76 Z1.1 F1800.0
G1 X-18.43 Y-7.51 Z1.1 F1800.0
G1 X-18.33 Y-7.36 Z1.1 F1800.0
G1 X-17.97 Y-7.61 Z1.1 F1800.0
G1 X-17.89 Y-7.36 Z1.1 F1800.0
G1 X-17.47 Y-7.49 Z1.1 F1800.0
G1 X-17.02 Y-7.8 Z1.1 F1800.0
G1 X-16.9 Y-7.68 Z1.1 F1800.0
M108 R30.0
M102
G1 X-16.58 Y-7.36 Z1.1 F1800.0
M108 R3.569
M103
G1 X-15.2 Y-7.36 Z1.1 F3000.0
M108 R30.0
M101
G1 X-14.4 Y-7.36 Z1.1 F3000.0
M108 R3.569
G1 X-14.3 Y-7.51 Z1.1 F1800.0
G1 X-14.3 Y-7.76 Z1.1 F1800.0
G1 X-14.84 Y-7.8 Z1.1 F1800.0
G1 X-15.27 Y-7.36 Z1.1 F1800.0
G1 X-15.71 Y-7.8 Z1.1 F1800.0
G1 X-16.25 Y-9.69 Z1.1 F1800.0
G1 X-16.25 Y-9.95 Z1.1 F1800.0
G1 X-14.4 Y-10.77 Z1.1 F1800.0
G1 X-10.91 Y-10.77 Z1.1 F1800.0
G1 X-12.11 Y-9.95 Z1.1 F1800.0
G1 X-12.11 Y-9.69 Z1.1 F1800.0
G1 X-14.07 Y-7.76 Z1.1 F1800.0
G1 X-14.07 Y-7.51 Z1.1 F1800.0
G1 X-13.96 Y-7.36 Z1.1 F1800.0
G1 X-13.61 Y-7.61 Z1.1 F1800.0
G1 X-13.53 Y-7.36 Z1.1 F1800.0
G1 X-13.11 Y-7.49 Z1.1 F1800.0
G1 X-12.65 Y-7.8 Z1.1 F1800.0
G1 X-12.54 Y-7.68 Z1.1 F1800.0
M108 R30.0
M102
G1 X-12.22 Y-7.36 Z1.1 F1800.0
M108 R3.569
M103
G1 X-10.84 Y-7.36 Z1.1 F3000.0
M108 R30.0
M101
G1 X-10.04 Y-7.36 Z1.1 F3000.0
M108 R3.569
G1 X-9.93 Y-7.51 Z1.1 F1800.0
G1 X-9.93 Y-7.76 Z1.1 F1800.0
G1 X-10.47 Y-7.8 Z1.1 F1800.0
G1 X-10.91 Y-7.36 Z1.1 F1800.0
G1 X-11.35 Y-7.8 Z1.1 F1800.0
G1 X-11.88 Y-9.69 Z1.1 F1800.0
G1 X-11.88 Y-9.95 Z1.1 F1800.0
G1 X-10.47 Y-10.34 Z1.1 F1800.0
G1 X-10.04 Y-10.77 Z1.1 F1800.0
G1 X-6.55 Y-10.77 Z1.1 F1800.0
G1 X-7.75 Y-9.95 Z1.1 F1800.0
G1 X-7.75 Y-9.69 Z1.1 F1800.0
G1 X-9.7 Y-7.76 Z1.1 F1800.0
G1 X-9.7 Y-7.51 Z1.1 F1800.0
G1 X-9.6 Y-7.36 Z1.1 F1800.0
G1 X-9.24 Y-7.61 Z1.1 F1800.0
G1 X-9.16 Y-7.36 Z1.1 F1800.0
G1 X-8.75 Y-7.49 Z1.1 F1800.0
G1 X-8.29 Y-7.8 Z1.1 F1800.0
G1 X-8.17 Y-7.68 Z1.1 F1800.0
M108 R30.0
M102
G1 X-7.85 Y-7.36 Z1.1 F1800.0
M108 R3.569
M103
G1 X-6.47 Y-7.36 Z1.1 F3000.0
M108 R30.0
M101
G1 X-5.67 Y-7.36 Z1.1 F3000.0
M108 R3.569
G1 X-5.57 Y-7.51 Z1.1 F1800.0
G1 X-5.57 Y-7.76 Z1.1 F1800.0
G1 X-6.11 Y-7.8 Z1.1 F1800.0
G1 X-6.55 Y-7.36 Z1.1 F1800.0
G1 X-6.98 Y-7.8 Z1.1 F1800.0
G1 X-7.52 Y-9.69 Z1.1 F1800.0
G1 X-7.52 Y-9.95 Z1.1 F1800.0
G1 X-6.11 Y-10.77 Z1.1 F1800.0
G1 X-2.18 Y-10.77 Z1.1 F1800.0
G1 X-3.39 Y-9.95 Z1.1 F1800.0
G1 X-3.39 Y-9.69 Z1.1 F1800.0
G1 X-5.34 Y-7.76 Z1.1 F1800.0
G1 X-5.34 Y-7.51 Z1.1 F1800.0
G1 X-5.24 Y-7.36 Z1.1 F1800.0
G1 X-4.88 Y-7.61 Z1.1 F1800.0
G1 X-4.8 Y-7.36 Z1.1 F1800.0
G1 X-4.38 Y-7.49 Z1.1 F1800.0
G1 X-3.93 Y-7.8 Z1.1 F1800.0
G1 X-3.81 Y-7.68 Z1.1 F1800.0
M108 R30.0
M102
G1 X-3.49 Y-7.36 Z1.1 F1800.0
M108 R3.569
M103
G1 X-2.11 Y-7.36 Z1.1 F3000.0
M108 R30.0
M101
G1 X-1.31 Y-7.36 Z1.1 F3000.0
M108 R3.569
G1 X-1.21 Y-7.51 Z1.1 F1800.0
G1 X-1.21 Y-7.76 Z1.1 F1800.0
G1 X-1.75 Y-7.8 Z1.1 F1800.0
G1 X-2.18 Y-7.36 Z1.1 F1800.0
G1 X-2.62 Y-7.8 Z1.1 F1800.0
G1 X-3.16 Y-9.69 Z1.1 F1800.0
G1 X-3.16 Y-9.95 Z1.1 F1800.0
G1 X-1.31 Y-10.77 Z1.1 F1800.0
G1 X-0.01 Y-10.77 Z1.1 F1800.0
M108 R30.0
M102
G1 X0.44 Y-10.77 Z1.1 F1800.0
M108 R3.569
M103
G1 X9.21 Y4.96 Z1.1 F3000.0
M108 R30.0
M101
G1 X9.6 Y5.66 Z1.1 F3000.0
M108 R3.569
G1 X9.7 Y7.76 Z1.1 F1800.0
G1 X10.91 Y10.77 Z1.1 F1800.0
G1 X6.98 Y10.77 Z1.1 F1800.0
G1 X7.64 Y9.95 Z1.1 F1800.0
G1 X7.64 Y9.69 Z1.1 F1800.0
G1 X5.57 Y7.76 Z1.1 F1800.0
G1 X5.57 Y-5.58 Z1.1 F1800.0
G1 X7.52 Y-7.51 Z1.1 F1800.0
G1 X7.52 Y-7.76 Z1.1 F1800.0
G1 X5.57 Y-9.69 Z1.1 F1800.0
G1 X5.57 Y-9.95 Z1.1 F1800.0
G1 X6.98 Y-10.77 Z1.1 F1800.0
G1 X10.91 Y-10.77 Z1.1 F1800.0
G1 X9.7 Y-9.95 Z1.1 F1800.0
G1 X9.7 Y-9.69 Z1.1 F1800.0
G1 X7.75 Y-7.76 Z1.1 F1800.0
G1 X7.75 Y-7.51 Z1.1 F1800.0
G1 X8.73 Y-7.8 Z1.1 F1800.0
G1 X9.16 Y-7.8 Z1.1 F1800.0
G1 X9.28 Y-7.68 Z1.1 F1800.0
M108 R30.0
M102
G1 X9.6 Y-7.36 Z1.1 F1800.0
M108 R3.569
M103
G1 X10.98 Y-7.36 Z1.1 F3000.0
M108 R30.0
M101
G1 X11.78 Y-7.36 Z1.1 F3000.0
M108 R3.569
G1 X11.88 Y-7.51 Z1.1 F1800.0
G1 X11.88 Y-7.76 Z1.1 F1800.0
G1 X11.35 Y-7.8 Z1.1 F1800.0
G1 X10.91 Y-7.36 Z1.1 F1800.0
G1 X10.47 Y-7.8 Z1.1 F1800.0
G1 X9.93 Y-9.69 Z1.1 F1800.0
G1 X9.93 Y-9.95 Z1.1 F1800.0
G1 X11.35 Y-10.77 Z1.1 F1800.0
G1 X15.27 Y-10.77 Z1.1 F1800.0
G1 X14.07 Y-9.95 Z1.1 F1800.0
G1 X14.07 Y-9.69 Z1.1 F1800.0
G1 X12.11 Y-7.76 Z1.1 F1800.0
G1 X12.11 Y-7.51 Z1.1 F1800.0
G1 X12.22 Y-7.36 Z1.1 F1800.0
G1 X12.57 Y-7.61 Z1.1 F1800.0
G1 X12.65 Y-7.36 Z1.1 F1800.0
G1 X13.07 Y-7.49 Z1.1 F1800.0
G1 X13.53 Y-7.8 Z1.1 F1800.0
G1 X13.64 Y-7.68 Z1.1 F1800.0
M108 R30.0
M102
G1 X13.96 Y-7.36 Z1.1 F1800.0
M108 R3.569
M103
G1 X15.34 Y-7.36 Z1.1 F3000.0
M108 R30.0
M101
G1 X16.14 Y-7.36 Z1.1 F3000.0
M108 R3.569
G1 X16.25 Y-7.51 Z1.1 F1800.0
G1 X16.25 Y-7.76 Z1.1 F1800.0
G1 X15.71 Y-7.8 Z1.1 F1800.0
G1 X15.27 Y-7.36 Z1.1 F1800.0
G1 X14.84 Y-7.8 Z1.1 F1800.0
G1 X14.3 Y-9.69 Z1.1 F1800.0
G1 X14.3 Y-9.95 Z1.1 F1800.0
G1 X16.14 Y-10.77 Z1.1 F1800.0
G1 X19.64 Y-10.77 Z1.1 F1800.0
G1 X18.43 Y-9.95 Z1.1 F1800.0
G1 X18.43 Y-9.69 Z1.1 F1800.0
G1 X16.48 Y-7.76 Z1.1 F1800.0
G1 X16.48 Y-7.51 Z1.1 F1800.0
G1 X16.58 Y-7.36 Z1.1 F1800.0
G1 X16.94 Y-7.61 Z1.1 F1800.0
G1 X17.02 Y-7.36 Z1.1 F1800.0
G1 X17.43 Y-7.49 Z1.1 F1800.0
G1 X17.89 Y-7.8 Z1.1 F1800.0
G1 X18.01 Y-7.68 Z1.1 F1800.0
M108 R30.0
M102
G1 X18.33 Y-7.36 Z1.1 F1800.0
M108 R3.569
M103
G1 X18.47 Y-6.79 Z1.1 F3000.0
G1 X21.84 Y-6.66 Z1.1 F3000.0
G1 X21.84 Y4.96 Z1.1 F3000.0
G1 X20.58 Y5.07 Z1.1 F3000.0
M108 R30.0
M101
G1 X20.37 Y5.09 Z1.1 F3000.0
G1 X20.51 Y5.66 Z1.1 F3000.0
M108 R3.569
G1 X20.07 Y6.1 Z1.1 F1800.0
G1 X19.64 Y6.1 Z1.1 F1800.0
G1 X19.2 Y5.66 Z1.1 F1800.0
G1 X18.76 Y6.1 Z1.1 F1800.0
G1 X18.66 Y7.76 Z1.1 F1800.0
G1 X20.73 Y9.69 Z1.1 F1800.0
G1 X20.73 Y9.95 Z1.1 F1800.0
G1 X20.07 Y10.77 Z1.1 F1800.0
G1 X22.69 Y10.77 Z1.1 F1800.0
G1 X22.69 Y-10.77 Z1.1 F1800.0
G1 X20.51 Y-10.77 Z1.1 F1800.0
G1 X18.66 Y-9.95 Z1.1 F1800.0
G1 X18.66 Y-9.69 Z1.1 F1800.0
G1 X19.2 Y-7.8 Z1.1 F1800.0
G1 X19.64 Y-7.36 Z1.1 F1800.0
G1 X20.07 Y-7.8 Z1.1 F1800.0
G1 X20.73 Y-7.76 Z1.1 F1800.0
G1 X20.73 Y-7.7 Z1.1 F1800.0
M108 R30.0
M102
G1 X20.73 Y-7.51 Z1.1 F1800.0
G1 X20.51 Y-7.36 Z1.1 F1800.0
M108 R3.569
M103
G1 X20.37 Y-6.79 Z1.1 F3000.0
G1 X21.84 Y-6.66 Z1.1 F3000.0
G1 X21.84 Y4.96 Z1.1 F3000.0
G1 X18.68 Y5.08 Z1.1 F3000.0
M108 R30.0
M101
G1 X18.47 Y5.09 Z1.1 F3000.0
G1 X18.33 Y5.66 Z1.1 F3000.0
M108 R3.569
G1 X18.43 Y7.76 Z1.1 F1800.0
G1 X19.64 Y10.77 Z1.1 F1800.0
G1 X15.71 Y10.77 Z1.1 F1800.0
G1 X16.36 Y9.95 Z1.1 F1800.0
G1 X16.36 Y9.69 Z1.1 F1800.0
G1 X14.3 Y7.76 Z1.1 F1800.0
G1 X14.4 Y6.1 Z1.1 F1800.0
G1 X14.84 Y5.66 Z1.1 F1800.0
G1 X15.27 Y6.1 Z1.1 F1800.0
G1 X15.71 Y6.1 Z1.1 F1800.0
G1 X15.83 Y5.98 Z1.1 F1800.0
M108 R30.0
M102
G1 X16.14 Y5.66 Z1.1 F1800.0
M108 R3.569
M103
G1 X14.76 Y5.66 Z1.1 F3000.0
M108 R30.0
M101
G1 X13.96 Y5.66 Z1.1 F3000.0
M108 R3.569
G1 X14.07 Y7.76 Z1.1 F1800.0
G1 X15.27 Y10.77 Z1.1 F1800.0
G1 X11.35 Y10.77 Z1.1 F1800.0
G1 X12.0 Y9.95 Z1.1 F1800.0
G1 X12.0 Y9.69 Z1.1 F1800.0
G1 X9.93 Y7.76 Z1.1 F1800.0
G1 X10.04 Y6.1 Z1.1 F1800.0
G1 X10.47 Y5.66 Z1.1 F1800.0
G1 X10.91 Y6.1 Z1.1 F1800.0
G1 X11.35 Y6.1 Z1.1 F1800.0
G1 X11.78 Y5.66 Z1.1 F1800.0
M103
(</surroundingLoop>)
(</layer>)
(<layer> 1.42 )
(<surroundingLoop>)
(<boundaryPerimeter>)
(<boundaryPoint> X23.641 Y11.617 Z1.42 </boundaryPoint>)
(<boundaryPoint> X-23.675 Y11.617 Z1.42 </boundaryPoint>)
(<boundaryPoint> X-23.675 Y-11.617 Z1.42 </boundaryPoint>)
(<boundaryPoint> X23.641 Y-11.617 Z1.42 </boundaryPoint>)
(<loop> inner )
G1 X11.76 Y5.41 Z1.42 F3000.0
M101
G1 X11.78 Y5.41 Z1.42 F1800.0
G1 X22.29 Y5.41 Z1.42 F1800.0
G1 X22.29 Y-7.11 Z1.42 F1800.0
G1 X8.57 Y-7.11 Z1.42 F1800.0
G1 X8.57 Y5.41 Z1.42 F1800.0
G1 X11.31 Y5.41 Z1.42 F1800.0
M108 R30.0
M102
G1 X11.76 Y5.41 Z1.42 F1800.0
M108 R3.569
M103
(</loop>)
(<loop> inner )
G1 X-0.06 Y5.41 Z1.42 F3000.0
M108 R30.0
M101
G1 X-0.86 Y5.41 Z1.42 F3000.0
M108 R3.569
G1 X-0.86 Y-7.11 Z1.42 F1800.0
G1 X-19.02 Y-7.11 Z1.42 F1800.0
G1 X-19.02 Y5.41 Z1.42 F1800.0
G1 X-1.31 Y5.41 Z1.42 F1800.0
M108 R30.0
M102
G1 X-0.86 Y5.41 Z1.42 F1800.0
M108 R3.569
M103
(</loop>)
(<loop> outer )
G1 X-0.86 Y10.23 Z1.42 F3000.0
M108 R30.0
M101
G1 X-0.86 Y11.03 Z1.42 F3000.0
M108 R3.569
G1 X-23.09 Y11.03 Z1.42 F1800.0
G1 X-23.09 Y-11.03 Z1.42 F1800.0
G1 X23.05 Y-11.03 Z1.42 F1800.0
G1 X23.05 Y11.03 Z1.42 F1800.0
G1 X-0.86 Y11.03 Z1.42 F1800.0
M103
(</loop>)
(<perimeter> outer )
G1 X-0.86 Y11.42 Z1.42 F3000.0
M101
G1 X-23.48 Y11.42 Z1.42 F1800.0
G1 X-23.48 Y-11.42 Z1.42 F1800.0
G1 X23.45 Y-11.42 Z1.42 F1800.0
G1 X23.45 Y11.42 Z1.42 F1800.0
G1 X-0.41 Y11.42 Z1.42 F1800.0
M108 R30.0
M102
G1 X-0.86 Y11.42 Z1.42 F1800.0
M108 R3.569
M103
(</perimeter>)
(</boundaryPerimeter>)
(<surroundingLoop>)
(<boundaryPerimeter>)
(<boundaryPoint> X-1.452 Y-6.517 Z1.42 </boundaryPoint>)
(<boundaryPoint> X-18.432 Y-6.517 Z1.42 </boundaryPoint>)
(<boundaryPoint> X-18.432 Y4.817 Z1.42 </boundaryPoint>)
(<boundaryPoint> X-1.452 Y4.817 Z1.42 </boundaryPoint>)
(<perimeter> inner )
G1 X-1.21 Y5.81 Z1.42 F3000.0
M108 R30.0
M101
G1 X-1.26 Y5.01 Z1.42 F3000.0
M108 R3.569
G1 X-1.26 Y-6.71 Z1.42 F1800.0
G1 X-18.63 Y-6.71 Z1.42 F1800.0
G1 X-18.63 Y5.01 Z1.42 F1800.0
G1 X-1.71 Y5.01 Z1.42 F1800.0
M108 R30.0
M102
G1 X-1.26 Y5.01 Z1.42 F1800.0
M108 R3.569
M103
(</perimeter>)
(</boundaryPerimeter>)
(</surroundingLoop>)
(<surroundingLoop>)
(<boundaryPerimeter>)
(<boundaryPoint> X9.161 Y-6.517 Z1.42 </boundaryPoint>)
(<boundaryPoint> X9.161 Y4.817 Z1.42 </boundaryPoint>)
(<boundaryPoint> X21.703 Y4.817 Z1.42 </boundaryPoint>)
(<boundaryPoint> X21.703 Y-6.517 Z1.42 </boundaryPoint>)
(<perimeter> inner )
G1 X8.16 Y5.01 Z1.42 F3000.0
M108 R30.0
M101
G1 X8.97 Y5.01 Z1.42 F3000.0
M108 R3.569
G1 X21.9 Y5.01 Z1.42 F1800.0
G1 X21.9 Y-6.71 Z1.42 F1800.0
G1 X8.97 Y-6.71 Z1.42 F1800.0
G1 X8.97 Y4.56 Z1.42 F1800.0
M108 R30.0
M102
G1 X8.97 Y5.01 Z1.42 F1800.0
M108 R3.569
M103
(</perimeter>)
(</boundaryPerimeter>)
(</surroundingLoop>)
G1 X0.16 Y2.41 Z1.42 F3000.0
M108 R30.0
M101
G1 X-0.61 Y2.18 Z1.42 F3000.0
M108 R3.569
G1 X-0.17 Y2.62 Z1.42 F1800.0
G1 X0.96 Y3.16 Z1.42 F1800.0
G1 X1.22 Y3.16 Z1.42 F1800.0
G1 X3.15 Y1.21 Z1.42 F1800.0
G1 X3.4 Y1.21 Z1.42 F1800.0
G1 X5.33 Y3.16 Z1.42 F1800.0
G1 X5.58 Y3.16 Z1.42 F1800.0
G1 X8.32 Y2.18 Z1.42 F1800.0
G1 X8.32 Y5.24 Z1.42 F1800.0
G1 X5.58 Y3.39 Z1.42 F1800.0
G1 X5.33 Y3.39 Z1.42 F1800.0
G1 X3.4 Y5.34 Z1.42 F1800.0
G1 X3.15 Y5.34 Z1.42 F1800.0
G1 X1.22 Y3.39 Z1.42 F1800.0
G1 X-0.17 Y3.49 Z1.42 F1800.0
G1 X-0.17 Y3.93 Z1.42 F1800.0
G1 X-0.29 Y4.05 Z1.42 F1800.0
M108 R30.0
M102
G1 X-0.61 Y4.36 Z1.42 F1800.0
M108 R3.569
M103
G1 X-0.61 Y-1.38 Z1.42 F3000.0
M108 R30.0
M101
G1 X-0.61 Y-2.18 Z1.42 F3000.0
M108 R3.569
G1 X-0.17 Y-1.75 Z1.42 F1800.0
G1 X0.96 Y-1.21 Z1.42 F1800.0
G1 X1.22 Y-1.21 Z1.42 F1800.0
G1 X3.15 Y-3.16 Z1.42 F1800.0
G1 X3.4 Y-3.16 Z1.42 F1800.0
G1 X5.33 Y-1.21 Z1.42 F1800.0
G1 X5.58 Y-1.21 Z1.42 F1800.0
G1 X8.32 Y-2.18 Z1.42 F1800.0
G1 X8.32 Y1.75 Z1.42 F1800.0
G1 X5.58 Y-0.98 Z1.42 F1800.0
G1 X5.33 Y-0.98 Z1.42 F1800.0
G1 X3.4 Y0.98 Z1.42 F1800.0
G1 X3.15 Y0.98 Z1.42 F1800.0
G1 X1.22 Y-0.98 Z1.42 F1800.0
G1 X-0.17 Y-0.87 Z1.42 F1800.0
G1 X-0.41 Y-0.4 Z1.42 F1800.0
M108 R30.0
M102
G1 X-0.61 Y0.0 Z1.42 F1800.0
M108 R3.569
M103
G1 X-0.61 Y-5.75 Z1.42 F3000.0
M108 R30.0
M101
G1 X-0.61 Y-6.55 Z1.42 F3000.0
M108 R3.569
G1 X-0.17 Y-6.11 Z1.42 F1800.0
G1 X0.96 Y-5.57 Z1.42 F1800.0
G1 X1.22 Y-5.57 Z1.42 F1800.0
G1 X3.15 Y-7.52 Z1.42 F1800.0
G1 X3.4 Y-7.52 Z1.42 F1800.0
G1 X5.33 Y-5.57 Z1.42 F1800.0
G1 X5.58 Y-5.57 Z1.42 F1800.0
G1 X7.51 Y-7.52 Z1.42 F1800.0
G1 X7.76 Y-7.52 Z1.42 F1800.0
G1 X8.32 Y-6.98 Z1.42 F1800.0
G1 X8.32 Y-2.62 Z1.42 F1800.0
G1 X5.58 Y-5.34 Z1.42 F1800.0
G1 X5.33 Y-5.34 Z1.42 F1800.0
G1 X3.4 Y-3.39 Z1.42 F1800.0
G1 X3.15 Y-3.39 Z1.42 F1800.0
G1 X1.22 Y-5.34 Z1.42 F1800.0
G1 X-0.17 Y-5.24 Z1.42 F1800.0
G1 X-0.17 Y-4.8 Z1.42 F1800.0
G1 X-0.29 Y-4.68 Z1.42 F1800.0
M108 R30.0
M102
G1 X-0.61 Y-4.36 Z1.42 F1800.0
M108 R3.569
M103
G1 X22.02 Y-10.27 Z1.42 F3000.0
M108 R30.0
M101
G1 X22.8 Y-10.47 Z1.42 F3000.0
M108 R3.569
G1 X22.36 Y-10.04 Z1.42 F1800.0
G1 X-20.85 Y-9.93 Z1.42 F1800.0
G1 X-22.83 Y-9.6 Z1.42 F1800.0
G1 X-22.83 Y-10.02 Z1.42 F1800.0
M108 R30.0
M102
G1 X-22.83 Y-10.47 Z1.42 F1800.0
M108 R3.569
M103
G1 X-12.23 Y-6.79 Z1.42 F3000.0
G1 X-1.31 Y-6.66 Z1.42 F3000.0
G1 X-1.18 Y-2.5 Z1.42 F3000.0
G1 X8.89 Y1.46 Z1.42 F3000.0
G1 X9.02 Y4.96 Z1.42 F3000.0
G1 X18.16 Y5.09 Z1.42 F3000.0
G1 X22.03 Y6.31 Z1.42 F3000.0
M108 R30.0
M101
G1 X22.8 Y6.55 Z1.42 F3000.0
M108 R3.569
G1 X22.36 Y6.98 Z1.42 F1800.0
G1 X18.67 Y7.52 Z1.42 F1800.0
G1 X5.33 Y7.52 Z1.42 F1800.0
G1 X3.4 Y5.57 Z1.42 F1800.0
G1 X3.15 Y5.57 Z1.42 F1800.0
G1 X1.22 Y7.52 Z1.42 F1800.0
G1 X-20.85 Y7.52 Z1.42 F1800.0
G1 X-22.83 Y8.29 Z1.42 F1800.0
G1 X-22.83 Y3.93 Z1.42 F1800.0
G1 X-20.85 Y3.39 Z1.42 F1800.0
G1 X-20.6 Y3.39 Z1.42 F1800.0
G1 X-19.28 Y5.24 Z1.42 F1800.0
G1 X-19.28 Y1.75 Z1.42 F1800.0
G1 X-20.6 Y3.16 Z1.42 F1800.0
G1 X-20.85 Y3.16 Z1.42 F1800.0
G1 X-22.83 Y3.49 Z1.42 F1800.0
G1 X-22.83 Y-0.44 Z1.42 F1800.0
G1 X-20.85 Y-0.98 Z1.42 F1800.0
G1 X-20.6 Y-0.98 Z1.42 F1800.0
G1 X-19.28 Y1.31 Z1.42 F1800.0
G1 X-19.28 Y-2.62 Z1.42 F1800.0
G1 X-20.6 Y-1.21 Z1.42 F1800.0
G1 X-20.85 Y-1.21 Z1.42 F1800.0
G1 X-22.83 Y-0.87 Z1.42 F1800.0
G1 X-22.83 Y-4.8 Z1.42 F1800.0
G1 X-20.85 Y-5.34 Z1.42 F1800.0
G1 X-20.6 Y-5.34 Z1.42 F1800.0
G1 X-19.28 Y-3.05 Z1.42 F1800.0
G1 X-19.28 Y-6.98 Z1.42 F1800.0
G1 X-20.6 Y-5.57 Z1.42 F1800.0
G1 X-20.85 Y-5.57 Z1.42 F1800.0
G1 X-22.83 Y-5.24 Z1.42 F1800.0
G1 X-22.83 Y-9.16 Z1.42 F1800.0
G1 X-20.85 Y-9.7 Z1.42 F1800.0
G1 X-20.6 Y-9.7 Z1.42 F1800.0
G1 X-18.67 Y-7.64 Z1.42 F1800.0
G1 X-18.42 Y-7.64 Z1.42 F1800.0
G1 X-16.49 Y-9.7 Z1.42 F1800.0
G1 X-16.24 Y-9.7 Z1.42 F1800.0
G1 X-14.31 Y-7.64 Z1.42 F1800.0
G1 X-14.05 Y-7.64 Z1.42 F1800.0
G1 X-12.13 Y-9.7 Z1.42 F1800.0
G1 X-11.87 Y-9.7 Z1.42 F1800.0
G1 X-9.95 Y-7.64 Z1.42 F1800.0
G1 X-9.69 Y-7.64 Z1.42 F1800.0
G1 X-7.76 Y-9.7 Z1.42 F1800.0
G1 X-7.51 Y-9.7 Z1.42 F1800.0
G1 X-5.58 Y-7.64 Z1.42 F1800.0
G1 X-5.33 Y-7.64 Z1.42 F1800.0
G1 X-3.4 Y-9.7 Z1.42 F1800.0
G1 X-3.15 Y-9.7 Z1.42 F1800.0
G1 X-1.22 Y-7.64 Z1.42 F1800.0
G1 X-0.96 Y-7.64 Z1.42 F1800.0
G1 X0.96 Y-9.7 Z1.42 F1800.0
G1 X1.22 Y-9.7 Z1.42 F1800.0
G1 X3.15 Y-7.75 Z1.42 F1800.0
G1 X3.4 Y-7.75 Z1.42 F1800.0
G1 X5.33 Y-9.7 Z1.42 F1800.0
G1 X5.58 Y-9.7 Z1.42 F1800.0
G1 X7.51 Y-7.75 Z1.42 F1800.0
G1 X7.76 Y-7.75 Z1.42 F1800.0
G1 X9.69 Y-9.7 Z1.42 F1800.0
G1 X9.95 Y-9.7 Z1.42 F1800.0
G1 X11.87 Y-7.64 Z1.42 F1800.0
G1 X12.13 Y-7.64 Z1.42 F1800.0
G1 X14.05 Y-9.7 Z1.42 F1800.0
G1 X14.31 Y-9.7 Z1.42 F1800.0
G1 X16.24 Y-7.64 Z1.42 F1800.0
G1 X16.49 Y-7.64 Z1.42 F1800.0
G1 X18.42 Y-9.7 Z1.42 F1800.0
G1 X18.67 Y-9.7 Z1.42 F1800.0
G1 X20.6 Y-7.64 Z1.42 F1800.0
G1 X20.85 Y-7.64 Z1.42 F1800.0
G1 X22.36 Y-8.29 Z1.42 F1800.0
G1 X22.48 Y-8.41 Z1.42 F1800.0
M108 R30.0
M102
G1 X22.8 Y-8.73 Z1.42 F1800.0
M108 R3.569
M103
G1 X22.6 Y-5.6 Z1.42 F3000.0
M108 R30.0
M101
G1 X22.55 Y-4.8 Z1.42 F3000.0
M108 R3.569
G1 X22.8 Y-4.8 Z1.42 F1800.0
G1 X22.55 Y-5.24 Z1.42 F1800.0
G1 X22.8 Y-5.24 Z1.42 F1800.0
G1 X22.55 Y-5.67 Z1.42 F1800.0
G1 X22.8 Y-5.67 Z1.42 F1800.0
G1 X22.55 Y-6.11 Z1.42 F1800.0
G1 X22.8 Y-6.11 Z1.42 F1800.0
G1 X22.55 Y-6.55 Z1.42 F1800.0
G1 X22.8 Y-6.55 Z1.42 F1800.0
G1 X22.65 Y-6.81 Z1.42 F1800.0
M108 R30.0
M102
G1 X22.55 Y-6.98 Z1.42 F1800.0
G1 X22.8 Y-6.98 Z1.42 F1800.0
M108 R3.569
M103
G1 X22.8 Y-4.29 Z1.42 F3000.0
M108 R30.0
M101
G1 X22.8 Y-3.49 Z1.42 F3000.0
M108 R3.569
G1 X22.55 Y-3.49 Z1.42 F1800.0
G1 X22.8 Y-3.93 Z1.42 F1800.0
G1 X22.55 Y-3.93 Z1.42 F1800.0
G1 X22.7 Y-4.19 Z1.42 F1800.0
M108 R30.0
M102
G1 X22.8 Y-4.36 Z1.42 F1800.0
G1 X22.55 Y-4.36 Z1.42 F1800.0
M108 R3.569
M103
G1 X22.55 Y-1.67 Z1.42 F3000.0
M108 R30.0
M101
G1 X22.55 Y-0.87 Z1.42 F3000.0
M108 R3.569
G1 X22.8 Y-0.87 Z1.42 F1800.0
G1 X22.55 Y-1.31 Z1.42 F1800.0
G1 X22.8 Y-1.31 Z1.42 F1800.0
G1 X22.55 Y-1.75 Z1.42 F1800.0
G1 X22.8 Y-1.75 Z1.42 F1800.0
G1 X22.55 Y-2.18 Z1.42 F1800.0
G1 X22.8 Y-2.18 Z1.42 F1800.0
G1 X22.55 Y-2.62 Z1.42 F1800.0
G1 X22.8 Y-2.62 Z1.42 F1800.0
G1 X22.65 Y-2.88 Z1.42 F1800.0
M108 R30.0
M102
G1 X22.55 Y-3.05 Z1.42 F1800.0
G1 X22.8 Y-3.05 Z1.42 F1800.0
M108 R3.569
M103
G1 X22.8 Y-0.36 Z1.42 F3000.0
M108 R30.0
M101
G1 X22.8 Y0.44 Z1.42 F3000.0
M108 R3.569
G1 X22.55 Y0.44 Z1.42 F1800.0
G1 X22.8 Y-0.0 Z1.42 F1800.0
G1 X22.55 Y-0.0 Z1.42 F1800.0
G1 X22.7 Y-0.26 Z1.42 F1800.0
M108 R30.0
M102
G1 X22.8 Y-0.44 Z1.42 F1800.0
G1 X22.55 Y-0.44 Z1.42 F1800.0
M108 R3.569
M103
G1 X22.55 Y2.25 Z1.42 F3000.0
M108 R30.0
M101
G1 X22.55 Y3.05 Z1.42 F3000.0
M108 R3.569
G1 X22.8 Y3.05 Z1.42 F1800.0
G1 X22.55 Y2.62 Z1.42 F1800.0
G1 X22.8 Y2.62 Z1.42 F1800.0
G1 X22.55 Y2.18 Z1.42 F1800.0
G1 X22.8 Y2.18 Z1.42 F1800.0
G1 X22.55 Y1.75 Z1.42 F1800.0
G1 X22.8 Y1.75 Z1.42 F1800.0
G1 X22.55 Y1.31 Z1.42 F1800.0
G1 X22.8 Y1.31 Z1.42 F1800.0
G1 X22.65 Y1.05 Z1.42 F1800.0
M108 R30.0
M102
G1 X22.55 Y0.87 Z1.42 F1800.0
G1 X22.8 Y0.87 Z1.42 F1800.0
M108 R3.569
M103
G1 X22.8 Y3.93 Z1.42 F3000.0
M101
G1 X22.55 Y3.93 Z1.42 F1800.0
G1 X22.8 Y3.49 Z1.42 F1800.0
G1 X22.55 Y3.49 Z1.42 F1800.0
M103
G1 X22.55 Y3.56 Z1.42 F3000.0
M108 R30.0
M101
G1 X22.55 Y4.36 Z1.42 F3000.0
M108 R3.569
G1 X22.8 Y4.36 Z1.42 F1800.0
G1 X22.55 Y4.8 Z1.42 F1800.0
G1 X22.8 Y4.8 Z1.42 F1800.0
G1 X22.65 Y5.06 Z1.42 F1800.0
M108 R30.0
M102
G1 X22.55 Y5.24 Z1.42 F1800.0
G1 X22.8 Y5.24 Z1.42 F1800.0
M108 R3.569
M103
G1 X22.8 Y9.67 Z1.42 F3000.0
M108 R30.0
M101
G1 X22.8 Y10.47 Z1.42 F3000.0
M108 R3.569
G1 X22.36 Y10.04 Z1.42 F1800.0
G1 X22.36 Y9.6 Z1.42 F1800.0
G1 X20.85 Y9.93 Z1.42 F1800.0
G1 X-18.67 Y9.93 Z1.42 F1800.0
G1 X-22.83 Y10.47 Z1.42 F1800.0
G1 X-22.83 Y8.73 Z1.42 F1800.0
G1 X-20.85 Y7.75 Z1.42 F1800.0
G1 X-20.6 Y7.75 Z1.42 F1800.0
G1 X-18.67 Y9.7 Z1.42 F1800.0
G1 X-18.42 Y9.7 Z1.42 F1800.0
G1 X-16.49 Y7.75 Z1.42 F1800.0
G1 X-16.24 Y7.75 Z1.42 F1800.0
G1 X-14.31 Y9.7 Z1.42 F1800.0
G1 X-14.05 Y9.7 Z1.42 F1800.0
G1 X-12.13 Y7.75 Z1.42 F1800.0
G1 X-11.87 Y7.75 Z1.42 F1800.0
G1 X-9.95 Y9.7 Z1.42 F1800.0
G1 X-9.69 Y9.7 Z1.42 F1800.0
G1 X-7.76 Y7.75 Z1.42 F1800.0
G1 X-7.51 Y7.75 Z1.42 F1800.0
G1 X-5.58 Y9.7 Z1.42 F1800.0
G1 X-5.33 Y9.7 Z1.42 F1800.0
G1 X-3.4 Y7.75 Z1.42 F1800.0
G1 X-3.15 Y7.75 Z1.42 F1800.0
G1 X-1.22 Y9.7 Z1.42 F1800.0
G1 X-0.96 Y9.7 Z1.42 F1800.0
G1 X0.96 Y7.75 Z1.42 F1800.0
G1 X1.22 Y7.75 Z1.42 F1800.0
G1 X3.15 Y9.7 Z1.42 F1800.0
G1 X3.4 Y9.7 Z1.42 F1800.0
G1 X5.33 Y7.75 Z1.42 F1800.0
G1 X5.58 Y7.75 Z1.42 F1800.0
G1 X7.51 Y9.7 Z1.42 F1800.0
G1 X7.76 Y9.7 Z1.42 F1800.0
G1 X9.69 Y7.75 Z1.42 F1800.0
G1 X9.95 Y7.75 Z1.42 F1800.0
G1 X11.87 Y9.7 Z1.42 F1800.0
G1 X12.13 Y9.7 Z1.42 F1800.0
G1 X14.05 Y7.75 Z1.42 F1800.0
G1 X14.31 Y7.75 Z1.42 F1800.0
G1 X16.24 Y9.7 Z1.42 F1800.0
G1 X16.49 Y9.7 Z1.42 F1800.0
G1 X18.42 Y7.75 Z1.42 F1800.0
G1 X18.67 Y7.75 Z1.42 F1800.0
G1 X20.6 Y9.7 Z1.42 F1800.0
G1 X20.85 Y9.7 Z1.42 F1800.0
G1 X22.36 Y9.16 Z1.42 F1800.0
G1 X22.48 Y9.05 Z1.42 F1800.0
M108 R30.0
M102
G1 X22.8 Y8.73 Z1.42 F1800.0
M108 R3.569
M103
(</surroundingLoop>)
(</layer>)
(<layer> 1.74 )
(<surroundingLoop>)
(<boundaryPerimeter>)
(<boundaryPoint> X23.641 Y11.617 Z1.74 </boundaryPoint>)
(<boundaryPoint> X-23.675 Y11.617 Z1.74 </boundaryPoint>)
(<boundaryPoint> X-23.675 Y-11.617 Z1.74 </boundaryPoint>)
(<boundaryPoint> X23.641 Y-11.617 Z1.74 </boundaryPoint>)
(<loop> inner )
G1 X-0.39 Y5.52 Z1.73 F3000.0
M108 R30.0
M101
G1 X-1.19 Y5.41 Z1.74 F3000.0
M108 R3.569
G1 X-0.86 Y5.41 Z1.74 F1800.0
G1 X-0.86 Y-7.11 Z1.74 F1800.0
G1 X-19.02 Y-7.11 Z1.74 F1800.0
G1 X-19.02 Y5.41 Z1.74 F1800.0
G1 X-1.64 Y5.41 Z1.74 F1800.0
M108 R30.0
M102
G1 X-1.19 Y5.41 Z1.74 F1800.0
M108 R3.569
M103
(</loop>)
(<loop> inner )
G1 X7.77 Y5.41 Z1.74 F3000.0
M108 R30.0
M101
G1 X8.57 Y5.41 Z1.74 F3000.0
M108 R3.569
G1 X22.29 Y5.41 Z1.74 F1800.0
G1 X22.29 Y-7.11 Z1.74 F1800.0
G1 X8.57 Y-7.11 Z1.74 F1800.0
G1 X8.57 Y4.96 Z1.74 F1800.0
M108 R30.0
M102
G1 X8.57 Y5.41 Z1.74 F1800.0
M108 R3.569
M103
(</loop>)
(<loop> outer )
G1 X8.57 Y10.23 Z1.74 F3000.0
M108 R30.0
M101
G1 X8.57 Y11.03 Z1.74 F3000.0
M108 R3.569
G1 X-23.09 Y11.03 Z1.74 F1800.0
G1 X-23.09 Y-11.03 Z1.74 F1800.0
G1 X23.05 Y-11.03 Z1.74 F1800.0
G1 X23.05 Y11.03 Z1.74 F1800.0
G1 X8.57 Y11.03 Z1.74 F1800.0
M103
(</loop>)
(<perimeter> outer )
G1 X8.57 Y11.42 Z1.74 F3000.0
M101
G1 X-23.48 Y11.42 Z1.74 F1800.0
G1 X-23.48 Y-11.42 Z1.74 F1800.0
G1 X23.45 Y-11.42 Z1.74 F1800.0
G1 X23.45 Y11.42 Z1.74 F1800.0
G1 X9.02 Y11.42 Z1.74 F1800.0
M108 R30.0
M102
G1 X8.57 Y11.42 Z1.74 F1800.0
M108 R3.569
M103
(</perimeter>)
(</boundaryPerimeter>)
(<surroundingLoop>)
(<boundaryPerimeter>)
(<boundaryPoint> X9.161 Y-6.517 Z1.74 </boundaryPoint>)
(<boundaryPoint> X9.161 Y4.817 Z1.74 </boundaryPoint>)
(<boundaryPoint> X21.703 Y4.817 Z1.74 </boundaryPoint>)
(<boundaryPoint> X21.703 Y-6.517 Z1.74 </boundaryPoint>)
(<perimeter> inner )
G1 X8.92 Y5.81 Z1.74 F3000.0
M108 R30.0
M101
G1 X8.97 Y5.01 Z1.74 F3000.0
M108 R3.569
G1 X21.9 Y5.01 Z1.74 F1800.0
G1 X21.9 Y-6.71 Z1.74 F1800.0
G1 X8.97 Y-6.71 Z1.74 F1800.0
G1 X8.97 Y4.56 Z1.74 F1800.0
M108 R30.0
M102
G1 X8.97 Y5.01 Z1.74 F1800.0
M108 R3.569
M103
(</perimeter>)
(</boundaryPerimeter>)
(</surroundingLoop>)
(<surroundingLoop>)
(<boundaryPerimeter>)
(<boundaryPoint> X-1.452 Y-6.517 Z1.74 </boundaryPoint>)
(<boundaryPoint> X-18.432 Y-6.517 Z1.74 </boundaryPoint>)
(<boundaryPoint> X-18.432 Y4.817 Z1.74 </boundaryPoint>)
(<boundaryPoint> X-1.452 Y4.817 Z1.74 </boundaryPoint>)
(<perimeter> inner )
G1 X-0.46 Y5.01 Z1.74 F3000.0
M108 R30.0
M101
G1 X-1.26 Y5.01 Z1.74 F3000.0
M108 R3.569
G1 X-1.26 Y-6.71 Z1.74 F1800.0
G1 X-18.63 Y-6.71 Z1.74 F1800.0
G1 X-18.63 Y5.01 Z1.74 F1800.0
G1 X-1.71 Y5.01 Z1.74 F1800.0
M108 R30.0
M102
G1 X-1.26 Y5.01 Z1.74 F1800.0
M108 R3.569
M103
(</perimeter>)
(</boundaryPerimeter>)
(</surroundingLoop>)
G1 X4.51 Y-10.03 Z1.74 F3000.0
M108 R30.0
M101
G1 X4.8 Y-10.77 Z1.74 F3000.0
M108 R3.569
G1 X6.55 Y-10.77 Z1.74 F1800.0
G1 X5.34 Y-9.95 Z1.74 F1800.0
G1 X5.34 Y-9.69 Z1.74 F1800.0
G1 X3.39 Y-7.76 Z1.74 F1800.0
G1 X3.39 Y-7.51 Z1.74 F1800.0
G1 X5.34 Y-5.58 Z1.74 F1800.0
G1 X5.34 Y-5.33 Z1.74 F1800.0
G1 X3.39 Y-3.4 Z1.74 F1800.0
G1 X3.39 Y-3.15 Z1.74 F1800.0
G1 X5.34 Y-1.22 Z1.74 F1800.0
G1 X5.34 Y-0.96 Z1.74 F1800.0
G1 X3.39 Y0.96 Z1.74 F1800.0
G1 X3.39 Y1.22 Z1.74 F1800.0
G1 X5.34 Y3.15 Z1.74 F1800.0
G1 X5.34 Y3.4 Z1.74 F1800.0
G1 X3.39 Y5.33 Z1.74 F1800.0
G1 X3.39 Y5.58 Z1.74 F1800.0
G1 X5.34 Y7.51 Z1.74 F1800.0
G1 X5.34 Y7.76 Z1.74 F1800.0
G1 X6.55 Y10.77 Z1.74 F1800.0
G1 X3.05 Y10.77 Z1.74 F1800.0
G1 X3.27 Y9.95 Z1.74 F1800.0
G1 X3.27 Y9.69 Z1.74 F1800.0
G1 X1.21 Y7.76 Z1.74 F1800.0
G1 X1.21 Y7.51 Z1.74 F1800.0
G1 X3.16 Y5.58 Z1.74 F1800.0
G1 X3.16 Y5.33 Z1.74 F1800.0
G1 X1.21 Y3.4 Z1.74 F1800.0
G1 X1.21 Y3.15 Z1.74 F1800.0
G1 X3.16 Y1.22 Z1.74 F1800.0
G1 X3.16 Y0.96 Z1.74 F1800.0
G1 X1.21 Y-0.96 Z1.74 F1800.0
G1 X1.21 Y-1.22 Z1.74 F1800.0
G1 X3.16 Y-3.15 Z1.74 F1800.0
G1 X3.16 Y-3.4 Z1.74 F1800.0
G1 X1.21 Y-5.33 Z1.74 F1800.0
G1 X1.21 Y-5.58 Z1.74 F1800.0
G1 X3.16 Y-7.51 Z1.74 F1800.0
G1 X3.16 Y-7.76 Z1.74 F1800.0
G1 X4.36 Y-10.77 Z1.74 F1800.0
G1 X0.87 Y-10.77 Z1.74 F1800.0
G1 X1.09 Y-9.95 Z1.74 F1800.0
G1 X1.09 Y-9.69 Z1.74 F1800.0
G1 X-0.98 Y-7.76 Z1.74 F1800.0
G1 X-0.98 Y-7.51 Z1.74 F1800.0
G1 X0.98 Y-5.58 Z1.74 F1800.0
G1 X0.98 Y7.76 Z1.74 F1800.0
G1 X2.62 Y10.77 Z1.74 F1800.0
G1 X-1.75 Y10.77 Z1.74 F1800.0
G1 X-1.09 Y9.95 Z1.74 F1800.0
G1 X-1.09 Y9.69 Z1.74 F1800.0
G1 X-3.16 Y7.76 Z1.74 F1800.0
G1 X-3.16 Y7.51 Z1.74 F1800.0
G1 X-2.62 Y5.66 Z1.74 F1800.0
G1 X-2.18 Y6.1 Z1.74 F1800.0
G1 X-1.75 Y6.1 Z1.74 F1800.0
G1 X-1.63 Y5.98 Z1.74 F1800.0
M108 R30.0
M102
G1 X-1.31 Y5.66 Z1.74 F1800.0
M108 R3.569
M103
G1 X-2.69 Y5.66 Z1.74 F3000.0
M108 R30.0
M101
G1 X-3.49 Y5.66 Z1.74 F3000.0
M108 R3.569
G1 X-3.39 Y7.76 Z1.74 F1800.0
G1 X-2.18 Y10.77 Z1.74 F1800.0
G1 X-6.11 Y10.77 Z1.74 F1800.0
G1 X-5.45 Y9.95 Z1.74 F1800.0
G1 X-5.45 Y9.69 Z1.74 F1800.0
G1 X-7.52 Y7.76 Z1.74 F1800.0
G1 X-7.42 Y6.1 Z1.74 F1800.0
G1 X-6.98 Y5.66 Z1.74 F1800.0
G1 X-6.55 Y6.1 Z1.74 F1800.0
G1 X-6.11 Y6.1 Z1.74 F1800.0
G1 X-5.99 Y5.98 Z1.74 F1800.0
M108 R30.0
M102
G1 X-5.67 Y5.66 Z1.74 F1800.0
M108 R3.569
M103
G1 X-7.05 Y5.66 Z1.74 F3000.0
M108 R30.0
M101
G1 X-7.85 Y5.66 Z1.74 F3000.0
M108 R3.569
G1 X-7.75 Y7.76 Z1.74 F1800.0
G1 X-6.55 Y10.77 Z1.74 F1800.0
G1 X-10.47 Y10.77 Z1.74 F1800.0
G1 X-9.82 Y9.95 Z1.74 F1800.0
G1 X-9.82 Y9.69 Z1.74 F1800.0
G1 X-11.88 Y7.76 Z1.74 F1800.0
G1 X-11.78 Y6.1 Z1.74 F1800.0
G1 X-11.35 Y5.66 Z1.74 F1800.0
G1 X-10.91 Y6.1 Z1.74 F1800.0
G1 X-10.47 Y6.1 Z1.74 F1800.0
G1 X-10.35 Y5.98 Z1.74 F1800.0
M108 R30.0
M102
G1 X-10.04 Y5.66 Z1.74 F1800.0
M108 R3.569
M103
G1 X-11.42 Y5.66 Z1.74 F3000.0
M108 R30.0
M101
G1 X-12.22 Y5.66 Z1.74 F3000.0
M108 R3.569
G1 X-12.11 Y7.76 Z1.74 F1800.0
G1 X-10.91 Y10.77 Z1.74 F1800.0
G1 X-14.4 Y10.77 Z1.74 F1800.0
G1 X-14.18 Y9.95 Z1.74 F1800.0
G1 X-14.18 Y9.69 Z1.74 F1800.0
G1 X-16.25 Y7.76 Z1.74 F1800.0
G1 X-16.25 Y7.51 Z1.74 F1800.0
G1 X-15.71 Y5.66 Z1.74 F1800.0
G1 X-15.27 Y6.1 Z1.74 F1800.0
G1 X-14.84 Y6.1 Z1.74 F1800.0
G1 X-14.72 Y5.98 Z1.74 F1800.0
M108 R30.0
M102
G1 X-14.4 Y5.66 Z1.74 F1800.0
M108 R3.569
M103
G1 X-15.78 Y5.66 Z1.74 F3000.0
M108 R30.0
M101
G1 X-16.58 Y5.66 Z1.74 F3000.0
M108 R3.569
G1 X-16.48 Y7.76 Z1.74 F1800.0
G1 X-14.84 Y10.77 Z1.74 F1800.0
G1 X-18.76 Y10.77 Z1.74 F1800.0
G1 X-18.54 Y9.95 Z1.74 F1800.0
G1 X-18.54 Y9.69 Z1.74 F1800.0
G1 X-20.61 Y7.76 Z1.74 F1800.0
G1 X-20.61 Y7.51 Z1.74 F1800.0
G1 X-19.08 Y5.98 Z1.74 F1800.0
M108 R30.0
M102
G1 X-18.76 Y5.66 Z1.74 F1800.0
M108 R3.569
M103
G1 X-21.02 Y10.06 Z1.74 F3000.0
M108 R30.0
M101
G1 X-21.38 Y10.77 Z1.74 F3000.0
M108 R3.569
G1 X-19.2 Y10.77 Z1.74 F1800.0
G1 X-20.84 Y7.76 Z1.74 F1800.0
G1 X-20.84 Y-9.95 Z1.74 F1800.0
G1 X-19.64 Y-10.77 Z1.74 F1800.0
G1 X-22.69 Y-10.77 Z1.74 F1800.0
G1 X-22.69 Y10.77 Z1.74 F1800.0
G1 X-22.27 Y10.77 Z1.74 F1800.0
M108 R30.0
M102
G1 X-21.82 Y10.77 Z1.74 F1800.0
M108 R3.569
M103
G1 X-18.9 Y-6.57 Z1.74 F3000.0
M108 R30.0
M101
G1 X-18.76 Y-7.36 Z1.74 F3000.0
M108 R3.569
G1 X-18.66 Y-7.51 Z1.74 F1800.0
G1 X-18.66 Y-7.76 Z1.74 F1800.0
G1 X-20.61 Y-9.69 Z1.74 F1800.0
G1 X-20.61 Y-9.95 Z1.74 F1800.0
G1 X-18.76 Y-10.77 Z1.74 F1800.0
G1 X-15.27 Y-10.77 Z1.74 F1800.0
G1 X-16.48 Y-9.95 Z1.74 F1800.0
G1 X-16.48 Y-9.69 Z1.74 F1800.0
G1 X-18.43 Y-7.76 Z1.74 F1800.0
G1 X-18.43 Y-7.51 Z1.74 F1800.0
G1 X-18.33 Y-7.36 Z1.74 F1800.0
G1 X-17.97 Y-7.61 Z1.74 F1800.0
G1 X-17.89 Y-7.36 Z1.74 F1800.0
G1 X-17.47 Y-7.49 Z1.74 F1800.0
G1 X-17.02 Y-7.8 Z1.74 F1800.0
G1 X-16.9 Y-7.68 Z1.74 F1800.0
M108 R30.0
M102
G1 X-16.58 Y-7.36 Z1.74 F1800.0
M108 R3.569
M103
G1 X-15.2 Y-7.36 Z1.74 F3000.0
M108 R30.0
M101
G1 X-14.4 Y-7.36 Z1.74 F3000.0
M108 R3.569
G1 X-14.3 Y-7.51 Z1.74 F1800.0
G1 X-14.3 Y-7.76 Z1.74 F1800.0
G1 X-14.84 Y-7.8 Z1.74 F1800.0
G1 X-15.27 Y-7.36 Z1.74 F1800.0
G1 X-15.71 Y-7.8 Z1.74 F1800.0
G1 X-16.25 Y-9.69 Z1.74 F1800.0
G1 X-16.25 Y-9.95 Z1.74 F1800.0
G1 X-14.4 Y-10.77 Z1.74 F1800.0
G1 X-10.91 Y-10.77 Z1.74 F1800.0
G1 X-12.11 Y-9.95 Z1.74 F1800.0
G1 X-12.11 Y-9.69 Z1.74 F1800.0
G1 X-14.07 Y-7.76 Z1.74 F1800.0
G1 X-14.07 Y-7.51 Z1.74 F1800.0
G1 X-13.96 Y-7.36 Z1.74 F1800.0
G1 X-13.61 Y-7.61 Z1.74 F1800.0
G1 X-13.53 Y-7.36 Z1.74 F1800.0
G1 X-13.11 Y-7.49 Z1.74 F1800.0
G1 X-12.65 Y-7.8 Z1.74 F1800.0
G1 X-12.54 Y-7.68 Z1.74 F1800.0
M108 R30.0
M102
G1 X-12.22 Y-7.36 Z1.74 F1800.0
M108 R3.569
M103
G1 X-10.84 Y-7.36 Z1.74 F3000.0
M108 R30.0
M101
G1 X-10.04 Y-7.36 Z1.74 F3000.0
M108 R3.569
G1 X-9.93 Y-7.51 Z1.74 F1800.0
G1 X-9.93 Y-7.76 Z1.74 F1800.0
G1 X-10.47 Y-7.8 Z1.74 F1800.0
G1 X-10.91 Y-7.36 Z1.74 F1800.0
G1 X-11.35 Y-7.8 Z1.74 F1800.0
G1 X-11.88 Y-9.69 Z1.74 F1800.0
G1 X-11.88 Y-9.95 Z1.74 F1800.0
G1 X-10.47 Y-10.34 Z1.74 F1800.0
G1 X-10.04 Y-10.77 Z1.74 F1800.0
G1 X-6.55 Y-10.77 Z1.74 F1800.0
G1 X-7.75 Y-9.95 Z1.74 F1800.0
G1 X-7.75 Y-9.69 Z1.74 F1800.0
G1 X-9.7 Y-7.76 Z1.74 F1800.0
G1 X-9.7 Y-7.51 Z1.74 F1800.0
G1 X-9.6 Y-7.36 Z1.74 F1800.0
G1 X-9.24 Y-7.61 Z1.74 F1800.0
G1 X-9.16 Y-7.36 Z1.74 F1800.0
G1 X-8.75 Y-7.49 Z1.74 F1800.0
G1 X-8.29 Y-7.8 Z1.74 F1800.0
G1 X-8.17 Y-7.68 Z1.74 F1800.0
M108 R30.0
M102
G1 X-7.85 Y-7.36 Z1.74 F1800.0
M108 R3.569
M103
G1 X-6.47 Y-7.36 Z1.74 F3000.0
M108 R30.0
M101
G1 X-5.67 Y-7.36 Z1.74 F3000.0
M108 R3.569
G1 X-5.57 Y-7.51 Z1.74 F1800.0
G1 X-5.57 Y-7.76 Z1.74 F1800.0
G1 X-6.11 Y-7.8 Z1.74 F1800.0
G1 X-6.55 Y-7.36 Z1.74 F1800.0
G1 X-6.98 Y-7.8 Z1.74 F1800.0
G1 X-7.52 Y-9.69 Z1.74 F1800.0
G1 X-7.52 Y-9.95 Z1.74 F1800.0
G1 X-6.11 Y-10.77 Z1.74 F1800.0
G1 X-2.18 Y-10.77 Z1.74 F1800.0
G1 X-3.39 Y-9.95 Z1.74 F1800.0
G1 X-3.39 Y-9.69 Z1.74 F1800.0
G1 X-5.34 Y-7.76 Z1.74 F1800.0
G1 X-5.34 Y-7.51 Z1.74 F1800.0
G1 X-5.24 Y-7.36 Z1.74 F1800.0
G1 X-4.88 Y-7.61 Z1.74 F1800.0
G1 X-4.8 Y-7.36 Z1.74 F1800.0
G1 X-4.38 Y-7.49 Z1.74 F1800.0
G1 X-3.93 Y-7.8 Z1.74 F1800.0
G1 X-3.81 Y-7.68 Z1.74 F1800.0
M108 R30.0
M102
G1 X-3.49 Y-7.36 Z1.74 F1800.0
M108 R3.569
M103
G1 X-2.11 Y-7.36 Z1.74 F3000.0
M108 R30.0
M101
G1 X-1.31 Y-7.36 Z1.74 F3000.0
M108 R3.569
G1 X-1.21 Y-7.51 Z1.74 F1800.0
G1 X-1.21 Y-7.76 Z1.74 F1800.0
G1 X-1.75 Y-7.8 Z1.74 F1800.0
G1 X-2.18 Y-7.36 Z1.74 F1800.0
G1 X-2.62 Y-7.8 Z1.74 F1800.0
G1 X-3.16 Y-9.69 Z1.74 F1800.0
G1 X-3.16 Y-9.95 Z1.74 F1800.0
G1 X-1.31 Y-10.77 Z1.74 F1800.0
G1 X-0.01 Y-10.77 Z1.74 F1800.0
M108 R30.0
M102
G1 X0.44 Y-10.77 Z1.74 F1800.0
M108 R3.569
M103
G1 X9.21 Y4.96 Z1.74 F3000.0
M108 R30.0
M101
G1 X9.6 Y5.66 Z1.74 F3000.0
M108 R3.569
G1 X9.7 Y7.76 Z1.74 F1800.0
G1 X10.91 Y10.77 Z1.74 F1800.0
G1 X6.98 Y10.77 Z1.74 F1800.0
G1 X7.64 Y9.95 Z1.74 F1800.0
G1 X7.64 Y9.69 Z1.74 F1800.0
G1 X5.57 Y7.76 Z1.74 F1800.0
G1 X5.57 Y-5.58 Z1.74 F1800.0
G1 X7.52 Y-7.51 Z1.74 F1800.0
G1 X7.52 Y-7.76 Z1.74 F1800.0
G1 X5.57 Y-9.69 Z1.74 F1800.0
G1 X5.57 Y-9.95 Z1.74 F1800.0
G1 X6.98 Y-10.77 Z1.74 F1800.0
G1 X10.91 Y-10.77 Z1.74 F1800.0
G1 X9.7 Y-9.95 Z1.74 F1800.0
G1 X9.7 Y-9.69 Z1.74 F1800.0
G1 X7.75 Y-7.76 Z1.74 F1800.0
G1 X7.75 Y-7.51 Z1.74 F1800.0
G1 X8.73 Y-7.8 Z1.74 F1800.0
G1 X9.16 Y-7.8 Z1.74 F1800.0
G1 X9.28 Y-7.68 Z1.74 F1800.0
M108 R30.0
M102
G1 X9.6 Y-7.36 Z1.74 F1800.0
M108 R3.569
M103
G1 X10.98 Y-7.36 Z1.74 F3000.0
M108 R30.0
M101
G1 X11.78 Y-7.36 Z1.74 F3000.0
M108 R3.569
G1 X11.88 Y-7.51 Z1.74 F1800.0
G1 X11.88 Y-7.76 Z1.74 F1800.0
G1 X11.35 Y-7.8 Z1.74 F1800.0
G1 X10.91 Y-7.36 Z1.74 F1800.0
G1 X10.47 Y-7.8 Z1.74 F1800.0
G1 X9.93 Y-9.69 Z1.74 F1800.0
G1 X9.93 Y-9.95 Z1.74 F1800.0
G1 X11.35 Y-10.77 Z1.74 F1800.0
G1 X15.27 Y-10.77 Z1.74 F1800.0
G1 X14.07 Y-9.95 Z1.74 F1800.0
G1 X14.07 Y-9.69 Z1.74 F1800.0
G1 X12.11 Y-7.76 Z1.74 F1800.0
G1 X12.11 Y-7.51 Z1.74 F1800.0
G1 X12.22 Y-7.36 Z1.74 F1800.0
G1 X12.57 Y-7.61 Z1.74 F1800.0
G1 X12.65 Y-7.36 Z1.74 F1800.0
G1 X13.07 Y-7.49 Z1.74 F1800.0
G1 X13.53 Y-7.8 Z1.74 F1800.0
G1 X13.64 Y-7.68 Z1.74 F1800.0
M108 R30.0
M102
G1 X13.96 Y-7.36 Z1.74 F1800.0
M108 R3.569
M103
G1 X15.34 Y-7.36 Z1.74 F3000.0
M108 R30.0
M101
G1 X16.14 Y-7.36 Z1.74 F3000.0
M108 R3.569
G1 X16.25 Y-7.51 Z1.74 F1800.0
G1 X16.25 Y-7.76 Z1.74 F1800.0
G1 X15.71 Y-7.8 Z1.74 F1800.0
G1 X15.27 Y-7.36 Z1.74 F1800.0
G1 X14.84 Y-7.8 Z1.74 F1800.0
G1 X14.3 Y-9.69 Z1.74 F1800.0
G1 X14.3 Y-9.95 Z1.74 F1800.0
G1 X16.14 Y-10.77 Z1.74 F1800.0
G1 X19.64 Y-10.77 Z1.74 F1800.0
G1 X18.43 Y-9.95 Z1.74 F1800.0
G1 X18.43 Y-9.69 Z1.74 F1800.0
G1 X16.48 Y-7.76 Z1.74 F1800.0
G1 X16.48 Y-7.51 Z1.74 F1800.0
G1 X16.58 Y-7.36 Z1.74 F1800.0
G1 X16.94 Y-7.61 Z1.74 F1800.0
G1 X17.02 Y-7.36 Z1.74 F1800.0
G1 X17.43 Y-7.49 Z1.74 F1800.0
G1 X17.89 Y-7.8 Z1.74 F1800.0
G1 X18.01 Y-7.68 Z1.74 F1800.0
M108 R30.0
M102
G1 X18.33 Y-7.36 Z1.74 F1800.0
M108 R3.569
M103
G1 X18.47 Y-6.79 Z1.74 F3000.0
G1 X21.84 Y-6.66 Z1.74 F3000.0
G1 X21.84 Y4.96 Z1.74 F3000.0
G1 X20.58 Y5.07 Z1.74 F3000.0
M108 R30.0
M101
G1 X20.37 Y5.09 Z1.74 F3000.0
G1 X20.51 Y5.66 Z1.74 F3000.0
M108 R3.569
G1 X20.07 Y6.1 Z1.74 F1800.0
G1 X19.64 Y6.1 Z1.74 F1800.0
G1 X19.2 Y5.66 Z1.74 F1800.0
G1 X18.76 Y6.1 Z1.74 F1800.0
G1 X18.66 Y7.76 Z1.74 F1800.0
G1 X20.73 Y9.69 Z1.74 F1800.0
G1 X20.73 Y9.95 Z1.74 F1800.0
G1 X20.07 Y10.77 Z1.74 F1800.0
G1 X22.69 Y10.77 Z1.74 F1800.0
G1 X22.69 Y-10.77 Z1.74 F1800.0
G1 X20.51 Y-10.77 Z1.74 F1800.0
G1 X18.66 Y-9.95 Z1.74 F1800.0
G1 X18.66 Y-9.69 Z1.74 F1800.0
G1 X19.2 Y-7.8 Z1.74 F1800.0
G1 X19.64 Y-7.36 Z1.74 F1800.0
G1 X20.07 Y-7.8 Z1.74 F1800.0
G1 X20.73 Y-7.76 Z1.74 F1800.0
G1 X20.73 Y-7.7 Z1.74 F1800.0
M108 R30.0
M102
G1 X20.73 Y-7.51 Z1.74 F1800.0
G1 X20.51 Y-7.36 Z1.74 F1800.0
M108 R3.569
M103
G1 X20.37 Y-6.79 Z1.74 F3000.0
G1 X21.84 Y-6.66 Z1.74 F3000.0
G1 X21.84 Y4.96 Z1.74 F3000.0
G1 X18.68 Y5.08 Z1.74 F3000.0
M108 R30.0
M101
G1 X18.47 Y5.09 Z1.74 F3000.0
G1 X18.33 Y5.66 Z1.74 F3000.0
M108 R3.569
G1 X18.43 Y7.76 Z1.74 F1800.0
G1 X19.64 Y10.77 Z1.74 F1800.0
G1 X15.71 Y10.77 Z1.74 F1800.0
G1 X16.36 Y9.95 Z1.74 F1800.0
G1 X16.36 Y9.69 Z1.74 F1800.0
G1 X14.3 Y7.76 Z1.74 F1800.0
G1 X14.4 Y6.1 Z1.74 F1800.0
G1 X14.84 Y5.66 Z1.74 F1800.0
G1 X15.27 Y6.1 Z1.74 F1800.0
G1 X15.71 Y6.1 Z1.74 F1800.0
G1 X15.83 Y5.98 Z1.74 F1800.0
M108 R30.0
M102
G1 X16.14 Y5.66 Z1.74 F1800.0
M108 R3.569
M103
G1 X14.76 Y5.66 Z1.74 F3000.0
M108 R30.0
M101
G1 X13.96 Y5.66 Z1.74 F3000.0
M108 R3.569
G1 X14.07 Y7.76 Z1.74 F1800.0
G1 X15.27 Y10.77 Z1.74 F1800.0
G1 X11.35 Y10.77 Z1.74 F1800.0
G1 X12.0 Y9.95 Z1.74 F1800.0
G1 X12.0 Y9.69 Z1.74 F1800.0
G1 X9.93 Y7.76 Z1.74 F1800.0
G1 X10.04 Y6.1 Z1.74 F1800.0
G1 X10.47 Y5.66 Z1.74 F1800.0
G1 X10.91 Y6.1 Z1.74 F1800.0
G1 X11.35 Y6.1 Z1.74 F1800.0
G1 X11.78 Y5.66 Z1.74 F1800.0
M103
(</surroundingLoop>)
(</layer>)
(<layer> 2.06 )
(<surroundingLoop>)
(<boundaryPerimeter>)
(<boundaryPoint> X23.641 Y11.617 Z2.06 </boundaryPoint>)
(<boundaryPoint> X-23.675 Y11.617 Z2.06 </boundaryPoint>)
(<boundaryPoint> X-23.675 Y-11.617 Z2.06 </boundaryPoint>)
(<boundaryPoint> X23.641 Y-11.617 Z2.06 </boundaryPoint>)
(<loop> inner )
G1 X11.95 Y5.41 Z2.06 F3000.0
M101
G1 X22.29 Y5.41 Z2.06 F1800.0
G1 X22.29 Y-7.11 Z2.06 F1800.0
G1 X8.57 Y-7.11 Z2.06 F1800.0
G1 X8.57 Y5.41 Z2.06 F1800.0
G1 X11.5 Y5.41 Z2.06 F1800.0
M108 R30.0
M102
G1 X11.78 Y5.41 Z2.06 F1800.0
G1 X11.95 Y5.41 Z2.06 F1800.0
M108 R3.569
M103
(</loop>)
(<loop> inner )
G1 X-0.06 Y5.41 Z2.06 F3000.0
M108 R30.0
M101
G1 X-0.86 Y5.41 Z2.06 F3000.0
M108 R3.569
G1 X-0.86 Y-7.11 Z2.06 F1800.0
G1 X-19.02 Y-7.11 Z2.06 F1800.0
G1 X-19.02 Y5.41 Z2.06 F1800.0
G1 X-1.31 Y5.41 Z2.06 F1800.0
M108 R30.0
M102
G1 X-0.86 Y5.41 Z2.06 F1800.0
M108 R3.569
M103
(</loop>)
(<loop> outer )
G1 X-0.86 Y10.23 Z2.06 F3000.0
M108 R30.0
M101
G1 X-0.86 Y11.03 Z2.06 F3000.0
M108 R3.569
G1 X-23.09 Y11.03 Z2.06 F1800.0
G1 X-23.09 Y-11.03 Z2.06 F1800.0
G1 X23.05 Y-11.03 Z2.06 F1800.0
G1 X23.05 Y11.03 Z2.06 F1800.0
G1 X-0.86 Y11.03 Z2.06 F1800.0
M103
(</loop>)
(<perimeter> outer )
G1 X-0.86 Y11.42 Z2.06 F3000.0
M101
G1 X-23.48 Y11.42 Z2.06 F1800.0
G1 X-23.48 Y-11.42 Z2.06 F1800.0
G1 X23.45 Y-11.42 Z2.06 F1800.0
G1 X23.45 Y11.42 Z2.06 F1800.0
G1 X-0.41 Y11.42 Z2.06 F1800.0
M108 R30.0
M102
G1 X-0.86 Y11.42 Z2.06 F1800.0
M108 R3.569
M103
(</perimeter>)
(</boundaryPerimeter>)
(<surroundingLoop>)
(<boundaryPerimeter>)
(<boundaryPoint> X-1.452 Y-6.517 Z2.06 </boundaryPoint>)
(<boundaryPoint> X-18.432 Y-6.517 Z2.06 </boundaryPoint>)
(<boundaryPoint> X-18.432 Y4.817 Z2.06 </boundaryPoint>)
(<boundaryPoint> X-1.452 Y4.817 Z2.06 </boundaryPoint>)
(<perimeter> inner )
G1 X-1.21 Y5.81 Z2.06 F3000.0
M108 R30.0
M101
G1 X-1.26 Y5.01 Z2.06 F3000.0
M108 R3.569
G1 X-1.26 Y-6.71 Z2.06 F1800.0
G1 X-18.63 Y-6.71 Z2.06 F1800.0
G1 X-18.63 Y5.01 Z2.06 F1800.0
G1 X-1.71 Y5.01 Z2.06 F1800.0
M108 R30.0
M102
G1 X-1.26 Y5.01 Z2.06 F1800.0
M108 R3.569
M103
(</perimeter>)
(</boundaryPerimeter>)
(</surroundingLoop>)
(<surroundingLoop>)
(<boundaryPerimeter>)
(<boundaryPoint> X9.161 Y-6.517 Z2.06 </boundaryPoint>)
(<boundaryPoint> X9.161 Y4.817 Z2.06 </boundaryPoint>)
(<boundaryPoint> X21.703 Y4.817 Z2.06 </boundaryPoint>)
(<boundaryPoint> X21.703 Y-6.517 Z2.06 </boundaryPoint>)
(<perimeter> inner )
G1 X8.16 Y5.01 Z2.06 F3000.0
M108 R30.0
M101
G1 X8.97 Y5.01 Z2.06 F3000.0
M108 R3.569
G1 X21.9 Y5.01 Z2.06 F1800.0
G1 X21.9 Y-6.71 Z2.06 F1800.0
G1 X8.97 Y-6.71 Z2.06 F1800.0
G1 X8.97 Y4.56 Z2.06 F1800.0
M108 R30.0
M102
G1 X8.97 Y5.01 Z2.06 F1800.0
M108 R3.569
M103
(</perimeter>)
(</boundaryPerimeter>)
(</surroundingLoop>)
G1 X0.16 Y2.41 Z2.06 F3000.0
M108 R30.0
M101
G1 X-0.61 Y2.18 Z2.06 F3000.0
M108 R3.569
G1 X-0.17 Y2.62 Z2.06 F1800.0
G1 X0.96 Y3.16 Z2.06 F1800.0
G1 X1.22 Y3.16 Z2.06 F1800.0
G1 X3.15 Y1.21 Z2.06 F1800.0
G1 X3.4 Y1.21 Z2.06 F1800.0
G1 X5.33 Y3.16 Z2.06 F1800.0
G1 X5.58 Y3.16 Z2.06 F1800.0
G1 X8.32 Y2.18 Z2.06 F1800.0
G1 X8.32 Y5.24 Z2.06 F1800.0
G1 X5.58 Y3.39 Z2.06 F1800.0
G1 X5.33 Y3.39 Z2.06 F1800.0
G1 X3.4 Y5.34 Z2.06 F1800.0
G1 X3.15 Y5.34 Z2.06 F1800.0
G1 X1.22 Y3.39 Z2.06 F1800.0
G1 X-0.17 Y3.49 Z2.06 F1800.0
G1 X-0.17 Y3.93 Z2.06 F1800.0
G1 X-0.29 Y4.05 Z2.06 F1800.0
M108 R30.0
M102
G1 X-0.61 Y4.36 Z2.06 F1800.0
M108 R3.569
M103
G1 X-0.61 Y-1.38 Z2.06 F3000.0
M108 R30.0
M101
G1 X-0.61 Y-2.18 Z2.06 F3000.0
M108 R3.569
G1 X-0.17 Y-1.75 Z2.06 F1800.0
G1 X0.96 Y-1.21 Z2.06 F1800.0
G1 X1.22 Y-1.21 Z2.06 F1800.0
G1 X3.15 Y-3.16 Z2.06 F1800.0
G1 X3.4 Y-3.16 Z2.06 F1800.0
G1 X5.33 Y-1.21 Z2.06 F1800.0
G1 X5.58 Y-1.21 Z2.06 F1800.0
G1 X8.32 Y-2.18 Z2.06 F1800.0
G1 X8.32 Y1.75 Z2.06 F1800.0
G1 X5.58 Y-0.98 Z2.06 F1800.0
G1 X5.33 Y-0.98 Z2.06 F1800.0
G1 X3.4 Y0.98 Z2.06 F1800.0
G1 X3.15 Y0.98 Z2.06 F1800.0
G1 X1.22 Y-0.98 Z2.06 F1800.0
G1 X-0.17 Y-0.87 Z2.06 F1800.0
G1 X-0.41 Y-0.4 Z2.06 F1800.0
M108 R30.0
M102
G1 X-0.61 Y0.0 Z2.06 F1800.0
M108 R3.569
M103
G1 X-0.61 Y-5.75 Z2.06 F3000.0
M108 R30.0
M101
G1 X-0.61 Y-6.55 Z2.06 F3000.0
M108 R3.569
G1 X-0.17 Y-6.11 Z2.06 F1800.0
G1 X0.96 Y-5.57 Z2.06 F1800.0
G1 X1.22 Y-5.57 Z2.06 F1800.0
G1 X3.15 Y-7.52 Z2.06 F1800.0
G1 X3.4 Y-7.52 Z2.06 F1800.0
G1 X5.33 Y-5.57 Z2.06 F1800.0
G1 X5.58 Y-5.57 Z2.06 F1800.0
G1 X7.51 Y-7.52 Z2.06 F1800.0
G1 X7.76 Y-7.52 Z2.06 F1800.0
G1 X8.32 Y-6.98 Z2.06 F1800.0
G1 X8.32 Y-2.62 Z2.06 F1800.0
G1 X5.58 Y-5.34 Z2.06 F1800.0
G1 X5.33 Y-5.34 Z2.06 F1800.0
G1 X3.4 Y-3.39 Z2.06 F1800.0
G1 X3.15 Y-3.39 Z2.06 F1800.0
G1 X1.22 Y-5.34 Z2.06 F1800.0
G1 X-0.17 Y-5.24 Z2.06 F1800.0
G1 X-0.17 Y-4.8 Z2.06 F1800.0
G1 X-0.29 Y-4.68 Z2.06 F1800.0
M108 R30.0
M102
G1 X-0.61 Y-4.36 Z2.06 F1800.0
M108 R3.569
M103
G1 X22.02 Y-10.27 Z2.06 F3000.0
M108 R30.0
M101
G1 X22.8 Y-10.47 Z2.06 F3000.0
M108 R3.569
G1 X22.36 Y-10.04 Z2.06 F1800.0
G1 X-20.85 Y-9.93 Z2.06 F1800.0
G1 X-22.83 Y-9.6 Z2.06 F1800.0
G1 X-22.83 Y-10.02 Z2.06 F1800.0
M108 R30.0
M102
G1 X-22.83 Y-10.47 Z2.06 F1800.0
M108 R3.569
M103
G1 X-12.23 Y-6.79 Z2.06 F3000.0
G1 X-1.31 Y-6.66 Z2.06 F3000.0
G1 X-1.18 Y-2.5 Z2.06 F3000.0
G1 X8.89 Y1.46 Z2.06 F3000.0
G1 X9.02 Y4.96 Z2.06 F3000.0
G1 X18.16 Y5.09 Z2.06 F3000.0
G1 X22.03 Y6.31 Z2.06 F3000.0
M108 R30.0
M101
G1 X22.8 Y6.55 Z2.06 F3000.0
M108 R3.569
G1 X22.36 Y6.98 Z2.06 F1800.0
G1 X18.67 Y7.52 Z2.06 F1800.0
G1 X5.33 Y7.52 Z2.06 F1800.0
G1 X3.4 Y5.57 Z2.06 F1800.0
G1 X3.15 Y5.57 Z2.06 F1800.0
G1 X1.22 Y7.52 Z2.06 F1800.0
G1 X-20.85 Y7.52 Z2.06 F1800.0
G1 X-22.83 Y8.29 Z2.06 F1800.0
G1 X-22.83 Y3.93 Z2.06 F1800.0
G1 X-20.85 Y3.39 Z2.06 F1800.0
G1 X-20.6 Y3.39 Z2.06 F1800.0
G1 X-19.28 Y5.24 Z2.06 F1800.0
G1 X-19.28 Y1.75 Z2.06 F1800.0
G1 X-20.6 Y3.16 Z2.06 F1800.0
G1 X-20.85 Y3.16 Z2.06 F1800.0
G1 X-22.83 Y3.49 Z2.06 F1800.0
G1 X-22.83 Y-0.44 Z2.06 F1800.0
G1 X-20.85 Y-0.98 Z2.06 F1800.0
G1 X-20.6 Y-0.98 Z2.06 F1800.0
G1 X-19.28 Y1.31 Z2.06 F1800.0
G1 X-19.28 Y-2.62 Z2.06 F1800.0
G1 X-20.6 Y-1.21 Z2.06 F1800.0
G1 X-20.85 Y-1.21 Z2.06 F1800.0
G1 X-22.83 Y-0.87 Z2.06 F1800.0
G1 X-22.83 Y-4.8 Z2.06 F1800.0
G1 X-20.85 Y-5.34 Z2.06 F1800.0
G1 X-20.6 Y-5.34 Z2.06 F1800.0
G1 X-19.28 Y-3.05 Z2.06 F1800.0
G1 X-19.28 Y-6.98 Z2.06 F1800.0
G1 X-20.6 Y-5.57 Z2.06 F1800.0
G1 X-20.85 Y-5.57 Z2.06 F1800.0
G1 X-22.83 Y-5.24 Z2.06 F1800.0
G1 X-22.83 Y-9.16 Z2.06 F1800.0
G1 X-20.85 Y-9.7 Z2.06 F1800.0
G1 X-20.6 Y-9.7 Z2.06 F1800.0
G1 X-18.67 Y-7.64 Z2.06 F1800.0
G1 X-18.42 Y-7.64 Z2.06 F1800.0
G1 X-16.49 Y-9.7 Z2.06 F1800.0
G1 X-16.24 Y-9.7 Z2.06 F1800.0
G1 X-14.31 Y-7.64 Z2.06 F1800.0
G1 X-14.05 Y-7.64 Z2.06 F1800.0
G1 X-12.13 Y-9.7 Z2.06 F1800.0
G1 X-11.87 Y-9.7 Z2.06 F1800.0
G1 X-9.95 Y-7.64 Z2.06 F1800.0
G1 X-9.69 Y-7.64 Z2.06 F1800.0
G1 X-7.76 Y-9.7 Z2.06 F1800.0
G1 X-7.51 Y-9.7 Z2.06 F1800.0
G1 X-5.58 Y-7.64 Z2.06 F1800.0
G1 X-5.33 Y-7.64 Z2.06 F1800.0
G1 X-3.4 Y-9.7 Z2.06 F1800.0
G1 X-3.15 Y-9.7 Z2.06 F1800.0
G1 X-1.22 Y-7.64 Z2.06 F1800.0
G1 X-0.96 Y-7.64 Z2.06 F1800.0
G1 X0.96 Y-9.7 Z2.06 F1800.0
G1 X1.22 Y-9.7 Z2.06 F1800.0
G1 X3.15 Y-7.75 Z2.06 F1800.0
G1 X3.4 Y-7.75 Z2.06 F1800.0
G1 X5.33 Y-9.7 Z2.06 F1800.0
G1 X5.58 Y-9.7 Z2.06 F1800.0
G1 X7.51 Y-7.75 Z2.06 F1800.0
G1 X7.76 Y-7.75 Z2.06 F1800.0
G1 X9.69 Y-9.7 Z2.06 F1800.0
G1 X9.95 Y-9.7 Z2.06 F1800.0
G1 X11.87 Y-7.64 Z2.06 F1800.0
G1 X12.13 Y-7.64 Z2.06 F1800.0
G1 X14.05 Y-9.7 Z2.06 F1800.0
G1 X14.31 Y-9.7 Z2.06 F1800.0
G1 X16.24 Y-7.64 Z2.06 F1800.0
G1 X16.49 Y-7.64 Z2.06 F1800.0
G1 X18.42 Y-9.7 Z2.06 F1800.0
G1 X18.67 Y-9.7 Z2.06 F1800.0
G1 X20.6 Y-7.64 Z2.06 F1800.0
G1 X20.85 Y-7.64 Z2.06 F1800.0
G1 X22.36 Y-8.29 Z2.06 F1800.0
G1 X22.48 Y-8.41 Z2.06 F1800.0
M108 R30.0
M102
G1 X22.8 Y-8.73 Z2.06 F1800.0
M108 R3.569
M103
G1 X22.6 Y-5.6 Z2.06 F3000.0
M108 R30.0
M101
G1 X22.55 Y-4.8 Z2.06 F3000.0
M108 R3.569
G1 X22.8 Y-4.8 Z2.06 F1800.0
G1 X22.55 Y-5.24 Z2.06 F1800.0
G1 X22.8 Y-5.24 Z2.06 F1800.0
G1 X22.55 Y-5.67 Z2.06 F1800.0
G1 X22.8 Y-5.67 Z2.06 F1800.0
G1 X22.55 Y-6.11 Z2.06 F1800.0
G1 X22.8 Y-6.11 Z2.06 F1800.0
G1 X22.55 Y-6.55 Z2.06 F1800.0
G1 X22.8 Y-6.55 Z2.06 F1800.0
G1 X22.65 Y-6.81 Z2.06 F1800.0
M108 R30.0
M102
G1 X22.55 Y-6.98 Z2.06 F1800.0
G1 X22.8 Y-6.98 Z2.06 F1800.0
M108 R3.569
M103
G1 X22.8 Y-4.29 Z2.06 F3000.0
M108 R30.0
M101
G1 X22.8 Y-3.49 Z2.06 F3000.0
M108 R3.569
G1 X22.55 Y-3.49 Z2.06 F1800.0
G1 X22.8 Y-3.93 Z2.06 F1800.0
G1 X22.55 Y-3.93 Z2.06 F1800.0
G1 X22.7 Y-4.19 Z2.06 F1800.0
M108 R30.0
M102
G1 X22.8 Y-4.36 Z2.06 F1800.0
G1 X22.55 Y-4.36 Z2.06 F1800.0
M108 R3.569
M103
G1 X22.55 Y-1.67 Z2.06 F3000.0
M108 R30.0
M101
G1 X22.55 Y-0.87 Z2.06 F3000.0
M108 R3.569
G1 X22.8 Y-0.87 Z2.06 F1800.0
G1 X22.55 Y-1.31 Z2.06 F1800.0
G1 X22.8 Y-1.31 Z2.06 F1800.0
G1 X22.55 Y-1.75 Z2.06 F1800.0
G1 X22.8 Y-1.75 Z2.06 F1800.0
G1 X22.55 Y-2.18 Z2.06 F1800.0
G1 X22.8 Y-2.18 Z2.06 F1800.0
G1 X22.55 Y-2.62 Z2.06 F1800.0
G1 X22.8 Y-2.62 Z2.06 F1800.0
G1 X22.65 Y-2.88 Z2.06 F1800.0
M108 R30.0
M102
G1 X22.55 Y-3.05 Z2.06 F1800.0
G1 X22.8 Y-3.05 Z2.06 F1800.0
M108 R3.569
M103
G1 X22.8 Y-0.36 Z2.06 F3000.0
M108 R30.0
M101
G1 X22.8 Y0.44 Z2.06 F3000.0
M108 R3.569
G1 X22.55 Y0.44 Z2.06 F1800.0
G1 X22.8 Y-0.0 Z2.06 F1800.0
G1 X22.55 Y-0.0 Z2.06 F1800.0
G1 X22.7 Y-0.26 Z2.06 F1800.0
M108 R30.0
M102
G1 X22.8 Y-0.44 Z2.06 F1800.0
G1 X22.55 Y-0.44 Z2.06 F1800.0
M108 R3.569
M103
G1 X22.55 Y2.25 Z2.06 F3000.0
M108 R30.0
M101
G1 X22.55 Y3.05 Z2.06 F3000.0
M108 R3.569
G1 X22.8 Y3.05 Z2.06 F1800.0
G1 X22.55 Y2.62 Z2.06 F1800.0
G1 X22.8 Y2.62 Z2.06 F1800.0
G1 X22.55 Y2.18 Z2.06 F1800.0
G1 X22.8 Y2.18 Z2.06 F1800.0
G1 X22.55 Y1.75 Z2.06 F1800.0
G1 X22.8 Y1.75 Z2.06 F1800.0
G1 X22.55 Y1.31 Z2.06 F1800.0
G1 X22.8 Y1.31 Z2.06 F1800.0
G1 X22.65 Y1.05 Z2.06 F1800.0
M108 R30.0
M102
G1 X22.55 Y0.87 Z2.06 F1800.0
G1 X22.8 Y0.87 Z2.06 F1800.0
M108 R3.569
M103
G1 X22.8 Y3.93 Z2.06 F3000.0
M101
G1 X22.55 Y3.93 Z2.06 F1800.0
G1 X22.8 Y3.49 Z2.06 F1800.0
G1 X22.55 Y3.49 Z2.06 F1800.0
M103
G1 X22.55 Y3.56 Z2.06 F3000.0
M108 R30.0
M101
G1 X22.55 Y4.36 Z2.06 F3000.0
M108 R3.569
G1 X22.8 Y4.36 Z2.06 F1800.0
G1 X22.55 Y4.8 Z2.06 F1800.0
G1 X22.8 Y4.8 Z2.06 F1800.0
G1 X22.65 Y5.06 Z2.06 F1800.0
M108 R30.0
M102
G1 X22.55 Y5.24 Z2.06 F1800.0
G1 X22.8 Y5.24 Z2.06 F1800.0
M108 R3.569
M103
G1 X22.8 Y9.67 Z2.06 F3000.0
M108 R30.0
M101
G1 X22.8 Y10.47 Z2.06 F3000.0
M108 R3.569
G1 X22.36 Y10.04 Z2.06 F1800.0
G1 X22.36 Y9.6 Z2.06 F1800.0
G1 X20.85 Y9.93 Z2.06 F1800.0
G1 X-18.67 Y9.93 Z2.06 F1800.0
G1 X-22.83 Y10.47 Z2.06 F1800.0
G1 X-22.83 Y8.73 Z2.06 F1800.0
G1 X-20.85 Y7.75 Z2.06 F1800.0
G1 X-20.6 Y7.75 Z2.06 F1800.0
G1 X-18.67 Y9.7 Z2.06 F1800.0
G1 X-18.42 Y9.7 Z2.06 F1800.0
G1 X-16.49 Y7.75 Z2.06 F1800.0
G1 X-16.24 Y7.75 Z2.06 F1800.0
G1 X-14.31 Y9.7 Z2.06 F1800.0
G1 X-14.05 Y9.7 Z2.06 F1800.0
G1 X-12.13 Y7.75 Z2.06 F1800.0
G1 X-11.87 Y7.75 Z2.06 F1800.0
G1 X-9.95 Y9.7 Z2.06 F1800.0
G1 X-9.69 Y9.7 Z2.06 F1800.0
G1 X-7.76 Y7.75 Z2.06 F1800.0
G1 X-7.51 Y7.75 Z2.06 F1800.0
G1 X-5.58 Y9.7 Z2.06 F1800.0
G1 X-5.33 Y9.7 Z2.06 F1800.0
G1 X-3.4 Y7.75 Z2.06 F1800.0
G1 X-3.15 Y7.75 Z2.06 F1800.0
G1 X-1.22 Y9.7 Z2.06 F1800.0
G1 X-0.96 Y9.7 Z2.06 F1800.0
G1 X0.96 Y7.75 Z2.06 F1800.0
G1 X1.22 Y7.75 Z2.06 F1800.0
G1 X3.15 Y9.7 Z2.06 F1800.0
G1 X3.4 Y9.7 Z2.06 F1800.0
G1 X5.33 Y7.75 Z2.06 F1800.0
G1 X5.58 Y7.75 Z2.06 F1800.0
G1 X7.51 Y9.7 Z2.06 F1800.0
G1 X7.76 Y9.7 Z2.06 F1800.0
G1 X9.69 Y7.75 Z2.06 F1800.0
G1 X9.95 Y7.75 Z2.06 F1800.0
G1 X11.87 Y9.7 Z2.06 F1800.0
G1 X12.13 Y9.7 Z2.06 F1800.0
G1 X14.05 Y7.75 Z2.06 F1800.0
G1 X14.31 Y7.75 Z2.06 F1800.0
G1 X16.24 Y9.7 Z2.06 F1800.0
G1 X16.49 Y9.7 Z2.06 F1800.0
G1 X18.42 Y7.75 Z2.06 F1800.0
G1 X18.67 Y7.75 Z2.06 F1800.0
G1 X20.6 Y9.7 Z2.06 F1800.0
G1 X20.85 Y9.7 Z2.06 F1800.0
G1 X22.36 Y9.16 Z2.06 F1800.0
G1 X22.48 Y9.05 Z2.06 F1800.0
M108 R30.0
M102
G1 X22.8 Y8.73 Z2.06 F1800.0
M108 R3.569
M103
(</surroundingLoop>)
(</layer>)
(<layer> 2.38 )
(<surroundingLoop>)
(<boundaryPerimeter>)
(<boundaryPoint> X23.641 Y11.617 Z2.38 </boundaryPoint>)
(<boundaryPoint> X-23.675 Y11.617 Z2.38 </boundaryPoint>)
(<boundaryPoint> X-23.675 Y-11.617 Z2.38 </boundaryPoint>)
(<boundaryPoint> X23.641 Y-11.617 Z2.38 </boundaryPoint>)
(<loop> inner )
G1 X-0.21 Y5.52 Z2.37 F3000.0
M108 R30.0
M101
G1 X-1.0 Y5.41 Z2.38 F3000.0
M108 R3.569
G1 X-0.86 Y5.41 Z2.38 F1800.0
G1 X-0.86 Y-7.11 Z2.38 F1800.0
G1 X-19.02 Y-7.11 Z2.38 F1800.0
G1 X-19.02 Y5.41 Z2.38 F1800.0
G1 X-1.45 Y5.41 Z2.38 F1800.0
M108 R30.0
M102
G1 X-1.0 Y5.41 Z2.38 F1800.0
M108 R3.569
M103
(</loop>)
(<loop> inner )
G1 X7.77 Y5.41 Z2.38 F3000.0
M108 R30.0
M101
G1 X8.57 Y5.41 Z2.38 F3000.0
M108 R3.569
G1 X22.29 Y5.41 Z2.38 F1800.0
G1 X22.29 Y-7.11 Z2.38 F1800.0
G1 X8.57 Y-7.11 Z2.38 F1800.0
G1 X8.57 Y4.96 Z2.38 F1800.0
M108 R30.0
M102
G1 X8.57 Y5.41 Z2.38 F1800.0
M108 R3.569
M103
(</loop>)
(<loop> outer )
G1 X8.57 Y10.23 Z2.38 F3000.0
M108 R30.0
M101
G1 X8.57 Y11.03 Z2.38 F3000.0
M108 R3.569
G1 X-23.09 Y11.03 Z2.38 F1800.0
G1 X-23.09 Y-11.03 Z2.38 F1800.0
G1 X23.05 Y-11.03 Z2.38 F1800.0
G1 X23.05 Y11.03 Z2.38 F1800.0
G1 X8.57 Y11.03 Z2.38 F1800.0
M103
(</loop>)
(<perimeter> outer )
G1 X8.57 Y11.42 Z2.38 F3000.0
M101
G1 X-23.48 Y11.42 Z2.38 F1800.0
G1 X-23.48 Y-11.42 Z2.38 F1800.0
G1 X23.45 Y-11.42 Z2.38 F1800.0
G1 X23.45 Y11.42 Z2.38 F1800.0
G1 X9.02 Y11.42 Z2.38 F1800.0
M108 R30.0
M102
G1 X8.57 Y11.42 Z2.38 F1800.0
M108 R3.569
M103
(</perimeter>)
(</boundaryPerimeter>)
(<surroundingLoop>)
(<boundaryPerimeter>)
(<boundaryPoint> X9.161 Y-6.517 Z2.38 </boundaryPoint>)
(<boundaryPoint> X9.161 Y4.817 Z2.38 </boundaryPoint>)
(<boundaryPoint> X21.703 Y4.817 Z2.38 </boundaryPoint>)
(<boundaryPoint> X21.703 Y-6.517 Z2.38 </boundaryPoint>)
(<perimeter> inner )
G1 X8.92 Y5.81 Z2.38 F3000.0
M108 R30.0
M101
G1 X8.97 Y5.01 Z2.38 F3000.0
M108 R3.569
G1 X21.9 Y5.01 Z2.38 F1800.0
G1 X21.9 Y-6.71 Z2.38 F1800.0
G1 X8.97 Y-6.71 Z2.38 F1800.0
G1 X8.97 Y4.56 Z2.38 F1800.0
M108 R30.0
M102
G1 X8.97 Y5.01 Z2.38 F1800.0
M108 R3.569
M103
(</perimeter>)
(</boundaryPerimeter>)
(</surroundingLoop>)
(<surroundingLoop>)
(<boundaryPerimeter>)
(<boundaryPoint> X-1.452 Y-6.517 Z2.38 </boundaryPoint>)
(<boundaryPoint> X-18.432 Y-6.517 Z2.38 </boundaryPoint>)
(<boundaryPoint> X-18.432 Y4.817 Z2.38 </boundaryPoint>)
(<boundaryPoint> X-1.452 Y4.817 Z2.38 </boundaryPoint>)
(<perimeter> inner )
G1 X-0.46 Y5.01 Z2.38 F3000.0
M108 R30.0
M101
G1 X-1.26 Y5.01 Z2.38 F3000.0
M108 R3.569
G1 X-1.26 Y-6.71 Z2.38 F1800.0
G1 X-18.63 Y-6.71 Z2.38 F1800.0
G1 X-18.63 Y5.01 Z2.38 F1800.0
G1 X-1.71 Y5.01 Z2.38 F1800.0
M108 R30.0
M102
G1 X-1.26 Y5.01 Z2.38 F1800.0
M108 R3.569
M103
(</perimeter>)
(</boundaryPerimeter>)
(</surroundingLoop>)
G1 X4.51 Y-10.03 Z2.38 F3000.0
M108 R30.0
M101
G1 X4.8 Y-10.77 Z2.38 F3000.0
M108 R3.569
G1 X6.55 Y-10.77 Z2.38 F1800.0
G1 X5.34 Y-9.95 Z2.38 F1800.0
G1 X5.34 Y-9.69 Z2.38 F1800.0
G1 X3.39 Y-7.76 Z2.38 F1800.0
G1 X3.39 Y-7.51 Z2.38 F1800.0
G1 X5.34 Y-5.58 Z2.38 F1800.0
G1 X5.34 Y-5.33 Z2.38 F1800.0
G1 X3.39 Y-3.4 Z2.38 F1800.0
G1 X3.39 Y-3.15 Z2.38 F1800.0
G1 X5.34 Y-1.22 Z2.38 F1800.0
G1 X5.34 Y-0.96 Z2.38 F1800.0
G1 X3.39 Y0.96 Z2.38 F1800.0
G1 X3.39 Y1.22 Z2.38 F1800.0
G1 X5.34 Y3.15 Z2.38 F1800.0
G1 X5.34 Y3.4 Z2.38 F1800.0
G1 X3.39 Y5.33 Z2.38 F1800.0
G1 X3.39 Y5.58 Z2.38 F1800.0
G1 X5.34 Y7.51 Z2.38 F1800.0
G1 X5.34 Y7.76 Z2.38 F1800.0
G1 X6.55 Y10.77 Z2.38 F1800.0
G1 X3.05 Y10.77 Z2.38 F1800.0
G1 X3.27 Y9.95 Z2.38 F1800.0
G1 X3.27 Y9.69 Z2.38 F1800.0
G1 X1.21 Y7.76 Z2.38 F1800.0
G1 X1.21 Y7.51 Z2.38 F1800.0
G1 X3.16 Y5.58 Z2.38 F1800.0
G1 X3.16 Y5.33 Z2.38 F1800.0
G1 X1.21 Y3.4 Z2.38 F1800.0
G1 X1.21 Y3.15 Z2.38 F1800.0
G1 X3.16 Y1.22 Z2.38 F1800.0
G1 X3.16 Y0.96 Z2.38 F1800.0
G1 X1.21 Y-0.96 Z2.38 F1800.0
G1 X1.21 Y-1.22 Z2.38 F1800.0
G1 X3.16 Y-3.15 Z2.38 F1800.0
G1 X3.16 Y-3.4 Z2.38 F1800.0
G1 X1.21 Y-5.33 Z2.38 F1800.0
G1 X1.21 Y-5.58 Z2.38 F1800.0
G1 X3.16 Y-7.51 Z2.38 F1800.0
G1 X3.16 Y-7.76 Z2.38 F1800.0
G1 X4.36 Y-10.77 Z2.38 F1800.0
G1 X0.87 Y-10.77 Z2.38 F1800.0
G1 X1.09 Y-9.95 Z2.38 F1800.0
G1 X1.09 Y-9.69 Z2.38 F1800.0
G1 X-0.98 Y-7.76 Z2.38 F1800.0
G1 X-0.98 Y-7.51 Z2.38 F1800.0
G1 X0.98 Y-5.58 Z2.38 F1800.0
G1 X0.98 Y7.76 Z2.38 F1800.0
G1 X2.62 Y10.77 Z2.38 F1800.0
G1 X-1.75 Y10.77 Z2.38 F1800.0
G1 X-1.09 Y9.95 Z2.38 F1800.0
G1 X-1.09 Y9.69 Z2.38 F1800.0
G1 X-3.16 Y7.76 Z2.38 F1800.0
G1 X-3.16 Y7.51 Z2.38 F1800.0
G1 X-2.62 Y5.66 Z2.38 F1800.0
G1 X-2.18 Y6.1 Z2.38 F1800.0
G1 X-1.75 Y6.1 Z2.38 F1800.0
G1 X-1.63 Y5.98 Z2.38 F1800.0
M108 R30.0
M102
G1 X-1.31 Y5.66 Z2.38 F1800.0
M108 R3.569
M103
G1 X-2.69 Y5.66 Z2.38 F3000.0
M108 R30.0
M101
G1 X-3.49 Y5.66 Z2.38 F3000.0
M108 R3.569
G1 X-3.39 Y7.76 Z2.38 F1800.0
G1 X-2.18 Y10.77 Z2.38 F1800.0
G1 X-6.11 Y10.77 Z2.38 F1800.0
G1 X-5.45 Y9.95 Z2.38 F1800.0
G1 X-5.45 Y9.69 Z2.38 F1800.0
G1 X-7.52 Y7.76 Z2.38 F1800.0
G1 X-7.42 Y6.1 Z2.38 F1800.0
G1 X-6.98 Y5.66 Z2.38 F1800.0
G1 X-6.55 Y6.1 Z2.38 F1800.0
G1 X-6.11 Y6.1 Z2.38 F1800.0
G1 X-5.99 Y5.98 Z2.38 F1800.0
M108 R30.0
M102
G1 X-5.67 Y5.66 Z2.38 F1800.0
M108 R3.569
M103
G1 X-7.05 Y5.66 Z2.38 F3000.0
M108 R30.0
M101
G1 X-7.85 Y5.66 Z2.38 F3000.0
M108 R3.569
G1 X-7.75 Y7.76 Z2.38 F1800.0
G1 X-6.55 Y10.77 Z2.38 F1800.0
G1 X-10.47 Y10.77 Z2.38 F1800.0
G1 X-9.82 Y9.95 Z2.38 F1800.0
G1 X-9.82 Y9.69 Z2.38 F1800.0
G1 X-11.88 Y7.76 Z2.38 F1800.0
G1 X-11.78 Y6.1 Z2.38 F1800.0
G1 X-11.35 Y5.66 Z2.38 F1800.0
G1 X-10.91 Y6.1 Z2.38 F1800.0
G1 X-10.47 Y6.1 Z2.38 F1800.0
G1 X-10.35 Y5.98 Z2.38 F1800.0
M108 R30.0
M102
G1 X-10.04 Y5.66 Z2.38 F1800.0
M108 R3.569
M103
G1 X-11.42 Y5.66 Z2.38 F3000.0
M108 R30.0
M101
G1 X-12.22 Y5.66 Z2.38 F3000.0
M108 R3.569
G1 X-12.11 Y7.76 Z2.38 F1800.0
G1 X-10.91 Y10.77 Z2.38 F1800.0
G1 X-14.4 Y10.77 Z2.38 F1800.0
G1 X-14.18 Y9.95 Z2.38 F1800.0
G1 X-14.18 Y9.69 Z2.38 F1800.0
G1 X-16.25 Y7.76 Z2.38 F1800.0
G1 X-16.25 Y7.51 Z2.38 F1800.0
G1 X-15.71 Y5.66 Z2.38 F1800.0
G1 X-15.27 Y6.1 Z2.38 F1800.0
G1 X-14.84 Y6.1 Z2.38 F1800.0
G1 X-14.72 Y5.98 Z2.38 F1800.0
M108 R30.0
M102
G1 X-14.4 Y5.66 Z2.38 F1800.0
M108 R3.569
M103
G1 X-15.78 Y5.66 Z2.38 F3000.0
M108 R30.0
M101
G1 X-16.58 Y5.66 Z2.38 F3000.0
M108 R3.569
G1 X-16.48 Y7.76 Z2.38 F1800.0
G1 X-14.84 Y10.77 Z2.38 F1800.0
G1 X-18.76 Y10.77 Z2.38 F1800.0
G1 X-18.54 Y9.95 Z2.38 F1800.0
G1 X-18.54 Y9.69 Z2.38 F1800.0
G1 X-20.61 Y7.76 Z2.38 F1800.0
G1 X-20.61 Y7.51 Z2.38 F1800.0
G1 X-19.08 Y5.98 Z2.38 F1800.0
M108 R30.0
M102
G1 X-18.76 Y5.66 Z2.38 F1800.0
M108 R3.569
M103
G1 X-21.02 Y10.06 Z2.38 F3000.0
M108 R30.0
M101
G1 X-21.38 Y10.77 Z2.38 F3000.0
M108 R3.569
G1 X-19.2 Y10.77 Z2.38 F1800.0
G1 X-20.84 Y7.76 Z2.38 F1800.0
G1 X-20.84 Y-9.95 Z2.38 F1800.0
G1 X-19.64 Y-10.77 Z2.38 F1800.0
G1 X-22.69 Y-10.77 Z2.38 F1800.0
G1 X-22.69 Y10.77 Z2.38 F1800.0
G1 X-22.27 Y10.77 Z2.38 F1800.0
M108 R30.0
M102
G1 X-21.82 Y10.77 Z2.38 F1800.0
M108 R3.569
M103
G1 X-18.9 Y-6.57 Z2.38 F3000.0
M108 R30.0
M101
G1 X-18.76 Y-7.36 Z2.38 F3000.0
M108 R3.569
G1 X-18.66 Y-7.51 Z2.38 F1800.0
G1 X-18.66 Y-7.76 Z2.38 F1800.0
G1 X-20.61 Y-9.69 Z2.38 F1800.0
G1 X-20.61 Y-9.95 Z2.38 F1800.0
G1 X-18.76 Y-10.77 Z2.38 F1800.0
G1 X-15.27 Y-10.77 Z2.38 F1800.0
G1 X-16.48 Y-9.95 Z2.38 F1800.0
G1 X-16.48 Y-9.69 Z2.38 F1800.0
G1 X-18.43 Y-7.76 Z2.38 F1800.0
G1 X-18.43 Y-7.51 Z2.38 F1800.0
G1 X-18.33 Y-7.36 Z2.38 F1800.0
G1 X-17.97 Y-7.61 Z2.38 F1800.0
G1 X-17.89 Y-7.36 Z2.38 F1800.0
G1 X-17.47 Y-7.49 Z2.38 F1800.0
G1 X-17.02 Y-7.8 Z2.38 F1800.0
G1 X-16.9 Y-7.68 Z2.38 F1800.0
M108 R30.0
M102
G1 X-16.58 Y-7.36 Z2.38 F1800.0
M108 R3.569
M103
G1 X-15.2 Y-7.36 Z2.38 F3000.0
M108 R30.0
M101
G1 X-14.4 Y-7.36 Z2.38 F3000.0
M108 R3.569
G1 X-14.3 Y-7.51 Z2.38 F1800.0
G1 X-14.3 Y-7.76 Z2.38 F1800.0
G1 X-14.84 Y-7.8 Z2.38 F1800.0
G1 X-15.27 Y-7.36 Z2.38 F1800.0
G1 X-15.71 Y-7.8 Z2.38 F1800.0
G1 X-16.25 Y-9.69 Z2.38 F1800.0
G1 X-16.25 Y-9.95 Z2.38 F1800.0
G1 X-14.4 Y-10.77 Z2.38 F1800.0
G1 X-10.91 Y-10.77 Z2.38 F1800.0
G1 X-12.11 Y-9.95 Z2.38 F1800.0
G1 X-12.11 Y-9.69 Z2.38 F1800.0
G1 X-14.07 Y-7.76 Z2.38 F1800.0
G1 X-14.07 Y-7.51 Z2.38 F1800.0
G1 X-13.96 Y-7.36 Z2.38 F1800.0
G1 X-13.61 Y-7.61 Z2.38 F1800.0
G1 X-13.53 Y-7.36 Z2.38 F1800.0
G1 X-13.11 Y-7.49 Z2.38 F1800.0
G1 X-12.65 Y-7.8 Z2.38 F1800.0
G1 X-12.54 Y-7.68 Z2.38 F1800.0
M108 R30.0
M102
G1 X-12.22 Y-7.36 Z2.38 F1800.0
M108 R3.569
M103
G1 X-10.84 Y-7.36 Z2.38 F3000.0
M108 R30.0
M101
G1 X-10.04 Y-7.36 Z2.38 F3000.0
M108 R3.569
G1 X-9.93 Y-7.51 Z2.38 F1800.0
G1 X-9.93 Y-7.76 Z2.38 F1800.0
G1 X-10.47 Y-7.8 Z2.38 F1800.0
G1 X-10.91 Y-7.36 Z2.38 F1800.0
G1 X-11.35 Y-7.8 Z2.38 F1800.0
G1 X-11.88 Y-9.69 Z2.38 F1800.0
G1 X-11.88 Y-9.95 Z2.38 F1800.0
G1 X-10.47 Y-10.34 Z2.38 F1800.0
G1 X-10.04 Y-10.77 Z2.38 F1800.0
G1 X-6.55 Y-10.77 Z2.38 F1800.0
G1 X-7.75 Y-9.95 Z2.38 F1800.0
G1 X-7.75 Y-9.69 Z2.38 F1800.0
G1 X-9.7 Y-7.76 Z2.38 F1800.0
G1 X-9.7 Y-7.51 Z2.38 F1800.0
G1 X-9.6 Y-7.36 Z2.38 F1800.0
G1 X-9.24 Y-7.61 Z2.38 F1800.0
G1 X-9.16 Y-7.36 Z2.38 F1800.0
G1 X-8.75 Y-7.49 Z2.38 F1800.0
G1 X-8.29 Y-7.8 Z2.38 F1800.0
G1 X-8.17 Y-7.68 Z2.38 F1800.0
M108 R30.0
M102
G1 X-7.85 Y-7.36 Z2.38 F1800.0
M108 R3.569
M103
G1 X-6.47 Y-7.36 Z2.38 F3000.0
M108 R30.0
M101
G1 X-5.67 Y-7.36 Z2.38 F3000.0
M108 R3.569
G1 X-5.57 Y-7.51 Z2.38 F1800.0
G1 X-5.57 Y-7.76 Z2.38 F1800.0
G1 X-6.11 Y-7.8 Z2.38 F1800.0
G1 X-6.55 Y-7.36 Z2.38 F1800.0
G1 X-6.98 Y-7.8 Z2.38 F1800.0
G1 X-7.52 Y-9.69 Z2.38 F1800.0
G1 X-7.52 Y-9.95 Z2.38 F1800.0
G1 X-6.11 Y-10.77 Z2.38 F1800.0
G1 X-2.18 Y-10.77 Z2.38 F1800.0
G1 X-3.39 Y-9.95 Z2.38 F1800.0
G1 X-3.39 Y-9.69 Z2.38 F1800.0
G1 X-5.34 Y-7.76 Z2.38 F1800.0
G1 X-5.34 Y-7.51 Z2.38 F1800.0
G1 X-5.24 Y-7.36 Z2.38 F1800.0
G1 X-4.88 Y-7.61 Z2.38 F1800.0
G1 X-4.8 Y-7.36 Z2.38 F1800.0
G1 X-4.38 Y-7.49 Z2.38 F1800.0
G1 X-3.93 Y-7.8 Z2.38 F1800.0
G1 X-3.81 Y-7.68 Z2.38 F1800.0
M108 R30.0
M102
G1 X-3.49 Y-7.36 Z2.38 F1800.0
M108 R3.569
M103
G1 X-2.11 Y-7.36 Z2.38 F3000.0
M108 R30.0
M101
G1 X-1.31 Y-7.36 Z2.38 F3000.0
M108 R3.569
G1 X-1.21 Y-7.51 Z2.38 F1800.0
G1 X-1.21 Y-7.76 Z2.38 F1800.0
G1 X-1.75 Y-7.8 Z2.38 F1800.0
G1 X-2.18 Y-7.36 Z2.38 F1800.0
G1 X-2.62 Y-7.8 Z2.38 F1800.0
G1 X-3.16 Y-9.69 Z2.38 F1800.0
G1 X-3.16 Y-9.95 Z2.38 F1800.0
G1 X-1.31 Y-10.77 Z2.38 F1800.0
G1 X-0.01 Y-10.77 Z2.38 F1800.0
M108 R30.0
M102
G1 X0.44 Y-10.77 Z2.38 F1800.0
M108 R3.569
M103
G1 X9.21 Y4.96 Z2.38 F3000.0
M108 R30.0
M101
G1 X9.6 Y5.66 Z2.38 F3000.0
M108 R3.569
G1 X9.7 Y7.76 Z2.38 F1800.0
G1 X10.91 Y10.77 Z2.38 F1800.0
G1 X6.98 Y10.77 Z2.38 F1800.0
G1 X7.64 Y9.95 Z2.38 F1800.0
G1 X7.64 Y9.69 Z2.38 F1800.0
G1 X5.57 Y7.76 Z2.38 F1800.0
G1 X5.57 Y-5.58 Z2.38 F1800.0
G1 X7.52 Y-7.51 Z2.38 F1800.0
G1 X7.52 Y-7.76 Z2.38 F1800.0
G1 X5.57 Y-9.69 Z2.38 F1800.0
G1 X5.57 Y-9.95 Z2.38 F1800.0
G1 X6.98 Y-10.77 Z2.38 F1800.0
G1 X10.91 Y-10.77 Z2.38 F1800.0
G1 X9.7 Y-9.95 Z2.38 F1800.0
G1 X9.7 Y-9.69 Z2.38 F1800.0
G1 X7.75 Y-7.76 Z2.38 F1800.0
G1 X7.75 Y-7.51 Z2.38 F1800.0
G1 X8.73 Y-7.8 Z2.38 F1800.0
G1 X9.16 Y-7.8 Z2.38 F1800.0
G1 X9.28 Y-7.68 Z2.38 F1800.0
M108 R30.0
M102
G1 X9.6 Y-7.36 Z2.38 F1800.0
M108 R3.569
M103
G1 X10.98 Y-7.36 Z2.38 F3000.0
M108 R30.0
M101
G1 X11.78 Y-7.36 Z2.38 F3000.0
M108 R3.569
G1 X11.88 Y-7.51 Z2.38 F1800.0
G1 X11.88 Y-7.76 Z2.38 F1800.0
G1 X11.35 Y-7.8 Z2.38 F1800.0
G1 X10.91 Y-7.36 Z2.38 F1800.0
G1 X10.47 Y-7.8 Z2.38 F1800.0
G1 X9.93 Y-9.69 Z2.38 F1800.0
G1 X9.93 Y-9.95 Z2.38 F1800.0
G1 X11.35 Y-10.77 Z2.38 F1800.0
G1 X15.27 Y-10.77 Z2.38 F1800.0
G1 X14.07 Y-9.95 Z2.38 F1800.0
G1 X14.07 Y-9.69 Z2.38 F1800.0
G1 X12.11 Y-7.76 Z2.38 F1800.0
G1 X12.11 Y-7.51 Z2.38 F1800.0
G1 X12.22 Y-7.36 Z2.38 F1800.0
G1 X12.57 Y-7.61 Z2.38 F1800.0
G1 X12.65 Y-7.36 Z2.38 F1800.0
G1 X13.07 Y-7.49 Z2.38 F1800.0
G1 X13.53 Y-7.8 Z2.38 F1800.0
G1 X13.64 Y-7.68 Z2.38 F1800.0
M108 R30.0
M102
G1 X13.96 Y-7.36 Z2.38 F1800.0
M108 R3.569
M103
G1 X15.34 Y-7.36 Z2.38 F3000.0
M108 R30.0
M101
G1 X16.14 Y-7.36 Z2.38 F3000.0
M108 R3.569
G1 X16.25 Y-7.51 Z2.38 F1800.0
G1 X16.25 Y-7.76 Z2.38 F1800.0
G1 X15.71 Y-7.8 Z2.38 F1800.0
G1 X15.27 Y-7.36 Z2.38 F1800.0
G1 X14.84 Y-7.8 Z2.38 F1800.0
G1 X14.3 Y-9.69 Z2.38 F1800.0
G1 X14.3 Y-9.95 Z2.38 F1800.0
G1 X16.14 Y-10.77 Z2.38 F1800.0
G1 X19.64 Y-10.77 Z2.38 F1800.0
G1 X18.43 Y-9.95 Z2.38 F1800.0
G1 X18.43 Y-9.69 Z2.38 F1800.0
G1 X16.48 Y-7.76 Z2.38 F1800.0
G1 X16.48 Y-7.51 Z2.38 F1800.0
G1 X16.58 Y-7.36 Z2.38 F1800.0
G1 X16.94 Y-7.61 Z2.38 F1800.0
G1 X17.02 Y-7.36 Z2.38 F1800.0
G1 X17.43 Y-7.49 Z2.38 F1800.0
G1 X17.89 Y-7.8 Z2.38 F1800.0
G1 X18.01 Y-7.68 Z2.38 F1800.0
M108 R30.0
M102
G1 X18.33 Y-7.36 Z2.38 F1800.0
M108 R3.569
M103
G1 X18.47 Y-6.79 Z2.38 F3000.0
G1 X21.84 Y-6.66 Z2.38 F3000.0
G1 X21.84 Y4.96 Z2.38 F3000.0
G1 X20.58 Y5.07 Z2.38 F3000.0
M108 R30.0
M101
G1 X20.37 Y5.09 Z2.38 F3000.0
G1 X20.51 Y5.66 Z2.38 F3000.0
M108 R3.569
G1 X20.07 Y6.1 Z2.38 F1800.0
G1 X19.64 Y6.1 Z2.38 F1800.0
G1 X19.2 Y5.66 Z2.38 F1800.0
G1 X18.76 Y6.1 Z2.38 F1800.0
G1 X18.66 Y7.76 Z2.38 F1800.0
G1 X20.73 Y9.69 Z2.38 F1800.0
G1 X20.73 Y9.95 Z2.38 F1800.0
G1 X20.07 Y10.77 Z2.38 F1800.0
G1 X22.69 Y10.77 Z2.38 F1800.0
G1 X22.69 Y-10.77 Z2.38 F1800.0
G1 X20.51 Y-10.77 Z2.38 F1800.0
G1 X18.66 Y-9.95 Z2.38 F1800.0
G1 X18.66 Y-9.69 Z2.38 F1800.0
G1 X19.2 Y-7.8 Z2.38 F1800.0
G1 X19.64 Y-7.36 Z2.38 F1800.0
G1 X20.07 Y-7.8 Z2.38 F1800.0
G1 X20.73 Y-7.76 Z2.38 F1800.0
G1 X20.73 Y-7.7 Z2.38 F1800.0
M108 R30.0
M102
G1 X20.73 Y-7.51 Z2.38 F1800.0
G1 X20.51 Y-7.36 Z2.38 F1800.0
M108 R3.569
M103
G1 X20.37 Y-6.79 Z2.38 F3000.0
G1 X21.84 Y-6.66 Z2.38 F3000.0
G1 X21.84 Y4.96 Z2.38 F3000.0
G1 X18.68 Y5.08 Z2.38 F3000.0
M108 R30.0
M101
G1 X18.47 Y5.09 Z2.38 F3000.0
G1 X18.33 Y5.66 Z2.38 F3000.0
M108 R3.569
G1 X18.43 Y7.76 Z2.38 F1800.0
G1 X19.64 Y10.77 Z2.38 F1800.0
G1 X15.71 Y10.77 Z2.38 F1800.0
G1 X16.36 Y9.95 Z2.38 F1800.0
G1 X16.36 Y9.69 Z2.38 F1800.0
G1 X14.3 Y7.76 Z2.38 F1800.0
G1 X14.4 Y6.1 Z2.38 F1800.0
G1 X14.84 Y5.66 Z2.38 F1800.0
G1 X15.27 Y6.1 Z2.38 F1800.0
G1 X15.71 Y6.1 Z2.38 F1800.0
G1 X15.83 Y5.98 Z2.38 F1800.0
M108 R30.0
M102
G1 X16.14 Y5.66 Z2.38 F1800.0
M108 R3.569
M103
G1 X14.76 Y5.66 Z2.38 F3000.0
M108 R30.0
M101
G1 X13.96 Y5.66 Z2.38 F3000.0
M108 R3.569
G1 X14.07 Y7.76 Z2.38 F1800.0
G1 X15.27 Y10.77 Z2.38 F1800.0
G1 X11.35 Y10.77 Z2.38 F1800.0
G1 X12.0 Y9.95 Z2.38 F1800.0
G1 X12.0 Y9.69 Z2.38 F1800.0
G1 X9.93 Y7.76 Z2.38 F1800.0
G1 X10.04 Y6.1 Z2.38 F1800.0
G1 X10.47 Y5.66 Z2.38 F1800.0
G1 X10.91 Y6.1 Z2.38 F1800.0
G1 X11.35 Y6.1 Z2.38 F1800.0
G1 X11.78 Y5.66 Z2.38 F1800.0
M103
(</surroundingLoop>)
(</layer>)
(<layer> 2.7 )
(<surroundingLoop>)
(<boundaryPerimeter>)
(<boundaryPoint> X23.641 Y11.617 Z2.7 </boundaryPoint>)
(<boundaryPoint> X-23.675 Y11.617 Z2.7 </boundaryPoint>)
(<boundaryPoint> X-23.675 Y-11.617 Z2.7 </boundaryPoint>)
(<boundaryPoint> X23.641 Y-11.617 Z2.7 </boundaryPoint>)
(<loop> inner )
G1 X12.13 Y5.41 Z2.7 F3000.0
M101
G1 X22.29 Y5.41 Z2.7 F1800.0
G1 X22.29 Y-7.11 Z2.7 F1800.0
G1 X8.57 Y-7.11 Z2.7 F1800.0
G1 X8.57 Y5.41 Z2.7 F1800.0
G1 X11.68 Y5.41 Z2.7 F1800.0
M108 R30.0
M102
G1 X11.78 Y5.41 Z2.7 F1800.0
G1 X12.13 Y5.41 Z2.7 F1800.0
M108 R3.569
M103
(</loop>)
(<loop> inner )
G1 X-0.06 Y5.41 Z2.7 F3000.0
M108 R30.0
M101
G1 X-0.86 Y5.41 Z2.7 F3000.0
M108 R3.569
G1 X-0.86 Y-7.11 Z2.7 F1800.0
G1 X-19.02 Y-7.11 Z2.7 F1800.0
G1 X-19.02 Y5.41 Z2.7 F1800.0
G1 X-1.31 Y5.41 Z2.7 F1800.0
M108 R30.0
M102
G1 X-0.86 Y5.41 Z2.7 F1800.0
M108 R3.569
M103
(</loop>)
(<loop> outer )
G1 X-0.86 Y10.23 Z2.7 F3000.0
M108 R30.0
M101
G1 X-0.86 Y11.03 Z2.7 F3000.0
M108 R3.569
G1 X-23.09 Y11.03 Z2.7 F1800.0
G1 X-23.09 Y-11.03 Z2.7 F1800.0
G1 X23.05 Y-11.03 Z2.7 F1800.0
G1 X23.05 Y11.03 Z2.7 F1800.0
G1 X-0.86 Y11.03 Z2.7 F1800.0
M103
(</loop>)
(<perimeter> outer )
G1 X-0.86 Y11.42 Z2.7 F3000.0
M101
G1 X-23.48 Y11.42 Z2.7 F1800.0
G1 X-23.48 Y-11.42 Z2.7 F1800.0
G1 X23.45 Y-11.42 Z2.7 F1800.0
G1 X23.45 Y11.42 Z2.7 F1800.0
G1 X-0.41 Y11.42 Z2.7 F1800.0
M108 R30.0
M102
G1 X-0.86 Y11.42 Z2.7 F1800.0
M108 R3.569
M103
(</perimeter>)
(</boundaryPerimeter>)
(<surroundingLoop>)
(<boundaryPerimeter>)
(<boundaryPoint> X-1.452 Y-6.517 Z2.7 </boundaryPoint>)
(<boundaryPoint> X-18.432 Y-6.517 Z2.7 </boundaryPoint>)
(<boundaryPoint> X-18.432 Y4.817 Z2.7 </boundaryPoint>)
(<boundaryPoint> X-1.452 Y4.817 Z2.7 </boundaryPoint>)
(<perimeter> inner )
G1 X-1.21 Y5.81 Z2.7 F3000.0
M108 R30.0
M101
G1 X-1.26 Y5.01 Z2.7 F3000.0
M108 R3.569
G1 X-1.26 Y-6.71 Z2.7 F1800.0
G1 X-18.63 Y-6.71 Z2.7 F1800.0
G1 X-18.63 Y5.01 Z2.7 F1800.0
G1 X-1.71 Y5.01 Z2.7 F1800.0
M108 R30.0
M102
G1 X-1.26 Y5.01 Z2.7 F1800.0
M108 R3.569
M103
(</perimeter>)
(</boundaryPerimeter>)
(</surroundingLoop>)
(<surroundingLoop>)
(<boundaryPerimeter>)
(<boundaryPoint> X9.161 Y-6.517 Z2.7 </boundaryPoint>)
(<boundaryPoint> X9.161 Y4.817 Z2.7 </boundaryPoint>)
(<boundaryPoint> X21.703 Y4.817 Z2.7 </boundaryPoint>)
(<boundaryPoint> X21.703 Y-6.517 Z2.7 </boundaryPoint>)
(<perimeter> inner )
G1 X8.16 Y5.01 Z2.7 F3000.0
M108 R30.0
M101
G1 X8.97 Y5.01 Z2.7 F3000.0
M108 R3.569
G1 X21.9 Y5.01 Z2.7 F1800.0
G1 X21.9 Y-6.71 Z2.7 F1800.0
G1 X8.97 Y-6.71 Z2.7 F1800.0
G1 X8.97 Y4.56 Z2.7 F1800.0
M108 R30.0
M102
G1 X8.97 Y5.01 Z2.7 F1800.0
M108 R3.569
M103
(</perimeter>)
(</boundaryPerimeter>)
(</surroundingLoop>)
G1 X0.16 Y2.41 Z2.7 F3000.0
M108 R30.0
M101
G1 X-0.61 Y2.18 Z2.7 F3000.0
M108 R3.569
G1 X-0.17 Y2.62 Z2.7 F1800.0
G1 X0.96 Y3.16 Z2.7 F1800.0
G1 X1.22 Y3.16 Z2.7 F1800.0
G1 X3.15 Y1.21 Z2.7 F1800.0
G1 X3.4 Y1.21 Z2.7 F1800.0
G1 X5.33 Y3.16 Z2.7 F1800.0
G1 X5.58 Y3.16 Z2.7 F1800.0
G1 X8.32 Y2.18 Z2.7 F1800.0
G1 X8.32 Y5.24 Z2.7 F1800.0
G1 X5.58 Y3.39 Z2.7 F1800.0
G1 X5.33 Y3.39 Z2.7 F1800.0
G1 X3.4 Y5.34 Z2.7 F1800.0
G1 X3.15 Y5.34 Z2.7 F1800.0
G1 X1.22 Y3.39 Z2.7 F1800.0
G1 X-0.17 Y3.49 Z2.7 F1800.0
G1 X-0.17 Y3.93 Z2.7 F1800.0
G1 X-0.29 Y4.05 Z2.7 F1800.0
M108 R30.0
M102
G1 X-0.61 Y4.36 Z2.7 F1800.0
M108 R3.569
M103
G1 X-0.61 Y-1.38 Z2.7 F3000.0
M108 R30.0
M101
G1 X-0.61 Y-2.18 Z2.7 F3000.0
M108 R3.569
G1 X-0.17 Y-1.75 Z2.7 F1800.0
G1 X0.96 Y-1.21 Z2.7 F1800.0
G1 X1.22 Y-1.21 Z2.7 F1800.0
G1 X3.15 Y-3.16 Z2.7 F1800.0
G1 X3.4 Y-3.16 Z2.7 F1800.0
G1 X5.33 Y-1.21 Z2.7 F1800.0
G1 X5.58 Y-1.21 Z2.7 F1800.0
G1 X8.32 Y-2.18 Z2.7 F1800.0
G1 X8.32 Y1.75 Z2.7 F1800.0
G1 X5.58 Y-0.98 Z2.7 F1800.0
G1 X5.33 Y-0.98 Z2.7 F1800.0
G1 X3.4 Y0.98 Z2.7 F1800.0
G1 X3.15 Y0.98 Z2.7 F1800.0
G1 X1.22 Y-0.98 Z2.7 F1800.0
G1 X-0.17 Y-0.87 Z2.7 F1800.0
G1 X-0.41 Y-0.4 Z2.7 F1800.0
M108 R30.0
M102
G1 X-0.61 Y0.0 Z2.7 F1800.0
M108 R3.569
M103
G1 X-0.61 Y-5.75 Z2.7 F3000.0
M108 R30.0
M101
G1 X-0.61 Y-6.55 Z2.7 F3000.0
M108 R3.569
G1 X-0.17 Y-6.11 Z2.7 F1800.0
G1 X0.96 Y-5.57 Z2.7 F1800.0
G1 X1.22 Y-5.57 Z2.7 F1800.0
G1 X3.15 Y-7.52 Z2.7 F1800.0
G1 X3.4 Y-7.52 Z2.7 F1800.0
G1 X5.33 Y-5.57 Z2.7 F1800.0
G1 X5.58 Y-5.57 Z2.7 F1800.0
G1 X7.51 Y-7.52 Z2.7 F1800.0
G1 X7.76 Y-7.52 Z2.7 F1800.0
G1 X8.32 Y-6.98 Z2.7 F1800.0
G1 X8.32 Y-2.62 Z2.7 F1800.0
G1 X5.58 Y-5.34 Z2.7 F1800.0
G1 X5.33 Y-5.34 Z2.7 F1800.0
G1 X3.4 Y-3.39 Z2.7 F1800.0
G1 X3.15 Y-3.39 Z2.7 F1800.0
G1 X1.22 Y-5.34 Z2.7 F1800.0
G1 X-0.17 Y-5.24 Z2.7 F1800.0
G1 X-0.17 Y-4.8 Z2.7 F1800.0
G1 X-0.29 Y-4.68 Z2.7 F1800.0
M108 R30.0
M102
G1 X-0.61 Y-4.36 Z2.7 F1800.0
M108 R3.569
M103
G1 X22.02 Y-10.27 Z2.7 F3000.0
M108 R30.0
M101
G1 X22.8 Y-10.47 Z2.7 F3000.0
M108 R3.569
G1 X22.36 Y-10.04 Z2.7 F1800.0
G1 X-20.85 Y-9.93 Z2.7 F1800.0
G1 X-22.83 Y-9.6 Z2.7 F1800.0
G1 X-22.83 Y-10.02 Z2.7 F1800.0
M108 R30.0
M102
G1 X-22.83 Y-10.47 Z2.7 F1800.0
M108 R3.569
M103
G1 X-12.23 Y-6.79 Z2.7 F3000.0
G1 X-1.31 Y-6.66 Z2.7 F3000.0
G1 X-1.18 Y-2.5 Z2.7 F3000.0
G1 X8.89 Y1.46 Z2.7 F3000.0
G1 X9.02 Y4.96 Z2.7 F3000.0
G1 X18.16 Y5.09 Z2.7 F3000.0
G1 X22.03 Y6.31 Z2.7 F3000.0
M108 R30.0
M101
G1 X22.8 Y6.55 Z2.7 F3000.0
M108 R3.569
G1 X22.36 Y6.98 Z2.7 F1800.0
G1 X18.67 Y7.52 Z2.7 F1800.0
G1 X5.33 Y7.52 Z2.7 F1800.0
G1 X3.4 Y5.57 Z2.7 F1800.0
G1 X3.15 Y5.57 Z2.7 F1800.0
G1 X1.22 Y7.52 Z2.7 F1800.0
G1 X-20.85 Y7.52 Z2.7 F1800.0
G1 X-22.83 Y8.29 Z2.7 F1800.0
G1 X-22.83 Y3.93 Z2.7 F1800.0
G1 X-20.85 Y3.39 Z2.7 F1800.0
G1 X-20.6 Y3.39 Z2.7 F1800.0
G1 X-19.28 Y5.24 Z2.7 F1800.0
G1 X-19.28 Y1.75 Z2.7 F1800.0
G1 X-20.6 Y3.16 Z2.7 F1800.0
G1 X-20.85 Y3.16 Z2.7 F1800.0
G1 X-22.83 Y3.49 Z2.7 F1800.0
G1 X-22.83 Y-0.44 Z2.7 F1800.0
G1 X-20.85 Y-0.98 Z2.7 F1800.0
G1 X-20.6 Y-0.98 Z2.7 F1800.0
G1 X-19.28 Y1.31 Z2.7 F1800.0
G1 X-19.28 Y-2.62 Z2.7 F1800.0
G1 X-20.6 Y-1.21 Z2.7 F1800.0
G1 X-20.85 Y-1.21 Z2.7 F1800.0
G1 X-22.83 Y-0.87 Z2.7 F1800.0
G1 X-22.83 Y-4.8 Z2.7 F1800.0
G1 X-20.85 Y-5.34 Z2.7 F1800.0
G1 X-20.6 Y-5.34 Z2.7 F1800.0
G1 X-19.28 Y-3.05 Z2.7 F1800.0
G1 X-19.28 Y-6.98 Z2.7 F1800.0
G1 X-20.6 Y-5.57 Z2.7 F1800.0
G1 X-20.85 Y-5.57 Z2.7 F1800.0
G1 X-22.83 Y-5.24 Z2.7 F1800.0
G1 X-22.83 Y-9.16 Z2.7 F1800.0
G1 X-20.85 Y-9.7 Z2.7 F1800.0
G1 X-20.6 Y-9.7 Z2.7 F1800.0
G1 X-18.67 Y-7.64 Z2.7 F1800.0
G1 X-18.42 Y-7.64 Z2.7 F1800.0
G1 X-16.49 Y-9.7 Z2.7 F1800.0
G1 X-16.24 Y-9.7 Z2.7 F1800.0
G1 X-14.31 Y-7.64 Z2.7 F1800.0
G1 X-14.05 Y-7.64 Z2.7 F1800.0
G1 X-12.13 Y-9.7 Z2.7 F1800.0
G1 X-11.87 Y-9.7 Z2.7 F1800.0
G1 X-9.95 Y-7.64 Z2.7 F1800.0
G1 X-9.69 Y-7.64 Z2.7 F1800.0
G1 X-7.76 Y-9.7 Z2.7 F1800.0
G1 X-7.51 Y-9.7 Z2.7 F1800.0
G1 X-5.58 Y-7.64 Z2.7 F1800.0
G1 X-5.33 Y-7.64 Z2.7 F1800.0
G1 X-3.4 Y-9.7 Z2.7 F1800.0
G1 X-3.15 Y-9.7 Z2.7 F1800.0
G1 X-1.22 Y-7.64 Z2.7 F1800.0
G1 X-0.96 Y-7.64 Z2.7 F1800.0
G1 X0.96 Y-9.7 Z2.7 F1800.0
G1 X1.22 Y-9.7 Z2.7 F1800.0
G1 X3.15 Y-7.75 Z2.7 F1800.0
G1 X3.4 Y-7.75 Z2.7 F1800.0
G1 X5.33 Y-9.7 Z2.7 F1800.0
G1 X5.58 Y-9.7 Z2.7 F1800.0
G1 X7.51 Y-7.75 Z2.7 F1800.0
G1 X7.76 Y-7.75 Z2.7 F1800.0
G1 X9.69 Y-9.7 Z2.7 F1800.0
G1 X9.95 Y-9.7 Z2.7 F1800.0
