(** This GCode was generated by ReplicatorG 0034 **)
(*  using Skeinforge (35)  *)
(*  for a Single headed Thing-O-Matic  *)
(*  on 2012/04/15 20:09:48 (-0400) *)
(<alteration>)
(**** beginning of start.gcode ****)
(This file is for a MakerBot Thing-O-Matic)
(**** begin initialization commands ****)
G21 (set units to mm)
G90 (set positioning to absolute)
M108 R5.0 (set extruder speed)
M103 (Make sure extruder is off)
M104 S225 T0 (set extruder temperature)
M109 S120 T0 (set heated-build-platform temperature)
(**** end initialization commands ****)
(**** begin homing ****)
G162 Z F1000 (home Z axis maximum)
G92 Z10 (set Z to 0)
G1 Z0.0 (move z down 10)
G162 Z F150 (home Z axis maximum)
G161 X Y F2500 (home XY axes minimum)
M132 X Y Z A B (Recall stored home offsets for XYZAB axis)
(**** end homing ****)
(**** begin pre-wipe commands ****)
( Some people have had problems with the nozzle hitting )
( bolts or wipers during this pre-extrusion warmup.     )
( If this happens to you, you can change the values for )
( the X and Y positions in the following code.          )
( The goal is to have the toolhead wipe its initial     )
( extrusion near the edge of the platform, [anchor it]  )
( so as not to have it interfere with the print.        )
( This file can be found in:                            )
( replicatorg/skein_engines/skeinforge-##/skeinforge_application/ )
( prefs/<profile name [e.g. Thingomatic-ABP-Mk7]>/alterations )
G1 X25.0 Y-60.0 Z10.0 F3300.0 (move to waiting position)
M6 T0 (wait for toolhead parts, nozzle, HBP, etc., to reach temperature)
G0 X25 Y-57 (Position Nozzle)
G0 Z0.6     (Position Height)
M108 R4.0   (Set Extruder Speed)
M101        (Start Extruder)
G4 P1500    (Create Anchor)
(**** end pre-wipe commands ****)
(**** end of start.gcode ****)
(</alteration>)
(<creation> skeinforge </creation>)
(<version> 10.11.05 </version>)
(<extruderInitialization>)
(<craftTypeName> extrusion </craftTypeName>)
M105
(<bridgeWidthMultiplier> 1.0 </bridgeWidthMultiplier>)
(<decimalPlacesCarried> 3 </decimalPlacesCarried>)
(<layerThickness> 0.32 </layerThickness>)
(<threadSequenceString> loops perimeter infill </threadSequenceString>)
(<operatingFeedRatePerSecond> 30.0 </operatingFeedRatePerSecond>)
(<operatingFlowRate> 3.56914845556 </operatingFlowRate>)
(<orbitalFeedRatePerSecond> 15.0 </orbitalFeedRatePerSecond>)
(<travelFeedRatePerSecond> 50.0 </travelFeedRatePerSecond>)
(<perimeterWidth> 0.393 </perimeterWidth>)
(<profileName> ABS </profileName>)
(<procedureDone> carve,bottom </procedureDone>)
(<procedureDone> preface </procedureDone>)
(<procedureDone> inset </procedureDone>)
(<procedureDone> fill </procedureDone>)
(<procedureDone> speed </procedureDone>)
(<procedureDone> raft </procedureDone>)
(<procedureDone> jitter </procedureDone>)
(<procedureDone> comb </procedureDone>)
(<procedureDone> cool </procedureDone>)
(<procedureDone> outline </procedureDone>)
(<procedureDone> reversal </procedureDone>)
(<procedureDone> export </procedureDone>)
(</extruderInitialization>)
(<extrusion>)
;M113 S1.0
M108 R3.569
(<layer> 0.46 )
(<surroundingLoop>)
(<boundaryPerimeter>)
(<boundaryPoint> X-25.338 Y9.618 Z0.46 </boundaryPoint>)
(<boundaryPoint> X-25.338 Y-9.661 Z0.46 </boundaryPoint>)
(<boundaryPoint> X25.338 Y-9.661 Z0.46 </boundaryPoint>)
(<boundaryPoint> X25.338 Y9.618 Z0.46 </boundaryPoint>)
(<loop> inner )
M108 R2.141
G1 X27.14 Y-11.47 Z0.46 F1080.0
M101
G1 X-27.14 Y-11.47 Z0.46 F1080.0
G1 X-27.14 Y11.42 Z0.46 F1080.0
G1 X27.14 Y11.42 Z0.46 F1080.0
G1 X27.14 Y-11.2 Z0.46 F1080.0
M108 R30.0
M102
G1 X27.14 Y-11.47 Z0.46 F1080.0
M108 R2.141
M103
G1 X10.58 Y-1.24 Z0.46 F3000.0
M108 R30.0
M101
G1 X9.9 Y-0.82 Z0.46 F3000.0
M108 R2.141
G1 X10.15 Y0.3 Z0.46 F1080.0
G1 X10.93 Y1.27 Z0.46 F1080.0
G1 X12.05 Y1.81 Z0.46 F1080.0
G1 X13.29 Y1.81 Z0.46 F1080.0
G1 X14.41 Y1.27 Z0.46 F1080.0
G1 X15.19 Y0.3 Z0.46 F1080.0
G1 X15.46 Y-0.91 Z0.46 F1080.0
G1 X15.19 Y-2.12 Z0.46 F1080.0
G1 X14.41 Y-3.09 Z0.46 F1080.0
G1 X13.29 Y-3.63 Z0.46 F1080.0
G1 X12.05 Y-3.63 Z0.46 F1080.0
G1 X10.93 Y-3.09 Z0.46 F1080.0
G1 X10.15 Y-2.12 Z0.46 F1080.0
G1 X9.92 Y-1.08 Z0.46 F1080.0
M108 R30.0
M102
G1 X9.88 Y-0.91 Z0.46 F1080.0
G1 X9.9 Y-0.82 Z0.46 F1080.0
M108 R2.141
M103
(</loop>)
(<loop> inner )
G1 X-9.08 Y-0.91 Z0.46 F3000.0
M108 R30.0
M101
G1 X-9.88 Y-0.91 Z0.46 F3000.0
M108 R2.141
G1 X-10.15 Y-2.12 Z0.46 F1080.0
G1 X-10.93 Y-3.09 Z0.46 F1080.0
G1 X-12.05 Y-3.63 Z0.46 F1080.0
G1 X-13.29 Y-3.63 Z0.46 F1080.0
G1 X-14.41 Y-3.09 Z0.46 F1080.0
G1 X-15.19 Y-2.12 Z0.46 F1080.0
G1 X-15.46 Y-0.91 Z0.46 F1080.0
G1 X-15.19 Y0.3 Z0.46 F1080.0
G1 X-14.41 Y1.27 Z0.46 F1080.0
G1 X-13.29 Y1.81 Z0.46 F1080.0
G1 X-12.05 Y1.81 Z0.46 F1080.0
G1 X-10.93 Y1.27 Z0.46 F1080.0
G1 X-10.15 Y0.3 Z0.46 F1080.0
G1 X-9.94 Y-0.65 Z0.46 F1080.0
M108 R30.0
M102
G1 X-9.88 Y-0.91 Z0.46 F1080.0
M108 R2.141
M103
(</loop>)
(<loop> outer )
G1 X-9.88 Y-8.27 Z0.46 F3000.0
M108 R30.0
M101
G1 X-9.88 Y-9.07 Z0.46 F3000.0
M108 R2.141
G1 X24.75 Y-9.07 Z0.46 F1080.0
G1 X24.75 Y9.03 Z0.46 F1080.0
G1 X-24.75 Y9.03 Z0.46 F1080.0
G1 X-24.75 Y-9.07 Z0.46 F1080.0
G1 X-9.88 Y-9.07 Z0.46 F1080.0
M103
(</loop>)
(<perimeter> outer )
G1 X-9.88 Y-9.47 Z0.46 F3000.0
M101
G1 X25.14 Y-9.47 Z0.46 F1080.0
G1 X25.14 Y9.42 Z0.46 F1080.0
G1 X-25.14 Y9.42 Z0.46 F1080.0
G1 X-25.14 Y-9.47 Z0.46 F1080.0
G1 X-10.15 Y-9.47 Z0.46 F1080.0
M108 R30.0
M102
G1 X-9.88 Y-9.47 Z0.46 F1080.0
M108 R2.141
M103
(</perimeter>)
(</boundaryPerimeter>)
(<surroundingLoop>)
(<boundaryPerimeter>)
(<boundaryPoint> X-10.698 Y-1.86 Z0.46 </boundaryPoint>)
(<boundaryPoint> X-11.305 Y-2.621 Z0.46 </boundaryPoint>)
(<boundaryPoint> X-12.182 Y-3.044 Z0.46 </boundaryPoint>)
(<boundaryPoint> X-13.156 Y-3.044 Z0.46 </boundaryPoint>)
(<boundaryPoint> X-14.033 Y-2.621 Z0.46 </boundaryPoint>)
(<boundaryPoint> X-14.64 Y-1.86 Z0.46 </boundaryPoint>)
(<boundaryPoint> X-14.857 Y-0.911 Z0.46 </boundaryPoint>)
(<boundaryPoint> X-14.64 Y0.038 Z0.46 </boundaryPoint>)
(<boundaryPoint> X-14.033 Y0.799 Z0.46 </boundaryPoint>)
(<boundaryPoint> X-13.156 Y1.222 Z0.46 </boundaryPoint>)
(<boundaryPoint> X-12.182 Y1.222 Z0.46 </boundaryPoint>)
(<boundaryPoint> X-11.305 Y0.799 Z0.46 </boundaryPoint>)
(<boundaryPoint> X-10.698 Y0.038 Z0.46 </boundaryPoint>)
(<boundaryPoint> X-10.482 Y-0.911 Z0.46 </boundaryPoint>)
(<perimeter> inner )
G1 X-11.86 Y-3.99 Z0.46 F3000.0
M108 R30.0
M101
G1 X-12.14 Y-3.24 Z0.46 F3000.0
M108 R2.141
G1 X-13.2 Y-3.24 Z0.46 F1080.0
G1 X-14.16 Y-2.78 Z0.46 F1080.0
G1 X-14.82 Y-1.95 Z0.46 F1080.0
G1 X-15.06 Y-0.91 Z0.46 F1080.0
G1 X-14.82 Y0.13 Z0.46 F1080.0
G1 X-14.16 Y0.96 Z0.46 F1080.0
G1 X-13.2 Y1.42 Z0.46 F1080.0
G1 X-12.14 Y1.42 Z0.46 F1080.0
G1 X-11.18 Y0.96 Z0.46 F1080.0
G1 X-10.52 Y0.13 Z0.46 F1080.0
G1 X-10.28 Y-0.91 Z0.46 F1080.0
G1 X-10.52 Y-1.95 Z0.46 F1080.0
G1 X-11.18 Y-2.78 Z0.46 F1080.0
G1 X-11.89 Y-3.12 Z0.46 F1080.0
M108 R30.0
M102
G1 X-12.14 Y-3.24 Z0.46 F1080.0
M108 R2.141
M103
(</perimeter>)
(</boundaryPerimeter>)
(</surroundingLoop>)
(<surroundingLoop>)
(<boundaryPerimeter>)
(<boundaryPoint> X13.156 Y-3.044 Z0.46 </boundaryPoint>)
(<boundaryPoint> X12.182 Y-3.044 Z0.46 </boundaryPoint>)
(<boundaryPoint> X11.305 Y-2.621 Z0.46 </boundaryPoint>)
(<boundaryPoint> X10.698 Y-1.86 Z0.46 </boundaryPoint>)
(<boundaryPoint> X10.481 Y-0.911 Z0.46 </boundaryPoint>)
(<boundaryPoint> X10.698 Y0.038 Z0.46 </boundaryPoint>)
(<boundaryPoint> X11.305 Y0.799 Z0.46 </boundaryPoint>)
(<boundaryPoint> X12.182 Y1.222 Z0.46 </boundaryPoint>)
(<boundaryPoint> X13.156 Y1.222 Z0.46 </boundaryPoint>)
(<boundaryPoint> X14.033 Y0.799 Z0.46 </boundaryPoint>)
(<boundaryPoint> X14.64 Y0.038 Z0.46 </boundaryPoint>)
(<boundaryPoint> X14.856 Y-0.911 Z0.46 </boundaryPoint>)
(<boundaryPoint> X14.64 Y-1.86 Z0.46 </boundaryPoint>)
(<boundaryPoint> X14.033 Y-2.621 Z0.46 </boundaryPoint>)
(<perimeter> inner )
G1 X9.48 Y-0.99 Z0.46 F3000.0
M108 R30.0
M101
G1 X10.28 Y-0.91 Z0.46 F3000.0
M108 R2.141
G1 X10.52 Y0.13 Z0.46 F1080.0
G1 X11.18 Y0.96 Z0.46 F1080.0
G1 X12.14 Y1.42 Z0.46 F1080.0
G1 X13.2 Y1.42 Z0.46 F1080.0
G1 X14.16 Y0.96 Z0.46 F1080.0
G1 X14.82 Y0.13 Z0.46 F1080.0
G1 X15.06 Y-0.91 Z0.46 F1080.0
G1 X14.82 Y-1.95 Z0.46 F1080.0
G1 X14.16 Y-2.78 Z0.46 F1080.0
G1 X13.2 Y-3.24 Z0.46 F1080.0
G1 X12.14 Y-3.24 Z0.46 F1080.0
G1 X11.18 Y-2.78 Z0.46 F1080.0
G1 X10.52 Y-1.95 Z0.46 F1080.0
G1 X10.34 Y-1.17 Z0.46 F1080.0
M108 R30.0
M102
G1 X10.28 Y-0.91 Z0.46 F1080.0
M108 R2.141
M103
(</perimeter>)
(</boundaryPerimeter>)
(</surroundingLoop>)
G1 X9.84 Y8.29 Z0.46 F1800.0
M108 R30.0
M101
G1 X9.82 Y8.77 Z0.46 F1800.0
M108 R2.141
G1 X9.82 Y0.25 Z0.46 F1080.0
M108 R30.0
M102
G1 X9.82 Y-0.02 Z0.46 F1080.0
M108 R2.141
M103
G1 X9.82 Y-1.32 Z0.46 F1800.0
M108 R30.0
M101
G1 X9.82 Y-1.8 Z0.46 F1800.0
M108 R2.141
G1 X9.82 Y-8.82 Z0.46 F1080.0
G1 X9.43 Y-8.82 Z0.46 F1080.0
G1 X9.43 Y8.77 Z0.46 F1080.0
M103
G1 X9.03 Y8.77 Z0.46 F1800.0
M101
G1 X9.03 Y-8.82 Z0.46 F1080.0
G1 X8.64 Y-8.82 Z0.46 F1080.0
G1 X8.64 Y8.77 Z0.46 F1080.0
M103
G1 X8.25 Y8.77 Z0.46 F1800.0
M101
G1 X8.25 Y-8.82 Z0.46 F1080.0
G1 X7.85 Y-8.82 Z0.46 F1080.0
G1 X7.85 Y8.77 Z0.46 F1080.0
M103
G1 X7.46 Y8.77 Z0.46 F1800.0
M101
G1 X7.46 Y-8.82 Z0.46 F1080.0
G1 X7.07 Y-8.82 Z0.46 F1080.0
G1 X7.07 Y8.77 Z0.46 F1080.0
M103
G1 X6.68 Y8.77 Z0.46 F1800.0
M101
G1 X6.68 Y-8.82 Z0.46 F1080.0
G1 X6.28 Y-8.82 Z0.46 F1080.0
G1 X6.28 Y8.77 Z0.46 F1080.0
M103
G1 X5.89 Y8.77 Z0.46 F1800.0
M101
G1 X5.89 Y-8.82 Z0.46 F1080.0
G1 X5.5 Y-8.82 Z0.46 F1080.0
G1 X5.5 Y8.77 Z0.46 F1080.0
M103
G1 X5.11 Y8.77 Z0.46 F1800.0
M101
G1 X5.11 Y-8.82 Z0.46 F1080.0
G1 X4.71 Y-8.82 Z0.46 F1080.0
G1 X4.71 Y8.77 Z0.46 F1080.0
M103
G1 X4.32 Y8.77 Z0.46 F1800.0
M101
G1 X4.32 Y-8.82 Z0.46 F1080.0
G1 X3.93 Y-8.82 Z0.46 F1080.0
G1 X3.93 Y8.77 Z0.46 F1080.0
M103
G1 X3.53 Y8.77 Z0.46 F1800.0
M101
G1 X3.53 Y-8.82 Z0.46 F1080.0
G1 X3.14 Y-8.82 Z0.46 F1080.0
G1 X3.14 Y8.77 Z0.46 F1080.0
M103
G1 X2.75 Y8.77 Z0.46 F1800.0
M101
G1 X2.75 Y-8.82 Z0.46 F1080.0
G1 X2.36 Y-8.82 Z0.46 F1080.0
G1 X2.36 Y8.77 Z0.46 F1080.0
M103
G1 X1.96 Y8.77 Z0.46 F1800.0
M101
G1 X1.96 Y-8.82 Z0.46 F1080.0
G1 X1.57 Y-8.82 Z0.46 F1080.0
G1 X1.57 Y8.77 Z0.46 F1080.0
M103
G1 X1.18 Y8.77 Z0.46 F1800.0
M101
G1 X1.18 Y-8.82 Z0.46 F1080.0
G1 X0.79 Y-8.82 Z0.46 F1080.0
G1 X0.79 Y8.77 Z0.46 F1080.0
M103
G1 X0.39 Y8.77 Z0.46 F1800.0
M101
G1 X0.39 Y-8.82 Z0.46 F1080.0
G1 X-0.0 Y-8.82 Z0.46 F1080.0
G1 X0.0 Y8.77 Z0.46 F1080.0
M103
G1 X-0.39 Y8.77 Z0.46 F1800.0
M101
G1 X-0.39 Y-8.82 Z0.46 F1080.0
G1 X-0.79 Y-8.82 Z0.46 F1080.0
G1 X-0.79 Y8.77 Z0.46 F1080.0
M103
G1 X-1.18 Y8.77 Z0.46 F1800.0
M101
G1 X-1.18 Y-8.82 Z0.46 F1080.0
G1 X-1.57 Y-8.82 Z0.46 F1080.0
G1 X-1.57 Y8.77 Z0.46 F1080.0
M103
G1 X-1.96 Y8.77 Z0.46 F1800.0
M101
G1 X-1.96 Y-8.82 Z0.46 F1080.0
G1 X-2.36 Y-8.82 Z0.46 F1080.0
G1 X-2.36 Y8.77 Z0.46 F1080.0
M103
G1 X-2.75 Y8.77 Z0.46 F1800.0
M101
G1 X-2.75 Y-8.82 Z0.46 F1080.0
G1 X-3.14 Y-8.82 Z0.46 F1080.0
G1 X-3.14 Y8.77 Z0.46 F1080.0
M103
G1 X-3.53 Y8.77 Z0.46 F1800.0
M101
G1 X-3.53 Y-8.82 Z0.46 F1080.0
G1 X-3.93 Y-8.82 Z0.46 F1080.0
G1 X-3.93 Y8.77 Z0.46 F1080.0
M103
G1 X-4.32 Y8.77 Z0.46 F1800.0
M101
G1 X-4.32 Y-8.82 Z0.46 F1080.0
G1 X-4.71 Y-8.82 Z0.46 F1080.0
G1 X-4.71 Y8.77 Z0.46 F1080.0
M103
G1 X-5.11 Y8.77 Z0.46 F1800.0
M101
G1 X-5.11 Y-8.82 Z0.46 F1080.0
G1 X-5.5 Y-8.82 Z0.46 F1080.0
G1 X-5.5 Y8.77 Z0.46 F1080.0
M103
G1 X-5.89 Y8.77 Z0.46 F1800.0
M101
G1 X-5.89 Y-8.82 Z0.46 F1080.0
G1 X-6.28 Y-8.82 Z0.46 F1080.0
G1 X-6.28 Y8.77 Z0.46 F1080.0
M103
G1 X-6.68 Y8.77 Z0.46 F1800.0
M101
G1 X-6.68 Y-8.82 Z0.46 F1080.0
G1 X-7.07 Y-8.82 Z0.46 F1080.0
G1 X-7.07 Y8.77 Z0.46 F1080.0
M103
G1 X-7.46 Y8.77 Z0.46 F1800.0
M101
G1 X-7.46 Y-8.82 Z0.46 F1080.0
G1 X-7.85 Y-8.82 Z0.46 F1080.0
G1 X-7.85 Y8.77 Z0.46 F1080.0
M103
G1 X-8.25 Y8.77 Z0.46 F1800.0
M101
G1 X-8.25 Y-8.82 Z0.46 F1080.0
G1 X-8.64 Y-8.82 Z0.46 F1080.0
G1 X-8.64 Y8.77 Z0.46 F1080.0
M103
G1 X-9.03 Y8.77 Z0.46 F1800.0
M101
G1 X-9.03 Y-8.82 Z0.46 F1080.0
G1 X-9.43 Y-8.82 Z0.46 F1080.0
G1 X-9.43 Y8.77 Z0.46 F1080.0
M103
G1 X-9.82 Y8.77 Z0.46 F1800.0
M101
G1 X-9.82 Y-0.03 Z0.46 F1080.0
M103
G1 X-10.21 Y0.78 Z0.46 F1800.0
M101
G1 X-10.21 Y8.77 Z0.46 F1080.0
M103
G1 X-10.6 Y8.77 Z0.46 F1800.0
M101
G1 X-10.6 Y1.27 Z0.46 F1080.0
G1 X-11.0 Y1.59 Z0.46 F1080.0
G1 X-11.0 Y8.77 Z0.46 F1080.0
M103
G1 X-11.39 Y8.77 Z0.46 F1800.0
M101
G1 X-11.39 Y1.78 Z0.46 F1080.0
G1 X-11.78 Y1.97 Z0.46 F1080.0
G1 X-11.78 Y8.77 Z0.46 F1080.0
M103
G1 X-12.17 Y8.77 Z0.46 F1800.0
M101
G1 X-12.17 Y2.07 Z0.46 F1080.0
G1 X-12.57 Y2.07 Z0.46 F1080.0
G1 X-12.57 Y8.77 Z0.46 F1080.0
M103
G1 X-12.96 Y8.77 Z0.46 F1800.0
M101
G1 X-12.96 Y2.07 Z0.46 F1080.0
G1 X-13.35 Y2.07 Z0.46 F1080.0
G1 X-13.35 Y8.77 Z0.46 F1080.0
M103
G1 X-13.74 Y8.77 Z0.46 F1800.0
M101
G1 X-13.74 Y1.88 Z0.46 F1080.0
G1 X-14.14 Y1.69 Z0.46 F1080.0
G1 X-14.14 Y8.77 Z0.46 F1080.0
M103
G1 X-14.53 Y8.77 Z0.46 F1800.0
M101
G1 X-14.53 Y1.77 Z0.46 F1080.0
M108 R30.0
M102
G1 X-14.53 Y1.5 Z0.46 F1080.0
M108 R2.141
M103
G1 X-15.22 Y-1.9 Z0.46 F1800.0
M108 R30.0
M101
G1 X-15.32 Y-2.37 Z0.46 F1800.0
M108 R2.141
G1 X-15.32 Y-8.82 Z0.46 F1080.0
G1 X-14.92 Y-8.82 Z0.46 F1080.0
G1 X-14.92 Y-2.86 Z0.46 F1080.0
G1 X-14.53 Y-3.32 Z0.46 F1080.0
G1 X-14.53 Y-8.82 Z0.46 F1080.0
G1 X-14.14 Y-8.82 Z0.46 F1080.0
G1 X-14.14 Y-3.51 Z0.46 F1080.0
G1 X-13.74 Y-3.7 Z0.46 F1080.0
G1 X-13.74 Y-8.82 Z0.46 F1080.0
G1 X-13.35 Y-8.82 Z0.46 F1080.0
G1 X-13.35 Y-3.89 Z0.46 F1080.0
M103
G1 X-12.96 Y-3.89 Z0.46 F1800.0
M101
G1 X-12.96 Y-8.82 Z0.46 F1080.0
G1 X-12.57 Y-8.82 Z0.46 F1080.0
G1 X-12.57 Y-3.89 Z0.46 F1080.0
M103
G1 X-12.17 Y-3.89 Z0.46 F1800.0
M101
G1 X-12.17 Y-8.82 Z0.46 F1080.0
G1 X-11.78 Y-8.82 Z0.46 F1080.0
G1 X-11.78 Y-3.79 Z0.46 F1080.0
G1 X-11.39 Y-3.6 Z0.46 F1080.0
G1 X-11.39 Y-8.82 Z0.46 F1080.0
G1 X-11.0 Y-8.82 Z0.46 F1080.0
G1 X-11.0 Y-3.41 Z0.46 F1080.0
G1 X-10.6 Y-3.1 Z0.46 F1080.0
G1 X-10.6 Y-8.82 Z0.46 F1080.0
G1 X-10.21 Y-8.82 Z0.46 F1080.0
G1 X-10.21 Y-2.6 Z0.46 F1080.0
M103
G1 X-9.82 Y-1.8 Z0.46 F1800.0
M101
G1 X-9.82 Y-8.55 Z0.46 F1080.0
M108 R30.0
M102
G1 X-9.82 Y-8.82 Z0.46 F1080.0
M108 R2.141
M103
G1 X-16.01 Y-8.82 Z0.46 F1800.0
M108 R30.0
M101
G1 X-16.49 Y-8.82 Z0.46 F1800.0
M108 R2.141
G1 X-16.49 Y8.77 Z0.46 F1080.0
M103
G1 X-16.89 Y8.77 Z0.46 F1800.0
M101
G1 X-16.89 Y-8.82 Z0.46 F1080.0
G1 X-17.28 Y-8.82 Z0.46 F1080.0
G1 X-17.28 Y8.77 Z0.46 F1080.0
M103
G1 X-17.67 Y8.77 Z0.46 F1800.0
M101
G1 X-17.67 Y-8.82 Z0.46 F1080.0
G1 X-18.06 Y-8.82 Z0.46 F1080.0
G1 X-18.06 Y8.77 Z0.46 F1080.0
M103
G1 X-18.46 Y8.77 Z0.46 F1800.0
M101
G1 X-18.46 Y-8.82 Z0.46 F1080.0
G1 X-18.85 Y-8.82 Z0.46 F1080.0
G1 X-18.85 Y8.77 Z0.46 F1080.0
M103
G1 X-19.24 Y8.77 Z0.46 F1800.0
M101
G1 X-19.24 Y-8.82 Z0.46 F1080.0
G1 X-19.64 Y-8.82 Z0.46 F1080.0
G1 X-19.64 Y8.77 Z0.46 F1080.0
M103
G1 X-20.03 Y8.77 Z0.46 F1800.0
M101
G1 X-20.03 Y-8.82 Z0.46 F1080.0
G1 X-20.42 Y-8.82 Z0.46 F1080.0
G1 X-20.42 Y8.77 Z0.46 F1080.0
M103
G1 X-20.81 Y8.77 Z0.46 F1800.0
M101
G1 X-20.81 Y-8.82 Z0.46 F1080.0
G1 X-21.21 Y-8.82 Z0.46 F1080.0
G1 X-21.21 Y8.77 Z0.46 F1080.0
M103
G1 X-21.6 Y8.77 Z0.46 F1800.0
M101
G1 X-21.6 Y-8.82 Z0.46 F1080.0
G1 X-21.99 Y-8.82 Z0.46 F1080.0
G1 X-21.99 Y8.77 Z0.46 F1080.0
M103
G1 X-22.38 Y8.77 Z0.46 F1800.0
M101
G1 X-22.38 Y-8.82 Z0.46 F1080.0
G1 X-22.78 Y-8.82 Z0.46 F1080.0
G1 X-22.78 Y8.77 Z0.46 F1080.0
M103
G1 X-23.17 Y8.77 Z0.46 F1800.0
M101
G1 X-23.17 Y-8.82 Z0.46 F1080.0
G1 X-23.56 Y-8.82 Z0.46 F1080.0
G1 X-23.56 Y8.77 Z0.46 F1080.0
M103
G1 X-23.96 Y8.77 Z0.46 F1800.0
M101
G1 X-23.96 Y-8.82 Z0.46 F1080.0
G1 X-24.35 Y-8.82 Z0.46 F1080.0
G1 X-24.35 Y8.5 Z0.46 F1080.0
M108 R30.0
M102
G1 X-24.35 Y8.77 Z0.46 F1080.0
M108 R2.141
M103
G1 X-16.19 Y8.77 Z0.46 F1800.0
M108 R30.0
M101
G1 X-15.71 Y8.77 Z0.46 F1800.0
M108 R2.141
G1 X-15.71 Y-8.82 Z0.46 F1080.0
G1 X-16.1 Y-8.82 Z0.46 F1080.0
G1 X-16.1 Y8.5 Z0.46 F1080.0
M108 R30.0
M102
G1 X-16.1 Y8.77 Z0.46 F1080.0
M108 R2.141
M103
G1 X-15.4 Y8.77 Z0.46 F1800.0
M108 R30.0
M101
G1 X-14.92 Y8.77 Z0.46 F1800.0
M108 R2.141
G1 X-14.92 Y1.04 Z0.46 F1080.0
G1 X-15.32 Y0.55 Z0.46 F1080.0
G1 X-15.32 Y8.5 Z0.46 F1080.0
M108 R30.0
M102
G1 X-15.32 Y8.77 Z0.46 F1080.0
M108 R2.141
M103
G1 X10.12 Y8.77 Z0.46 F1800.0
M108 R30.0
M101
G1 X10.6 Y8.77 Z0.46 F1800.0
M108 R2.141
G1 X10.6 Y1.27 Z0.46 F1080.0
G1 X10.21 Y0.78 Z0.46 F1080.0
G1 X10.21 Y8.5 Z0.46 F1080.0
M108 R30.0
M102
G1 X10.21 Y8.77 Z0.46 F1080.0
M108 R2.141
M103
G1 X10.91 Y8.77 Z0.46 F1800.0
M108 R30.0
M101
G1 X11.39 Y8.77 Z0.46 F1800.0
M108 R2.141
G1 X11.39 Y1.78 Z0.46 F1080.0
G1 X11.0 Y1.59 Z0.46 F1080.0
G1 X11.0 Y8.5 Z0.46 F1080.0
M108 R30.0
M102
G1 X11.0 Y8.77 Z0.46 F1080.0
M108 R2.141
M103
G1 X11.73 Y2.44 Z0.46 F1800.0
M108 R30.0
M101
G1 X11.78 Y1.97 Z0.46 F1800.0
M108 R2.141
G1 X11.78 Y8.77 Z0.46 F1080.0
M103
G1 X12.17 Y8.77 Z0.46 F1800.0
M101
G1 X12.17 Y2.34 Z0.46 F1080.0
M108 R30.0
M102
G1 X12.17 Y2.07 Z0.46 F1080.0
M108 R2.141
M103
G1 X10.46 Y0.15 Z0.46 F3000.0
G1 X10.21 Y-0.91 Z0.46 F3000.0
G1 X10.21 Y-2.12 Z0.46 F1800.0
M108 R30.0
M101
G1 X10.21 Y-2.6 Z0.46 F1800.0
M108 R2.141
G1 X10.21 Y-8.82 Z0.46 F1080.0
G1 X10.6 Y-8.82 Z0.46 F1080.0
G1 X10.6 Y-3.1 Z0.46 F1080.0
G1 X11.0 Y-3.41 Z0.46 F1080.0
G1 X11.0 Y-8.82 Z0.46 F1080.0
G1 X11.39 Y-8.82 Z0.46 F1080.0
G1 X11.39 Y-3.6 Z0.46 F1080.0
G1 X11.78 Y-3.79 Z0.46 F1080.0
G1 X11.78 Y-8.82 Z0.46 F1080.0
G1 X12.17 Y-8.82 Z0.46 F1080.0
G1 X12.17 Y-3.89 Z0.46 F1080.0
M103
G1 X12.57 Y-3.89 Z0.46 F1800.0
M101
G1 X12.57 Y-8.82 Z0.46 F1080.0
G1 X12.96 Y-8.82 Z0.46 F1080.0
G1 X12.96 Y-3.89 Z0.46 F1080.0
M103
G1 X13.35 Y-3.89 Z0.46 F1800.0
M101
G1 X13.35 Y-8.82 Z0.46 F1080.0
G1 X13.74 Y-8.82 Z0.46 F1080.0
G1 X13.74 Y-3.7 Z0.46 F1080.0
G1 X14.14 Y-3.51 Z0.46 F1080.0
G1 X14.14 Y-8.82 Z0.46 F1080.0
G1 X14.53 Y-8.82 Z0.46 F1080.0
G1 X14.53 Y-3.32 Z0.46 F1080.0
G1 X14.92 Y-2.86 Z0.46 F1080.0
G1 X14.92 Y-8.82 Z0.46 F1080.0
G1 X15.32 Y-8.82 Z0.46 F1080.0
G1 X15.32 Y-2.64 Z0.46 F1080.0
M108 R30.0
M102
G1 X15.32 Y-2.37 Z0.46 F1080.0
M108 R2.141
M103
G1 X23.96 Y-8.54 Z0.46 F1800.0
M108 R30.0
M101
G1 X24.35 Y-8.82 Z0.46 F1800.0
M108 R2.141
G1 X24.35 Y8.77 Z0.46 F1080.0
M103
G1 X23.96 Y8.77 Z0.46 F1800.0
M101
G1 X23.96 Y-8.82 Z0.46 F1080.0
G1 X23.56 Y-8.82 Z0.46 F1080.0
G1 X23.56 Y8.77 Z0.46 F1080.0
M103
G1 X23.17 Y8.77 Z0.46 F1800.0
M101
G1 X23.17 Y-8.82 Z0.46 F1080.0
G1 X22.78 Y-8.82 Z0.46 F1080.0
G1 X22.78 Y8.77 Z0.46 F1080.0
M103
G1 X22.38 Y8.77 Z0.46 F1800.0
M101
G1 X22.38 Y-8.82 Z0.46 F1080.0
G1 X21.99 Y-8.82 Z0.46 F1080.0
G1 X21.99 Y8.77 Z0.46 F1080.0
M103
G1 X21.6 Y8.77 Z0.46 F1800.0
M101
G1 X21.6 Y-8.82 Z0.46 F1080.0
G1 X21.21 Y-8.82 Z0.46 F1080.0
G1 X21.21 Y8.77 Z0.46 F1080.0
M103
G1 X20.81 Y8.77 Z0.46 F1800.0
M101
G1 X20.81 Y-8.82 Z0.46 F1080.0
G1 X20.42 Y-8.82 Z0.46 F1080.0
G1 X20.42 Y8.77 Z0.46 F1080.0
M103
G1 X20.03 Y8.77 Z0.46 F1800.0
M101
G1 X20.03 Y-8.82 Z0.46 F1080.0
G1 X19.64 Y-8.82 Z0.46 F1080.0
G1 X19.64 Y8.77 Z0.46 F1080.0
M103
G1 X19.24 Y8.77 Z0.46 F1800.0
M101
G1 X19.24 Y-8.82 Z0.46 F1080.0
G1 X18.85 Y-8.82 Z0.46 F1080.0
G1 X18.85 Y8.77 Z0.46 F1080.0
M103
G1 X18.46 Y8.77 Z0.46 F1800.0
M101
G1 X18.46 Y-8.82 Z0.46 F1080.0
G1 X18.06 Y-8.82 Z0.46 F1080.0
G1 X18.06 Y8.77 Z0.46 F1080.0
M103
G1 X17.67 Y8.77 Z0.46 F1800.0
M101
G1 X17.67 Y-8.82 Z0.46 F1080.0
G1 X17.28 Y-8.82 Z0.46 F1080.0
G1 X17.28 Y8.77 Z0.46 F1080.0
M103
G1 X16.89 Y8.77 Z0.46 F1800.0
M101
G1 X16.89 Y-8.82 Z0.46 F1080.0
G1 X16.49 Y-8.82 Z0.46 F1080.0
G1 X16.49 Y8.77 Z0.46 F1080.0
M103
G1 X16.1 Y8.77 Z0.46 F1800.0
M101
G1 X16.1 Y-8.82 Z0.46 F1080.0
G1 X15.71 Y-8.82 Z0.46 F1080.0
G1 X15.71 Y8.77 Z0.46 F1080.0
M103
G1 X15.32 Y8.77 Z0.46 F1800.0
M101
G1 X15.32 Y0.55 Z0.46 F1080.0
G1 X14.92 Y1.04 Z0.46 F1080.0
G1 X14.92 Y8.77 Z0.46 F1080.0
M103
G1 X14.53 Y8.77 Z0.46 F1800.0
M101
G1 X14.53 Y1.5 Z0.46 F1080.0
G1 X14.14 Y1.69 Z0.46 F1080.0
G1 X14.14 Y8.77 Z0.46 F1080.0
M103
G1 X13.74 Y8.77 Z0.46 F1800.0
M101
G1 X13.74 Y1.88 Z0.46 F1080.0
G1 X13.35 Y2.07 Z0.46 F1080.0
G1 X13.35 Y8.77 Z0.46 F1080.0
M103
G1 X12.96 Y8.77 Z0.46 F1800.0
M101
G1 X12.96 Y2.07 Z0.46 F1080.0
G1 X12.57 Y2.07 Z0.46 F1080.0
G1 X12.57 Y8.5 Z0.46 F1080.0
M108 R30.0
M102
G1 X12.57 Y8.77 Z0.46 F1080.0
M108 R2.141
M103
(</surroundingLoop>)
(</layer>)
(<layer> 0.78 )
(<surroundingLoop>)
(<boundaryPerimeter>)
(<boundaryPoint> X-25.338 Y9.532 Z0.78 </boundaryPoint>)
(<boundaryPoint> X-25.338 Y-9.661 Z0.78 </boundaryPoint>)
(<boundaryPoint> X25.338 Y-9.661 Z0.78 </boundaryPoint>)
(<boundaryPoint> X25.338 Y9.532 Z0.78 </boundaryPoint>)
(<loop> inner )
M108 R3.569
G1 X12.38 Y2.61 Z0.74 F3000.0
M108 R30.0
M101
G1 X12.36 Y1.81 Z0.78 F3000.0
M108 R3.569
G1 X12.57 Y1.81 Z0.78 F1800.0
G1 X13.29 Y1.81 Z0.78 F1800.0
G1 X14.41 Y1.27 Z0.78 F1800.0
G1 X15.19 Y0.3 Z0.78 F1800.0
G1 X15.46 Y-0.91 Z0.78 F1800.0
G1 X15.19 Y-2.12 Z0.78 F1800.0
G1 X14.41 Y-3.09 Z0.78 F1800.0
G1 X13.29 Y-3.63 Z0.78 F1800.0
G1 X12.05 Y-3.63 Z0.78 F1800.0
G1 X10.93 Y-3.09 Z0.78 F1800.0
G1 X10.15 Y-2.12 Z0.78 F1800.0
G1 X9.88 Y-0.91 Z0.78 F1800.0
G1 X10.15 Y0.3 Z0.78 F1800.0
G1 X10.93 Y1.27 Z0.78 F1800.0
G1 X11.92 Y1.75 Z0.78 F1800.0
M108 R30.0
M102
G1 X12.05 Y1.81 Z0.78 F1800.0
G1 X12.36 Y1.81 Z0.78 F1800.0
M108 R3.569
M103
(</loop>)
(<loop> inner )
G1 X-9.08 Y-0.81 Z0.78 F3000.0
M108 R30.0
M101
G1 X-9.88 Y-0.91 Z0.78 F3000.0
M108 R3.569
G1 X-10.15 Y-2.12 Z0.78 F1800.0
G1 X-10.93 Y-3.09 Z0.78 F1800.0
G1 X-12.05 Y-3.63 Z0.78 F1800.0
G1 X-13.29 Y-3.63 Z0.78 F1800.0
G1 X-14.41 Y-3.09 Z0.78 F1800.0
G1 X-15.19 Y-2.12 Z0.78 F1800.0
G1 X-15.46 Y-0.91 Z0.78 F1800.0
G1 X-15.19 Y0.3 Z0.78 F1800.0
G1 X-14.41 Y1.27 Z0.78 F1800.0
G1 X-13.29 Y1.81 Z0.78 F1800.0
G1 X-12.05 Y1.81 Z0.78 F1800.0
G1 X-10.93 Y1.27 Z0.78 F1800.0
G1 X-10.15 Y0.3 Z0.78 F1800.0
G1 X-9.98 Y-0.47 Z0.78 F1800.0
M108 R30.0
M102
G1 X-9.88 Y-0.91 Z0.78 F1800.0
M108 R3.569
M103
(</loop>)
(<loop> outer )
G1 X-9.88 Y-8.27 Z0.78 F3000.0
M108 R30.0
M101
G1 X-9.88 Y-9.07 Z0.78 F3000.0
M108 R3.569
G1 X24.75 Y-9.07 Z0.78 F1800.0
G1 X24.75 Y8.94 Z0.78 F1800.0
G1 X-24.75 Y8.94 Z0.78 F1800.0
G1 X-24.75 Y-9.07 Z0.78 F1800.0
G1 X-9.88 Y-9.07 Z0.78 F1800.0
M103
(</loop>)
(<perimeter> outer )
G1 X-9.88 Y-9.47 Z0.78 F3000.0
M101
G1 X25.14 Y-9.47 Z0.78 F1800.0
G1 X25.14 Y9.34 Z0.78 F1800.0
G1 X-25.14 Y9.34 Z0.78 F1800.0
G1 X-25.14 Y-9.47 Z0.78 F1800.0
G1 X-10.33 Y-9.47 Z0.78 F1800.0
M108 R30.0
M102
G1 X-9.88 Y-9.47 Z0.78 F1800.0
M108 R3.569
M103
(</perimeter>)
(</boundaryPerimeter>)
(<surroundingLoop>)
(<boundaryPerimeter>)
(<boundaryPoint> X-10.698 Y-1.86 Z0.78 </boundaryPoint>)
(<boundaryPoint> X-11.305 Y-2.621 Z0.78 </boundaryPoint>)
(<boundaryPoint> X-12.182 Y-3.044 Z0.78 </boundaryPoint>)
(<boundaryPoint> X-13.156 Y-3.044 Z0.78 </boundaryPoint>)
(<boundaryPoint> X-14.033 Y-2.621 Z0.78 </boundaryPoint>)
(<boundaryPoint> X-14.64 Y-1.86 Z0.78 </boundaryPoint>)
(<boundaryPoint> X-14.857 Y-0.911 Z0.78 </boundaryPoint>)
(<boundaryPoint> X-14.64 Y0.038 Z0.78 </boundaryPoint>)
(<boundaryPoint> X-14.033 Y0.799 Z0.78 </boundaryPoint>)
(<boundaryPoint> X-13.156 Y1.222 Z0.78 </boundaryPoint>)
(<boundaryPoint> X-12.182 Y1.222 Z0.78 </boundaryPoint>)
(<boundaryPoint> X-11.305 Y0.799 Z0.78 </boundaryPoint>)
(<boundaryPoint> X-10.698 Y0.038 Z0.78 </boundaryPoint>)
(<boundaryPoint> X-10.482 Y-0.911 Z0.78 </boundaryPoint>)
(<perimeter> inner )
G1 X-11.86 Y-3.99 Z0.78 F3000.0
M108 R30.0
M101
G1 X-12.14 Y-3.24 Z0.78 F3000.0
M108 R3.569
G1 X-13.2 Y-3.24 Z0.78 F1800.0
G1 X-14.16 Y-2.78 Z0.78 F1800.0
G1 X-14.82 Y-1.95 Z0.78 F1800.0
G1 X-15.06 Y-0.91 Z0.78 F1800.0
G1 X-14.82 Y0.13 Z0.78 F1800.0
G1 X-14.16 Y0.96 Z0.78 F1800.0
G1 X-13.2 Y1.42 Z0.78 F1800.0
G1 X-12.14 Y1.42 Z0.78 F1800.0
G1 X-11.18 Y0.96 Z0.78 F1800.0
G1 X-10.52 Y0.13 Z0.78 F1800.0
G1 X-10.28 Y-0.91 Z0.78 F1800.0
G1 X-10.52 Y-1.95 Z0.78 F1800.0
G1 X-11.18 Y-2.78 Z0.78 F1800.0
G1 X-11.73 Y-3.05 Z0.78 F1800.0
M108 R30.0
M102
G1 X-12.14 Y-3.24 Z0.78 F1800.0
M108 R3.569
M103
(</perimeter>)
(</boundaryPerimeter>)
(</surroundingLoop>)
(<surroundingLoop>)
(<boundaryPerimeter>)
(<boundaryPoint> X13.156 Y-3.044 Z0.78 </boundaryPoint>)
(<boundaryPoint> X12.182 Y-3.044 Z0.78 </boundaryPoint>)
(<boundaryPoint> X11.305 Y-2.621 Z0.78 </boundaryPoint>)
(<boundaryPoint> X10.698 Y-1.86 Z0.78 </boundaryPoint>)
(<boundaryPoint> X10.481 Y-0.911 Z0.78 </boundaryPoint>)
(<boundaryPoint> X10.698 Y0.038 Z0.78 </boundaryPoint>)
(<boundaryPoint> X11.305 Y0.799 Z0.78 </boundaryPoint>)
(<boundaryPoint> X12.182 Y1.222 Z0.78 </boundaryPoint>)
(<boundaryPoint> X13.156 Y1.222 Z0.78 </boundaryPoint>)
(<boundaryPoint> X14.033 Y0.799 Z0.78 </boundaryPoint>)
(<boundaryPoint> X14.64 Y0.038 Z0.78 </boundaryPoint>)
(<boundaryPoint> X14.856 Y-0.911 Z0.78 </boundaryPoint>)
(<boundaryPoint> X14.64 Y-1.86 Z0.78 </boundaryPoint>)
(<boundaryPoint> X14.033 Y-2.621 Z0.78 </boundaryPoint>)
(<perimeter> inner )
G1 X9.48 Y-0.99 Z0.78 F3000.0
M108 R30.0
M101
G1 X10.28 Y-0.91 Z0.78 F3000.0
M108 R3.569
G1 X10.52 Y0.13 Z0.78 F1800.0
G1 X11.18 Y0.96 Z0.78 F1800.0
G1 X12.14 Y1.42 Z0.78 F1800.0
G1 X13.2 Y1.42 Z0.78 F1800.0
G1 X14.16 Y0.96 Z0.78 F1800.0
G1 X14.82 Y0.13 Z0.78 F1800.0
G1 X15.06 Y-0.91 Z0.78 F1800.0
G1 X14.82 Y-1.95 Z0.78 F1800.0
G1 X14.16 Y-2.78 Z0.78 F1800.0
G1 X13.2 Y-3.24 Z0.78 F1800.0
G1 X12.14 Y-3.24 Z0.78 F1800.0
G1 X11.18 Y-2.78 Z0.78 F1800.0
G1 X10.52 Y-1.95 Z0.78 F1800.0
G1 X10.28 Y-0.91 Z0.78 F1800.0
M103
(</perimeter>)
(</boundaryPerimeter>)
(</surroundingLoop>)
G1 X9.64 Y-0.79 Z0.78 F3000.0
M101
G1 X-9.64 Y-0.79 Z0.78 F1800.0
G1 X-9.73 Y-0.39 Z0.78 F1800.0
G1 X9.73 Y-0.39 Z0.78 F1800.0
G1 X9.82 Y-0.0 Z0.78 F1800.0
G1 X-9.82 Y0.0 Z0.78 F1800.0
M103
G1 X-9.91 Y0.39 Z0.78 F3000.0
M101
G1 X9.91 Y0.39 Z0.78 F1800.0
G1 X10.21 Y0.79 Z0.78 F1800.0
G1 X-10.21 Y0.79 Z0.78 F1800.0
G1 X-10.53 Y1.18 Z0.78 F1800.0
G1 X10.53 Y1.18 Z0.78 F1800.0
G1 X10.96 Y1.57 Z0.78 F1800.0
G1 X-10.96 Y1.57 Z0.78 F1800.0
G1 X-11.78 Y1.96 Z0.78 F1800.0
M103
G1 X-10.87 Y1.96 Z0.78 F3000.0
M101
G1 X11.33 Y1.96 Z0.78 F1800.0
M108 R30.0
M102
G1 X11.78 Y1.96 Z0.78 F1800.0
M108 R3.569
M103
G1 X12.76 Y1.96 Z0.78 F3000.0
M108 R30.0
M101
G1 X13.56 Y1.96 Z0.78 F3000.0
M108 R3.569
G1 X24.49 Y1.96 Z0.78 F1800.0
G1 X24.49 Y1.57 Z0.78 F1800.0
G1 X14.38 Y1.57 Z0.78 F1800.0
M103
G1 X14.81 Y1.18 Z0.78 F3000.0
M101
G1 X24.49 Y1.18 Z0.78 F1800.0
G1 X24.49 Y0.79 Z0.78 F1800.0
G1 X15.12 Y0.79 Z0.78 F1800.0
G1 X15.43 Y0.39 Z0.78 F1800.0
G1 X24.49 Y0.39 Z0.78 F1800.0
G1 X24.49 Y-0.0 Z0.78 F1800.0
G1 X15.52 Y-0.0 Z0.78 F1800.0
M103
G1 X15.6 Y-0.39 Z0.78 F3000.0
M101
G1 X24.49 Y-0.39 Z0.78 F1800.0
G1 X24.49 Y-0.79 Z0.78 F1800.0
G1 X15.69 Y-0.79 Z0.78 F1800.0
M103
G1 X15.66 Y-1.18 Z0.78 F3000.0
M101
G1 X24.49 Y-1.18 Z0.78 F1800.0
G1 X24.49 Y-1.57 Z0.78 F1800.0
G1 X15.57 Y-1.57 Z0.78 F1800.0
M103
G1 X15.48 Y-1.96 Z0.78 F3000.0
M101
G1 X24.49 Y-1.96 Z0.78 F1800.0
G1 X24.49 Y-2.36 Z0.78 F1800.0
G1 X15.33 Y-2.36 Z0.78 F1800.0
G1 X15.01 Y-2.75 Z0.78 F1800.0
G1 X24.49 Y-2.75 Z0.78 F1800.0
G1 X24.49 Y-3.14 Z0.78 F1800.0
G1 X14.7 Y-3.14 Z0.78 F1800.0
G1 X14.08 Y-3.53 Z0.78 F1800.0
G1 X24.49 Y-3.53 Z0.78 F1800.0
G1 X24.49 Y-3.93 Z0.78 F1800.0
G1 X-24.49 Y-3.93 Z0.78 F1800.0
G1 X-24.49 Y-4.32 Z0.78 F1800.0
G1 X24.49 Y-4.32 Z0.78 F1800.0
G1 X24.49 Y-4.71 Z0.78 F1800.0
G1 X-24.49 Y-4.71 Z0.78 F1800.0
G1 X-24.49 Y-5.11 Z0.78 F1800.0
G1 X24.49 Y-5.11 Z0.78 F1800.0
G1 X24.49 Y-5.5 Z0.78 F1800.0
G1 X-24.49 Y-5.5 Z0.78 F1800.0
G1 X-24.49 Y-5.89 Z0.78 F1800.0
G1 X24.49 Y-5.89 Z0.78 F1800.0
G1 X24.49 Y-6.28 Z0.78 F1800.0
G1 X-24.49 Y-6.28 Z0.78 F1800.0
G1 X-24.49 Y-6.68 Z0.78 F1800.0
G1 X24.49 Y-6.68 Z0.78 F1800.0
G1 X24.49 Y-7.07 Z0.78 F1800.0
G1 X-24.49 Y-7.07 Z0.78 F1800.0
G1 X-24.49 Y-7.46 Z0.78 F1800.0
G1 X24.49 Y-7.46 Z0.78 F1800.0
G1 X24.49 Y-7.85 Z0.78 F1800.0
G1 X-24.49 Y-7.85 Z0.78 F1800.0
G1 X-24.49 Y-8.25 Z0.78 F1800.0
G1 X24.49 Y-8.25 Z0.78 F1800.0
G1 X24.49 Y-8.64 Z0.78 F1800.0
G1 X-24.04 Y-8.64 Z0.78 F1800.0
M108 R30.0
M102
G1 X-24.49 Y-8.64 Z0.78 F1800.0
M108 R3.569
M103
G1 X-15.99 Y-2.81 Z0.78 F3000.0
M108 R30.0
M101
G1 X-15.33 Y-2.36 Z0.78 F3000.0
M108 R3.569
G1 X-24.49 Y-2.36 Z0.78 F1800.0
G1 X-24.49 Y-2.75 Z0.78 F1800.0
G1 X-15.01 Y-2.75 Z0.78 F1800.0
G1 X-14.7 Y-3.14 Z0.78 F1800.0
G1 X-24.49 Y-3.14 Z0.78 F1800.0
G1 X-24.49 Y-3.53 Z0.78 F1800.0
G1 X-14.53 Y-3.53 Z0.78 F1800.0
M108 R30.0
M102
G1 X-14.08 Y-3.53 Z0.78 F1800.0
M108 R3.569
M103
G1 X-15.09 Y-2.21 Z0.78 F3000.0
M108 R30.0
M101
G1 X-15.57 Y-1.57 Z0.78 F3000.0
M108 R3.569
G1 X-24.49 Y-1.57 Z0.78 F1800.0
G1 X-24.49 Y-1.96 Z0.78 F1800.0
G1 X-15.93 Y-1.96 Z0.78 F1800.0
M108 R30.0
M102
G1 X-15.48 Y-1.96 Z0.78 F1800.0
M108 R3.569
M103
G1 X-15.5 Y-0.8 Z0.78 F3000.0
M108 R30.0
M101
G1 X-15.52 Y0.0 Z0.78 F3000.0
M108 R3.569
G1 X-24.49 Y0.0 Z0.78 F1800.0
G1 X-24.49 Y-0.39 Z0.78 F1800.0
G1 X-15.61 Y-0.39 Z0.78 F1800.0
G1 X-15.7 Y-0.79 Z0.78 F1800.0
G1 X-24.49 Y-0.79 Z0.78 F1800.0
G1 X-24.49 Y-1.18 Z0.78 F1800.0
G1 X-16.11 Y-1.18 Z0.78 F1800.0
M108 R30.0
M102
G1 X-15.66 Y-1.18 Z0.78 F1800.0
M108 R3.569
M103
G1 X-14.72 Y0.85 Z0.78 F3000.0
M108 R30.0
M101
G1 X-14.38 Y1.57 Z0.78 F3000.0
M108 R3.569
G1 X-24.49 Y1.57 Z0.78 F1800.0
G1 X-24.49 Y1.18 Z0.78 F1800.0
G1 X-14.81 Y1.18 Z0.78 F1800.0
G1 X-15.12 Y0.79 Z0.78 F1800.0
G1 X-24.49 Y0.79 Z0.78 F1800.0
G1 X-24.49 Y0.39 Z0.78 F1800.0
G1 X-15.88 Y0.39 Z0.78 F1800.0
M108 R30.0
M102
G1 X-15.43 Y0.39 Z0.78 F1800.0
M108 R3.569
M103
G1 X-13.22 Y1.48 Z0.78 F3000.0
G1 X23.71 Y8.49 Z0.78 F3000.0
M108 R30.0
M101
G1 X24.49 Y8.64 Z0.78 F3000.0
M108 R3.569
G1 X-24.49 Y8.64 Z0.78 F1800.0
G1 X-24.49 Y8.25 Z0.78 F1800.0
G1 X24.49 Y8.25 Z0.78 F1800.0
G1 X24.49 Y7.85 Z0.78 F1800.0
G1 X-24.49 Y7.85 Z0.78 F1800.0
G1 X-24.49 Y7.46 Z0.78 F1800.0
G1 X24.49 Y7.46 Z0.78 F1800.0
G1 X24.49 Y7.07 Z0.78 F1800.0
G1 X-24.49 Y7.07 Z0.78 F1800.0
G1 X-24.49 Y6.68 Z0.78 F1800.0
G1 X24.49 Y6.68 Z0.78 F1800.0
G1 X24.49 Y6.28 Z0.78 F1800.0
G1 X-24.49 Y6.28 Z0.78 F1800.0
G1 X-24.49 Y5.89 Z0.78 F1800.0
G1 X24.49 Y5.89 Z0.78 F1800.0
G1 X24.49 Y5.5 Z0.78 F1800.0
G1 X-24.49 Y5.5 Z0.78 F1800.0
G1 X-24.49 Y5.11 Z0.78 F1800.0
G1 X24.49 Y5.11 Z0.78 F1800.0
G1 X24.49 Y4.71 Z0.78 F1800.0
G1 X-24.49 Y4.71 Z0.78 F1800.0
G1 X-24.49 Y4.32 Z0.78 F1800.0
G1 X24.49 Y4.32 Z0.78 F1800.0
G1 X24.49 Y3.93 Z0.78 F1800.0
G1 X-24.49 Y3.93 Z0.78 F1800.0
G1 X-24.49 Y3.53 Z0.78 F1800.0
G1 X24.49 Y3.53 Z0.78 F1800.0
G1 X24.49 Y3.14 Z0.78 F1800.0
G1 X-24.49 Y3.14 Z0.78 F1800.0
G1 X-24.49 Y2.75 Z0.78 F1800.0
G1 X24.49 Y2.75 Z0.78 F1800.0
G1 X24.49 Y2.36 Z0.78 F1800.0
G1 X-24.49 Y2.36 Z0.78 F1800.0
G1 X-24.49 Y1.96 Z0.78 F1800.0
G1 X-14.01 Y1.96 Z0.78 F1800.0
M108 R30.0
M102
G1 X-13.56 Y1.96 Z0.78 F1800.0
M108 R3.569
M103
G1 X-11.14 Y1.01 Z0.78 F3000.0
G1 X-10.12 Y-0.51 Z0.78 F3000.0
M108 R30.0
M101
G1 X-9.68 Y-1.18 Z0.78 F3000.0
M108 R3.569
G1 X9.68 Y-1.18 Z0.78 F1800.0
M103
G1 X9.77 Y-1.57 Z0.78 F3000.0
M101
G1 X-9.77 Y-1.57 Z0.78 F1800.0
M103
G1 X-9.86 Y-1.96 Z0.78 F3000.0
M101
G1 X9.4 Y-1.96 Z0.78 F1800.0
M108 R30.0
M102
G1 X9.86 Y-1.96 Z0.78 F1800.0
M108 R3.569
M103
G1 X10.2 Y-2.48 Z0.78 F3000.0
M108 R30.0
M101
G1 X10.64 Y-3.14 Z0.78 F3000.0
M108 R3.569
G1 X-10.64 Y-3.14 Z0.78 F1800.0
G1 X-10.33 Y-2.75 Z0.78 F1800.0
G1 X10.33 Y-2.75 Z0.78 F1800.0
G1 X10.01 Y-2.36 Z0.78 F1800.0
G1 X-9.56 Y-2.36 Z0.78 F1800.0
M108 R30.0
M102
G1 X-10.01 Y-2.36 Z0.78 F1800.0
M108 R3.569
M103
G1 X-10.67 Y-2.98 Z0.78 F3000.0
M108 R30.0
M101
G1 X-11.25 Y-3.53 Z0.78 F3000.0
M108 R3.569
G1 X10.8 Y-3.53 Z0.78 F1800.0
M108 R30.0
M102
G1 X11.25 Y-3.53 Z0.78 F1800.0
M108 R3.569
M103
(</surroundingLoop>)
(</layer>)
(<operatingLayerEnd> </operatingLayerEnd>)
(<layer> 1.1 )
(<surroundingLoop>)
(<boundaryPerimeter>)
(<boundaryPoint> X-25.338 Y9.447 Z1.1 </boundaryPoint>)
(<boundaryPoint> X-25.338 Y-9.661 Z1.1 </boundaryPoint>)
(<boundaryPoint> X25.338 Y-9.661 Z1.1 </boundaryPoint>)
(<boundaryPoint> X25.338 Y9.447 Z1.1 </boundaryPoint>)
(<loop> inner )
G1 X11.02 Y-7.7 Z1.05 F3000.0
M108 R30.0
M101
G1 X10.98 Y-8.5 Z1.1 F3000.0
M108 R3.569
G1 X1.95 Y-8.5 Z1.1 F1800.0
G1 X1.95 Y6.68 Z1.1 F1800.0
G1 X23.39 Y6.68 Z1.1 F1800.0
G1 X23.39 Y-8.5 Z1.1 F1800.0
G1 X11.43 Y-8.5 Z1.1 F1800.0
M108 R30.0
M102
G1 X11.25 Y-8.5 Z1.1 F1800.0
G1 X10.98 Y-8.5 Z1.1 F1800.0
M108 R3.569
M103
(</loop>)
(<loop> inner )
G1 X-1.15 Y-8.5 Z1.1 F3000.0
M108 R30.0
M101
G1 X-1.95 Y-8.5 Z1.1 F3000.0
M108 R3.569
G1 X-23.39 Y-8.5 Z1.1 F1800.0
G1 X-23.39 Y6.68 Z1.1 F1800.0
G1 X-1.95 Y6.68 Z1.1 F1800.0
G1 X-1.95 Y-8.5 Z1.1 F1800.0
M103
(</loop>)
(<loop> outer )
G1 X-1.95 Y-9.07 Z1.1 F3000.0
M101
G1 X24.75 Y-9.07 Z1.1 F1800.0
G1 X24.75 Y8.86 Z1.1 F1800.0
G1 X-24.75 Y8.86 Z1.1 F1800.0
G1 X-24.75 Y-9.07 Z1.1 F1800.0
G1 X-1.95 Y-9.07 Z1.1 F1800.0
M103
(</loop>)
(<perimeter> outer )
G1 X-1.95 Y-9.47 Z1.1 F3000.0
M101
G1 X25.14 Y-9.47 Z1.1 F1800.0
G1 X25.14 Y9.25 Z1.1 F1800.0
G1 X-25.14 Y9.25 Z1.1 F1800.0
G1 X-25.14 Y-9.47 Z1.1 F1800.0
G1 X-2.4 Y-9.47 Z1.1 F1800.0
M108 R30.0
M102
G1 X-1.95 Y-9.47 Z1.1 F1800.0
M108 R3.569
M103
(</perimeter>)
(</boundaryPerimeter>)
(<surroundingLoop>)
(<boundaryPerimeter>)
(<boundaryPoint> X-2.534 Y-7.911 Z1.1 </boundaryPoint>)
(<boundaryPoint> X-22.804 Y-7.911 Z1.1 </boundaryPoint>)
(<boundaryPoint> X-22.804 Y6.089 Z1.1 </boundaryPoint>)
(<boundaryPoint> X-2.534 Y6.089 Z1.1 </boundaryPoint>)
(<perimeter> inner )
G1 X-2.12 Y-8.88 Z1.1 F3000.0
M108 R30.0
M101
G1 X-2.34 Y-8.11 Z1.1 F3000.0
M108 R3.569
G1 X-23.0 Y-8.11 Z1.1 F1800.0
G1 X-23.0 Y6.29 Z1.1 F1800.0
G1 X-2.34 Y6.29 Z1.1 F1800.0
G1 X-2.34 Y-7.66 Z1.1 F1800.0
M108 R30.0
M102
G1 X-2.34 Y-8.11 Z1.1 F1800.0
M108 R3.569
M103
(</perimeter>)
(</boundaryPerimeter>)
(</surroundingLoop>)
(<surroundingLoop>)
(<boundaryPerimeter>)
(<boundaryPoint> X2.534 Y6.089 Z1.1 </boundaryPoint>)
(<boundaryPoint> X22.804 Y6.089 Z1.1 </boundaryPoint>)
(<boundaryPoint> X22.804 Y-7.911 Z1.1 </boundaryPoint>)
(<boundaryPoint> X2.534 Y-7.911 Z1.1 </boundaryPoint>)
(<perimeter> inner )
G1 X1.54 Y-8.11 Z1.1 F3000.0
M108 R30.0
M101
G1 X2.34 Y-8.11 Z1.1 F3000.0
M108 R3.569
G1 X2.34 Y6.29 Z1.1 F1800.0
G1 X23.0 Y6.29 Z1.1 F1800.0
G1 X23.0 Y-8.11 Z1.1 F1800.0
G1 X2.79 Y-8.11 Z1.1 F1800.0
M108 R30.0
M102
G1 X2.34 Y-8.11 Z1.1 F1800.0
M108 R3.569
M103
(</perimeter>)
(</boundaryPerimeter>)
(</surroundingLoop>)
G1 X1.15 Y-8.54 Z1.1 F3000.0
M108 R30.0
M101
G1 X0.39 Y-8.82 Z1.1 F3000.0
M108 R3.569
G1 X-1.18 Y-8.82 Z1.1 F1800.0
G1 X-1.09 Y5.58 Z1.1 F1800.0
G1 X0.39 Y8.6 Z1.1 F1800.0
G1 X-3.53 Y8.6 Z1.1 F1800.0
G1 X-3.27 Y7.76 Z1.1 F1800.0
G1 X-3.27 Y7.51 Z1.1 F1800.0
G1 X-2.75 Y7.33 Z1.1 F1800.0
G1 X-3.14 Y6.93 Z1.1 F1800.0
G1 X-3.17 Y7.08 Z1.1 F1800.0
G1 X-4.32 Y7.33 Z1.1 F1800.0
G1 X-4.32 Y8.21 Z1.1 F1800.0
G1 X-3.93 Y8.6 Z1.1 F1800.0
G1 X-5.5 Y8.6 Z1.1 F1800.0
G1 X-4.71 Y7.33 Z1.1 F1800.0
G1 X-5.11 Y6.93 Z1.1 F1800.0
G1 X-5.14 Y7.08 Z1.1 F1800.0
G1 X-6.28 Y7.33 Z1.1 F1800.0
G1 X-6.28 Y8.21 Z1.1 F1800.0
G1 X-5.89 Y8.6 Z1.1 F1800.0
G1 X-7.07 Y8.6 Z1.1 F1800.0
G1 X-7.07 Y6.93 Z1.1 F1800.0
G1 X-7.75 Y7.64 Z1.1 F1800.0
G1 X-7.46 Y8.6 Z1.1 F1800.0
G1 X-9.43 Y8.6 Z1.1 F1800.0
G1 X-8.64 Y7.33 Z1.1 F1800.0
G1 X-9.03 Y6.93 Z1.1 F1800.0
G1 X-9.06 Y7.08 Z1.1 F1800.0
G1 X-10.21 Y7.33 Z1.1 F1800.0
G1 X-10.21 Y8.21 Z1.1 F1800.0
G1 X-9.82 Y8.6 Z1.1 F1800.0
G1 X-11.39 Y8.6 Z1.1 F1800.0
G1 X-10.6 Y7.33 Z1.1 F1800.0
G1 X-11.0 Y6.93 Z1.1 F1800.0
G1 X-11.39 Y7.33 Z1.1 F1800.0
G1 X-11.78 Y6.93 Z1.1 F1800.0
G1 X-12.17 Y7.33 Z1.1 F1800.0
G1 X-12.0 Y7.51 Z1.1 F1800.0
G1 X-12.0 Y7.76 Z1.1 F1800.0
G1 X-11.78 Y8.6 Z1.1 F1800.0
G1 X-13.35 Y8.6 Z1.1 F1800.0
G1 X-12.57 Y7.33 Z1.1 F1800.0
G1 X-12.96 Y6.93 Z1.1 F1800.0
G1 X-12.99 Y7.08 Z1.1 F1800.0
G1 X-14.14 Y7.33 Z1.1 F1800.0
G1 X-14.14 Y8.21 Z1.1 F1800.0
G1 X-13.74 Y8.6 Z1.1 F1800.0
G1 X-15.32 Y8.6 Z1.1 F1800.0
G1 X-14.53 Y7.33 Z1.1 F1800.0
G1 X-14.92 Y6.93 Z1.1 F1800.0
G1 X-15.32 Y7.33 Z1.1 F1800.0
G1 X-15.71 Y7.33 Z1.1 F1800.0
G1 X-16.1 Y6.93 Z1.1 F1800.0
G1 X-16.36 Y7.51 Z1.1 F1800.0
G1 X-16.36 Y7.76 Z1.1 F1800.0
G1 X-15.71 Y8.6 Z1.1 F1800.0
G1 X-17.28 Y8.6 Z1.1 F1800.0
G1 X-16.49 Y7.33 Z1.1 F1800.0
G1 X-16.89 Y6.93 Z1.1 F1800.0
G1 X-16.92 Y7.08 Z1.1 F1800.0
G1 X-18.06 Y7.33 Z1.1 F1800.0
G1 X-18.06 Y8.21 Z1.1 F1800.0
G1 X-17.67 Y8.6 Z1.1 F1800.0
G1 X-19.24 Y8.6 Z1.1 F1800.0
G1 X-18.46 Y7.33 Z1.1 F1800.0
G1 X-18.85 Y6.93 Z1.1 F1800.0
G1 X-18.88 Y7.08 Z1.1 F1800.0
G1 X-20.03 Y7.33 Z1.1 F1800.0
G1 X-20.03 Y8.21 Z1.1 F1800.0
G1 X-19.64 Y8.6 Z1.1 F1800.0
G1 X-20.81 Y8.6 Z1.1 F1800.0
G1 X-20.73 Y7.51 Z1.1 F1800.0
G1 X-20.42 Y7.33 Z1.1 F1800.0
G1 X-20.81 Y6.93 Z1.1 F1800.0
G1 X-21.21 Y7.33 Z1.1 F1800.0
G1 X-21.21 Y8.6 Z1.1 F1800.0
G1 X-22.78 Y8.6 Z1.1 F1800.0
G1 X-22.38 Y7.33 Z1.1 F1800.0
G1 X-22.78 Y6.93 Z1.1 F1800.0
G1 X-23.17 Y7.33 Z1.1 F1800.0
G1 X-23.17 Y8.6 Z1.1 F1800.0
G1 X-24.35 Y8.6 Z1.1 F1800.0
G1 X-24.35 Y-8.82 Z1.1 F1800.0
G1 X-23.56 Y-8.82 Z1.1 F1800.0
G1 X-23.56 Y-8.76 Z1.1 F1800.0
G1 X-23.17 Y-8.76 Z1.1 F1800.0
G1 X-23.17 Y-8.82 Z1.1 F1800.0
G1 X-22.78 Y-8.82 Z1.1 F1800.0
G1 X-22.78 Y-8.76 Z1.1 F1800.0
G1 X-22.38 Y-8.76 Z1.1 F1800.0
G1 X-22.38 Y-8.82 Z1.1 F1800.0
G1 X-21.99 Y-8.82 Z1.1 F1800.0
G1 X-21.99 Y-8.76 Z1.1 F1800.0
G1 X-21.6 Y-8.76 Z1.1 F1800.0
G1 X-21.6 Y-8.82 Z1.1 F1800.0
G1 X-21.21 Y-8.82 Z1.1 F1800.0
G1 X-21.21 Y-8.76 Z1.1 F1800.0
G1 X-20.81 Y-8.76 Z1.1 F1800.0
G1 X-20.81 Y-8.82 Z1.1 F1800.0
G1 X-20.42 Y-8.82 Z1.1 F1800.0
G1 X-20.42 Y-8.76 Z1.1 F1800.0
G1 X-20.03 Y-8.76 Z1.1 F1800.0
G1 X-20.03 Y-8.82 Z1.1 F1800.0
G1 X-19.64 Y-8.82 Z1.1 F1800.0
G1 X-19.64 Y-8.76 Z1.1 F1800.0
G1 X-19.24 Y-8.76 Z1.1 F1800.0
G1 X-19.24 Y-8.82 Z1.1 F1800.0
G1 X-18.85 Y-8.82 Z1.1 F1800.0
G1 X-18.85 Y-8.76 Z1.1 F1800.0
G1 X-18.46 Y-8.76 Z1.1 F1800.0
G1 X-18.46 Y-8.82 Z1.1 F1800.0
G1 X-18.06 Y-8.82 Z1.1 F1800.0
G1 X-18.06 Y-8.76 Z1.1 F1800.0
G1 X-17.67 Y-8.76 Z1.1 F1800.0
G1 X-17.67 Y-8.82 Z1.1 F1800.0
G1 X-17.28 Y-8.82 Z1.1 F1800.0
G1 X-17.28 Y-8.76 Z1.1 F1800.0
G1 X-16.89 Y-8.76 Z1.1 F1800.0
G1 X-16.89 Y-8.82 Z1.1 F1800.0
G1 X-16.49 Y-8.82 Z1.1 F1800.0
G1 X-16.49 Y-8.76 Z1.1 F1800.0
G1 X-16.1 Y-8.76 Z1.1 F1800.0
G1 X-16.1 Y-8.82 Z1.1 F1800.0
G1 X-15.71 Y-8.82 Z1.1 F1800.0
G1 X-15.71 Y-8.76 Z1.1 F1800.0
G1 X-15.32 Y-8.76 Z1.1 F1800.0
G1 X-15.32 Y-8.82 Z1.1 F1800.0
G1 X-14.92 Y-8.82 Z1.1 F1800.0
G1 X-14.92 Y-8.76 Z1.1 F1800.0
G1 X-14.53 Y-8.76 Z1.1 F1800.0
G1 X-14.53 Y-8.82 Z1.1 F1800.0
G1 X-14.14 Y-8.82 Z1.1 F1800.0
G1 X-14.14 Y-8.76 Z1.1 F1800.0
G1 X-13.74 Y-8.76 Z1.1 F1800.0
G1 X-13.74 Y-8.82 Z1.1 F1800.0
G1 X-13.35 Y-8.82 Z1.1 F1800.0
G1 X-13.35 Y-8.76 Z1.1 F1800.0
G1 X-12.96 Y-8.76 Z1.1 F1800.0
G1 X-12.96 Y-8.82 Z1.1 F1800.0
G1 X-12.57 Y-8.82 Z1.1 F1800.0
G1 X-12.57 Y-8.76 Z1.1 F1800.0
G1 X-12.17 Y-8.76 Z1.1 F1800.0
G1 X-12.17 Y-8.82 Z1.1 F1800.0
G1 X-11.78 Y-8.82 Z1.1 F1800.0
G1 X-11.78 Y-8.76 Z1.1 F1800.0
G1 X-11.39 Y-8.76 Z1.1 F1800.0
G1 X-11.39 Y-8.82 Z1.1 F1800.0
G1 X-11.0 Y-8.82 Z1.1 F1800.0
G1 X-11.0 Y-8.76 Z1.1 F1800.0
G1 X-10.6 Y-8.76 Z1.1 F1800.0
G1 X-10.6 Y-8.82 Z1.1 F1800.0
G1 X-10.21 Y-8.82 Z1.1 F1800.0
G1 X-10.21 Y-8.76 Z1.1 F1800.0
G1 X-9.82 Y-8.76 Z1.1 F1800.0
G1 X-9.82 Y-8.82 Z1.1 F1800.0
G1 X-9.43 Y-8.82 Z1.1 F1800.0
G1 X-9.43 Y-8.76 Z1.1 F1800.0
G1 X-9.03 Y-8.76 Z1.1 F1800.0
G1 X-9.03 Y-8.82 Z1.1 F1800.0
G1 X-8.64 Y-8.82 Z1.1 F1800.0
G1 X-8.64 Y-8.76 Z1.1 F1800.0
G1 X-8.25 Y-8.76 Z1.1 F1800.0
G1 X-8.25 Y-8.82 Z1.1 F1800.0
G1 X-7.85 Y-8.82 Z1.1 F1800.0
G1 X-7.85 Y-8.76 Z1.1 F1800.0
G1 X-7.46 Y-8.76 Z1.1 F1800.0
G1 X-7.46 Y-8.82 Z1.1 F1800.0
G1 X-7.07 Y-8.82 Z1.1 F1800.0
G1 X-7.07 Y-8.76 Z1.1 F1800.0
G1 X-6.68 Y-8.76 Z1.1 F1800.0
G1 X-6.68 Y-8.82 Z1.1 F1800.0
G1 X-6.28 Y-8.82 Z1.1 F1800.0
G1 X-6.28 Y-8.76 Z1.1 F1800.0
G1 X-5.89 Y-8.76 Z1.1 F1800.0
G1 X-5.89 Y-8.82 Z1.1 F1800.0
G1 X-5.5 Y-8.82 Z1.1 F1800.0
G1 X-5.5 Y-8.76 Z1.1 F1800.0
G1 X-5.11 Y-8.76 Z1.1 F1800.0
G1 X-5.11 Y-8.82 Z1.1 F1800.0
G1 X-4.71 Y-8.82 Z1.1 F1800.0
G1 X-4.71 Y-8.76 Z1.1 F1800.0
G1 X-4.32 Y-8.76 Z1.1 F1800.0
G1 X-4.32 Y-8.82 Z1.1 F1800.0
G1 X-3.93 Y-8.82 Z1.1 F1800.0
G1 X-3.93 Y-8.76 Z1.1 F1800.0
G1 X-3.53 Y-8.76 Z1.1 F1800.0
G1 X-3.53 Y-8.82 Z1.1 F1800.0
G1 X-3.14 Y-8.82 Z1.1 F1800.0
G1 X-3.14 Y-8.76 Z1.1 F1800.0
G1 X-2.75 Y-8.76 Z1.1 F1800.0
G1 X-2.75 Y-8.82 Z1.1 F1800.0
G1 X-2.36 Y-8.82 Z1.1 F1800.0
G1 X-2.36 Y-8.76 Z1.1 F1800.0
G1 X-1.96 Y-8.76 Z1.1 F1800.0
G1 X-1.96 Y-8.76 Z1.1 F1800.0
M108 R30.0
M102
G1 X-1.96 Y-8.82 Z1.1 F1800.0
G1 X-1.57 Y-8.82 Z1.1 F1800.0
M108 R3.569
M103
G1 X23.55 Y-8.82 Z1.1 F3000.0
M108 R30.0
M101
G1 X24.35 Y-8.82 Z1.1 F3000.0
M108 R3.569
G1 X23.96 Y-8.82 Z1.1 F1800.0
G1 X23.92 Y6.77 Z1.1 F1800.0
G1 X24.35 Y8.6 Z1.1 F1800.0
G1 X22.38 Y8.6 Z1.1 F1800.0
G1 X22.91 Y7.76 Z1.1 F1800.0
G1 X22.91 Y7.51 Z1.1 F1800.0
G1 X22.38 Y6.93 Z1.1 F1800.0
G1 X21.99 Y8.6 Z1.1 F1800.0
G1 X20.03 Y8.6 Z1.1 F1800.0
G1 X20.81 Y7.33 Z1.1 F1800.0
G1 X20.42 Y6.93 Z1.1 F1800.0
G1 X20.39 Y7.08 Z1.1 F1800.0
G1 X19.24 Y7.33 Z1.1 F1800.0
G1 X19.24 Y8.21 Z1.1 F1800.0
G1 X19.64 Y8.6 Z1.1 F1800.0
G1 X18.46 Y8.6 Z1.1 F1800.0
G1 X18.54 Y7.51 Z1.1 F1800.0
G1 X18.85 Y7.33 Z1.1 F1800.0
G1 X18.46 Y6.93 Z1.1 F1800.0
G1 X18.06 Y7.33 Z1.1 F1800.0
G1 X18.06 Y8.6 Z1.1 F1800.0
G1 X16.1 Y8.6 Z1.1 F1800.0
G1 X16.89 Y7.33 Z1.1 F1800.0
G1 X16.49 Y6.93 Z1.1 F1800.0
G1 X16.46 Y7.08 Z1.1 F1800.0
G1 X15.32 Y7.33 Z1.1 F1800.0
G1 X15.32 Y8.21 Z1.1 F1800.0
G1 X15.71 Y8.6 Z1.1 F1800.0
G1 X14.14 Y8.6 Z1.1 F1800.0
G1 X14.3 Y7.76 Z1.1 F1800.0
G1 X14.3 Y7.51 Z1.1 F1800.0
G1 X14.92 Y7.33 Z1.1 F1800.0
G1 X14.53 Y6.93 Z1.1 F1800.0
G1 X14.5 Y7.08 Z1.1 F1800.0
G1 X13.35 Y7.33 Z1.1 F1800.0
G1 X13.35 Y8.21 Z1.1 F1800.0
G1 X13.74 Y8.6 Z1.1 F1800.0
G1 X12.17 Y8.6 Z1.1 F1800.0
G1 X12.96 Y7.33 Z1.1 F1800.0
G1 X12.57 Y6.93 Z1.1 F1800.0
G1 X12.54 Y7.08 Z1.1 F1800.0
G1 X11.39 Y7.33 Z1.1 F1800.0
G1 X11.39 Y8.21 Z1.1 F1800.0
G1 X11.78 Y8.6 Z1.1 F1800.0
G1 X10.21 Y8.6 Z1.1 F1800.0
G1 X11.0 Y7.33 Z1.1 F1800.0
G1 X10.6 Y6.93 Z1.1 F1800.0
G1 X10.21 Y7.33 Z1.1 F1800.0
G1 X9.82 Y6.93 Z1.1 F1800.0
G1 X9.82 Y8.6 Z1.1 F1800.0
G1 X8.25 Y8.6 Z1.1 F1800.0
G1 X9.03 Y7.33 Z1.1 F1800.0
G1 X8.64 Y6.93 Z1.1 F1800.0
G1 X8.61 Y7.08 Z1.1 F1800.0
G1 X7.46 Y7.33 Z1.1 F1800.0
G1 X7.46 Y8.21 Z1.1 F1800.0
G1 X7.85 Y8.6 Z1.1 F1800.0
G1 X6.28 Y8.6 Z1.1 F1800.0
G1 X7.07 Y7.33 Z1.1 F1800.0
G1 X6.68 Y6.93 Z1.1 F1800.0
G1 X6.66 Y7.06 Z1.1 F1800.0
G1 X6.2 Y7.17 Z1.1 F1800.0
G1 X5.89 Y6.96 Z1.1 F1800.0
G1 X5.45 Y7.51 Z1.1 F1800.0
G1 X5.45 Y7.76 Z1.1 F1800.0
G1 X5.89 Y8.6 Z1.1 F1800.0
G1 X4.32 Y8.6 Z1.1 F1800.0
G1 X5.11 Y7.33 Z1.1 F1800.0
G1 X4.71 Y6.93 Z1.1 F1800.0
G1 X4.68 Y7.08 Z1.1 F1800.0
G1 X3.53 Y7.33 Z1.1 F1800.0
G1 X3.53 Y8.21 Z1.1 F1800.0
G1 X3.93 Y8.6 Z1.1 F1800.0
G1 X1.96 Y8.6 Z1.1 F1800.0
G1 X3.14 Y7.33 Z1.1 F1800.0
G1 X2.75 Y6.93 Z1.1 F1800.0
G1 X2.36 Y7.33 Z1.1 F1800.0
G1 X1.96 Y7.33 Z1.1 F1800.0
G1 X1.57 Y8.21 Z1.1 F1800.0
G1 X1.18 Y8.6 Z1.1 F1800.0
G1 X0.79 Y8.6 Z1.1 F1800.0
G1 X1.09 Y7.76 Z1.1 F1800.0
G1 X0.79 Y-8.82 Z1.1 F1800.0
G1 X1.96 Y-8.82 Z1.1 F1800.0
G1 X1.96 Y-8.76 Z1.1 F1800.0
G1 X2.36 Y-8.76 Z1.1 F1800.0
G1 X2.36 Y-8.82 Z1.1 F1800.0
G1 X2.75 Y-8.82 Z1.1 F1800.0
G1 X2.75 Y-8.76 Z1.1 F1800.0
G1 X3.14 Y-8.76 Z1.1 F1800.0
G1 X3.14 Y-8.82 Z1.1 F1800.0
G1 X3.53 Y-8.82 Z1.1 F1800.0
G1 X3.53 Y-8.76 Z1.1 F1800.0
G1 X3.93 Y-8.76 Z1.1 F1800.0
G1 X3.93 Y-8.82 Z1.1 F1800.0
G1 X4.32 Y-8.82 Z1.1 F1800.0
G1 X4.32 Y-8.76 Z1.1 F1800.0
G1 X4.71 Y-8.76 Z1.1 F1800.0
G1 X4.71 Y-8.82 Z1.1 F1800.0
G1 X5.11 Y-8.82 Z1.1 F1800.0
G1 X5.11 Y-8.76 Z1.1 F1800.0
G1 X5.5 Y-8.76 Z1.1 F1800.0
G1 X5.5 Y-8.82 Z1.1 F1800.0
G1 X5.89 Y-8.82 Z1.1 F1800.0
G1 X5.89 Y-8.76 Z1.1 F1800.0
G1 X6.28 Y-8.76 Z1.1 F1800.0
G1 X6.28 Y-8.82 Z1.1 F1800.0
G1 X6.68 Y-8.82 Z1.1 F1800.0
G1 X6.68 Y-8.76 Z1.1 F1800.0
G1 X7.07 Y-8.76 Z1.1 F1800.0
G1 X7.07 Y-8.82 Z1.1 F1800.0
G1 X7.46 Y-8.82 Z1.1 F1800.0
G1 X7.46 Y-8.76 Z1.1 F1800.0
G1 X7.85 Y-8.76 Z1.1 F1800.0
G1 X7.85 Y-8.82 Z1.1 F1800.0
G1 X8.25 Y-8.82 Z1.1 F1800.0
G1 X8.25 Y-8.76 Z1.1 F1800.0
G1 X8.64 Y-8.76 Z1.1 F1800.0
G1 X8.64 Y-8.82 Z1.1 F1800.0
G1 X9.03 Y-8.82 Z1.1 F1800.0
G1 X9.03 Y-8.76 Z1.1 F1800.0
G1 X9.43 Y-8.76 Z1.1 F1800.0
G1 X9.43 Y-8.82 Z1.1 F1800.0
G1 X9.82 Y-8.82 Z1.1 F1800.0
G1 X9.82 Y-8.76 Z1.1 F1800.0
G1 X10.21 Y-8.76 Z1.1 F1800.0
G1 X10.21 Y-8.82 Z1.1 F1800.0
G1 X10.6 Y-8.82 Z1.1 F1800.0
G1 X10.6 Y-8.76 Z1.1 F1800.0
G1 X11.0 Y-8.76 Z1.1 F1800.0
G1 X11.0 Y-8.82 Z1.1 F1800.0
G1 X11.39 Y-8.82 Z1.1 F1800.0
G1 X11.39 Y-8.76 Z1.1 F1800.0
G1 X11.78 Y-8.76 Z1.1 F1800.0
G1 X11.78 Y-8.82 Z1.1 F1800.0
G1 X12.17 Y-8.82 Z1.1 F1800.0
G1 X12.17 Y-8.76 Z1.1 F1800.0
G1 X12.57 Y-8.76 Z1.1 F1800.0
G1 X12.57 Y-8.82 Z1.1 F1800.0
G1 X12.96 Y-8.82 Z1.1 F1800.0
G1 X12.96 Y-8.76 Z1.1 F1800.0
G1 X13.35 Y-8.76 Z1.1 F1800.0
G1 X13.35 Y-8.82 Z1.1 F1800.0
G1 X13.74 Y-8.82 Z1.1 F1800.0
G1 X13.74 Y-8.76 Z1.1 F1800.0
G1 X14.14 Y-8.76 Z1.1 F1800.0
G1 X14.14 Y-8.82 Z1.1 F1800.0
G1 X14.53 Y-8.82 Z1.1 F1800.0
G1 X14.53 Y-8.76 Z1.1 F1800.0
G1 X14.92 Y-8.76 Z1.1 F1800.0
G1 X14.92 Y-8.82 Z1.1 F1800.0
G1 X15.32 Y-8.82 Z1.1 F1800.0
G1 X15.32 Y-8.76 Z1.1 F1800.0
G1 X15.71 Y-8.76 Z1.1 F1800.0
G1 X15.71 Y-8.82 Z1.1 F1800.0
G1 X16.1 Y-8.82 Z1.1 F1800.0
G1 X16.1 Y-8.76 Z1.1 F1800.0
G1 X16.49 Y-8.76 Z1.1 F1800.0
G1 X16.49 Y-8.82 Z1.1 F1800.0
G1 X16.89 Y-8.82 Z1.1 F1800.0
G1 X16.89 Y-8.76 Z1.1 F1800.0
G1 X17.28 Y-8.76 Z1.1 F1800.0
G1 X17.28 Y-8.82 Z1.1 F1800.0
G1 X17.67 Y-8.82 Z1.1 F1800.0
G1 X17.67 Y-8.76 Z1.1 F1800.0
G1 X18.06 Y-8.76 Z1.1 F1800.0
G1 X18.06 Y-8.82 Z1.1 F1800.0
G1 X18.46 Y-8.82 Z1.1 F1800.0
G1 X18.46 Y-8.76 Z1.1 F1800.0
G1 X18.85 Y-8.76 Z1.1 F1800.0
G1 X18.85 Y-8.82 Z1.1 F1800.0
G1 X19.24 Y-8.82 Z1.1 F1800.0
G1 X19.24 Y-8.76 Z1.1 F1800.0
G1 X19.64 Y-8.76 Z1.1 F1800.0
G1 X19.64 Y-8.82 Z1.1 F1800.0
G1 X20.03 Y-8.82 Z1.1 F1800.0
G1 X20.03 Y-8.76 Z1.1 F1800.0
G1 X20.42 Y-8.76 Z1.1 F1800.0
G1 X20.42 Y-8.82 Z1.1 F1800.0
G1 X20.81 Y-8.82 Z1.1 F1800.0
G1 X20.81 Y-8.76 Z1.1 F1800.0
G1 X21.21 Y-8.76 Z1.1 F1800.0
G1 X21.21 Y-8.82 Z1.1 F1800.0
G1 X21.6 Y-8.82 Z1.1 F1800.0
G1 X21.6 Y-8.76 Z1.1 F1800.0
G1 X21.99 Y-8.76 Z1.1 F1800.0
G1 X21.99 Y-8.82 Z1.1 F1800.0
G1 X22.38 Y-8.82 Z1.1 F1800.0
G1 X22.38 Y-8.76 Z1.1 F1800.0
G1 X22.78 Y-8.76 Z1.1 F1800.0
G1 X22.78 Y-8.82 Z1.1 F1800.0
G1 X23.17 Y-8.82 Z1.1 F1800.0
G1 X23.17 Y-8.76 Z1.1 F1800.0
G1 X23.56 Y-8.76 Z1.1 F1800.0
G1 X23.56 Y-8.82 Z1.1 F1800.0
M103
(</surroundingLoop>)
(</layer>)
(<layer> 1.42 )
(<surroundingLoop>)
(<boundaryPerimeter>)
(<boundaryPoint> X-25.338 Y9.208 Z1.42 </boundaryPoint>)
(<boundaryPoint> X-25.338 Y-9.661 Z1.42 </boundaryPoint>)
(<boundaryPoint> X25.338 Y-9.661 Z1.42 </boundaryPoint>)
(<boundaryPoint> X25.338 Y9.208 Z1.42 </boundaryPoint>)
(<loop> inner )
G1 X23.39 Y-8.48 Z1.42 F3000.0
M101
G1 X23.39 Y-8.5 Z1.42 F1800.0
G1 X1.95 Y-8.5 Z1.42 F1800.0
G1 X1.95 Y6.68 Z1.42 F1800.0
G1 X23.39 Y6.68 Z1.42 F1800.0
G1 X23.39 Y-8.03 Z1.42 F1800.0
M108 R30.0
M102
G1 X23.39 Y-8.48 Z1.42 F1800.0
M108 R3.569
M103
(</loop>)
(<loop> inner )
G1 X-1.15 Y-8.5 Z1.42 F3000.0
M108 R30.0
M101
G1 X-1.95 Y-8.5 Z1.42 F3000.0
M108 R3.569
G1 X-23.39 Y-8.5 Z1.42 F1800.0
G1 X-23.39 Y6.68 Z1.42 F1800.0
G1 X-1.95 Y6.68 Z1.42 F1800.0
G1 X-1.95 Y-8.5 Z1.42 F1800.0
M103
(</loop>)
(<loop> outer )
G1 X-1.95 Y-9.07 Z1.42 F3000.0
M101
G1 X24.75 Y-9.07 Z1.42 F1800.0
G1 X24.75 Y8.62 Z1.42 F1800.0
G1 X-24.75 Y8.62 Z1.42 F1800.0
G1 X-24.75 Y-9.07 Z1.42 F1800.0
G1 X-1.95 Y-9.07 Z1.42 F1800.0
M103
(</loop>)
(<perimeter> outer )
G1 X-1.95 Y-9.47 Z1.42 F3000.0
M101
G1 X25.14 Y-9.47 Z1.42 F1800.0
G1 X25.14 Y9.01 Z1.42 F1800.0
G1 X-25.14 Y9.01 Z1.42 F1800.0
G1 X-25.14 Y-9.47 Z1.42 F1800.0
G1 X-2.4 Y-9.47 Z1.42 F1800.0
M108 R30.0
M102
G1 X-1.95 Y-9.47 Z1.42 F1800.0
M108 R3.569
M103
(</perimeter>)
(</boundaryPerimeter>)
(<surroundingLoop>)
(<boundaryPerimeter>)
(<boundaryPoint> X-2.534 Y-7.911 Z1.42 </boundaryPoint>)
(<boundaryPoint> X-22.804 Y-7.911 Z1.42 </boundaryPoint>)
(<boundaryPoint> X-22.804 Y6.089 Z1.42 </boundaryPoint>)
(<boundaryPoint> X-2.534 Y6.089 Z1.42 </boundaryPoint>)
(<perimeter> inner )
G1 X-2.12 Y-8.88 Z1.42 F3000.0
M108 R30.0
M101
G1 X-2.34 Y-8.11 Z1.42 F3000.0
M108 R3.569
G1 X-23.0 Y-8.11 Z1.42 F1800.0
G1 X-23.0 Y6.29 Z1.42 F1800.0
G1 X-2.34 Y6.29 Z1.42 F1800.0
G1 X-2.34 Y-7.66 Z1.42 F1800.0
M108 R30.0
M102
G1 X-2.34 Y-8.11 Z1.42 F1800.0
M108 R3.569
M103
(</perimeter>)
(</boundaryPerimeter>)
(</surroundingLoop>)
(<surroundingLoop>)
(<boundaryPerimeter>)
(<boundaryPoint> X22.804 Y-7.911 Z1.42 </boundaryPoint>)
(<boundaryPoint> X2.534 Y-7.911 Z1.42 </boundaryPoint>)
(<boundaryPoint> X2.534 Y6.089 Z1.42 </boundaryPoint>)
(<boundaryPoint> X22.804 Y6.089 Z1.42 </boundaryPoint>)
(<perimeter> inner )
G1 X1.54 Y-8.11 Z1.42 F3000.0
M108 R30.0
M101
G1 X2.34 Y-8.11 Z1.42 F3000.0
M108 R3.569
G1 X2.34 Y6.29 Z1.42 F1800.0
G1 X23.0 Y6.29 Z1.42 F1800.0
G1 X23.0 Y-8.11 Z1.42 F1800.0
G1 X2.79 Y-8.11 Z1.42 F1800.0
M108 R30.0
M102
G1 X2.34 Y-8.11 Z1.42 F1800.0
M108 R3.569
M103
(</perimeter>)
(</boundaryPerimeter>)
(</surroundingLoop>)
G1 X-0.9 Y-8.53 Z1.42 F3000.0
M108 R30.0
M101
G1 X-1.69 Y-8.64 Z1.42 F3000.0
M108 R3.569
G1 X-1.3 Y-8.25 Z1.42 F1800.0
G1 X-1.22 Y-7.75 Z1.42 F1800.0
G1 X-0.96 Y-7.75 Z1.42 F1800.0
G1 X1.3 Y-8.25 Z1.42 F1800.0
G1 X1.37 Y-8.32 Z1.42 F1800.0
M108 R30.0
M102
G1 X1.69 Y-8.64 Z1.42 F1800.0
M108 R3.569
M103
G1 X1.69 Y-8.26 Z1.42 F3000.0
M108 R30.0
M101
G1 X1.69 Y-7.46 Z1.42 F3000.0
M108 R3.569
G1 X-1.22 Y-7.52 Z1.42 F1800.0
G1 X-1.69 Y-7.46 Z1.42 F1800.0
G1 X1.69 Y-5.5 Z1.42 F1800.0
G1 X-1.69 Y-5.5 Z1.42 F1800.0
G1 X1.69 Y-3.53 Z1.42 F1800.0
G1 X-1.22 Y-3.39 Z1.42 F1800.0
G1 X-1.26 Y-3.4 Z1.42 F1800.0
M108 R30.0
M102
G1 X-1.69 Y-3.53 Z1.42 F1800.0
M108 R3.569
M103
G1 X-1.69 Y-2.37 Z1.42 F3000.0
M108 R30.0
M101
G1 X-1.69 Y-1.57 Z1.42 F3000.0
M108 R3.569
G1 X-1.62 Y-1.58 Z1.42 F1800.0
G1 X-1.55 Y-1.99 Z1.42 F1800.0
G1 X-1.22 Y-3.16 Z1.42 F1800.0
G1 X-0.96 Y-3.16 Z1.42 F1800.0
G1 X1.69 Y-2.75 Z1.42 F1800.0
G1 X1.3 Y-2.36 Z1.42 F1800.0
G1 X1.3 Y-1.96 Z1.42 F1800.0
G1 X1.37 Y-1.89 Z1.42 F1800.0
M108 R30.0
M102
G1 X1.69 Y-1.57 Z1.42 F1800.0
M108 R3.569
M103
G1 X1.69 Y-0.41 Z1.42 F3000.0
M108 R30.0
M101
G1 X1.69 Y0.39 Z1.42 F3000.0
M108 R3.569
G1 X1.3 Y0.79 Z1.42 F1800.0
G1 X-1.22 Y0.98 Z1.42 F1800.0
G1 X-1.3 Y0.79 Z1.42 F1800.0
G1 X-1.37 Y0.71 Z1.42 F1800.0
M108 R30.0
M102
G1 X-1.69 Y0.39 Z1.42 F1800.0
M108 R3.569
M103
G1 X1.0 Y1.95 Z1.42 F3000.0
M108 R30.0
M101
G1 X1.69 Y2.36 Z1.42 F3000.0
M108 R3.569
G1 X1.3 Y1.96 Z1.42 F1800.0
G1 X1.3 Y1.57 Z1.42 F1800.0
G1 X1.69 Y1.18 Z1.42 F1800.0
G1 X-1.69 Y1.18 Z1.42 F1800.0
G1 X-1.45 Y1.88 Z1.42 F1800.0
G1 X-1.56 Y2.34 Z1.42 F1800.0
G1 X-1.69 Y2.36 Z1.42 F1800.0
G1 X1.69 Y4.32 Z1.42 F1800.0
G1 X1.3 Y4.71 Z1.42 F1800.0
G1 X-0.96 Y5.34 Z1.42 F1800.0
G1 X-1.22 Y5.34 Z1.42 F1800.0
G1 X-1.3 Y5.5 Z1.42 F1800.0
G1 X-1.69 Y5.11 Z1.42 F1800.0
G1 X-1.3 Y4.71 Z1.42 F1800.0
G1 X-1.37 Y4.64 Z1.42 F1800.0
M108 R30.0
M102
G1 X-1.69 Y4.32 Z1.42 F1800.0
M108 R3.569
M103
G1 X-1.69 Y5.48 Z1.42 F3000.0
M108 R30.0
M101
G1 X-1.69 Y6.28 Z1.42 F3000.0
M108 R3.569
G1 X-1.3 Y5.89 Z1.42 F1800.0
G1 X-1.22 Y5.57 Z1.42 F1800.0
G1 X-0.96 Y5.57 Z1.42 F1800.0
G1 X0.96 Y7.52 Z1.42 F1800.0
G1 X1.22 Y7.52 Z1.42 F1800.0
G1 X1.3 Y6.68 Z1.42 F1800.0
G1 X1.37 Y6.6 Z1.42 F1800.0
M108 R30.0
M102
G1 X1.69 Y6.28 Z1.42 F1800.0
M108 R3.569
M103
G1 X22.85 Y6.28 Z1.42 F3000.0
M108 R30.0
M101
G1 X23.65 Y6.28 Z1.42 F3000.0
M108 R3.569
G1 X24.49 Y7.85 Z1.42 F1800.0
G1 X24.49 Y5.5 Z1.42 F1800.0
G1 X24.04 Y5.5 Z1.42 F1800.0
G1 X23.65 Y5.11 Z1.42 F1800.0
G1 X24.04 Y4.71 Z1.42 F1800.0
G1 X24.49 Y5.11 Z1.42 F1800.0
G1 X24.49 Y3.93 Z1.42 F1800.0
G1 X23.65 Y4.32 Z1.42 F1800.0
G1 X24.04 Y3.93 Z1.42 F1800.0
G1 X24.02 Y3.68 Z1.42 F1800.0
G1 X23.65 Y3.14 Z1.42 F1800.0
G1 X23.81 Y3.11 Z1.42 F1800.0
G1 X24.49 Y3.53 Z1.42 F1800.0
G1 X24.49 Y1.96 Z1.42 F1800.0
G1 X23.65 Y2.36 Z1.42 F1800.0
G1 X24.04 Y1.96 Z1.42 F1800.0
G1 X24.02 Y1.71 Z1.42 F1800.0
G1 X23.65 Y1.18 Z1.42 F1800.0
G1 X23.81 Y1.14 Z1.42 F1800.0
G1 X24.49 Y1.57 Z1.42 F1800.0
G1 X24.49 Y-0.0 Z1.42 F1800.0
G1 X23.65 Y0.39 Z1.42 F1800.0
G1 X24.04 Y-0.0 Z1.42 F1800.0
G1 X24.02 Y-0.25 Z1.42 F1800.0
G1 X23.65 Y-0.79 Z1.42 F1800.0
G1 X23.81 Y-0.82 Z1.42 F1800.0
G1 X24.49 Y-0.39 Z1.42 F1800.0
G1 X24.49 Y-1.96 Z1.42 F1800.0
G1 X23.65 Y-1.57 Z1.42 F1800.0
G1 X24.04 Y-1.96 Z1.42 F1800.0
G1 X24.02 Y-2.22 Z1.42 F1800.0
G1 X23.65 Y-2.75 Z1.42 F1800.0
G1 X23.81 Y-2.79 Z1.42 F1800.0
G1 X24.49 Y-2.36 Z1.42 F1800.0
G1 X24.49 Y-3.93 Z1.42 F1800.0
G1 X23.65 Y-3.53 Z1.42 F1800.0
G1 X24.04 Y-3.93 Z1.42 F1800.0
G1 X24.02 Y-4.18 Z1.42 F1800.0
G1 X23.65 Y-4.71 Z1.42 F1800.0
G1 X23.81 Y-4.75 Z1.42 F1800.0
G1 X24.49 Y-4.32 Z1.42 F1800.0
G1 X24.49 Y-5.89 Z1.42 F1800.0
G1 X23.65 Y-5.5 Z1.42 F1800.0
G1 X24.04 Y-5.89 Z1.42 F1800.0
G1 X24.02 Y-6.14 Z1.42 F1800.0
G1 X23.65 Y-6.68 Z1.42 F1800.0
G1 X23.81 Y-6.71 Z1.42 F1800.0
G1 X24.49 Y-6.28 Z1.42 F1800.0
G1 X24.49 Y-7.85 Z1.42 F1800.0
G1 X23.65 Y-7.46 Z1.42 F1800.0
G1 X24.04 Y-7.85 Z1.42 F1800.0
G1 X24.04 Y-8.25 Z1.42 F1800.0
G1 X24.49 Y-8.25 Z1.42 F1800.0
G1 X24.49 Y-8.64 Z1.42 F1800.0
G1 X24.1 Y-8.64 Z1.42 F1800.0
M108 R30.0
M102
G1 X23.65 Y-8.64 Z1.42 F1800.0
M108 R3.569
M103
G1 X24.45 Y7.45 Z1.42 F3000.0
M108 R30.0
M101
G1 X24.49 Y8.25 Z1.42 F3000.0
M108 R3.569
G1 X23.04 Y7.64 Z1.42 F1800.0
G1 X-20.85 Y7.64 Z1.42 F1800.0
G1 X-24.49 Y8.25 Z1.42 F1800.0
G1 X-24.49 Y5.89 Z1.42 F1800.0
G1 X-23.65 Y6.28 Z1.42 F1800.0
G1 X-24.04 Y5.89 Z1.42 F1800.0
G1 X-24.1 Y5.5 Z1.42 F1800.0
G1 X-24.04 Y5.5 Z1.42 F1800.0
G1 X-23.65 Y5.11 Z1.42 F1800.0
G1 X-24.04 Y4.71 Z1.42 F1800.0
G1 X-24.49 Y5.11 Z1.42 F1800.0
G1 X-24.49 Y3.93 Z1.42 F1800.0
G1 X-23.65 Y4.32 Z1.42 F1800.0
G1 X-24.04 Y3.93 Z1.42 F1800.0
G1 X-24.04 Y3.53 Z1.42 F1800.0
G1 X-24.49 Y3.53 Z1.42 F1800.0
G1 X-24.49 Y1.96 Z1.42 F1800.0
G1 X-23.65 Y2.36 Z1.42 F1800.0
G1 X-24.04 Y1.96 Z1.42 F1800.0
G1 X-24.04 Y1.57 Z1.42 F1800.0
G1 X-24.49 Y1.57 Z1.42 F1800.0
G1 X-24.49 Y0.0 Z1.42 F1800.0
G1 X-23.65 Y0.39 Z1.42 F1800.0
G1 X-24.04 Y0.0 Z1.42 F1800.0
G1 X-24.04 Y-0.39 Z1.42 F1800.0
G1 X-24.49 Y-0.39 Z1.42 F1800.0
G1 X-24.49 Y-1.96 Z1.42 F1800.0
G1 X-23.65 Y-1.57 Z1.42 F1800.0
G1 X-24.04 Y-1.96 Z1.42 F1800.0
G1 X-24.1 Y-2.36 Z1.42 F1800.0
G1 X-24.04 Y-2.36 Z1.42 F1800.0
G1 X-23.65 Y-2.75 Z1.42 F1800.0
G1 X-24.04 Y-3.14 Z1.42 F1800.0
G1 X-24.49 Y-2.75 Z1.42 F1800.0
G1 X-24.49 Y-3.93 Z1.42 F1800.0
G1 X-23.65 Y-3.53 Z1.42 F1800.0
G1 X-24.04 Y-3.93 Z1.42 F1800.0
G1 X-24.04 Y-4.32 Z1.42 F1800.0
G1 X-24.49 Y-4.32 Z1.42 F1800.0
G1 X-24.49 Y-5.89 Z1.42 F1800.0
G1 X-23.65 Y-5.5 Z1.42 F1800.0
G1 X-24.04 Y-5.89 Z1.42 F1800.0
G1 X-24.04 Y-6.28 Z1.42 F1800.0
G1 X-24.49 Y-6.28 Z1.42 F1800.0
G1 X-24.49 Y-7.85 Z1.42 F1800.0
G1 X-23.65 Y-7.46 Z1.42 F1800.0
G1 X-24.04 Y-7.85 Z1.42 F1800.0
G1 X-24.1 Y-8.25 Z1.42 F1800.0
G1 X-24.49 Y-8.64 Z1.42 F1800.0
G1 X-23.65 Y-8.64 Z1.42 F1800.0
M103
(</surroundingLoop>)
(</layer>)
(<layer> 1.74 )
(<surroundingLoop>)
(<boundaryPerimeter>)
(<boundaryPoint> X-25.338 Y8.888 Z1.74 </boundaryPoint>)
(<boundaryPoint> X-25.338 Y-9.661 Z1.74 </boundaryPoint>)
(<boundaryPoint> X25.338 Y-9.661 Z1.74 </boundaryPoint>)
(<boundaryPoint> X25.338 Y8.888 Z1.74 </boundaryPoint>)
(<loop> inner )
G1 X-23.07 Y-8.5 Z1.74 F3000.0
M101
G1 X-23.39 Y-8.5 Z1.74 F1800.0
G1 X-23.39 Y6.68 Z1.74 F1800.0
G1 X-1.95 Y6.68 Z1.74 F1800.0
G1 X-1.95 Y-8.5 Z1.74 F1800.0
G1 X-22.62 Y-8.5 Z1.74 F1800.0
M108 R30.0
M102
G1 X-23.07 Y-8.5 Z1.74 F1800.0
M108 R3.569
M103
(</loop>)
(<loop> inner )
G1 X1.15 Y-8.5 Z1.74 F3000.0
M108 R30.0
M101
G1 X1.95 Y-8.5 Z1.74 F3000.0
M108 R3.569
G1 X1.95 Y6.68 Z1.74 F1800.0
G1 X23.39 Y6.68 Z1.74 F1800.0
G1 X23.39 Y-8.5 Z1.74 F1800.0
G1 X1.95 Y-8.5 Z1.74 F1800.0
M103
(</loop>)
(<loop> outer )
G1 X1.95 Y-9.07 Z1.74 F3000.0
M101
G1 X24.75 Y-9.07 Z1.74 F1800.0
G1 X24.75 Y8.3 Z1.74 F1800.0
G1 X-24.75 Y8.3 Z1.74 F1800.0
G1 X-24.75 Y-9.07 Z1.74 F1800.0
G1 X1.95 Y-9.07 Z1.74 F1800.0
M103
(</loop>)
(<perimeter> outer )
G1 X1.95 Y-9.47 Z1.74 F3000.0
M101
G1 X25.14 Y-9.47 Z1.74 F1800.0
G1 X25.14 Y8.69 Z1.74 F1800.0
G1 X-25.14 Y8.69 Z1.74 F1800.0
G1 X-25.14 Y-9.47 Z1.74 F1800.0
G1 X1.5 Y-9.47 Z1.74 F1800.0
M108 R30.0
M102
G1 X1.95 Y-9.47 Z1.74 F1800.0
M108 R3.569
M103
(</perimeter>)
(</boundaryPerimeter>)
(<surroundingLoop>)
(<boundaryPerimeter>)
(<boundaryPoint> X22.804 Y-7.911 Z1.74 </boundaryPoint>)
(<boundaryPoint> X2.534 Y-7.911 Z1.74 </boundaryPoint>)
(<boundaryPoint> X2.534 Y6.089 Z1.74 </boundaryPoint>)
(<boundaryPoint> X22.804 Y6.089 Z1.74 </boundaryPoint>)
(<perimeter> inner )
G1 X2.12 Y-8.88 Z1.74 F3000.0
M108 R30.0
M101
G1 X2.34 Y-8.11 Z1.74 F3000.0
M108 R3.569
G1 X2.34 Y6.29 Z1.74 F1800.0
G1 X23.0 Y6.29 Z1.74 F1800.0
G1 X23.0 Y-8.11 Z1.74 F1800.0
G1 X2.79 Y-8.11 Z1.74 F1800.0
M108 R30.0
M102
G1 X2.34 Y-8.11 Z1.74 F1800.0
M108 R3.569
M103
(</perimeter>)
(</boundaryPerimeter>)
(</surroundingLoop>)
(<surroundingLoop>)
(<boundaryPerimeter>)
(<boundaryPoint> X-2.534 Y-7.911 Z1.74 </boundaryPoint>)
(<boundaryPoint> X-22.804 Y-7.911 Z1.74 </boundaryPoint>)
(<boundaryPoint> X-22.804 Y6.089 Z1.74 </boundaryPoint>)
(<boundaryPoint> X-2.534 Y6.089 Z1.74 </boundaryPoint>)
(<perimeter> inner )
G1 X-1.54 Y-8.11 Z1.74 F3000.0
M108 R30.0
M101
G1 X-2.34 Y-8.11 Z1.74 F3000.0
M108 R3.569
G1 X-23.0 Y-8.11 Z1.74 F1800.0
G1 X-23.0 Y6.29 Z1.74 F1800.0
G1 X-2.34 Y6.29 Z1.74 F1800.0
G1 X-2.34 Y-7.66 Z1.74 F1800.0
M108 R30.0
M102
G1 X-2.34 Y-8.11 Z1.74 F1800.0
M108 R3.569
M103
(</perimeter>)
(</boundaryPerimeter>)
(</surroundingLoop>)
G1 X-22.76 Y-8.73 Z1.74 F3000.0
M108 R30.0
M101
G1 X-23.56 Y-8.76 Z1.74 F3000.0
M108 R3.569
G1 X-23.56 Y-8.82 Z1.74 F1800.0
G1 X-23.13 Y-8.82 Z1.74 F1800.0
G1 X-23.13 Y-8.76 Z1.74 F1800.0
G1 X-22.69 Y-8.76 Z1.74 F1800.0
G1 X-22.69 Y-8.82 Z1.74 F1800.0
G1 X-22.25 Y-8.82 Z1.74 F1800.0
G1 X-22.25 Y-8.76 Z1.74 F1800.0
G1 X-21.82 Y-8.76 Z1.74 F1800.0
G1 X-21.82 Y-8.82 Z1.74 F1800.0
G1 X-21.38 Y-8.82 Z1.74 F1800.0
G1 X-21.38 Y-8.76 Z1.74 F1800.0
G1 X-20.94 Y-8.76 Z1.74 F1800.0
G1 X-20.94 Y-8.82 Z1.74 F1800.0
G1 X-20.51 Y-8.82 Z1.74 F1800.0
G1 X-20.51 Y-8.76 Z1.74 F1800.0
G1 X-20.07 Y-8.76 Z1.74 F1800.0
G1 X-20.07 Y-8.82 Z1.74 F1800.0
G1 X-19.64 Y-8.82 Z1.74 F1800.0
G1 X-19.64 Y-8.76 Z1.74 F1800.0
G1 X-19.2 Y-8.76 Z1.74 F1800.0
G1 X-19.2 Y-8.82 Z1.74 F1800.0
G1 X-18.76 Y-8.82 Z1.74 F1800.0
G1 X-18.76 Y-8.76 Z1.74 F1800.0
G1 X-18.33 Y-8.76 Z1.74 F1800.0
G1 X-18.33 Y-8.82 Z1.74 F1800.0
G1 X-17.89 Y-8.82 Z1.74 F1800.0
G1 X-17.89 Y-8.76 Z1.74 F1800.0
G1 X-17.45 Y-8.76 Z1.74 F1800.0
G1 X-17.45 Y-8.82 Z1.74 F1800.0
G1 X-17.02 Y-8.82 Z1.74 F1800.0
G1 X-17.02 Y-8.76 Z1.74 F1800.0
G1 X-16.58 Y-8.76 Z1.74 F1800.0
G1 X-16.58 Y-8.82 Z1.74 F1800.0
G1 X-16.14 Y-8.82 Z1.74 F1800.0
G1 X-16.14 Y-8.76 Z1.74 F1800.0
G1 X-15.71 Y-8.76 Z1.74 F1800.0
G1 X-15.71 Y-8.82 Z1.74 F1800.0
G1 X-15.27 Y-8.82 Z1.74 F1800.0
G1 X-15.27 Y-8.76 Z1.74 F1800.0
G1 X-14.84 Y-8.76 Z1.74 F1800.0
G1 X-14.84 Y-8.82 Z1.74 F1800.0
G1 X-14.4 Y-8.82 Z1.74 F1800.0
G1 X-14.4 Y-8.76 Z1.74 F1800.0
G1 X-13.96 Y-8.76 Z1.74 F1800.0
G1 X-13.96 Y-8.82 Z1.74 F1800.0
G1 X-13.53 Y-8.82 Z1.74 F1800.0
G1 X-13.53 Y-8.76 Z1.74 F1800.0
G1 X-13.09 Y-8.76 Z1.74 F1800.0
G1 X-13.09 Y-8.82 Z1.74 F1800.0
G1 X-12.65 Y-8.82 Z1.74 F1800.0
G1 X-12.65 Y-8.76 Z1.74 F1800.0
G1 X-12.22 Y-8.76 Z1.74 F1800.0
G1 X-12.22 Y-8.82 Z1.74 F1800.0
G1 X-11.78 Y-8.82 Z1.74 F1800.0
G1 X-11.78 Y-8.76 Z1.74 F1800.0
G1 X-11.35 Y-8.76 Z1.74 F1800.0
G1 X-11.35 Y-8.82 Z1.74 F1800.0
G1 X-10.91 Y-8.82 Z1.74 F1800.0
G1 X-10.91 Y-8.76 Z1.74 F1800.0
G1 X-10.47 Y-8.76 Z1.74 F1800.0
G1 X-10.47 Y-8.82 Z1.74 F1800.0
G1 X-10.04 Y-8.82 Z1.74 F1800.0
G1 X-10.04 Y-8.76 Z1.74 F1800.0
G1 X-9.6 Y-8.76 Z1.74 F1800.0
G1 X-9.6 Y-8.82 Z1.74 F1800.0
G1 X-9.16 Y-8.82 Z1.74 F1800.0
G1 X-9.16 Y-8.76 Z1.74 F1800.0
G1 X-8.73 Y-8.76 Z1.74 F1800.0
G1 X-8.73 Y-8.82 Z1.74 F1800.0
G1 X-8.29 Y-8.82 Z1.74 F1800.0
G1 X-8.29 Y-8.76 Z1.74 F1800.0
G1 X-7.85 Y-8.76 Z1.74 F1800.0
G1 X-7.85 Y-8.82 Z1.74 F1800.0
G1 X-7.42 Y-8.82 Z1.74 F1800.0
G1 X-7.42 Y-8.76 Z1.74 F1800.0
G1 X-6.98 Y-8.76 Z1.74 F1800.0
G1 X-6.98 Y-8.82 Z1.74 F1800.0
G1 X-6.55 Y-8.82 Z1.74 F1800.0
G1 X-6.55 Y-8.76 Z1.74 F1800.0
G1 X-6.11 Y-8.76 Z1.74 F1800.0
G1 X-6.11 Y-8.82 Z1.74 F1800.0
G1 X-5.67 Y-8.82 Z1.74 F1800.0
G1 X-5.67 Y-8.76 Z1.74 F1800.0
G1 X-5.24 Y-8.76 Z1.74 F1800.0
G1 X-5.24 Y-8.82 Z1.74 F1800.0
G1 X-4.8 Y-8.82 Z1.74 F1800.0
G1 X-4.8 Y-8.76 Z1.74 F1800.0
G1 X-4.36 Y-8.76 Z1.74 F1800.0
G1 X-4.36 Y-8.82 Z1.74 F1800.0
G1 X-3.93 Y-8.82 Z1.74 F1800.0
G1 X-3.93 Y-8.76 Z1.74 F1800.0
G1 X-3.49 Y-8.76 Z1.74 F1800.0
G1 X-3.49 Y-8.82 Z1.74 F1800.0
G1 X-3.05 Y-8.82 Z1.74 F1800.0
G1 X-3.05 Y-8.76 Z1.74 F1800.0
G1 X-2.62 Y-8.76 Z1.74 F1800.0
G1 X-2.62 Y-8.82 Z1.74 F1800.0
G1 X-2.18 Y-8.82 Z1.74 F1800.0
G1 X-2.18 Y-8.76 Z1.74 F1800.0
G1 X-1.75 Y-8.76 Z1.74 F1800.0
G1 X-1.75 Y-8.82 Z1.74 F1800.0
G1 X-0.89 Y-8.82 Z1.74 F1800.0
M108 R30.0
M102
G1 X-0.44 Y-8.82 Z1.74 F1800.0
M108 R3.569
M103
G1 X0.07 Y-8.82 Z1.74 F3000.0
M108 R30.0
M101
G1 X0.87 Y-8.82 Z1.74 F3000.0
M108 R3.569
G1 X0.87 Y8.04 Z1.74 F1800.0
G1 X0.44 Y8.04 Z1.74 F1800.0
G1 X0.44 Y-8.82 Z1.74 F1800.0
G1 X-0.0 Y-8.82 Z1.74 F1800.0
G1 X-1.09 Y-7.76 Z1.74 F1800.0
G1 X-1.09 Y5.58 Z1.74 F1800.0
G1 X0.0 Y8.04 Z1.74 F1800.0
G1 X-1.75 Y8.04 Z1.74 F1800.0
G1 X-1.75 Y6.93 Z1.74 F1800.0
G1 X-2.18 Y7.37 Z1.74 F1800.0
G1 X-2.18 Y7.61 Z1.74 F1800.0
G1 X-2.62 Y8.04 Z1.74 F1800.0
G1 X-2.62 Y6.93 Z1.74 F1800.0
M103
G1 X-3.05 Y6.93 Z1.74 F3000.0
M101
G1 X-3.27 Y7.51 Z1.74 F1800.0
G1 X-3.27 Y7.76 Z1.74 F1800.0
G1 X-3.05 Y8.04 Z1.74 F1800.0
G1 X-4.36 Y8.04 Z1.74 F1800.0
G1 X-3.93 Y6.93 Z1.74 F1800.0
G1 X-4.36 Y7.37 Z1.74 F1800.0
G1 X-4.8 Y6.93 Z1.74 F1800.0
G1 X-4.8 Y7.61 Z1.74 F1800.0
G1 X-5.24 Y8.04 Z1.74 F1800.0
G1 X-5.67 Y8.04 Z1.74 F1800.0
G1 X-5.67 Y6.93 Z1.74 F1800.0
M103
G1 X-6.11 Y6.93 Z1.74 F3000.0
M101
G1 X-6.11 Y8.04 Z1.74 F1800.0
G1 X-8.29 Y8.04 Z1.74 F1800.0
G1 X-8.29 Y6.93 Z1.74 F1800.0
M103
G1 X-8.73 Y6.93 Z1.74 F3000.0
M101
G1 X-8.73 Y8.04 Z1.74 F1800.0
G1 X-9.16 Y8.04 Z1.74 F1800.0
G1 X-9.16 Y6.93 Z1.74 F1800.0
M103
G1 X-9.6 Y6.93 Z1.74 F3000.0
M101
G1 X-9.6 Y8.04 Z1.74 F1800.0
G1 X-10.04 Y8.04 Z1.74 F1800.0
G1 X-10.04 Y6.93 Z1.74 F1800.0
M103
G1 X-10.47 Y6.93 Z1.74 F3000.0
M101
G1 X-10.47 Y8.04 Z1.74 F1800.0
G1 X-10.91 Y8.04 Z1.74 F1800.0
G1 X-10.91 Y6.93 Z1.74 F1800.0
M103
G1 X-11.35 Y6.93 Z1.74 F3000.0
M101
G1 X-11.35 Y8.04 Z1.74 F1800.0
G1 X-11.78 Y8.04 Z1.74 F1800.0
G1 X-11.78 Y6.93 Z1.74 F1800.0
M103
G1 X-12.22 Y6.93 Z1.74 F3000.0
M101
G1 X-12.22 Y8.04 Z1.74 F1800.0
G1 X-12.65 Y8.04 Z1.74 F1800.0
G1 X-12.65 Y6.93 Z1.74 F1800.0
M103
G1 X-13.09 Y6.93 Z1.74 F3000.0
M101
G1 X-13.09 Y8.04 Z1.74 F1800.0
G1 X-13.53 Y8.04 Z1.74 F1800.0
G1 X-13.53 Y6.93 Z1.74 F1800.0
M103
G1 X-13.96 Y6.93 Z1.74 F3000.0
M101
G1 X-13.96 Y8.04 Z1.74 F1800.0
G1 X-14.4 Y8.04 Z1.74 F1800.0
G1 X-14.4 Y6.93 Z1.74 F1800.0
M103
G1 X-14.84 Y6.93 Z1.74 F3000.0
M101
G1 X-14.84 Y8.04 Z1.74 F1800.0
G1 X-15.27 Y8.04 Z1.74 F1800.0
G1 X-15.27 Y6.93 Z1.74 F1800.0
M103
G1 X-15.71 Y6.93 Z1.74 F3000.0
M101
G1 X-15.71 Y8.04 Z1.74 F1800.0
G1 X-16.14 Y8.04 Z1.74 F1800.0
G1 X-16.14 Y6.93 Z1.74 F1800.0
M103
G1 X-16.58 Y6.93 Z1.74 F3000.0
M101
G1 X-16.58 Y8.04 Z1.74 F1800.0
G1 X-17.02 Y8.04 Z1.74 F1800.0
G1 X-17.02 Y6.93 Z1.74 F1800.0
M103
G1 X-17.45 Y6.93 Z1.74 F3000.0
M101
G1 X-17.45 Y8.04 Z1.74 F1800.0
G1 X-17.89 Y8.04 Z1.74 F1800.0
G1 X-17.89 Y6.93 Z1.74 F1800.0
M103
G1 X-18.33 Y6.93 Z1.74 F3000.0
M101
G1 X-18.33 Y8.04 Z1.74 F1800.0
G1 X-18.76 Y8.04 Z1.74 F1800.0
G1 X-18.76 Y6.93 Z1.74 F1800.0
M103
G1 X-19.2 Y6.93 Z1.74 F3000.0
M101
G1 X-19.2 Y8.04 Z1.74 F1800.0
G1 X-19.64 Y8.04 Z1.74 F1800.0
G1 X-19.64 Y6.93 Z1.74 F1800.0
M103
G1 X-20.07 Y6.93 Z1.74 F3000.0
M101
G1 X-20.07 Y8.04 Z1.74 F1800.0
G1 X-20.51 Y8.04 Z1.74 F1800.0
G1 X-20.51 Y6.93 Z1.74 F1800.0
M103
G1 X-20.94 Y6.93 Z1.74 F3000.0
M101
G1 X-20.94 Y8.04 Z1.74 F1800.0
G1 X-21.38 Y8.04 Z1.74 F1800.0
G1 X-21.38 Y6.93 Z1.74 F1800.0
M103
G1 X-21.82 Y6.93 Z1.74 F3000.0
M101
G1 X-21.82 Y8.04 Z1.74 F1800.0
G1 X-22.25 Y8.04 Z1.74 F1800.0
G1 X-22.25 Y6.93 Z1.74 F1800.0
M103
G1 X-22.69 Y6.93 Z1.74 F3000.0
M101
G1 X-22.69 Y8.04 Z1.74 F1800.0
G1 X-23.13 Y8.04 Z1.74 F1800.0
G1 X-23.13 Y6.93 Z1.74 F1800.0
M103
G1 X-23.56 Y6.93 Z1.74 F3000.0
M101
G1 X-23.56 Y8.04 Z1.74 F1800.0
G1 X-24.0 Y8.04 Z1.74 F1800.0
G1 X-24.0 Y-8.82 Z1.74 F1800.0
G1 X-24.44 Y-8.82 Z1.74 F1800.0
G1 X-24.44 Y7.59 Z1.74 F1800.0
M108 R30.0
M102
G1 X-24.44 Y8.04 Z1.74 F1800.0
M108 R3.569
M103
G1 X0.51 Y8.04 Z1.74 F3000.0
M108 R30.0
M101
G1 X1.31 Y8.04 Z1.74 F3000.0
M108 R3.569
G1 X1.31 Y-8.82 Z1.74 F1800.0
G1 X1.75 Y-8.82 Z1.74 F1800.0
G1 X1.75 Y-8.76 Z1.74 F1800.0
G1 X2.18 Y-8.76 Z1.74 F1800.0
G1 X2.18 Y-8.82 Z1.74 F1800.0
G1 X2.62 Y-8.82 Z1.74 F1800.0
G1 X2.62 Y-8.76 Z1.74 F1800.0
G1 X3.05 Y-8.76 Z1.74 F1800.0
G1 X3.05 Y-8.82 Z1.74 F1800.0
G1 X3.49 Y-8.82 Z1.74 F1800.0
G1 X3.49 Y-8.76 Z1.74 F1800.0
G1 X3.93 Y-8.76 Z1.74 F1800.0
G1 X3.93 Y-8.82 Z1.74 F1800.0
G1 X4.36 Y-8.82 Z1.74 F1800.0
G1 X4.36 Y-8.76 Z1.74 F1800.0
G1 X4.8 Y-8.76 Z1.74 F1800.0
G1 X4.8 Y-8.82 Z1.74 F1800.0
G1 X5.24 Y-8.82 Z1.74 F1800.0
G1 X5.24 Y-8.76 Z1.74 F1800.0
G1 X5.67 Y-8.76 Z1.74 F1800.0
G1 X5.67 Y-8.82 Z1.74 F1800.0
G1 X6.11 Y-8.82 Z1.74 F1800.0
G1 X6.11 Y-8.76 Z1.74 F1800.0
G1 X6.55 Y-8.76 Z1.74 F1800.0
G1 X6.55 Y-8.82 Z1.74 F1800.0
G1 X6.98 Y-8.82 Z1.74 F1800.0
G1 X6.98 Y-8.76 Z1.74 F1800.0
G1 X7.42 Y-8.76 Z1.74 F1800.0
G1 X7.42 Y-8.82 Z1.74 F1800.0
G1 X7.85 Y-8.82 Z1.74 F1800.0
G1 X7.85 Y-8.76 Z1.74 F1800.0
G1 X8.29 Y-8.76 Z1.74 F1800.0
G1 X8.29 Y-8.82 Z1.74 F1800.0
G1 X8.73 Y-8.82 Z1.74 F1800.0
G1 X8.73 Y-8.76 Z1.74 F1800.0
G1 X9.16 Y-8.76 Z1.74 F1800.0
G1 X9.16 Y-8.82 Z1.74 F1800.0
G1 X9.6 Y-8.82 Z1.74 F1800.0
G1 X9.6 Y-8.76 Z1.74 F1800.0
G1 X10.04 Y-8.76 Z1.74 F1800.0
G1 X10.04 Y-8.82 Z1.74 F1800.0
G1 X10.47 Y-8.82 Z1.74 F1800.0
G1 X10.47 Y-8.76 Z1.74 F1800.0
G1 X10.91 Y-8.76 Z1.74 F1800.0
G1 X10.91 Y-8.82 Z1.74 F1800.0
G1 X11.35 Y-8.82 Z1.74 F1800.0
G1 X11.35 Y-8.76 Z1.74 F1800.0
G1 X11.78 Y-8.76 Z1.74 F1800.0
G1 X11.78 Y-8.82 Z1.74 F1800.0
G1 X12.22 Y-8.82 Z1.74 F1800.0
G1 X12.22 Y-8.76 Z1.74 F1800.0
G1 X12.65 Y-8.76 Z1.74 F1800.0
G1 X12.65 Y-8.82 Z1.74 F1800.0
G1 X13.09 Y-8.82 Z1.74 F1800.0
G1 X13.09 Y-8.76 Z1.74 F1800.0
G1 X13.53 Y-8.76 Z1.74 F1800.0
G1 X13.53 Y-8.82 Z1.74 F1800.0
G1 X13.96 Y-8.82 Z1.74 F1800.0
G1 X13.96 Y-8.76 Z1.74 F1800.0
G1 X14.4 Y-8.76 Z1.74 F1800.0
G1 X14.4 Y-8.82 Z1.74 F1800.0
G1 X14.84 Y-8.82 Z1.74 F1800.0
G1 X14.84 Y-8.76 Z1.74 F1800.0
G1 X15.27 Y-8.76 Z1.74 F1800.0
G1 X15.27 Y-8.82 Z1.74 F1800.0
G1 X15.71 Y-8.82 Z1.74 F1800.0
G1 X15.71 Y-8.76 Z1.74 F1800.0
G1 X16.14 Y-8.76 Z1.74 F1800.0
G1 X16.14 Y-8.82 Z1.74 F1800.0
G1 X16.58 Y-8.82 Z1.74 F1800.0
G1 X16.58 Y-8.76 Z1.74 F1800.0
G1 X17.02 Y-8.76 Z1.74 F1800.0
G1 X17.02 Y-8.82 Z1.74 F1800.0
G1 X17.45 Y-8.82 Z1.74 F1800.0
G1 X17.45 Y-8.76 Z1.74 F1800.0
G1 X17.89 Y-8.76 Z1.74 F1800.0
G1 X17.89 Y-8.82 Z1.74 F1800.0
G1 X18.33 Y-8.82 Z1.74 F1800.0
G1 X18.33 Y-8.76 Z1.74 F1800.0
G1 X18.76 Y-8.76 Z1.74 F1800.0
G1 X18.76 Y-8.82 Z1.74 F1800.0
G1 X19.2 Y-8.82 Z1.74 F1800.0
G1 X19.2 Y-8.76 Z1.74 F1800.0
G1 X19.64 Y-8.76 Z1.74 F1800.0
G1 X19.64 Y-8.82 Z1.74 F1800.0
G1 X20.07 Y-8.82 Z1.74 F1800.0
G1 X20.07 Y-8.76 Z1.74 F1800.0
G1 X20.51 Y-8.76 Z1.74 F1800.0
G1 X20.51 Y-8.82 Z1.74 F1800.0
G1 X20.94 Y-8.82 Z1.74 F1800.0
G1 X20.94 Y-8.76 Z1.74 F1800.0
G1 X21.38 Y-8.76 Z1.74 F1800.0
G1 X21.38 Y-8.82 Z1.74 F1800.0
G1 X21.82 Y-8.82 Z1.74 F1800.0
G1 X21.82 Y-8.76 Z1.74 F1800.0
G1 X22.25 Y-8.76 Z1.74 F1800.0
G1 X22.25 Y-8.82 Z1.74 F1800.0
G1 X22.69 Y-8.82 Z1.74 F1800.0
G1 X22.69 Y-8.76 Z1.74 F1800.0
G1 X23.13 Y-8.76 Z1.74 F1800.0
G1 X23.13 Y-8.82 Z1.74 F1800.0
G1 X23.56 Y-8.82 Z1.74 F1800.0
G1 X23.56 Y-8.76 Z1.74 F1800.0
G1 X24.0 Y-8.82 Z1.74 F1800.0
M103
G1 X24.44 Y-8.82 Z1.74 F3000.0
M101
G1 X23.91 Y6.66 Z1.74 F1800.0
G1 X24.44 Y8.04 Z1.74 F1800.0
G1 X22.69 Y8.04 Z1.74 F1800.0
G1 X22.69 Y6.93 Z1.74 F1800.0
M103
G1 X22.25 Y6.93 Z1.74 F3000.0
M101
G1 X22.25 Y8.04 Z1.74 F1800.0
G1 X20.07 Y8.04 Z1.74 F1800.0
G1 X20.07 Y6.93 Z1.74 F1800.0
M103
G1 X19.64 Y6.93 Z1.74 F3000.0
M101
G1 X19.64 Y8.04 Z1.74 F1800.0
G1 X19.2 Y8.04 Z1.74 F1800.0
G1 X19.2 Y6.93 Z1.74 F1800.0
G1 X18.76 Y7.37 Z1.74 F1800.0
G1 X18.54 Y7.51 Z1.74 F1800.0
G1 X18.54 Y7.76 Z1.74 F1800.0
G1 X18.76 Y8.04 Z1.74 F1800.0
G1 X17.89 Y8.04 Z1.74 F1800.0
G1 X18.33 Y7.37 Z1.74 F1800.0
G1 X17.89 Y6.93 Z1.74 F1800.0
G1 X17.45 Y7.37 Z1.74 F1800.0
G1 X17.45 Y7.61 Z1.74 F1800.0
G1 X17.02 Y8.04 Z1.74 F1800.0
G1 X16.58 Y8.04 Z1.74 F1800.0
G1 X16.58 Y6.93 Z1.74 F1800.0
M103
G1 X16.14 Y6.93 Z1.74 F3000.0
M101
G1 X16.14 Y8.04 Z1.74 F1800.0
G1 X15.71 Y8.04 Z1.74 F1800.0
G1 X15.71 Y6.93 Z1.74 F1800.0
M103
G1 X15.27 Y6.93 Z1.74 F3000.0
M101
G1 X15.27 Y8.04 Z1.74 F1800.0
G1 X14.84 Y8.04 Z1.74 F1800.0
G1 X14.84 Y6.93 Z1.74 F1800.0
M103
G1 X14.4 Y6.93 Z1.74 F3000.0
M101
G1 X14.4 Y8.04 Z1.74 F1800.0
G1 X13.96 Y8.04 Z1.74 F1800.0
G1 X13.96 Y6.93 Z1.74 F1800.0
M103
G1 X13.53 Y6.93 Z1.74 F3000.0
M101
G1 X13.53 Y8.04 Z1.74 F1800.0
G1 X13.09 Y8.04 Z1.74 F1800.0
G1 X13.09 Y6.93 Z1.74 F1800.0
M103
G1 X12.65 Y6.93 Z1.74 F3000.0
M101
G1 X12.65 Y8.04 Z1.74 F1800.0
G1 X12.22 Y8.04 Z1.74 F1800.0
G1 X12.22 Y6.93 Z1.74 F1800.0
M103
G1 X11.78 Y6.93 Z1.74 F3000.0
M101
G1 X11.78 Y8.04 Z1.74 F1800.0
G1 X11.35 Y8.04 Z1.74 F1800.0
G1 X11.35 Y6.93 Z1.74 F1800.0
M103
G1 X10.91 Y6.93 Z1.74 F3000.0
M101
G1 X10.91 Y8.04 Z1.74 F1800.0
G1 X10.47 Y8.04 Z1.74 F1800.0
G1 X10.47 Y6.93 Z1.74 F1800.0
M103
G1 X10.04 Y6.93 Z1.74 F3000.0
M101
G1 X10.04 Y8.04 Z1.74 F1800.0
G1 X9.6 Y8.04 Z1.74 F1800.0
G1 X9.6 Y6.93 Z1.74 F1800.0
M103
G1 X9.16 Y6.93 Z1.74 F3000.0
M101
G1 X9.16 Y8.04 Z1.74 F1800.0
G1 X8.73 Y8.04 Z1.74 F1800.0
G1 X8.73 Y6.93 Z1.74 F1800.0
M103
G1 X8.29 Y6.93 Z1.74 F3000.0
M101
G1 X8.29 Y8.04 Z1.74 F1800.0
G1 X7.85 Y8.04 Z1.74 F1800.0
G1 X7.85 Y6.93 Z1.74 F1800.0
M103
G1 X7.42 Y6.93 Z1.74 F3000.0
M101
G1 X7.42 Y8.04 Z1.74 F1800.0
G1 X6.98 Y8.04 Z1.74 F1800.0
G1 X6.98 Y6.93 Z1.74 F1800.0
M103
G1 X6.55 Y6.93 Z1.74 F3000.0
M101
G1 X6.55 Y8.04 Z1.74 F1800.0
G1 X6.11 Y8.04 Z1.74 F1800.0
G1 X6.11 Y6.93 Z1.74 F1800.0
M103
G1 X5.67 Y6.93 Z1.74 F3000.0
M101
G1 X5.67 Y8.04 Z1.74 F1800.0
G1 X5.24 Y8.04 Z1.74 F1800.0
G1 X5.24 Y6.93 Z1.74 F1800.0
M103
G1 X4.8 Y6.93 Z1.74 F3000.0
M101
G1 X4.8 Y8.04 Z1.74 F1800.0
G1 X4.36 Y8.04 Z1.74 F1800.0
G1 X4.36 Y6.93 Z1.74 F1800.0
M103
G1 X3.93 Y6.93 Z1.74 F3000.0
M101
G1 X3.93 Y8.04 Z1.74 F1800.0
G1 X3.49 Y8.04 Z1.74 F1800.0
G1 X3.49 Y6.93 Z1.74 F1800.0
M103
G1 X3.05 Y6.93 Z1.74 F3000.0
M101
G1 X3.05 Y8.04 Z1.74 F1800.0
G1 X2.62 Y8.04 Z1.74 F1800.0
G1 X2.62 Y6.93 Z1.74 F1800.0
M103
G1 X2.18 Y6.93 Z1.74 F3000.0
M101
G1 X2.18 Y8.04 Z1.74 F1800.0
G1 X1.75 Y8.04 Z1.74 F1800.0
G1 X1.75 Y6.93 Z1.74 F1800.0
M103
(</surroundingLoop>)
(</layer>)
(<layer> 2.06 )
(<surroundingLoop>)
(<boundaryPerimeter>)
(<boundaryPoint> X-25.338 Y8.071 Z2.06 </boundaryPoint>)
(<boundaryPoint> X-25.338 Y-9.661 Z2.06 </boundaryPoint>)
(<boundaryPoint> X25.338 Y-9.661 Z2.06 </boundaryPoint>)
(<boundaryPoint> X25.338 Y8.071 Z2.06 </boundaryPoint>)
(<boundaryPoint> X24.979 Y8.071 Z2.06 </boundaryPoint>)
(<boundaryPoint> X24.9 Y8.124 Z2.06 </boundaryPoint>)
(<boundaryPoint> X24.752 Y8.285 Z2.06 </boundaryPoint>)
(<boundaryPoint> X24.631 Y8.487 Z2.06 </boundaryPoint>)
(<boundaryPoint> X24.475 Y8.932 Z2.06 </boundaryPoint>)
(<boundaryPoint> X23.279 Y8.932 Z2.06 </boundaryPoint>)
(<boundaryPoint> X23.121 Y8.486 Z2.06 </boundaryPoint>)
(<boundaryPoint> X23.001 Y8.285 Z2.06 </boundaryPoint>)
(<boundaryPoint> X22.853 Y8.124 Z2.06 </boundaryPoint>)
(<boundaryPoint> X22.774 Y8.071 Z2.06 </boundaryPoint>)
(<boundaryPoint> X22.057 Y8.071 Z2.06 </boundaryPoint>)
(<boundaryPoint> X21.978 Y8.123 Z2.06 </boundaryPoint>)
(<boundaryPoint> X21.83 Y8.285 Z2.06 </boundaryPoint>)
(<boundaryPoint> X21.71 Y8.486 Z2.06 </boundaryPoint>)
(<boundaryPoint> X21.552 Y8.932 Z2.06 </boundaryPoint>)
(<boundaryPoint> X20.374 Y8.932 Z2.06 </boundaryPoint>)
(<boundaryPoint> X20.216 Y8.486 Z2.06 </boundaryPoint>)
(<boundaryPoint> X20.096 Y8.285 Z2.06 </boundaryPoint>)
(<boundaryPoint> X19.948 Y8.124 Z2.06 </boundaryPoint>)
(<boundaryPoint> X19.869 Y8.071 Z2.06 </boundaryPoint>)
(<boundaryPoint> X19.152 Y8.071 Z2.06 </boundaryPoint>)
(<boundaryPoint> X19.073 Y8.124 Z2.06 </boundaryPoint>)
(<boundaryPoint> X18.925 Y8.285 Z2.06 </boundaryPoint>)
(<boundaryPoint> X18.805 Y8.486 Z2.06 </boundaryPoint>)
(<boundaryPoint> X18.647 Y8.932 Z2.06 </boundaryPoint>)
(<boundaryPoint> X17.451 Y8.932 Z2.06 </boundaryPoint>)
(<boundaryPoint> X17.295 Y8.487 Z2.06 </boundaryPoint>)
(<boundaryPoint> X17.173 Y8.285 Z2.06 </boundaryPoint>)
(<boundaryPoint> X17.025 Y8.124 Z2.06 </boundaryPoint>)
(<boundaryPoint> X16.947 Y8.071 Z2.06 </boundaryPoint>)
(<boundaryPoint> X-0.359 Y8.071 Z2.06 </boundaryPoint>)
(<boundaryPoint> X-0.438 Y8.124 Z2.06 </boundaryPoint>)
(<boundaryPoint> X-0.586 Y8.285 Z2.06 </boundaryPoint>)
(<boundaryPoint> X-0.707 Y8.487 Z2.06 </boundaryPoint>)
(<boundaryPoint> X-0.863 Y8.932 Z2.06 </boundaryPoint>)
(<boundaryPoint> X-2.059 Y8.932 Z2.06 </boundaryPoint>)
(<boundaryPoint> X-2.217 Y8.486 Z2.06 </boundaryPoint>)
(<boundaryPoint> X-2.337 Y8.285 Z2.06 </boundaryPoint>)
(<boundaryPoint> X-2.485 Y8.124 Z2.06 </boundaryPoint>)
(<boundaryPoint> X-2.564 Y8.071 Z2.06 </boundaryPoint>)
(<boundaryPoint> X-3.281 Y8.071 Z2.06 </boundaryPoint>)
(<boundaryPoint> X-3.36 Y8.124 Z2.06 </boundaryPoint>)
(<boundaryPoint> X-3.508 Y8.285 Z2.06 </boundaryPoint>)
(<boundaryPoint> X-3.628 Y8.486 Z2.06 </boundaryPoint>)
(<boundaryPoint> X-3.786 Y8.932 Z2.06 </boundaryPoint>)
(<boundaryPoint> X-4.964 Y8.932 Z2.06 </boundaryPoint>)
(<boundaryPoint> X-5.122 Y8.486 Z2.06 </boundaryPoint>)
(<boundaryPoint> X-5.242 Y8.285 Z2.06 </boundaryPoint>)
(<boundaryPoint> X-5.39 Y8.124 Z2.06 </boundaryPoint>)
(<boundaryPoint> X-5.469 Y8.071 Z2.06 </boundaryPoint>)
(<boundaryPoint> X-6.186 Y8.071 Z2.06 </boundaryPoint>)
(<boundaryPoint> X-6.265 Y8.124 Z2.06 </boundaryPoint>)
(<boundaryPoint> X-6.413 Y8.285 Z2.06 </boundaryPoint>)
(<boundaryPoint> X-6.533 Y8.486 Z2.06 </boundaryPoint>)
(<boundaryPoint> X-6.691 Y8.932 Z2.06 </boundaryPoint>)
(<boundaryPoint> X-7.887 Y8.932 Z2.06 </boundaryPoint>)
(<boundaryPoint> X-8.043 Y8.487 Z2.06 </boundaryPoint>)
(<boundaryPoint> X-8.165 Y8.285 Z2.06 </boundaryPoint>)
(<boundaryPoint> X-8.313 Y8.124 Z2.06 </boundaryPoint>)
(<boundaryPoint> X-8.391 Y8.071 Z2.06 </boundaryPoint>)
(<loop> inner )
G1 X2.11 Y6.68 Z2.06 F3000.0
M101
G1 X23.39 Y6.68 Z2.06 F1800.0
G1 X23.39 Y-8.5 Z2.06 F1800.0
G1 X1.95 Y-8.5 Z2.06 F1800.0
G1 X1.95 Y6.39 Z2.06 F1800.0
M108 R30.0
M102
G1 X1.95 Y6.68 Z2.06 F1800.0
G1 X2.11 Y6.68 Z2.06 F1800.0
M108 R3.569
M103
(</loop>)
(<loop> inner )
G1 X-1.15 Y6.68 Z2.06 F3000.0
M108 R30.0
M101
G1 X-1.95 Y6.68 Z2.06 F3000.0
M108 R3.569
G1 X-1.95 Y-8.5 Z2.06 F1800.0
G1 X-23.39 Y-8.5 Z2.06 F1800.0
G1 X-23.39 Y6.68 Z2.06 F1800.0
G1 X-1.95 Y6.68 Z2.06 F1800.0
M103
(</loop>)
(<loop> outer )
G1 X-2.38 Y7.48 Z2.06 F3000.0
M101
G1 X-3.46 Y7.48 Z2.06 F1800.0
G1 X-3.75 Y7.67 Z2.06 F1800.0
G1 X-3.98 Y7.93 Z2.06 F1800.0
G1 X-4.2 Y8.34 Z2.06 F1800.0
G1 X-4.55 Y8.34 Z2.06 F1800.0
G1 X-4.77 Y7.93 Z2.06 F1800.0
G1 X-5.0 Y7.67 Z2.06 F1800.0
G1 X-5.29 Y7.48 Z2.06 F1800.0
G1 X-6.37 Y7.48 Z2.06 F1800.0
G1 X-6.65 Y7.67 Z2.06 F1800.0
G1 X-6.89 Y7.93 Z2.06 F1800.0
G1 X-7.11 Y8.34 Z2.06 F1800.0
G1 X-7.47 Y8.34 Z2.06 F1800.0
G1 X-7.69 Y7.93 Z2.06 F1800.0
G1 X-7.93 Y7.68 Z2.06 F1800.0
G1 X-8.21 Y7.48 Z2.06 F1800.0
G1 X-24.75 Y7.48 Z2.06 F1800.0
G1 X-24.75 Y-9.07 Z2.06 F1800.0
G1 X24.75 Y-9.07 Z2.06 F1800.0
G1 X24.75 Y6.84 Z2.06 F1800.0
G1 X24.57 Y7.64 Z2.06 F1800.0
G1 X24.28 Y7.93 Z2.06 F1800.0
G1 X24.06 Y8.34 Z2.06 F1800.0
G1 X23.7 Y8.34 Z2.06 F1800.0
G1 X23.48 Y7.93 Z2.06 F1800.0
G1 X23.24 Y7.67 Z2.06 F1800.0
G1 X22.95 Y7.48 Z2.06 F1800.0
G1 X21.88 Y7.48 Z2.06 F1800.0
G1 X21.59 Y7.67 Z2.06 F1800.0
G1 X21.36 Y7.93 Z2.06 F1800.0
G1 X21.14 Y8.34 Z2.06 F1800.0
G1 X20.79 Y8.34 Z2.06 F1800.0
G1 X20.57 Y7.93 Z2.06 F1800.0
G1 X20.33 Y7.67 Z2.06 F1800.0
G1 X20.05 Y7.48 Z2.06 F1800.0
G1 X18.97 Y7.48 Z2.06 F1800.0
G1 X18.69 Y7.67 Z2.06 F1800.0
G1 X18.45 Y7.93 Z2.06 F1800.0
G1 X18.23 Y8.34 Z2.06 F1800.0
G1 X17.87 Y8.34 Z2.06 F1800.0
G1 X17.65 Y7.93 Z2.06 F1800.0
G1 X17.41 Y7.68 Z2.06 F1800.0
G1 X17.13 Y7.48 Z2.06 F1800.0
G1 X-0.54 Y7.48 Z2.06 F1800.0
G1 X-0.82 Y7.67 Z2.06 F1800.0
G1 X-1.06 Y7.93 Z2.06 F1800.0
G1 X-1.28 Y8.34 Z2.06 F1800.0
G1 X-1.64 Y8.34 Z2.06 F1800.0
G1 X-1.86 Y7.93 Z2.06 F1800.0
G1 X-2.1 Y7.67 Z2.06 F1800.0
G1 X-2.38 Y7.48 Z2.06 F1800.0
M103
(</loop>)
(<perimeter> outer )
G1 X-2.5 Y7.88 Z2.06 F3000.0
M101
G1 X-3.34 Y7.88 Z2.06 F1800.0
G1 X-3.49 Y7.97 Z2.06 F1800.0
G1 X-3.67 Y8.17 Z2.06 F1800.0
G1 X-3.81 Y8.4 Z2.06 F1800.0
G1 X-3.93 Y8.74 Z2.06 F1800.0
G1 X-4.83 Y8.74 Z2.06 F1800.0
G1 X-4.94 Y8.4 Z2.06 F1800.0
G1 X-5.08 Y8.17 Z2.06 F1800.0
G1 X-5.26 Y7.97 Z2.06 F1800.0
G1 X-5.41 Y7.88 Z2.06 F1800.0
G1 X-6.25 Y7.88 Z2.06 F1800.0
G1 X-6.39 Y7.97 Z2.06 F1800.0
G1 X-6.57 Y8.17 Z2.06 F1800.0
G1 X-6.71 Y8.4 Z2.06 F1800.0
G1 X-6.83 Y8.74 Z2.06 F1800.0
G1 X-7.75 Y8.74 Z2.06 F1800.0
G1 X-7.87 Y8.4 Z2.06 F1800.0
G1 X-8.01 Y8.17 Z2.06 F1800.0
G1 X-8.18 Y7.97 Z2.06 F1800.0
G1 X-8.33 Y7.88 Z2.06 F1800.0
G1 X-25.14 Y7.88 Z2.06 F1800.0
G1 X-25.14 Y-9.47 Z2.06 F1800.0
G1 X25.14 Y-9.47 Z2.06 F1800.0
G1 X25.14 Y7.88 Z2.06 F1800.0
G1 X24.92 Y7.88 Z2.06 F1800.0
G1 X24.77 Y7.97 Z2.06 F1800.0
G1 X24.59 Y8.17 Z2.06 F1800.0
G1 X24.45 Y8.4 Z2.06 F1800.0
G1 X24.34 Y8.74 Z2.06 F1800.0
G1 X23.42 Y8.74 Z2.06 F1800.0
G1 X23.3 Y8.4 Z2.06 F1800.0
G1 X23.16 Y8.17 Z2.06 F1800.0
G1 X22.98 Y7.97 Z2.06 F1800.0
G1 X22.83 Y7.88 Z2.06 F1800.0
G1 X22.0 Y7.88 Z2.06 F1800.0
G1 X21.85 Y7.97 Z2.06 F1800.0
G1 X21.67 Y8.17 Z2.06 F1800.0
G1 X21.53 Y8.4 Z2.06 F1800.0
G1 X21.41 Y8.74 Z2.06 F1800.0
G1 X20.51 Y8.74 Z2.06 F1800.0
G1 X20.4 Y8.4 Z2.06 F1800.0
G1 X20.25 Y8.17 Z2.06 F1800.0
G1 X20.08 Y7.97 Z2.06 F1800.0
G1 X19.93 Y7.88 Z2.06 F1800.0
G1 X19.09 Y7.88 Z2.06 F1800.0
G1 X18.94 Y7.97 Z2.06 F1800.0
G1 X18.77 Y8.17 Z2.06 F1800.0
G1 X18.63 Y8.4 Z2.06 F1800.0
G1 X18.51 Y8.74 Z2.06 F1800.0
G1 X17.59 Y8.74 Z2.06 F1800.0
G1 X17.47 Y8.4 Z2.06 F1800.0
G1 X17.33 Y8.17 Z2.06 F1800.0
G1 X17.15 Y7.97 Z2.06 F1800.0
G1 X17.01 Y7.88 Z2.06 F1800.0
G1 X-0.42 Y7.88 Z2.06 F1800.0
G1 X-0.57 Y7.97 Z2.06 F1800.0
G1 X-0.74 Y8.17 Z2.06 F1800.0
G1 X-0.89 Y8.4 Z2.06 F1800.0
G1 X-1.0 Y8.74 Z2.06 F1800.0
G1 X-1.92 Y8.74 Z2.06 F1800.0
G1 X-2.04 Y8.4 Z2.06 F1800.0
G1 X-2.17 Y8.18 Z2.06 F1800.0
M108 R30.0
M102
G1 X-2.18 Y8.17 Z2.06 F1800.0
G1 X-2.36 Y7.97 Z2.06 F1800.0
G1 X-2.5 Y7.88 Z2.06 F1800.0
M108 R3.569
M103
(</perimeter>)
(</boundaryPerimeter>)
(<surroundingLoop>)
(<boundaryPerimeter>)
(<boundaryPoint> X-22.804 Y6.089 Z2.06 </boundaryPoint>)
(<boundaryPoint> X-2.534 Y6.089 Z2.06 </boundaryPoint>)
(<boundaryPoint> X-2.534 Y-7.911 Z2.06 </boundaryPoint>)
(<boundaryPoint> X-22.804 Y-7.911 Z2.06 </boundaryPoint>)
(<perimeter> inner )
G1 X-2.42 Y7.08 Z2.06 F3000.0
M108 R30.0
M101
G1 X-2.34 Y6.29 Z2.06 F3000.0
M108 R3.569
G1 X-2.34 Y-8.11 Z2.06 F1800.0
G1 X-23.0 Y-8.11 Z2.06 F1800.0
G1 X-23.0 Y6.29 Z2.06 F1800.0
G1 X-2.79 Y6.29 Z2.06 F1800.0
M108 R30.0
M102
G1 X-2.34 Y6.29 Z2.06 F1800.0
M108 R3.569
M103
(</perimeter>)
(</boundaryPerimeter>)
(</surroundingLoop>)
(<surroundingLoop>)
(<boundaryPerimeter>)
(<boundaryPoint> X22.804 Y6.089 Z2.06 </boundaryPoint>)
(<boundaryPoint> X22.804 Y-7.911 Z2.06 </boundaryPoint>)
(<boundaryPoint> X2.534 Y-7.911 Z2.06 </boundaryPoint>)
(<boundaryPoint> X2.534 Y6.089 Z2.06 </boundaryPoint>)
(<perimeter> inner )
G1 X1.54 Y6.29 Z2.06 F3000.0
M108 R30.0
M101
G1 X2.34 Y6.29 Z2.06 F3000.0
M108 R3.569
G1 X23.0 Y6.29 Z2.06 F1800.0
G1 X23.0 Y-8.11 Z2.06 F1800.0
G1 X2.34 Y-8.11 Z2.06 F1800.0
G1 X2.34 Y6.29 Z2.06 F1800.0
M103
(</perimeter>)
(</boundaryPerimeter>)
(</surroundingLoop>)
G1 X1.69 Y5.67 Z2.06 F3000.0
M101
G1 X-1.22 Y5.57 Z2.06 F1800.0
G1 X-1.69 Y5.67 Z2.06 F1800.0
G1 X-1.25 Y6.11 Z2.06 F1800.0
G1 X-1.69 Y6.55 Z2.06 F1800.0
G1 X-0.9 Y7.42 Z2.06 F1800.0
G1 X-1.31 Y7.85 Z2.06 F1800.0
G1 X-1.61 Y7.85 Z2.06 F1800.0
G1 X-1.72 Y7.75 Z2.06 F1800.0
M108 R30.0
M102
G1 X-2.02 Y7.42 Z2.06 F1800.0
M108 R3.569
M103
G1 X-3.02 Y7.42 Z2.06 F3000.0
M108 R30.0
M101
G1 X-3.82 Y7.42 Z2.06 F3000.0
M108 R3.569
G1 X-4.23 Y7.85 Z2.06 F1800.0
G1 X-4.52 Y7.85 Z2.06 F1800.0
G1 X-4.62 Y7.75 Z2.06 F1800.0
M108 R30.0
M102
G1 X-4.93 Y7.42 Z2.06 F1800.0
M108 R3.569
M103
G1 X-5.93 Y7.42 Z2.06 F3000.0
M108 R30.0
M101
G1 X-6.73 Y7.42 Z2.06 F3000.0
M108 R3.569
G1 X-7.14 Y7.85 Z2.06 F1800.0
G1 X-7.44 Y7.85 Z2.06 F1800.0
G1 X-7.54 Y7.75 Z2.06 F1800.0
M108 R30.0
M102
G1 X-7.85 Y7.42 Z2.06 F1800.0
M108 R3.569
M103
G1 X-5.77 Y6.36 Z2.06 F3000.0
G1 X-2.4 Y6.23 Z2.06 F3000.0
G1 X-2.26 Y4.05 Z2.06 F3000.0
M108 R30.0
M101
G1 X-2.26 Y4.03 Z2.06 F3000.0
G1 X-1.69 Y3.49 Z2.06 F3000.0
M108 R3.569
G1 X-1.25 Y3.93 Z2.06 F1800.0
G1 X-1.69 Y4.36 Z2.06 F1800.0
G1 X-1.25 Y4.8 Z2.06 F1800.0
G1 X-1.22 Y5.34 Z2.06 F1800.0
G1 X-0.96 Y5.34 Z2.06 F1800.0
G1 X1.25 Y4.8 Z2.06 F1800.0
G1 X1.69 Y4.36 Z2.06 F1800.0
G1 X1.25 Y3.93 Z2.06 F1800.0
G1 X1.37 Y3.81 Z2.06 F1800.0
M108 R30.0
M102
G1 X1.69 Y3.49 Z2.06 F1800.0
M108 R3.569
M103
G1 X1.69 Y2.11 Z2.06 F3000.0
M108 R30.0
M101
G1 X1.69 Y1.31 Z2.06 F3000.0
M108 R3.569
G1 X-1.22 Y1.21 Z2.06 F1800.0
G1 X-1.25 Y1.21 Z2.06 F1800.0
M108 R30.0
M102
G1 X-1.69 Y1.31 Z2.06 F1800.0
M108 R3.569
M103
G1 X1.02 Y-0.44 Z2.06 F3000.0
M108 R30.0
M101
G1 X1.69 Y-0.87 Z2.06 F3000.0
M108 R3.569
G1 X1.25 Y-0.44 Z2.06 F1800.0
G1 X1.69 Y-0.0 Z2.06 F1800.0
G1 X1.25 Y0.44 Z2.06 F1800.0
G1 X-0.96 Y0.98 Z2.06 F1800.0
G1 X-1.22 Y0.98 Z2.06 F1800.0
G1 X-1.25 Y0.44 Z2.06 F1800.0
G1 X-1.69 Y0.0 Z2.06 F1800.0
G1 X-1.25 Y-0.44 Z2.06 F1800.0
G1 X-1.69 Y-0.87 Z2.06 F1800.0
G1 X1.69 Y-3.05 Z2.06 F1800.0
G1 X-1.22 Y-3.16 Z2.06 F1800.0
G1 X-1.25 Y-3.15 Z2.06 F1800.0
M108 R30.0
M102
G1 X-1.69 Y-3.05 Z2.06 F1800.0
M108 R3.569
M103
G1 X-1.69 Y-4.44 Z2.06 F3000.0
M108 R30.0
M101
G1 X-1.69 Y-5.24 Z2.06 F3000.0
M108 R3.569
G1 X-1.25 Y-4.8 Z2.06 F1800.0
G1 X-1.69 Y-4.36 Z2.06 F1800.0
G1 X-1.25 Y-3.93 Z2.06 F1800.0
G1 X-1.22 Y-3.39 Z2.06 F1800.0
G1 X-0.96 Y-3.39 Z2.06 F1800.0
G1 X1.25 Y-3.93 Z2.06 F1800.0
G1 X1.69 Y-4.36 Z2.06 F1800.0
G1 X1.25 Y-4.8 Z2.06 F1800.0
G1 X1.37 Y-4.92 Z2.06 F1800.0
M108 R30.0
M102
G1 X1.69 Y-5.24 Z2.06 F1800.0
M108 R3.569
M103
G1 X1.69 Y-6.62 Z2.06 F3000.0
M108 R30.0
M101
G1 X1.69 Y-7.42 Z2.06 F3000.0
M108 R3.569
G1 X-1.22 Y-7.52 Z2.06 F1800.0
G1 X-1.25 Y-7.51 Z2.06 F1800.0
M108 R30.0
M102
G1 X-1.69 Y-7.42 Z2.06 F1800.0
M108 R3.569
M103
G1 X-1.69 Y-7.93 Z2.06 F3000.0
M108 R30.0
M101
G1 X-1.69 Y-8.73 Z2.06 F3000.0
M108 R3.569
G1 X-1.25 Y-8.29 Z2.06 F1800.0
G1 X-1.22 Y-7.75 Z2.06 F1800.0
G1 X-0.96 Y-7.75 Z2.06 F1800.0
G1 X1.25 Y-8.29 Z2.06 F1800.0
G1 X1.37 Y-8.41 Z2.06 F1800.0
M108 R30.0
M102
G1 X1.69 Y-8.73 Z2.06 F1800.0
M108 R3.569
M103
G1 X2.84 Y-8.19 Z2.06 F3000.0
G1 X2.4 Y-8.05 Z2.06 F3000.0
G1 X2.4 Y6.23 Z2.06 F3000.0
G1 X22.49 Y6.36 Z2.06 F3000.0
G1 X23.66 Y7.03 Z2.06 F3000.0
M108 R30.0
M101
G1 X24.36 Y7.42 Z2.06 F3000.0
M108 R3.569
G1 X24.03 Y7.85 Z2.06 F1800.0
G1 X23.72 Y7.85 Z2.06 F1800.0
G1 X23.32 Y7.42 Z2.06 F1800.0
G1 X23.75 Y6.97 Z2.06 F1800.0
G1 X23.85 Y6.5 Z2.06 F1800.0
G1 X24.46 Y6.98 Z2.06 F1800.0
G1 X24.49 Y5.24 Z2.06 F1800.0
G1 X23.65 Y5.67 Z2.06 F1800.0
G1 X23.85 Y4.75 Z2.06 F1800.0
G1 X24.49 Y4.8 Z2.06 F1800.0
G1 X24.49 Y3.05 Z2.06 F1800.0
G1 X23.65 Y3.49 Z2.06 F1800.0
G1 X23.85 Y2.57 Z2.06 F1800.0
G1 X24.49 Y2.62 Z2.06 F1800.0
G1 X24.49 Y1.31 Z2.06 F1800.0
G1 X23.65 Y1.31 Z2.06 F1800.0
G1 X24.09 Y0.87 Z2.06 F1800.0
G1 X23.75 Y0.42 Z2.06 F1800.0
G1 X23.85 Y-0.05 Z2.06 F1800.0
G1 X24.49 Y0.44 Z2.06 F1800.0
G1 X24.49 Y-1.31 Z2.06 F1800.0
G1 X23.65 Y-0.87 Z2.06 F1800.0
G1 X24.09 Y-1.31 Z2.06 F1800.0
G1 X23.75 Y-1.76 Z2.06 F1800.0
G1 X23.85 Y-2.23 Z2.06 F1800.0
G1 X24.49 Y-1.75 Z2.06 F1800.0
G1 X24.49 Y-3.49 Z2.06 F1800.0
G1 X23.65 Y-3.05 Z2.06 F1800.0
G1 X24.09 Y-3.49 Z2.06 F1800.0
G1 X24.05 Y-3.76 Z2.06 F1800.0
G1 X23.65 Y-4.36 Z2.06 F1800.0
G1 X23.85 Y-4.41 Z2.06 F1800.0
G1 X24.49 Y-3.93 Z2.06 F1800.0
G1 X24.49 Y-5.67 Z2.06 F1800.0
G1 X23.65 Y-5.24 Z2.06 F1800.0
G1 X23.85 Y-6.16 Z2.06 F1800.0
G1 X24.49 Y-6.11 Z2.06 F1800.0
G1 X24.49 Y-7.42 Z2.06 F1800.0
G1 X23.65 Y-7.42 Z2.06 F1800.0
G1 X24.09 Y-7.85 Z2.06 F1800.0
G1 X24.09 Y-8.29 Z2.06 F1800.0
G1 X24.49 Y-8.29 Z2.06 F1800.0
G1 X24.49 Y-8.73 Z2.06 F1800.0
G1 X24.1 Y-8.73 Z2.06 F1800.0
M108 R30.0
M102
G1 X23.65 Y-8.73 Z2.06 F1800.0
M108 R3.569
M103
G1 X23.08 Y-2.34 Z2.06 F3000.0
G1 X22.94 Y6.23 Z2.06 F3000.0
G1 X21.69 Y6.36 Z2.06 F3000.0
G1 X21.65 Y6.63 Z2.06 F3000.0
M108 R30.0
M101
G1 X21.51 Y7.42 Z2.06 F3000.0
M108 R3.569
G1 X21.11 Y7.85 Z2.06 F1800.0
G1 X20.82 Y7.85 Z2.06 F1800.0
G1 X20.72 Y7.75 Z2.06 F1800.0
M108 R30.0
M102
G1 X20.41 Y7.42 Z2.06 F1800.0
M108 R3.569
M103
G1 X19.41 Y7.42 Z2.06 F3000.0
M108 R30.0
M101
G1 X18.61 Y7.42 Z2.06 F3000.0
M108 R3.569
G1 X18.2 Y7.85 Z2.06 F1800.0
G1 X17.9 Y7.85 Z2.06 F1800.0
G1 X17.8 Y7.75 Z2.06 F1800.0
M108 R30.0
M102
G1 X17.49 Y7.42 Z2.06 F1800.0
M108 R3.569
M103
G1 X14.1 Y6.36 Z2.06 F3000.0
G1 X2.4 Y6.23 Z2.06 F3000.0
G1 X2.26 Y1.55 Z2.06 F3000.0
G1 X-2.26 Y-0.44 Z2.06 F3000.0
G1 X-2.4 Y-8.05 Z2.06 F3000.0
G1 X-21.57 Y-8.19 Z2.06 F3000.0
G1 X-22.88 Y-8.53 Z2.06 F3000.0
M108 R30.0
M101
G1 X-23.65 Y-8.73 Z2.06 F3000.0
M108 R3.569
G1 X-24.49 Y-8.73 Z2.06 F1800.0
G1 X-24.49 Y-7.42 Z2.06 F1800.0
G1 X-23.65 Y-7.42 Z2.06 F1800.0
G1 X-24.09 Y-6.98 Z2.06 F1800.0
G1 X-23.65 Y-6.55 Z2.06 F1800.0
G1 X-24.09 Y-6.11 Z2.06 F1800.0
G1 X-24.29 Y-6.59 Z2.06 F1800.0
G1 X-24.49 Y-6.55 Z2.06 F1800.0
G1 X-24.49 Y-5.24 Z2.06 F1800.0
G1 X-23.65 Y-5.24 Z2.06 F1800.0
G1 X-24.09 Y-4.8 Z2.06 F1800.0
G1 X-24.49 Y-4.8 Z2.06 F1800.0
G1 X-24.49 Y-3.93 Z2.06 F1800.0
G1 X-23.65 Y-3.93 Z2.06 F1800.0
G1 X-24.09 Y-3.49 Z2.06 F1800.0
G1 X-24.49 Y-3.49 Z2.06 F1800.0
G1 X-24.49 Y-3.05 Z2.06 F1800.0
G1 X-23.65 Y-3.05 Z2.06 F1800.0
G1 X-24.09 Y-2.62 Z2.06 F1800.0
G1 X-24.49 Y-2.62 Z2.06 F1800.0
G1 X-24.49 Y-1.75 Z2.06 F1800.0
G1 X-23.65 Y-1.75 Z2.06 F1800.0
G1 X-24.49 Y-0.87 Z2.06 F1800.0
G1 X-23.65 Y-0.87 Z2.06 F1800.0
G1 X-24.09 Y-0.44 Z2.06 F1800.0
G1 X-23.65 Y0.0 Z2.06 F1800.0
G1 X-24.09 Y0.44 Z2.06 F1800.0
G1 X-24.29 Y-0.05 Z2.06 F1800.0
G1 X-24.49 Y0.0 Z2.06 F1800.0
G1 X-24.49 Y1.31 Z2.06 F1800.0
G1 X-23.65 Y1.31 Z2.06 F1800.0
G1 X-24.09 Y1.75 Z2.06 F1800.0
G1 X-23.65 Y2.18 Z2.06 F1800.0
G1 X-24.09 Y2.62 Z2.06 F1800.0
G1 X-24.29 Y2.13 Z2.06 F1800.0
G1 X-24.49 Y2.18 Z2.06 F1800.0
G1 X-24.49 Y3.49 Z2.06 F1800.0
G1 X-23.65 Y3.49 Z2.06 F1800.0
G1 X-24.09 Y3.93 Z2.06 F1800.0
G1 X-23.65 Y4.36 Z2.06 F1800.0
G1 X-24.09 Y4.8 Z2.06 F1800.0
G1 X-24.29 Y4.32 Z2.06 F1800.0
G1 X-24.49 Y4.36 Z2.06 F1800.0
G1 X-24.49 Y6.98 Z2.06 F1800.0
G1 X-23.65 Y6.55 Z2.06 F1800.0
G1 X-24.09 Y6.11 Z2.06 F1800.0
G1 X-23.65 Y5.67 Z2.06 F1800.0
M103
(</surroundingLoop>)
(</layer>)
(<layer> 2.38 )
(<surroundingLoop>)
(<boundaryPerimeter>)
(<boundaryPoint> X-8.48 Y8.012 Z2.38 </boundaryPoint>)
(<boundaryPoint> X-8.659 Y7.955 Z2.38 </boundaryPoint>)
(<boundaryPoint> X-8.75 Y7.839 Z2.38 </boundaryPoint>)
(<boundaryPoint> X-25.338 Y7.839 Z2.38 </boundaryPoint>)
(<boundaryPoint> X-25.338 Y-9.661 Z2.38 </boundaryPoint>)
(<boundaryPoint> X25.338 Y-9.661 Z2.38 </boundaryPoint>)
(<boundaryPoint> X25.338 Y7.598 Z2.38 </boundaryPoint>)
(<boundaryPoint> X25.247 Y7.955 Z2.38 </boundaryPoint>)
(<boundaryPoint> X25.068 Y8.012 Z2.38 </boundaryPoint>)
(<boundaryPoint> X24.9 Y8.124 Z2.38 </boundaryPoint>)
(<boundaryPoint> X24.752 Y8.285 Z2.38 </boundaryPoint>)
(<boundaryPoint> X24.631 Y8.487 Z2.38 </boundaryPoint>)
(<boundaryPoint> X24.475 Y8.932 Z2.38 </boundaryPoint>)
(<boundaryPoint> X23.279 Y8.932 Z2.38 </boundaryPoint>)
(<boundaryPoint> X23.121 Y8.486 Z2.38 </boundaryPoint>)
(<boundaryPoint> X23.001 Y8.285 Z2.38 </boundaryPoint>)
(<boundaryPoint> X22.853 Y8.124 Z2.38 </boundaryPoint>)
(<boundaryPoint> X22.686 Y8.012 Z2.38 </boundaryPoint>)
(<boundaryPoint> X22.507 Y7.955 Z2.38 </boundaryPoint>)
(<boundaryPoint> X22.324 Y7.955 Z2.38 </boundaryPoint>)
(<boundaryPoint> X22.145 Y8.012 Z2.38 </boundaryPoint>)
(<boundaryPoint> X21.978 Y8.124 Z2.38 </boundaryPoint>)
(<boundaryPoint> X21.83 Y8.285 Z2.38 </boundaryPoint>)
(<boundaryPoint> X21.71 Y8.486 Z2.38 </boundaryPoint>)
(<boundaryPoint> X21.552 Y8.932 Z2.38 </boundaryPoint>)
(<boundaryPoint> X20.374 Y8.932 Z2.38 </boundaryPoint>)
(<boundaryPoint> X20.216 Y8.486 Z2.38 </boundaryPoint>)
(<boundaryPoint> X20.096 Y8.285 Z2.38 </boundaryPoint>)
(<boundaryPoint> X19.948 Y8.124 Z2.38 </boundaryPoint>)
(<boundaryPoint> X19.781 Y8.012 Z2.38 </boundaryPoint>)
(<boundaryPoint> X19.602 Y7.955 Z2.38 </boundaryPoint>)
(<boundaryPoint> X19.419 Y7.955 Z2.38 </boundaryPoint>)
(<boundaryPoint> X19.24 Y8.012 Z2.38 </boundaryPoint>)
(<boundaryPoint> X19.073 Y8.124 Z2.38 </boundaryPoint>)
(<boundaryPoint> X18.925 Y8.285 Z2.38 </boundaryPoint>)
(<boundaryPoint> X18.805 Y8.486 Z2.38 </boundaryPoint>)
(<boundaryPoint> X18.647 Y8.932 Z2.38 </boundaryPoint>)
(<boundaryPoint> X17.451 Y8.932 Z2.38 </boundaryPoint>)
(<boundaryPoint> X17.295 Y8.487 Z2.38 </boundaryPoint>)
(<boundaryPoint> X17.173 Y8.285 Z2.38 </boundaryPoint>)
(<boundaryPoint> X17.025 Y8.124 Z2.38 </boundaryPoint>)
(<boundaryPoint> X16.858 Y8.012 Z2.38 </boundaryPoint>)
(<boundaryPoint> X16.679 Y7.955 Z2.38 </boundaryPoint>)
(<boundaryPoint> X16.588 Y7.839 Z2.38 </boundaryPoint>)
(<boundaryPoint> X0.0 Y7.839 Z2.38 </boundaryPoint>)
(<boundaryPoint> X-0.092 Y7.955 Z2.38 </boundaryPoint>)
(<boundaryPoint> X-0.27 Y8.012 Z2.38 </boundaryPoint>)
(<boundaryPoint> X-0.438 Y8.124 Z2.38 </boundaryPoint>)
(<boundaryPoint> X-0.586 Y8.285 Z2.38 </boundaryPoint>)
(<boundaryPoint> X-0.707 Y8.487 Z2.38 </boundaryPoint>)
(<boundaryPoint> X-0.863 Y8.932 Z2.38 </boundaryPoint>)
(<boundaryPoint> X-2.059 Y8.932 Z2.38 </boundaryPoint>)
(<boundaryPoint> X-2.217 Y8.486 Z2.38 </boundaryPoint>)
(<boundaryPoint> X-2.337 Y8.285 Z2.38 </boundaryPoint>)
(<boundaryPoint> X-2.485 Y8.124 Z2.38 </boundaryPoint>)
(<boundaryPoint> X-2.652 Y8.012 Z2.38 </boundaryPoint>)
(<boundaryPoint> X-2.831 Y7.955 Z2.38 </boundaryPoint>)
(<boundaryPoint> X-3.014 Y7.955 Z2.38 </boundaryPoint>)
(<boundaryPoint> X-3.193 Y8.012 Z2.38 </boundaryPoint>)
(<boundaryPoint> X-3.36 Y8.124 Z2.38 </boundaryPoint>)
(<boundaryPoint> X-3.508 Y8.285 Z2.38 </boundaryPoint>)
(<boundaryPoint> X-3.628 Y8.486 Z2.38 </boundaryPoint>)
(<boundaryPoint> X-3.786 Y8.932 Z2.38 </boundaryPoint>)
(<boundaryPoint> X-4.964 Y8.932 Z2.38 </boundaryPoint>)
(<boundaryPoint> X-5.122 Y8.486 Z2.38 </boundaryPoint>)
(<boundaryPoint> X-5.242 Y8.285 Z2.38 </boundaryPoint>)
(<boundaryPoint> X-5.39 Y8.124 Z2.38 </boundaryPoint>)
(<boundaryPoint> X-5.557 Y8.012 Z2.38 </boundaryPoint>)
(<boundaryPoint> X-5.736 Y7.955 Z2.38 </boundaryPoint>)
(<boundaryPoint> X-5.919 Y7.955 Z2.38 </boundaryPoint>)
(<boundaryPoint> X-6.098 Y8.012 Z2.38 </boundaryPoint>)
(<boundaryPoint> X-6.265 Y8.124 Z2.38 </boundaryPoint>)
(<boundaryPoint> X-6.413 Y8.285 Z2.38 </boundaryPoint>)
(<boundaryPoint> X-6.533 Y8.486 Z2.38 </boundaryPoint>)
(<boundaryPoint> X-6.691 Y8.932 Z2.38 </boundaryPoint>)
(<boundaryPoint> X-7.887 Y8.932 Z2.38 </boundaryPoint>)
(<boundaryPoint> X-8.043 Y8.487 Z2.38 </boundaryPoint>)
(<boundaryPoint> X-8.165 Y8.285 Z2.38 </boundaryPoint>)
(<boundaryPoint> X-8.313 Y8.124 Z2.38 </boundaryPoint>)
(<loop> inner )
G1 X-23.39 Y5.54 Z2.38 F3000.0
M101
G1 X-23.39 Y5.67 Z2.38 F1800.0
G1 X-23.39 Y6.68 Z2.38 F1800.0
G1 X-1.95 Y6.68 Z2.38 F1800.0
G1 X-1.95 Y-8.5 Z2.38 F1800.0
G1 X-23.39 Y-8.5 Z2.38 F1800.0
G1 X-23.39 Y5.09 Z2.38 F1800.0
M108 R30.0
M102
G1 X-23.39 Y5.54 Z2.38 F1800.0
M108 R3.569
M103
(</loop>)
(<loop> inner )
G1 X-23.08 Y5.54 Z2.38 F3000.0
G1 X-22.94 Y6.23 Z2.38 F3000.0
G1 X-2.4 Y6.23 Z2.38 F3000.0
G1 X-2.26 Y5.65 Z2.38 F3000.0
G1 X1.15 Y5.67 Z2.38 F3000.0
M108 R30.0
M101
G1 X1.95 Y5.67 Z2.38 F3000.0
M108 R3.569
G1 X1.95 Y6.68 Z2.38 F1800.0
G1 X23.39 Y6.68 Z2.38 F1800.0
G1 X23.39 Y-8.5 Z2.38 F1800.0
G1 X1.95 Y-8.5 Z2.38 F1800.0
G1 X1.95 Y5.22 Z2.38 F1800.0
M108 R30.0
M102
G1 X1.95 Y5.67 Z2.38 F1800.0
M108 R3.569
M103
(</loop>)
(<loop> outer )
G1 X1.95 Y6.45 Z2.38 F3000.0
M108 R30.0
M101
G1 X1.95 Y7.25 Z2.38 F3000.0
M108 R3.569
G1 X-0.22 Y7.25 Z2.38 F1800.0
G1 X-0.82 Y7.67 Z2.38 F1800.0
G1 X-1.06 Y7.93 Z2.38 F1800.0
G1 X-1.24 Y8.24 Z2.38 F1800.0
G1 X-1.28 Y8.34 Z2.38 F1800.0
G1 X-1.64 Y8.34 Z2.38 F1800.0
G1 X-1.68 Y8.23 Z2.38 F1800.0
G1 X-1.86 Y7.93 Z2.38 F1800.0
G1 X-2.1 Y7.67 Z2.38 F1800.0
G1 X-2.39 Y7.48 Z2.38 F1800.0
G1 X-2.74 Y7.37 Z2.38 F1800.0
G1 X-3.11 Y7.37 Z2.38 F1800.0
G1 X-3.45 Y7.48 Z2.38 F1800.0
G1 X-3.75 Y7.67 Z2.38 F1800.0
G1 X-3.98 Y7.93 Z2.38 F1800.0
G1 X-4.16 Y8.23 Z2.38 F1800.0
G1 X-4.2 Y8.34 Z2.38 F1800.0
G1 X-4.55 Y8.34 Z2.38 F1800.0
G1 X-4.59 Y8.23 Z2.38 F1800.0
G1 X-4.77 Y7.93 Z2.38 F1800.0
G1 X-5.0 Y7.67 Z2.38 F1800.0
G1 X-5.3 Y7.48 Z2.38 F1800.0
G1 X-5.64 Y7.37 Z2.38 F1800.0
G1 X-6.01 Y7.37 Z2.38 F1800.0
G1 X-6.36 Y7.48 Z2.38 F1800.0
G1 X-6.65 Y7.67 Z2.38 F1800.0
G1 X-6.89 Y7.93 Z2.38 F1800.0
G1 X-7.07 Y8.23 Z2.38 F1800.0
G1 X-7.11 Y8.34 Z2.38 F1800.0
G1 X-7.47 Y8.34 Z2.38 F1800.0
G1 X-7.51 Y8.23 Z2.38 F1800.0
G1 X-7.69 Y7.93 Z2.38 F1800.0
G1 X-7.93 Y7.67 Z2.38 F1800.0
G1 X-8.17 Y7.51 Z2.38 F1800.0
G1 X-8.53 Y7.25 Z2.38 F1800.0
G1 X-24.75 Y7.25 Z2.38 F1800.0
G1 X-24.75 Y-9.07 Z2.38 F1800.0
G1 X24.75 Y-9.07 Z2.38 F1800.0
G1 X24.75 Y7.46 Z2.38 F1800.0
G1 X24.69 Y7.55 Z2.38 F1800.0
G1 X24.51 Y7.67 Z2.38 F1800.0
G1 X24.28 Y7.93 Z2.38 F1800.0
G1 X24.1 Y8.24 Z2.38 F1800.0
G1 X24.06 Y8.34 Z2.38 F1800.0
G1 X23.7 Y8.34 Z2.38 F1800.0
G1 X23.66 Y8.23 Z2.38 F1800.0
G1 X23.48 Y7.93 Z2.38 F1800.0
G1 X23.24 Y7.67 Z2.38 F1800.0
G1 X22.95 Y7.48 Z2.38 F1800.0
G1 X22.6 Y7.37 Z2.38 F1800.0
G1 X22.23 Y7.37 Z2.38 F1800.0
G1 X21.89 Y7.48 Z2.38 F1800.0
G1 X21.59 Y7.67 Z2.38 F1800.0
G1 X21.36 Y7.93 Z2.38 F1800.0
G1 X21.17 Y8.23 Z2.38 F1800.0
G1 X21.14 Y8.34 Z2.38 F1800.0
G1 X20.79 Y8.34 Z2.38 F1800.0
G1 X20.75 Y8.23 Z2.38 F1800.0
G1 X20.57 Y7.93 Z2.38 F1800.0
G1 X20.33 Y7.67 Z2.38 F1800.0
G1 X20.04 Y7.48 Z2.38 F1800.0
G1 X19.69 Y7.37 Z2.38 F1800.0
G1 X19.33 Y7.37 Z2.38 F1800.0
G1 X18.98 Y7.48 Z2.38 F1800.0
G1 X18.69 Y7.67 Z2.38 F1800.0
G1 X18.45 Y7.93 Z2.38 F1800.0
G1 X18.27 Y8.23 Z2.38 F1800.0
G1 X18.23 Y8.34 Z2.38 F1800.0
G1 X17.87 Y8.34 Z2.38 F1800.0
G1 X17.83 Y8.23 Z2.38 F1800.0
G1 X17.65 Y7.93 Z2.38 F1800.0
G1 X17.41 Y7.67 Z2.38 F1800.0
G1 X16.81 Y7.25 Z2.38 F1800.0
G1 X1.95 Y7.25 Z2.38 F1800.0
M103
(</loop>)
(<perimeter> outer )
G1 X1.95 Y7.64 Z2.38 F3000.0
M101
G1 X-0.1 Y7.64 Z2.38 F1800.0
G1 X-0.21 Y7.79 Z2.38 F1800.0
G1 X-0.36 Y7.83 Z2.38 F1800.0
G1 X-0.57 Y7.97 Z2.38 F1800.0
G1 X-0.74 Y8.17 Z2.38 F1800.0
G1 X-0.89 Y8.4 Z2.38 F1800.0
G1 X-1.0 Y8.74 Z2.38 F1800.0
G1 X-1.92 Y8.74 Z2.38 F1800.0
G1 X-2.04 Y8.4 Z2.38 F1800.0
G1 X-2.18 Y8.17 Z2.38 F1800.0
G1 X-2.36 Y7.97 Z2.38 F1800.0
G1 X-2.57 Y7.83 Z2.38 F1800.0
G1 X-2.8 Y7.76 Z2.38 F1800.0
G1 X-3.05 Y7.76 Z2.38 F1800.0
G1 X-3.28 Y7.83 Z2.38 F1800.0
G1 X-3.49 Y7.97 Z2.38 F1800.0
G1 X-3.67 Y8.17 Z2.38 F1800.0
G1 X-3.81 Y8.4 Z2.38 F1800.0
G1 X-3.93 Y8.74 Z2.38 F1800.0
G1 X-4.83 Y8.74 Z2.38 F1800.0
G1 X-4.94 Y8.4 Z2.38 F1800.0
G1 X-5.08 Y8.17 Z2.38 F1800.0
G1 X-5.26 Y7.97 Z2.38 F1800.0
G1 X-5.47 Y7.83 Z2.38 F1800.0
G1 X-5.71 Y7.76 Z2.38 F1800.0
G1 X-5.95 Y7.76 Z2.38 F1800.0
G1 X-6.18 Y7.83 Z2.38 F1800.0
G1 X-6.39 Y7.97 Z2.38 F1800.0
G1 X-6.57 Y8.17 Z2.38 F1800.0
G1 X-6.71 Y8.4 Z2.38 F1800.0
G1 X-6.83 Y8.74 Z2.38 F1800.0
G1 X-7.75 Y8.74 Z2.38 F1800.0
G1 X-7.87 Y8.4 Z2.38 F1800.0
G1 X-8.01 Y8.17 Z2.38 F1800.0
G1 X-8.18 Y7.97 Z2.38 F1800.0
G1 X-8.39 Y7.83 Z2.38 F1800.0
G1 X-8.54 Y7.79 Z2.38 F1800.0
G1 X-8.65 Y7.64 Z2.38 F1800.0
G1 X-25.14 Y7.64 Z2.38 F1800.0
G1 X-25.14 Y-9.47 Z2.38 F1800.0
G1 X25.14 Y-9.47 Z2.38 F1800.0
G1 X25.14 Y7.57 Z2.38 F1800.0
G1 X25.08 Y7.8 Z2.38 F1800.0
G1 X24.98 Y7.83 Z2.38 F1800.0
G1 X24.77 Y7.97 Z2.38 F1800.0
G1 X24.59 Y8.17 Z2.38 F1800.0
G1 X24.45 Y8.4 Z2.38 F1800.0
G1 X24.34 Y8.74 Z2.38 F1800.0
G1 X23.42 Y8.74 Z2.38 F1800.0
G1 X23.3 Y8.4 Z2.38 F1800.0
G1 X23.16 Y8.17 Z2.38 F1800.0
G1 X22.98 Y7.97 Z2.38 F1800.0
G1 X22.77 Y7.83 Z2.38 F1800.0
G1 X22.54 Y7.76 Z2.38 F1800.0
G1 X22.29 Y7.76 Z2.38 F1800.0
G1 X22.06 Y7.83 Z2.38 F1800.0
G1 X21.85 Y7.97 Z2.38 F1800.0
G1 X21.67 Y8.17 Z2.38 F1800.0
G1 X21.53 Y8.4 Z2.38 F1800.0
G1 X21.41 Y8.74 Z2.38 F1800.0
G1 X20.51 Y8.74 Z2.38 F1800.0
G1 X20.4 Y8.4 Z2.38 F1800.0
G1 X20.25 Y8.17 Z2.38 F1800.0
G1 X20.08 Y7.97 Z2.38 F1800.0
G1 X19.87 Y7.83 Z2.38 F1800.0
G1 X19.63 Y7.76 Z2.38 F1800.0
G1 X19.39 Y7.76 Z2.38 F1800.0
G1 X19.15 Y7.83 Z2.38 F1800.0
G1 X18.94 Y7.97 Z2.38 F1800.0
G1 X18.77 Y8.17 Z2.38 F1800.0
G1 X18.63 Y8.4 Z2.38 F1800.0
G1 X18.51 Y8.74 Z2.38 F1800.0
G1 X17.59 Y8.74 Z2.38 F1800.0
G1 X17.47 Y8.4 Z2.38 F1800.0
G1 X17.33 Y8.17 Z2.38 F1800.0
G1 X17.15 Y7.97 Z2.38 F1800.0
G1 X16.94 Y7.83 Z2.38 F1800.0
G1 X16.8 Y7.79 Z2.38 F1800.0
G1 X16.68 Y7.64 Z2.38 F1800.0
G1 X2.4 Y7.64 Z2.38 F1800.0
M108 R30.0
M102
G1 X1.95 Y7.64 Z2.38 F1800.0
M108 R3.569
M103
(</perimeter>)
(</boundaryPerimeter>)
(<surroundingLoop>)
(<boundaryPerimeter>)
(<boundaryPoint> X2.534 Y6.089 Z2.38 </boundaryPoint>)
(<boundaryPoint> X22.804 Y6.089 Z2.38 </boundaryPoint>)
(<boundaryPoint> X22.804 Y-7.911 Z2.38 </boundaryPoint>)
(<boundaryPoint> X2.534 Y-7.911 Z2.38 </boundaryPoint>)
(<perimeter> inner )
G1 X2.12 Y7.05 Z2.38 F3000.0
M108 R30.0
M101
G1 X2.34 Y6.29 Z2.38 F3000.0
M108 R3.569
G1 X23.0 Y6.29 Z2.38 F1800.0
G1 X23.0 Y-8.11 Z2.38 F1800.0
G1 X2.34 Y-8.11 Z2.38 F1800.0
G1 X2.34 Y5.84 Z2.38 F1800.0
M108 R30.0
M102
G1 X2.34 Y6.29 Z2.38 F1800.0
M108 R3.569
M103
(</perimeter>)
(</boundaryPerimeter>)
(</surroundingLoop>)
(<surroundingLoop>)
(<boundaryPerimeter>)
(<boundaryPoint> X-2.534 Y6.089 Z2.38 </boundaryPoint>)
(<boundaryPoint> X-2.534 Y-7.911 Z2.38 </boundaryPoint>)
(<boundaryPoint> X-22.804 Y-7.911 Z2.38 </boundaryPoint>)
(<boundaryPoint> X-22.804 Y6.089 Z2.38 </boundaryPoint>)
(<perimeter> inner )
G1 X-1.54 Y6.29 Z2.38 F3000.0
M108 R30.0
M101
G1 X-2.34 Y6.29 Z2.38 F3000.0
M108 R3.569
G1 X-2.34 Y-8.11 Z2.38 F1800.0
G1 X-23.0 Y-8.11 Z2.38 F1800.0
G1 X-23.0 Y6.29 Z2.38 F1800.0
G1 X-2.34 Y6.29 Z2.38 F1800.0
M103
(</perimeter>)
(</boundaryPerimeter>)
(</surroundingLoop>)
G1 X-3.05 Y6.93 Z2.38 F3000.0
M101
G1 X-3.05 Y7.11 Z2.38 F1800.0
G1 X-2.62 Y7.14 Z2.38 F1800.0
G1 X-2.62 Y6.93 Z2.38 F1800.0
G1 X-2.18 Y7.31 Z2.38 F1800.0
G1 X-2.18 Y6.93 Z2.38 F1800.0
G1 X-1.75 Y7.68 Z2.38 F1800.0
G1 X-1.31 Y7.85 Z2.38 F1800.0
G1 X-0.87 Y7.4 Z2.38 F1800.0
G1 X-0.44 Y7.09 Z2.38 F1800.0
G1 X-1.3 Y6.99 Z2.38 F1800.0
M108 R30.0
M102
G1 X-1.75 Y6.93 Z2.38 F1800.0
M108 R3.569
M103
G1 X-5.31 Y6.93 Z2.38 F3000.0
M108 R30.0
M101
G1 X-6.11 Y6.93 Z2.38 F3000.0
M108 R3.569
G1 X-6.11 Y7.13 Z2.38 F1800.0
G1 X-5.67 Y7.11 Z2.38 F1800.0
G1 X-5.67 Y6.93 Z2.38 F1800.0
G1 X-5.24 Y7.23 Z2.38 F1800.0
G1 X-5.24 Y6.93 Z2.38 F1800.0
G1 X-4.8 Y7.52 Z2.38 F1800.0
G1 X-4.8 Y6.93 Z2.38 F1800.0
G1 X-4.36 Y7.37 Z2.38 F1800.0
G1 X-4.36 Y7.98 Z2.38 F1800.0
G1 X-3.93 Y7.49 Z2.38 F1800.0
G1 X-3.93 Y6.93 Z2.38 F1800.0
G1 X-3.63 Y7.13 Z2.38 F1800.0
M108 R30.0
M102
G1 X-3.49 Y7.22 Z2.38 F1800.0
G1 X-3.49 Y6.93 Z2.38 F1800.0
M108 R3.569
M103
G1 X-7.49 Y6.93 Z2.38 F3000.0
M108 R30.0
M101
G1 X-8.29 Y6.93 Z2.38 F3000.0
M108 R3.569
G1 X-8.29 Y7.11 Z2.38 F1800.0
G1 X-7.85 Y6.93 Z2.38 F1800.0
G1 X-7.85 Y7.42 Z2.38 F1800.0
G1 X-7.42 Y7.89 Z2.38 F1800.0
G1 X-6.98 Y7.66 Z2.38 F1800.0
G1 X-6.98 Y6.93 Z2.38 F1800.0
G1 X-6.61 Y7.24 Z2.38 F1800.0
M108 R30.0
M102
G1 X-6.55 Y7.3 Z2.38 F1800.0
G1 X-6.55 Y6.93 Z2.38 F1800.0
M108 R3.569
M103
G1 X-8.73 Y6.99 Z2.38 F3000.0
M101
G1 X-8.73 Y6.93 Z2.38 F1800.0
M103
G1 X-9.16 Y6.93 Z2.38 F3000.0
M101
G1 X-9.16 Y6.99 Z2.38 F1800.0
M103
G1 X-9.6 Y6.99 Z2.38 F3000.0
M101
G1 X-9.6 Y6.93 Z2.38 F1800.0
M103
G1 X-10.04 Y6.93 Z2.38 F3000.0
M101
G1 X-10.04 Y6.99 Z2.38 F1800.0
M103
G1 X-10.47 Y6.99 Z2.38 F3000.0
M101
G1 X-10.47 Y6.93 Z2.38 F1800.0
M103
G1 X-10.91 Y6.93 Z2.38 F3000.0
M101
G1 X-10.91 Y6.99 Z2.38 F1800.0
M103
G1 X-11.35 Y6.99 Z2.38 F3000.0
M101
G1 X-11.35 Y6.93 Z2.38 F1800.0
M103
G1 X-11.78 Y6.93 Z2.38 F3000.0
M101
G1 X-11.78 Y6.99 Z2.38 F1800.0
M103
G1 X-12.22 Y6.99 Z2.38 F3000.0
M101
G1 X-12.22 Y6.93 Z2.38 F1800.0
M103
G1 X-12.65 Y6.93 Z2.38 F3000.0
M101
G1 X-12.65 Y6.99 Z2.38 F1800.0
M103
G1 X-13.09 Y6.99 Z2.38 F3000.0
M101
G1 X-13.09 Y6.93 Z2.38 F1800.0
M103
G1 X-13.53 Y6.93 Z2.38 F3000.0
M101
G1 X-13.53 Y6.99 Z2.38 F1800.0
M103
G1 X-13.96 Y6.99 Z2.38 F3000.0
M101
G1 X-13.96 Y6.93 Z2.38 F1800.0
M103
G1 X-14.4 Y6.93 Z2.38 F3000.0
M101
G1 X-14.4 Y6.99 Z2.38 F1800.0
M103
G1 X-14.84 Y6.99 Z2.38 F3000.0
M101
G1 X-14.84 Y6.93 Z2.38 F1800.0
M103
G1 X-15.27 Y6.93 Z2.38 F3000.0
M101
G1 X-15.27 Y6.99 Z2.38 F1800.0
M103
G1 X-15.71 Y6.99 Z2.38 F3000.0
M101
G1 X-15.71 Y6.93 Z2.38 F1800.0
M103
G1 X-16.14 Y6.93 Z2.38 F3000.0
M101
G1 X-16.14 Y6.99 Z2.38 F1800.0
M103
G1 X-16.58 Y6.99 Z2.38 F3000.0
M101
G1 X-16.58 Y6.93 Z2.38 F1800.0
M103
G1 X-17.02 Y6.93 Z2.38 F3000.0
M101
G1 X-17.02 Y6.99 Z2.38 F1800.0
M103
G1 X-17.45 Y6.99 Z2.38 F3000.0
M101
G1 X-17.45 Y6.93 Z2.38 F1800.0
M103
G1 X-17.89 Y6.93 Z2.38 F3000.0
M101
G1 X-17.89 Y6.99 Z2.38 F1800.0
M103
G1 X-18.33 Y6.99 Z2.38 F3000.0
M101
G1 X-18.33 Y6.93 Z2.38 F1800.0
M103
G1 X-18.76 Y6.93 Z2.38 F3000.0
M101
G1 X-18.76 Y6.99 Z2.38 F1800.0
M103
G1 X-19.2 Y6.99 Z2.38 F3000.0
M101
G1 X-19.2 Y6.93 Z2.38 F1800.0
M103
G1 X-19.64 Y6.93 Z2.38 F3000.0
M101
G1 X-19.64 Y6.99 Z2.38 F1800.0
M103
