(** This GCode was generated by ReplicatorG 0034 **)
(*  using Skeinforge (35)  *)
(*  for a Single headed Thing-O-Matic  *)
(*  on 2012/04/21 19:14:27 (-0400) *)
(<alteration>)
(**** beginning of start.gcode ****)
(This file is for a MakerBot Thing-O-Matic)
(**** begin initialization commands ****)
G21 (set units to mm)
G90 (set positioning to absolute)
M108 R5.0 (set extruder speed)
M103 (Make sure extruder is off)
M104 S225 T0 (set extruder temperature)
M109 S120 T0 (set heated-build-platform temperature)
(**** end initialization commands ****)
(**** begin homing ****)
G162 Z F1000 (home Z axis maximum)
G92 Z10 (set Z to 0)
G1 Z0.0 (move z down 10)
G162 Z F150 (home Z axis maximum)
G161 X Y F2500 (home XY axes minimum)
M132 X Y Z A B (Recall stored home offsets for XYZAB axis)
(**** end homing ****)
(**** begin pre-wipe commands ****)
( Some people have had problems with the nozzle hitting )
( bolts or wipers during this pre-extrusion warmup.     )
( If this happens to you, you can change the values for )
( the X and Y positions in the following code.          )
( The goal is to have the toolhead wipe its initial     )
( extrusion near the edge of the platform, [anchor it]  )
( so as not to have it interfere with the print.        )
( This file can be found in:                            )
( replicatorg/skein_engines/skeinforge-##/skeinforge_application/ )
( prefs/<profile name [e.g. Thingomatic-ABP-Mk7]>/alterations )
G1 X25.0 Y-60.0 Z10.0 F3300.0 (move to waiting position)
M6 T0 (wait for toolhead parts, nozzle, HBP, etc., to reach temperature)
G0 X25 Y-57 (Position Nozzle)
G0 Z0.6     (Position Height)
M108 R4.0   (Set Extruder Speed)
M101        (Start Extruder)
G4 P1500    (Create Anchor)
(**** end pre-wipe commands ****)
(**** end of start.gcode ****)
(</alteration>)
(<creation> skeinforge </creation>)
(<version> 10.11.05 </version>)
(<extruderInitialization>)
(<craftTypeName> extrusion </craftTypeName>)
M105
(<bridgeWidthMultiplier> 1.0 </bridgeWidthMultiplier>)
(<decimalPlacesCarried> 3 </decimalPlacesCarried>)
(<layerThickness> 0.32 </layerThickness>)
(<threadSequenceString> loops perimeter infill </threadSequenceString>)
(<operatingFeedRatePerSecond> 30.0 </operatingFeedRatePerSecond>)
(<operatingFlowRate> 3.56914845556 </operatingFlowRate>)
(<orbitalFeedRatePerSecond> 15.0 </orbitalFeedRatePerSecond>)
(<travelFeedRatePerSecond> 50.0 </travelFeedRatePerSecond>)
(<perimeterWidth> 0.393 </perimeterWidth>)
(<profileName> ABS </profileName>)
(<procedureDone> carve,bottom </procedureDone>)
(<procedureDone> preface </procedureDone>)
(<procedureDone> inset </procedureDone>)
(<procedureDone> fill </procedureDone>)
(<procedureDone> speed </procedureDone>)
(<procedureDone> raft </procedureDone>)
(<procedureDone> jitter </procedureDone>)
(<procedureDone> comb </procedureDone>)
(<procedureDone> cool </procedureDone>)
(<procedureDone> outline </procedureDone>)
(<procedureDone> reversal </procedureDone>)
(<procedureDone> export </procedureDone>)
(</extruderInitialization>)
(<extrusion>)
;M113 S1.0
M108 R3.569
(<layer> 0.46 )
(<surroundingLoop>)
(<boundaryPerimeter>)
(<boundaryPoint> X-27.593 Y11.365 Z0.46 </boundaryPoint>)
(<boundaryPoint> X-27.593 Y-11.356 Z0.46 </boundaryPoint>)
(<boundaryPoint> X27.593 Y-11.356 Z0.46 </boundaryPoint>)
(<boundaryPoint> X27.593 Y11.365 Z0.46 </boundaryPoint>)
(<loop> inner )
M108 R2.141
G1 X29.4 Y-13.16 Z0.46 F1080.0
M101
G1 X-29.4 Y-13.16 Z0.46 F1080.0
G1 X-29.4 Y13.17 Z0.46 F1080.0
G1 X29.4 Y13.17 Z0.46 F1080.0
G1 X29.4 Y-12.89 Z0.46 F1080.0
M108 R30.0
M102
G1 X29.4 Y-13.16 Z0.46 F1080.0
M108 R2.141
M103
G1 X-3.2 Y0.02 Z0.46 F3000.0
M108 R30.0
M101
G1 X-3.94 Y0.32 Z0.46 F3000.0
M108 R2.141
G1 X-3.98 Y-0.02 Z0.46 F1080.0
G1 X-4.35 Y-1.15 Z0.46 F1080.0
G1 X-4.94 Y-2.18 Z0.46 F1080.0
G1 X-5.74 Y-3.07 Z0.46 F1080.0
G1 X-6.7 Y-3.77 Z0.46 F1080.0
G1 X-7.79 Y-4.25 Z0.46 F1080.0
G1 X-8.95 Y-4.5 Z0.46 F1080.0
G1 X-10.14 Y-4.5 Z0.46 F1080.0
G1 X-11.31 Y-4.25 Z0.46 F1080.0
G1 X-12.39 Y-3.77 Z0.46 F1080.0
G1 X-13.36 Y-3.07 Z0.46 F1080.0
G1 X-14.15 Y-2.18 Z0.46 F1080.0
G1 X-14.75 Y-1.15 Z0.46 F1080.0
G1 X-15.12 Y-0.02 Z0.46 F1080.0
G1 X-15.24 Y1.17 Z0.46 F1080.0
G1 X-15.12 Y2.35 Z0.46 F1080.0
G1 X-14.75 Y3.48 Z0.46 F1080.0
G1 X-14.15 Y4.51 Z0.46 F1080.0
G1 X-13.36 Y5.4 Z0.46 F1080.0
G1 X-12.39 Y6.09 Z0.46 F1080.0
G1 X-11.31 Y6.58 Z0.46 F1080.0
G1 X-10.14 Y6.83 Z0.46 F1080.0
G1 X-8.95 Y6.83 Z0.46 F1080.0
G1 X-7.79 Y6.58 Z0.46 F1080.0
G1 X-6.7 Y6.09 Z0.46 F1080.0
G1 X-5.74 Y5.4 Z0.46 F1080.0
G1 X-4.94 Y4.51 Z0.46 F1080.0
G1 X-4.35 Y3.48 Z0.46 F1080.0
G1 X-3.98 Y2.35 Z0.46 F1080.0
G1 X-3.85 Y1.17 Z0.46 F1080.0
G1 X-3.91 Y0.59 Z0.46 F1080.0
M108 R30.0
M102
G1 X-3.93 Y0.42 Z0.46 F1080.0
G1 X-3.94 Y0.32 Z0.46 F1080.0
M108 R2.141
M103
(</loop>)
(<loop> inner )
G1 X11.56 Y1.12 Z0.46 F3000.0
M108 R30.0
M101
G1 X12.35 Y1.17 Z0.46 F3000.0
M108 R2.141
G1 X12.48 Y2.35 Z0.46 F1080.0
G1 X12.85 Y3.48 Z0.46 F1080.0
G1 X13.44 Y4.51 Z0.46 F1080.0
G1 X14.24 Y5.4 Z0.46 F1080.0
G1 X15.2 Y6.09 Z0.46 F1080.0
G1 X16.29 Y6.58 Z0.46 F1080.0
G1 X17.45 Y6.83 Z0.46 F1080.0
G1 X18.64 Y6.83 Z0.46 F1080.0
G1 X19.81 Y6.58 Z0.46 F1080.0
G1 X20.89 Y6.09 Z0.46 F1080.0
G1 X21.86 Y5.4 Z0.46 F1080.0
G1 X22.65 Y4.51 Z0.46 F1080.0
G1 X23.25 Y3.48 Z0.46 F1080.0
G1 X23.62 Y2.35 Z0.46 F1080.0
G1 X23.74 Y1.17 Z0.46 F1080.0
G1 X23.62 Y-0.02 Z0.46 F1080.0
G1 X23.25 Y-1.15 Z0.46 F1080.0
G1 X22.65 Y-2.18 Z0.46 F1080.0
G1 X21.86 Y-3.07 Z0.46 F1080.0
G1 X20.89 Y-3.77 Z0.46 F1080.0
G1 X19.81 Y-4.25 Z0.46 F1080.0
G1 X18.64 Y-4.5 Z0.46 F1080.0
G1 X17.45 Y-4.5 Z0.46 F1080.0
G1 X16.29 Y-4.25 Z0.46 F1080.0
G1 X15.2 Y-3.77 Z0.46 F1080.0
G1 X14.24 Y-3.07 Z0.46 F1080.0
G1 X13.44 Y-2.18 Z0.46 F1080.0
G1 X12.85 Y-1.15 Z0.46 F1080.0
G1 X12.48 Y-0.02 Z0.46 F1080.0
G1 X12.38 Y0.9 Z0.46 F1080.0
M108 R30.0
M102
G1 X12.35 Y1.17 Z0.46 F1080.0
M108 R2.141
M103
(</loop>)
(<loop> outer )
G1 X12.35 Y9.98 Z0.46 F3000.0
M108 R30.0
M101
G1 X12.35 Y10.78 Z0.46 F3000.0
M108 R2.141
G1 X-27.0 Y10.78 Z0.46 F1080.0
G1 X-27.0 Y-10.77 Z0.46 F1080.0
G1 X27.0 Y-10.77 Z0.46 F1080.0
G1 X27.0 Y10.78 Z0.46 F1080.0
G1 X12.35 Y10.78 Z0.46 F1080.0
M103
(</loop>)
(<perimeter> outer )
G1 X12.35 Y11.17 Z0.46 F3000.0
M101
G1 X-27.4 Y11.17 Z0.46 F1080.0
G1 X-27.4 Y-11.16 Z0.46 F1080.0
G1 X27.4 Y-11.16 Z0.46 F1080.0
G1 X27.4 Y11.17 Z0.46 F1080.0
G1 X12.62 Y11.17 Z0.46 F1080.0
M108 R30.0
M102
G1 X12.35 Y11.17 Z0.46 F1080.0
M108 R2.141
M103
(</perimeter>)
(</boundaryPerimeter>)
(<surroundingLoop>)
(<boundaryPerimeter>)
(<boundaryPoint> X17.513 Y6.237 Z0.46 </boundaryPoint>)
(<boundaryPoint> X18.58 Y6.237 Z0.46 </boundaryPoint>)
(<boundaryPoint> X19.623 Y6.015 Z0.46 </boundaryPoint>)
(<boundaryPoint> X20.597 Y5.581 Z0.46 </boundaryPoint>)
(<boundaryPoint> X21.459 Y4.955 Z0.46 </boundaryPoint>)
(<boundaryPoint> X22.173 Y4.162 Z0.46 </boundaryPoint>)
(<boundaryPoint> X22.706 Y3.239 Z0.46 </boundaryPoint>)
(<boundaryPoint> X23.035 Y2.225 Z0.46 </boundaryPoint>)
(<boundaryPoint> X23.147 Y1.165 Z0.46 </boundaryPoint>)
(<boundaryPoint> X23.035 Y0.104 Z0.46 </boundaryPoint>)
(<boundaryPoint> X22.706 Y-0.91 Z0.46 </boundaryPoint>)
(<boundaryPoint> X22.173 Y-1.833 Z0.46 </boundaryPoint>)
(<boundaryPoint> X21.459 Y-2.625 Z0.46 </boundaryPoint>)
(<boundaryPoint> X20.597 Y-3.252 Z0.46 </boundaryPoint>)
(<boundaryPoint> X19.623 Y-3.686 Z0.46 </boundaryPoint>)
(<boundaryPoint> X18.58 Y-3.907 Z0.46 </boundaryPoint>)
(<boundaryPoint> X17.513 Y-3.907 Z0.46 </boundaryPoint>)
(<boundaryPoint> X16.471 Y-3.686 Z0.46 </boundaryPoint>)
(<boundaryPoint> X15.497 Y-3.252 Z0.46 </boundaryPoint>)
(<boundaryPoint> X14.634 Y-2.625 Z0.46 </boundaryPoint>)
(<boundaryPoint> X13.921 Y-1.833 Z0.46 </boundaryPoint>)
(<boundaryPoint> X13.387 Y-0.91 Z0.46 </boundaryPoint>)
(<boundaryPoint> X13.058 Y0.104 Z0.46 </boundaryPoint>)
(<boundaryPoint> X12.947 Y1.165 Z0.46 </boundaryPoint>)
(<boundaryPoint> X13.058 Y2.225 Z0.46 </boundaryPoint>)
(<boundaryPoint> X13.387 Y3.239 Z0.46 </boundaryPoint>)
(<boundaryPoint> X13.921 Y4.162 Z0.46 </boundaryPoint>)
(<boundaryPoint> X14.634 Y4.955 Z0.46 </boundaryPoint>)
(<boundaryPoint> X15.497 Y5.581 Z0.46 </boundaryPoint>)
(<boundaryPoint> X16.471 Y6.015 Z0.46 </boundaryPoint>)
(<perimeter> inner )
G1 X15.01 Y6.45 Z0.46 F3000.0
M108 R30.0
M101
G1 X15.4 Y5.75 Z0.46 F3000.0
M108 R2.141
G1 X16.41 Y6.2 Z0.46 F1080.0
G1 X17.49 Y6.43 Z0.46 F1080.0
G1 X18.6 Y6.43 Z0.46 F1080.0
G1 X19.68 Y6.2 Z0.46 F1080.0
G1 X20.7 Y5.75 Z0.46 F1080.0
G1 X21.59 Y5.1 Z0.46 F1080.0
G1 X22.33 Y4.28 Z0.46 F1080.0
G1 X22.89 Y3.32 Z0.46 F1080.0
G1 X23.23 Y2.27 Z0.46 F1080.0
G1 X23.35 Y1.17 Z0.46 F1080.0
G1 X23.23 Y0.06 Z0.46 F1080.0
G1 X22.89 Y-0.99 Z0.46 F1080.0
G1 X22.33 Y-1.95 Z0.46 F1080.0
G1 X21.59 Y-2.77 Z0.46 F1080.0
G1 X20.7 Y-3.42 Z0.46 F1080.0
G1 X19.68 Y-3.87 Z0.46 F1080.0
G1 X18.6 Y-4.1 Z0.46 F1080.0
G1 X17.49 Y-4.1 Z0.46 F1080.0
G1 X16.41 Y-3.87 Z0.46 F1080.0
G1 X15.4 Y-3.42 Z0.46 F1080.0
G1 X14.5 Y-2.77 Z0.46 F1080.0
G1 X13.76 Y-1.95 Z0.46 F1080.0
G1 X13.21 Y-0.99 Z0.46 F1080.0
G1 X12.87 Y0.06 Z0.46 F1080.0
G1 X12.75 Y1.17 Z0.46 F1080.0
G1 X12.87 Y2.27 Z0.46 F1080.0
G1 X13.21 Y3.32 Z0.46 F1080.0
G1 X13.76 Y4.28 Z0.46 F1080.0
G1 X14.5 Y5.1 Z0.46 F1080.0
G1 X15.18 Y5.59 Z0.46 F1080.0
M108 R30.0
M102
G1 X15.4 Y5.75 Z0.46 F1080.0
M108 R2.141
M103
(</perimeter>)
(</boundaryPerimeter>)
(</surroundingLoop>)
(<surroundingLoop>)
(<boundaryPerimeter>)
(<boundaryPoint> X-13.672 Y4.162 Z0.46 </boundaryPoint>)
(<boundaryPoint> X-12.959 Y4.955 Z0.46 </boundaryPoint>)
(<boundaryPoint> X-12.096 Y5.581 Z0.46 </boundaryPoint>)
(<boundaryPoint> X-11.122 Y6.015 Z0.46 </boundaryPoint>)
(<boundaryPoint> X-10.079 Y6.237 Z0.46 </boundaryPoint>)
(<boundaryPoint> X-9.013 Y6.237 Z0.46 </boundaryPoint>)
(<boundaryPoint> X-7.97 Y6.015 Z0.46 </boundaryPoint>)
(<boundaryPoint> X-6.996 Y5.581 Z0.46 </boundaryPoint>)
(<boundaryPoint> X-6.134 Y4.955 Z0.46 </boundaryPoint>)
(<boundaryPoint> X-5.42 Y4.162 Z0.46 </boundaryPoint>)
(<boundaryPoint> X-4.887 Y3.239 Z0.46 </boundaryPoint>)
(<boundaryPoint> X-4.558 Y2.225 Z0.46 </boundaryPoint>)
(<boundaryPoint> X-4.446 Y1.165 Z0.46 </boundaryPoint>)
(<boundaryPoint> X-4.558 Y0.104 Z0.46 </boundaryPoint>)
(<boundaryPoint> X-4.887 Y-0.91 Z0.46 </boundaryPoint>)
(<boundaryPoint> X-5.42 Y-1.833 Z0.46 </boundaryPoint>)
(<boundaryPoint> X-6.134 Y-2.625 Z0.46 </boundaryPoint>)
(<boundaryPoint> X-6.996 Y-3.252 Z0.46 </boundaryPoint>)
(<boundaryPoint> X-7.97 Y-3.686 Z0.46 </boundaryPoint>)
(<boundaryPoint> X-9.013 Y-3.907 Z0.46 </boundaryPoint>)
(<boundaryPoint> X-10.079 Y-3.907 Z0.46 </boundaryPoint>)
(<boundaryPoint> X-11.122 Y-3.686 Z0.46 </boundaryPoint>)
(<boundaryPoint> X-12.096 Y-3.252 Z0.46 </boundaryPoint>)
(<boundaryPoint> X-12.959 Y-2.625 Z0.46 </boundaryPoint>)
(<boundaryPoint> X-13.672 Y-1.833 Z0.46 </boundaryPoint>)
(<boundaryPoint> X-14.205 Y-0.91 Z0.46 </boundaryPoint>)
(<boundaryPoint> X-14.535 Y0.104 Z0.46 </boundaryPoint>)
(<boundaryPoint> X-14.646 Y1.165 Z0.46 </boundaryPoint>)
(<boundaryPoint> X-14.535 Y2.225 Z0.46 </boundaryPoint>)
(<boundaryPoint> X-14.205 Y3.239 Z0.46 </boundaryPoint>)
(<perimeter> inner )
G1 X-3.58 Y2.4 Z0.46 F3000.0
M108 R30.0
M101
G1 X-4.37 Y2.27 Z0.46 F3000.0
M108 R2.141
G1 X-4.25 Y1.17 Z0.46 F1080.0
G1 X-4.37 Y0.06 Z0.46 F1080.0
G1 X-4.71 Y-0.99 Z0.46 F1080.0
G1 X-5.26 Y-1.95 Z0.46 F1080.0
G1 X-6.0 Y-2.77 Z0.46 F1080.0
G1 X-6.9 Y-3.42 Z0.46 F1080.0
G1 X-7.91 Y-3.87 Z0.46 F1080.0
G1 X-8.99 Y-4.1 Z0.46 F1080.0
G1 X-10.1 Y-4.1 Z0.46 F1080.0
G1 X-11.18 Y-3.87 Z0.46 F1080.0
G1 X-12.2 Y-3.42 Z0.46 F1080.0
G1 X-13.09 Y-2.77 Z0.46 F1080.0
G1 X-13.83 Y-1.95 Z0.46 F1080.0
G1 X-14.39 Y-0.99 Z0.46 F1080.0
G1 X-14.73 Y0.06 Z0.46 F1080.0
G1 X-14.84 Y1.17 Z0.46 F1080.0
G1 X-14.73 Y2.27 Z0.46 F1080.0
G1 X-14.39 Y3.32 Z0.46 F1080.0
G1 X-13.83 Y4.28 Z0.46 F1080.0
G1 X-13.09 Y5.1 Z0.46 F1080.0
G1 X-12.2 Y5.75 Z0.46 F1080.0
G1 X-11.18 Y6.2 Z0.46 F1080.0
G1 X-10.1 Y6.43 Z0.46 F1080.0
G1 X-8.99 Y6.43 Z0.46 F1080.0
G1 X-7.91 Y6.2 Z0.46 F1080.0
G1 X-6.9 Y5.75 Z0.46 F1080.0
G1 X-6.0 Y5.1 Z0.46 F1080.0
G1 X-5.26 Y4.28 Z0.46 F1080.0
G1 X-4.71 Y3.32 Z0.46 F1080.0
G1 X-4.37 Y2.27 Z0.46 F1080.0
M103
(</perimeter>)
(</boundaryPerimeter>)
(</surroundingLoop>)
G1 X-3.93 Y3.02 Z0.46 F1800.0
M101
G1 X-3.93 Y10.52 Z0.46 F1080.0
M103
G1 X-3.53 Y10.52 Z0.46 F1800.0
M101
G1 X-3.53 Y-10.51 Z0.46 F1080.0
M103
G1 X-3.93 Y-10.51 Z0.46 F1800.0
M101
G1 X-3.93 Y-0.96 Z0.46 F1080.0
M108 R30.0
M102
G1 X-3.93 Y-0.69 Z0.46 F1080.0
M108 R2.141
M103
G1 X-4.13 Y-1.18 Z0.46 F1800.0
M108 R30.0
M101
G1 X-4.32 Y-1.62 Z0.46 F1800.0
M108 R2.141
G1 X-4.32 Y-10.51 Z0.46 F1080.0
M103
G1 X-4.71 Y-10.51 Z0.46 F1800.0
M101
G1 X-4.71 Y-2.3 Z0.46 F1080.0
G1 X-5.11 Y-2.75 Z0.46 F1080.0
G1 X-5.11 Y-10.51 Z0.46 F1080.0
M103
G1 X-5.5 Y-10.51 Z0.46 F1800.0
M101
G1 X-5.5 Y-3.18 Z0.46 F1080.0
G1 X-5.89 Y-3.49 Z0.46 F1080.0
G1 X-5.89 Y-10.51 Z0.46 F1080.0
M103
G1 X-6.28 Y-10.51 Z0.46 F1800.0
M101
G1 X-6.28 Y-3.78 Z0.46 F1080.0
G1 X-6.68 Y-4.03 Z0.46 F1080.0
G1 X-6.68 Y-10.51 Z0.46 F1080.0
M103
G1 X-7.07 Y-10.51 Z0.46 F1800.0
M101
G1 X-7.07 Y-4.48 Z0.46 F1080.0
M108 R30.0
M102
G1 X-7.07 Y-4.21 Z0.46 F1080.0
M108 R2.141
M103
G1 X-8.57 Y-4.62 Z0.46 F1800.0
M108 R30.0
M101
G1 X-9.03 Y-4.75 Z0.46 F1800.0
M108 R2.141
G1 X-9.03 Y-10.51 Z0.46 F1080.0
M103
G1 X-9.43 Y-10.51 Z0.46 F1800.0
M101
G1 X-9.43 Y-4.75 Z0.46 F1080.0
G1 X-9.82 Y-4.75 Z0.46 F1080.0
G1 X-9.82 Y-10.51 Z0.46 F1080.0
M103
G1 X-10.21 Y-10.51 Z0.46 F1800.0
M101
G1 X-10.21 Y-4.74 Z0.46 F1080.0
M103
G1 X-10.6 Y-4.66 Z0.46 F1800.0
M101
G1 X-10.6 Y-10.51 Z0.46 F1080.0
M103
G1 X-11.0 Y-10.51 Z0.46 F1800.0
M101
G1 X-11.0 Y-4.58 Z0.46 F1080.0
G1 X-11.39 Y-4.49 Z0.46 F1080.0
G1 X-11.39 Y-10.51 Z0.46 F1080.0
M103
G1 X-11.78 Y-10.51 Z0.46 F1800.0
M101
G1 X-11.78 Y-4.32 Z0.46 F1080.0
G1 X-12.17 Y-4.14 Z0.46 F1080.0
G1 X-12.17 Y-10.51 Z0.46 F1080.0
M103
G1 X-12.57 Y-10.51 Z0.46 F1800.0
M101
G1 X-12.57 Y-3.95 Z0.46 F1080.0
G1 X-12.96 Y-3.67 Z0.46 F1080.0
G1 X-12.96 Y-10.51 Z0.46 F1080.0
M103
G1 X-13.35 Y-10.51 Z0.46 F1800.0
M101
G1 X-13.35 Y-3.38 Z0.46 F1080.0
G1 X-13.74 Y-3.02 Z0.46 F1080.0
G1 X-13.74 Y-10.51 Z0.46 F1080.0
M103
G1 X-14.14 Y-10.51 Z0.46 F1800.0
M101
G1 X-14.14 Y-2.58 Z0.46 F1080.0
G1 X-14.53 Y-2.04 Z0.46 F1080.0
G1 X-14.53 Y-10.51 Z0.46 F1080.0
M103
G1 X-14.92 Y-10.51 Z0.46 F1800.0
M101
G1 X-14.92 Y-1.63 Z0.46 F1080.0
M108 R30.0
M102
G1 X-14.92 Y-1.36 Z0.46 F1080.0
M108 R2.141
M103
G1 X-15.16 Y-0.68 Z0.46 F1800.0
M108 R30.0
M101
G1 X-15.32 Y-0.23 Z0.46 F1800.0
M108 R2.141
G1 X-15.32 Y-10.51 Z0.46 F1080.0
M103
G1 X-15.71 Y-10.51 Z0.46 F1800.0
M101
G1 X-15.71 Y10.52 Z0.46 F1080.0
M103
G1 X-16.1 Y10.52 Z0.46 F1800.0
M101
G1 X-16.1 Y-10.51 Z0.46 F1080.0
M103
G1 X-16.49 Y-10.51 Z0.46 F1800.0
M101
G1 X-16.49 Y10.52 Z0.46 F1080.0
M103
G1 X-16.89 Y10.52 Z0.46 F1800.0
M101
G1 X-16.89 Y-10.51 Z0.46 F1080.0
M103
G1 X-17.28 Y-10.51 Z0.46 F1800.0
M101
G1 X-17.28 Y10.52 Z0.46 F1080.0
M103
G1 X-17.67 Y10.52 Z0.46 F1800.0
M101
G1 X-17.67 Y-10.51 Z0.46 F1080.0
M103
G1 X-18.06 Y-10.51 Z0.46 F1800.0
M101
G1 X-18.06 Y10.52 Z0.46 F1080.0
M103
G1 X-18.46 Y10.52 Z0.46 F1800.0
M101
G1 X-18.46 Y-10.51 Z0.46 F1080.0
M103
G1 X-18.85 Y-10.51 Z0.46 F1800.0
M101
G1 X-18.85 Y10.52 Z0.46 F1080.0
M103
G1 X-19.24 Y10.52 Z0.46 F1800.0
M101
G1 X-19.24 Y-10.51 Z0.46 F1080.0
M103
G1 X-19.64 Y-10.51 Z0.46 F1800.0
M101
G1 X-19.64 Y10.52 Z0.46 F1080.0
M103
G1 X-20.03 Y10.52 Z0.46 F1800.0
M101
G1 X-20.03 Y-10.51 Z0.46 F1080.0
M103
G1 X-20.42 Y-10.51 Z0.46 F1800.0
M101
G1 X-20.42 Y10.52 Z0.46 F1080.0
M103
G1 X-20.81 Y10.52 Z0.46 F1800.0
M101
G1 X-20.81 Y-10.51 Z0.46 F1080.0
M103
G1 X-21.21 Y-10.51 Z0.46 F1800.0
M101
G1 X-21.21 Y10.52 Z0.46 F1080.0
M103
G1 X-21.6 Y10.52 Z0.46 F1800.0
M101
G1 X-21.6 Y-10.51 Z0.46 F1080.0
M103
G1 X-21.99 Y-10.51 Z0.46 F1800.0
M101
G1 X-21.99 Y10.52 Z0.46 F1080.0
M103
G1 X-22.38 Y10.52 Z0.46 F1800.0
M101
G1 X-22.38 Y-10.51 Z0.46 F1080.0
M103
G1 X-22.78 Y-10.51 Z0.46 F1800.0
M101
G1 X-22.78 Y10.52 Z0.46 F1080.0
M103
G1 X-23.17 Y10.52 Z0.46 F1800.0
M101
G1 X-23.17 Y-10.51 Z0.46 F1080.0
M103
G1 X-23.56 Y-10.51 Z0.46 F1800.0
M101
G1 X-23.56 Y10.52 Z0.46 F1080.0
M103
G1 X-23.96 Y10.52 Z0.46 F1800.0
M101
G1 X-23.96 Y-10.51 Z0.46 F1080.0
M103
G1 X-24.35 Y-10.51 Z0.46 F1800.0
M101
G1 X-24.35 Y10.52 Z0.46 F1080.0
M103
G1 X-24.74 Y10.52 Z0.46 F1800.0
M101
G1 X-24.74 Y-10.51 Z0.46 F1080.0
M103
G1 X-25.13 Y-10.51 Z0.46 F1800.0
M101
G1 X-25.13 Y10.52 Z0.46 F1080.0
M103
G1 X-25.53 Y10.52 Z0.46 F1800.0
M101
G1 X-25.53 Y-10.51 Z0.46 F1080.0
M103
G1 X-25.92 Y-10.51 Z0.46 F1800.0
M101
G1 X-25.92 Y10.52 Z0.46 F1080.0
M103
G1 X-26.31 Y10.52 Z0.46 F1800.0
M101
G1 X-26.31 Y-10.51 Z0.46 F1080.0
M103
G1 X-26.7 Y-10.51 Z0.46 F1800.0
M101
G1 X-26.7 Y10.25 Z0.46 F1080.0
M108 R30.0
M102
G1 X-26.7 Y10.52 Z0.46 F1080.0
M108 R2.141
M103
G1 X-15.8 Y10.52 Z0.46 F1800.0
M108 R30.0
M101
G1 X-15.32 Y10.52 Z0.46 F1800.0
M108 R2.141
G1 X-15.32 Y2.83 Z0.46 F1080.0
M108 R30.0
M102
G1 X-15.32 Y2.56 Z0.46 F1080.0
M108 R2.141
M103
G1 X-14.35 Y4.48 Z0.46 F1800.0
M108 R30.0
M101
G1 X-14.14 Y4.91 Z0.46 F1800.0
M108 R2.141
G1 X-14.14 Y10.52 Z0.46 F1080.0
M103
G1 X-14.92 Y10.52 Z0.46 F1800.0
M101
G1 X-14.92 Y3.69 Z0.46 F1080.0
G1 X-14.53 Y4.37 Z0.46 F1080.0
G1 X-14.53 Y10.52 Z0.46 F1080.0
M103
G1 X-13.74 Y10.52 Z0.46 F1800.0
M101
G1 X-13.74 Y5.35 Z0.46 F1080.0
G1 X-13.35 Y5.71 Z0.46 F1080.0
G1 X-13.35 Y10.52 Z0.46 F1080.0
M103
G1 X-12.96 Y10.52 Z0.46 F1800.0
M101
G1 X-12.96 Y6.0 Z0.46 F1080.0
G1 X-12.57 Y6.28 Z0.46 F1080.0
G1 X-12.57 Y10.52 Z0.46 F1080.0
M103
G1 X-12.17 Y10.52 Z0.46 F1800.0
M101
G1 X-12.17 Y6.74 Z0.46 F1080.0
M108 R30.0
M102
G1 X-12.17 Y6.47 Z0.46 F1080.0
M108 R2.141
M103
G1 X-11.45 Y6.74 Z0.46 F1800.0
M108 R30.0
M101
G1 X-11.0 Y6.91 Z0.46 F1800.0
M108 R2.141
G1 X-11.0 Y10.52 Z0.46 F1080.0
M103
G1 X-10.6 Y10.52 Z0.46 F1800.0
M101
G1 X-10.6 Y6.99 Z0.46 F1080.0
M103
G1 X-10.21 Y7.07 Z0.46 F1800.0
M101
G1 X-10.21 Y10.52 Z0.46 F1080.0
M103
G1 X-9.82 Y10.52 Z0.46 F1800.0
M101
G1 X-9.82 Y7.08 Z0.46 F1080.0
G1 X-9.43 Y7.08 Z0.46 F1080.0
G1 X-9.43 Y10.52 Z0.46 F1080.0
M103
G1 X-9.03 Y10.52 Z0.46 F1800.0
M101
G1 X-9.03 Y7.08 Z0.46 F1080.0
M103
G1 X-8.64 Y7.02 Z0.46 F1800.0
M101
G1 X-8.64 Y10.52 Z0.46 F1080.0
M103
G1 X-8.25 Y10.52 Z0.46 F1800.0
M101
G1 X-8.25 Y6.94 Z0.46 F1080.0
G1 X-7.85 Y6.85 Z0.46 F1080.0
G1 X-7.85 Y10.52 Z0.46 F1080.0
M103
G1 X-7.46 Y10.52 Z0.46 F1800.0
M101
G1 X-7.46 Y6.71 Z0.46 F1080.0
M103
G1 X-7.07 Y6.54 Z0.46 F1800.0
M101
G1 X-7.07 Y10.52 Z0.46 F1080.0
M103
G1 X-6.68 Y10.52 Z0.46 F1800.0
M101
G1 X-6.68 Y6.36 Z0.46 F1080.0
G1 X-6.28 Y6.11 Z0.46 F1080.0
G1 X-6.28 Y10.52 Z0.46 F1080.0
M103
G1 X-5.89 Y10.52 Z0.46 F1800.0
M101
G1 X-5.89 Y5.82 Z0.46 F1080.0
G1 X-5.5 Y5.51 Z0.46 F1080.0
G1 X-5.5 Y10.52 Z0.46 F1080.0
M103
G1 X-5.11 Y10.52 Z0.46 F1800.0
M101
G1 X-5.11 Y5.08 Z0.46 F1080.0
G1 X-4.71 Y4.63 Z0.46 F1080.0
G1 X-4.71 Y10.52 Z0.46 F1080.0
M103
G1 X-4.32 Y10.52 Z0.46 F1800.0
M101
G1 X-4.32 Y4.22 Z0.46 F1080.0
M108 R30.0
M102
G1 X-4.32 Y3.95 Z0.46 F1080.0
M108 R2.141
M103
G1 X-3.18 Y-10.03 Z0.46 F1800.0
M108 R30.0
M101
G1 X-3.14 Y-10.51 Z0.46 F1800.0
M108 R2.141
G1 X-3.14 Y10.52 Z0.46 F1080.0
M103
G1 X-2.75 Y10.52 Z0.46 F1800.0
M101
G1 X-2.75 Y-10.51 Z0.46 F1080.0
M103
G1 X-2.36 Y-10.51 Z0.46 F1800.0
M101
G1 X-2.36 Y10.52 Z0.46 F1080.0
M103
G1 X-1.96 Y10.52 Z0.46 F1800.0
M101
G1 X-1.96 Y-10.51 Z0.46 F1080.0
M103
G1 X-1.57 Y-10.51 Z0.46 F1800.0
M101
G1 X-1.57 Y10.52 Z0.46 F1080.0
M103
G1 X-1.18 Y10.52 Z0.46 F1800.0
M101
G1 X-1.18 Y-10.51 Z0.46 F1080.0
M103
G1 X-0.79 Y-10.51 Z0.46 F1800.0
M101
G1 X-0.79 Y10.52 Z0.46 F1080.0
M103
G1 X-0.39 Y10.52 Z0.46 F1800.0
M101
G1 X-0.39 Y-10.51 Z0.46 F1080.0
M103
G1 X-0.0 Y-10.51 Z0.46 F1800.0
M101
G1 X0.0 Y10.52 Z0.46 F1080.0
M103
G1 X0.39 Y10.52 Z0.46 F1800.0
M101
G1 X0.39 Y-10.51 Z0.46 F1080.0
M103
G1 X0.79 Y-10.51 Z0.46 F1800.0
M101
G1 X0.79 Y10.52 Z0.46 F1080.0
M103
G1 X1.18 Y10.52 Z0.46 F1800.0
M101
G1 X1.18 Y-10.51 Z0.46 F1080.0
M103
G1 X1.57 Y-10.51 Z0.46 F1800.0
M101
G1 X1.57 Y10.52 Z0.46 F1080.0
M103
G1 X1.96 Y10.52 Z0.46 F1800.0
M101
G1 X1.96 Y-10.51 Z0.46 F1080.0
M103
G1 X2.36 Y-10.51 Z0.46 F1800.0
M101
G1 X2.36 Y10.52 Z0.46 F1080.0
M103
G1 X2.75 Y10.52 Z0.46 F1800.0
M101
G1 X2.75 Y-10.51 Z0.46 F1080.0
M103
G1 X3.14 Y-10.51 Z0.46 F1800.0
M101
G1 X3.14 Y10.52 Z0.46 F1080.0
M103
G1 X3.53 Y10.52 Z0.46 F1800.0
M101
G1 X3.53 Y-10.51 Z0.46 F1080.0
M103
G1 X3.93 Y-10.51 Z0.46 F1800.0
M101
G1 X3.93 Y10.52 Z0.46 F1080.0
M103
G1 X4.32 Y10.52 Z0.46 F1800.0
M101
G1 X4.32 Y-10.51 Z0.46 F1080.0
M103
G1 X4.71 Y-10.51 Z0.46 F1800.0
M101
G1 X4.71 Y10.52 Z0.46 F1080.0
M103
G1 X5.11 Y10.52 Z0.46 F1800.0
M101
G1 X5.11 Y-10.51 Z0.46 F1080.0
M103
G1 X5.5 Y-10.51 Z0.46 F1800.0
M101
G1 X5.5 Y10.52 Z0.46 F1080.0
M103
G1 X5.89 Y10.52 Z0.46 F1800.0
M101
G1 X5.89 Y-10.51 Z0.46 F1080.0
M103
G1 X6.28 Y-10.51 Z0.46 F1800.0
M101
G1 X6.28 Y10.52 Z0.46 F1080.0
M103
G1 X6.68 Y10.52 Z0.46 F1800.0
M101
G1 X6.68 Y-10.51 Z0.46 F1080.0
M103
G1 X7.07 Y-10.51 Z0.46 F1800.0
M101
G1 X7.07 Y10.52 Z0.46 F1080.0
M103
G1 X7.46 Y10.52 Z0.46 F1800.0
M101
G1 X7.46 Y-10.51 Z0.46 F1080.0
M103
G1 X7.85 Y-10.51 Z0.46 F1800.0
M101
G1 X7.85 Y10.52 Z0.46 F1080.0
M103
G1 X8.25 Y10.52 Z0.46 F1800.0
M101
G1 X8.25 Y-10.51 Z0.46 F1080.0
M103
G1 X8.64 Y-10.51 Z0.46 F1800.0
M101
G1 X8.64 Y10.52 Z0.46 F1080.0
M103
G1 X9.03 Y10.52 Z0.46 F1800.0
M101
G1 X9.03 Y-10.51 Z0.46 F1080.0
M103
G1 X9.43 Y-10.51 Z0.46 F1800.0
M101
G1 X9.43 Y10.52 Z0.46 F1080.0
M103
G1 X9.82 Y10.52 Z0.46 F1800.0
M101
G1 X9.82 Y-10.51 Z0.46 F1080.0
M103
G1 X10.21 Y-10.51 Z0.46 F1800.0
M101
G1 X10.21 Y10.52 Z0.46 F1080.0
M103
G1 X10.6 Y10.52 Z0.46 F1800.0
M101
G1 X10.6 Y-10.51 Z0.46 F1080.0
M103
G1 X11.0 Y-10.51 Z0.46 F1800.0
M101
G1 X11.0 Y10.52 Z0.46 F1080.0
M103
G1 X11.39 Y10.52 Z0.46 F1800.0
M101
G1 X11.39 Y-10.51 Z0.46 F1080.0
M103
G1 X11.78 Y-10.51 Z0.46 F1800.0
M101
G1 X11.78 Y10.52 Z0.46 F1080.0
M103
G1 X12.17 Y10.52 Z0.46 F1800.0
M101
G1 X12.17 Y2.16 Z0.46 F1080.0
M108 R30.0
M102
G1 X12.17 Y1.89 Z0.46 F1080.0
M108 R2.141
M103
G1 X12.17 Y0.92 Z0.46 F1800.0
M108 R30.0
M101
G1 X12.17 Y0.44 Z0.46 F1800.0
M108 R2.141
G1 X12.17 Y-10.51 Z0.46 F1080.0
M103
G1 X12.57 Y-10.51 Z0.46 F1800.0
M101
G1 X12.57 Y-1.39 Z0.46 F1080.0
M108 R30.0
M102
G1 X12.57 Y-1.12 Z0.46 F1080.0
M108 R2.141
M103
G1 X12.57 Y2.97 Z0.46 F1800.0
M108 R30.0
M101
G1 X12.57 Y3.45 Z0.46 F1800.0
M108 R2.141
G1 X12.57 Y10.52 Z0.46 F1080.0
M103
G1 X12.96 Y10.52 Z0.46 F1800.0
M101
G1 X12.96 Y4.19 Z0.46 F1080.0
M103
G1 X13.35 Y4.79 Z0.46 F1800.0
M101
G1 X13.35 Y10.52 Z0.46 F1080.0
M103
G1 X13.74 Y10.52 Z0.46 F1800.0
M101
G1 X13.74 Y5.23 Z0.46 F1080.0
G1 X14.14 Y5.64 Z0.46 F1080.0
G1 X14.14 Y10.52 Z0.46 F1080.0
M103
G1 X14.53 Y10.52 Z0.46 F1800.0
M101
G1 X14.53 Y5.92 Z0.46 F1080.0
G1 X14.92 Y6.21 Z0.46 F1080.0
G1 X14.92 Y10.52 Z0.46 F1080.0
M103
G1 X15.32 Y10.52 Z0.46 F1800.0
M101
G1 X15.32 Y6.7 Z0.46 F1080.0
M108 R30.0
M102
G1 X15.32 Y6.43 Z0.46 F1080.0
M108 R2.141
M103
G1 X16.05 Y6.71 Z0.46 F1800.0
M108 R30.0
M101
G1 X16.49 Y6.88 Z0.46 F1800.0
M108 R2.141
G1 X16.49 Y10.52 Z0.46 F1080.0
M103
G1 X16.89 Y10.52 Z0.46 F1800.0
M101
G1 X16.89 Y6.97 Z0.46 F1080.0
G1 X17.28 Y7.05 Z0.46 F1080.0
G1 X17.28 Y10.52 Z0.46 F1080.0
M103
G1 X17.67 Y10.52 Z0.46 F1800.0
M101
G1 X17.67 Y7.08 Z0.46 F1080.0
G1 X18.06 Y7.08 Z0.46 F1080.0
G1 X18.06 Y10.52 Z0.46 F1080.0
M103
G1 X18.46 Y10.52 Z0.46 F1800.0
M101
G1 X18.46 Y7.35 Z0.46 F1080.0
M108 R30.0
M102
G1 X18.46 Y7.08 Z0.46 F1080.0
M108 R2.141
M103
G1 X19.16 Y6.96 Z0.46 F1800.0
M108 R30.0
M101
G1 X19.64 Y6.88 Z0.46 F1800.0
M108 R2.141
G1 X19.64 Y10.52 Z0.46 F1080.0
M103
G1 X18.85 Y10.52 Z0.46 F1800.0
M101
G1 X18.85 Y7.04 Z0.46 F1080.0
G1 X19.24 Y6.96 Z0.46 F1080.0
G1 X19.24 Y10.52 Z0.46 F1080.0
M103
G1 X20.03 Y10.52 Z0.46 F1800.0
M101
G1 X20.03 Y6.76 Z0.46 F1080.0
M103
G1 X20.42 Y6.58 Z0.46 F1800.0
M101
G1 X20.42 Y10.52 Z0.46 F1080.0
M103
G1 X20.81 Y10.52 Z0.46 F1800.0
M101
G1 X20.81 Y6.41 Z0.46 F1080.0
G1 X21.21 Y6.18 Z0.46 F1080.0
G1 X21.21 Y10.52 Z0.46 F1080.0
M103
G1 X21.6 Y10.52 Z0.46 F1800.0
M101
G1 X21.6 Y5.9 Z0.46 F1080.0
G1 X21.99 Y5.61 Z0.46 F1080.0
G1 X21.99 Y10.52 Z0.46 F1080.0
M103
G1 X22.38 Y10.52 Z0.46 F1800.0
M101
G1 X22.38 Y5.19 Z0.46 F1080.0
G1 X22.78 Y4.75 Z0.46 F1080.0
G1 X22.78 Y10.52 Z0.46 F1080.0
M103
G1 X23.17 Y10.52 Z0.46 F1800.0
M101
G1 X23.17 Y4.13 Z0.46 F1080.0
M103
G1 X23.56 Y3.34 Z0.46 F1800.0
M101
G1 X23.56 Y10.52 Z0.46 F1080.0
M103
G1 X23.96 Y10.52 Z0.46 F1800.0
M101
G1 X23.96 Y1.56 Z0.46 F1080.0
M103
G1 X23.96 Y0.77 Z0.46 F1800.0
M101
G1 X23.96 Y-10.51 Z0.46 F1080.0
M103
G1 X23.56 Y-10.51 Z0.46 F1800.0
M101
G1 X23.56 Y-1.01 Z0.46 F1080.0
M103
G1 X23.17 Y-1.8 Z0.46 F1800.0
M101
G1 X23.17 Y-10.51 Z0.46 F1080.0
M103
G1 X22.78 Y-10.51 Z0.46 F1800.0
M101
G1 X22.78 Y-2.42 Z0.46 F1080.0
G1 X22.38 Y-2.86 Z0.46 F1080.0
G1 X22.38 Y-10.51 Z0.46 F1080.0
M103
G1 X21.99 Y-10.51 Z0.46 F1800.0
M101
G1 X21.99 Y-3.28 Z0.46 F1080.0
G1 X21.6 Y-3.57 Z0.46 F1080.0
G1 X21.6 Y-10.51 Z0.46 F1080.0
M103
G1 X21.21 Y-10.51 Z0.46 F1800.0
M101
G1 X21.21 Y-3.85 Z0.46 F1080.0
M103
G1 X20.81 Y-4.08 Z0.46 F1800.0
M101
G1 X20.81 Y-10.51 Z0.46 F1080.0
M103
G1 X20.42 Y-10.51 Z0.46 F1800.0
M101
G1 X20.42 Y-4.53 Z0.46 F1080.0
M108 R30.0
M102
G1 X20.42 Y-4.26 Z0.46 F1080.0
M108 R2.141
M103
G1 X19.7 Y-4.48 Z0.46 F1800.0
M108 R30.0
M101
G1 X19.24 Y-4.63 Z0.46 F1800.0
M108 R2.141
G1 X19.24 Y-10.51 Z0.46 F1080.0
M103
G1 X20.03 Y-10.51 Z0.46 F1800.0
M101
G1 X20.03 Y-4.43 Z0.46 F1080.0
G1 X19.64 Y-4.55 Z0.46 F1080.0
G1 X19.64 Y-10.51 Z0.46 F1080.0
M103
G1 X18.85 Y-10.51 Z0.46 F1800.0
M101
G1 X18.85 Y-4.71 Z0.46 F1080.0
G1 X18.46 Y-4.75 Z0.46 F1080.0
G1 X18.46 Y-10.51 Z0.46 F1080.0
M103
G1 X18.06 Y-10.51 Z0.46 F1800.0
M101
G1 X18.06 Y-4.75 Z0.46 F1080.0
G1 X17.67 Y-4.75 Z0.46 F1080.0
G1 X17.67 Y-10.51 Z0.46 F1080.0
M103
G1 X17.28 Y-10.51 Z0.46 F1800.0
M101
G1 X17.28 Y-4.72 Z0.46 F1080.0
M103
G1 X16.89 Y-4.64 Z0.46 F1800.0
M101
G1 X16.89 Y-10.51 Z0.46 F1080.0
M103
G1 X16.49 Y-10.51 Z0.46 F1800.0
M101
G1 X16.49 Y-4.55 Z0.46 F1080.0
G1 X16.1 Y-4.45 Z0.46 F1080.0
G1 X16.1 Y-10.51 Z0.46 F1080.0
M103
G1 X15.71 Y-10.51 Z0.46 F1800.0
M101
G1 X15.71 Y-4.27 Z0.46 F1080.0
G1 X15.32 Y-4.1 Z0.46 F1080.0
G1 X15.32 Y-10.51 Z0.46 F1080.0
M103
G1 X14.92 Y-10.51 Z0.46 F1800.0
M101
G1 X14.92 Y-3.88 Z0.46 F1080.0
G1 X14.53 Y-3.59 Z0.46 F1080.0
G1 X14.53 Y-10.51 Z0.46 F1080.0
M103
G1 X14.14 Y-10.51 Z0.46 F1800.0
M101
G1 X14.14 Y-3.31 Z0.46 F1080.0
G1 X13.74 Y-2.9 Z0.46 F1080.0
G1 X13.74 Y-10.51 Z0.46 F1080.0
M103
G1 X13.35 Y-10.51 Z0.46 F1800.0
M101
G1 X13.35 Y-2.46 Z0.46 F1080.0
G1 X12.96 Y-1.86 Z0.46 F1080.0
G1 X12.96 Y-10.24 Z0.46 F1080.0
M108 R30.0
M102
G1 X12.96 Y-10.51 Z0.46 F1080.0
M108 R2.141
M103
G1 X23.87 Y-10.51 Z0.46 F1800.0
M108 R30.0
M101
G1 X24.35 Y-10.51 Z0.46 F1800.0
M108 R2.141
G1 X24.35 Y10.52 Z0.46 F1080.0
M103
G1 X24.74 Y10.52 Z0.46 F1800.0
M101
G1 X24.74 Y-10.51 Z0.46 F1080.0
M103
G1 X25.13 Y-10.51 Z0.46 F1800.0
M101
G1 X25.13 Y10.52 Z0.46 F1080.0
M103
G1 X25.53 Y10.52 Z0.46 F1800.0
M101
G1 X25.53 Y-10.51 Z0.46 F1080.0
M103
G1 X25.92 Y-10.51 Z0.46 F1800.0
M101
G1 X25.92 Y10.52 Z0.46 F1080.0
M103
G1 X26.31 Y10.52 Z0.46 F1800.0
M101
G1 X26.31 Y-10.51 Z0.46 F1080.0
M103
G1 X26.7 Y-10.51 Z0.46 F1800.0
M101
G1 X26.7 Y10.25 Z0.46 F1080.0
M108 R30.0
M102
G1 X26.7 Y10.52 Z0.46 F1080.0
M108 R2.141
M103
G1 X16.19 Y10.52 Z0.46 F1800.0
M108 R30.0
M101
G1 X15.71 Y10.52 Z0.46 F1800.0
M108 R2.141
G1 X15.71 Y6.6 Z0.46 F1080.0
G1 X16.1 Y6.78 Z0.46 F1080.0
G1 X16.1 Y10.25 Z0.46 F1080.0
M108 R30.0
M102
G1 X16.1 Y10.52 Z0.46 F1080.0
M108 R2.141
M103
G1 X-11.3 Y10.52 Z0.46 F1800.0
M108 R30.0
M101
G1 X-11.78 Y10.52 Z0.46 F1800.0
M108 R2.141
G1 X-11.78 Y6.65 Z0.46 F1080.0
G1 X-11.39 Y6.82 Z0.46 F1080.0
G1 X-11.39 Y10.25 Z0.46 F1080.0
M108 R30.0
M102
G1 X-11.39 Y10.52 Z0.46 F1080.0
M108 R2.141
M103
G1 X-14.8 Y2.28 Z0.46 F3000.0
G1 X-14.92 Y1.17 Z0.46 F3000.0
G1 X-14.8 Y0.05 Z0.46 F3000.0
G1 X-14.46 Y-1.02 Z0.46 F3000.0
G1 X-8.51 Y-10.11 Z0.46 F1800.0
M108 R30.0
M101
G1 X-8.25 Y-10.51 Z0.46 F1800.0
M108 R2.141
G1 X-8.25 Y-4.61 Z0.46 F1080.0
G1 X-8.64 Y-4.69 Z0.46 F1080.0
G1 X-8.64 Y-10.24 Z0.46 F1080.0
M108 R30.0
M102
G1 X-8.64 Y-10.51 Z0.46 F1080.0
M108 R2.141
M103
G1 X-7.94 Y-10.51 Z0.46 F1800.0
M108 R30.0
M101
G1 X-7.46 Y-10.51 Z0.46 F1800.0
M108 R2.141
G1 X-7.46 Y-4.38 Z0.46 F1080.0
G1 X-7.85 Y-4.53 Z0.46 F1080.0
G1 X-7.85 Y-10.24 Z0.46 F1080.0
M108 R30.0
M102
G1 X-7.85 Y-10.51 Z0.46 F1080.0
M108 R2.141
M103
(</surroundingLoop>)
(</layer>)
(<layer> 0.78 )
(<surroundingLoop>)
(<boundaryPerimeter>)
(<boundaryPoint> X-27.593 Y11.365 Z0.78 </boundaryPoint>)
(<boundaryPoint> X-27.593 Y-11.288 Z0.78 </boundaryPoint>)
(<boundaryPoint> X27.593 Y-11.288 Z0.78 </boundaryPoint>)
(<boundaryPoint> X27.593 Y11.365 Z0.78 </boundaryPoint>)
(<loop> inner )
M108 R3.569
G1 X12.22 Y-1.65 Z0.77 F3000.0
M108 R30.0
M101
G1 X12.95 Y-1.33 Z0.78 F3000.0
M108 R3.569
G1 X12.85 Y-1.15 Z0.78 F1800.0
G1 X12.48 Y-0.02 Z0.78 F1800.0
G1 X12.35 Y1.17 Z0.78 F1800.0
G1 X12.48 Y2.35 Z0.78 F1800.0
G1 X12.85 Y3.48 Z0.78 F1800.0
G1 X13.44 Y4.51 Z0.78 F1800.0
G1 X14.24 Y5.4 Z0.78 F1800.0
G1 X15.2 Y6.09 Z0.78 F1800.0
G1 X16.29 Y6.58 Z0.78 F1800.0
G1 X17.45 Y6.83 Z0.78 F1800.0
G1 X18.64 Y6.83 Z0.78 F1800.0
G1 X19.81 Y6.58 Z0.78 F1800.0
G1 X20.89 Y6.09 Z0.78 F1800.0
G1 X21.86 Y5.4 Z0.78 F1800.0
G1 X22.65 Y4.51 Z0.78 F1800.0
G1 X23.25 Y3.48 Z0.78 F1800.0
G1 X23.62 Y2.35 Z0.78 F1800.0
G1 X23.74 Y1.17 Z0.78 F1800.0
G1 X23.62 Y-0.02 Z0.78 F1800.0
G1 X23.25 Y-1.15 Z0.78 F1800.0
G1 X22.65 Y-2.18 Z0.78 F1800.0
G1 X21.86 Y-3.07 Z0.78 F1800.0
G1 X20.89 Y-3.77 Z0.78 F1800.0
G1 X19.81 Y-4.25 Z0.78 F1800.0
G1 X18.64 Y-4.5 Z0.78 F1800.0
G1 X17.45 Y-4.5 Z0.78 F1800.0
G1 X16.29 Y-4.25 Z0.78 F1800.0
G1 X15.2 Y-3.77 Z0.78 F1800.0
G1 X14.24 Y-3.07 Z0.78 F1800.0
G1 X13.44 Y-2.18 Z0.78 F1800.0
G1 X13.18 Y-1.72 Z0.78 F1800.0
M108 R30.0
M102
G1 X12.95 Y-1.33 Z0.78 F1800.0
M108 R3.569
M103
(</loop>)
(<loop> inner )
G1 X-3.12 Y0.53 Z0.78 F3000.0
M108 R30.0
M101
G1 X-3.91 Y0.62 Z0.78 F3000.0
M108 R3.569
G1 X-3.98 Y-0.02 Z0.78 F1800.0
G1 X-4.35 Y-1.15 Z0.78 F1800.0
G1 X-4.94 Y-2.18 Z0.78 F1800.0
G1 X-5.74 Y-3.07 Z0.78 F1800.0
G1 X-6.7 Y-3.77 Z0.78 F1800.0
G1 X-7.79 Y-4.25 Z0.78 F1800.0
G1 X-8.95 Y-4.5 Z0.78 F1800.0
G1 X-10.14 Y-4.5 Z0.78 F1800.0
G1 X-11.31 Y-4.25 Z0.78 F1800.0
G1 X-12.39 Y-3.77 Z0.78 F1800.0
G1 X-13.36 Y-3.07 Z0.78 F1800.0
G1 X-14.15 Y-2.18 Z0.78 F1800.0
G1 X-14.75 Y-1.15 Z0.78 F1800.0
G1 X-15.12 Y-0.02 Z0.78 F1800.0
G1 X-15.24 Y1.17 Z0.78 F1800.0
G1 X-15.12 Y2.35 Z0.78 F1800.0
G1 X-14.75 Y3.48 Z0.78 F1800.0
G1 X-14.15 Y4.51 Z0.78 F1800.0
G1 X-13.36 Y5.4 Z0.78 F1800.0
G1 X-12.39 Y6.09 Z0.78 F1800.0
G1 X-11.31 Y6.58 Z0.78 F1800.0
G1 X-10.14 Y6.83 Z0.78 F1800.0
G1 X-8.95 Y6.83 Z0.78 F1800.0
G1 X-7.79 Y6.58 Z0.78 F1800.0
G1 X-6.7 Y6.09 Z0.78 F1800.0
G1 X-5.74 Y5.4 Z0.78 F1800.0
G1 X-4.94 Y4.51 Z0.78 F1800.0
G1 X-4.35 Y3.48 Z0.78 F1800.0
G1 X-3.98 Y2.35 Z0.78 F1800.0
G1 X-3.85 Y1.17 Z0.78 F1800.0
G1 X-3.86 Y1.07 Z0.78 F1800.0
M108 R30.0
M102
G1 X-3.91 Y0.62 Z0.78 F1800.0
M108 R3.569
M103
(</loop>)
(<loop> outer )
G1 X-3.91 Y9.98 Z0.78 F3000.0
M108 R30.0
M101
G1 X-3.91 Y10.78 Z0.78 F3000.0
M108 R3.569
G1 X-27.0 Y10.78 Z0.78 F1800.0
G1 X-27.0 Y-10.7 Z0.78 F1800.0
G1 X27.0 Y-10.7 Z0.78 F1800.0
G1 X27.0 Y10.78 Z0.78 F1800.0
G1 X-3.91 Y10.78 Z0.78 F1800.0
M103
(</loop>)
(<perimeter> outer )
G1 X-3.91 Y11.17 Z0.78 F3000.0
M101
G1 X-27.4 Y11.17 Z0.78 F1800.0
G1 X-27.4 Y-11.09 Z0.78 F1800.0
G1 X27.4 Y-11.09 Z0.78 F1800.0
G1 X27.4 Y11.17 Z0.78 F1800.0
G1 X-3.46 Y11.17 Z0.78 F1800.0
M108 R30.0
M102
G1 X-3.91 Y11.17 Z0.78 F1800.0
M108 R3.569
M103
(</perimeter>)
(</boundaryPerimeter>)
(<surroundingLoop>)
(<boundaryPerimeter>)
(<boundaryPoint> X-13.672 Y4.162 Z0.78 </boundaryPoint>)
(<boundaryPoint> X-12.959 Y4.955 Z0.78 </boundaryPoint>)
(<boundaryPoint> X-12.096 Y5.581 Z0.78 </boundaryPoint>)
(<boundaryPoint> X-11.122 Y6.015 Z0.78 </boundaryPoint>)
(<boundaryPoint> X-10.079 Y6.237 Z0.78 </boundaryPoint>)
(<boundaryPoint> X-9.013 Y6.237 Z0.78 </boundaryPoint>)
(<boundaryPoint> X-7.97 Y6.015 Z0.78 </boundaryPoint>)
(<boundaryPoint> X-6.996 Y5.581 Z0.78 </boundaryPoint>)
(<boundaryPoint> X-6.134 Y4.955 Z0.78 </boundaryPoint>)
(<boundaryPoint> X-5.42 Y4.162 Z0.78 </boundaryPoint>)
(<boundaryPoint> X-4.887 Y3.239 Z0.78 </boundaryPoint>)
(<boundaryPoint> X-4.558 Y2.225 Z0.78 </boundaryPoint>)
(<boundaryPoint> X-4.446 Y1.165 Z0.78 </boundaryPoint>)
(<boundaryPoint> X-4.558 Y0.104 Z0.78 </boundaryPoint>)
(<boundaryPoint> X-4.887 Y-0.91 Z0.78 </boundaryPoint>)
(<boundaryPoint> X-5.42 Y-1.833 Z0.78 </boundaryPoint>)
(<boundaryPoint> X-6.134 Y-2.625 Z0.78 </boundaryPoint>)
(<boundaryPoint> X-6.996 Y-3.252 Z0.78 </boundaryPoint>)
(<boundaryPoint> X-7.97 Y-3.686 Z0.78 </boundaryPoint>)
(<boundaryPoint> X-9.013 Y-3.907 Z0.78 </boundaryPoint>)
(<boundaryPoint> X-10.079 Y-3.907 Z0.78 </boundaryPoint>)
(<boundaryPoint> X-11.122 Y-3.686 Z0.78 </boundaryPoint>)
(<boundaryPoint> X-12.096 Y-3.252 Z0.78 </boundaryPoint>)
(<boundaryPoint> X-12.959 Y-2.625 Z0.78 </boundaryPoint>)
(<boundaryPoint> X-13.672 Y-1.833 Z0.78 </boundaryPoint>)
(<boundaryPoint> X-14.205 Y-0.91 Z0.78 </boundaryPoint>)
(<boundaryPoint> X-14.535 Y0.104 Z0.78 </boundaryPoint>)
(<boundaryPoint> X-14.646 Y1.165 Z0.78 </boundaryPoint>)
(<boundaryPoint> X-14.535 Y2.225 Z0.78 </boundaryPoint>)
(<boundaryPoint> X-14.205 Y3.239 Z0.78 </boundaryPoint>)
(<perimeter> inner )
G1 X-6.51 Y6.45 Z0.78 F3000.0
M108 R30.0
M101
G1 X-6.9 Y5.75 Z0.78 F3000.0
M108 R3.569
G1 X-6.0 Y5.1 Z0.78 F1800.0
G1 X-5.26 Y4.28 Z0.78 F1800.0
G1 X-4.71 Y3.32 Z0.78 F1800.0
G1 X-4.37 Y2.27 Z0.78 F1800.0
G1 X-4.25 Y1.17 Z0.78 F1800.0
G1 X-4.37 Y0.06 Z0.78 F1800.0
G1 X-4.71 Y-0.99 Z0.78 F1800.0
G1 X-5.26 Y-1.95 Z0.78 F1800.0
G1 X-6.0 Y-2.77 Z0.78 F1800.0
G1 X-6.9 Y-3.42 Z0.78 F1800.0
G1 X-7.91 Y-3.87 Z0.78 F1800.0
G1 X-8.99 Y-4.1 Z0.78 F1800.0
G1 X-10.1 Y-4.1 Z0.78 F1800.0
G1 X-11.18 Y-3.87 Z0.78 F1800.0
G1 X-12.2 Y-3.42 Z0.78 F1800.0
G1 X-13.09 Y-2.77 Z0.78 F1800.0
G1 X-13.83 Y-1.95 Z0.78 F1800.0
G1 X-14.39 Y-0.99 Z0.78 F1800.0
G1 X-14.73 Y0.06 Z0.78 F1800.0
G1 X-14.84 Y1.17 Z0.78 F1800.0
G1 X-14.73 Y2.27 Z0.78 F1800.0
G1 X-14.39 Y3.32 Z0.78 F1800.0
G1 X-13.83 Y4.28 Z0.78 F1800.0
G1 X-13.09 Y5.1 Z0.78 F1800.0
G1 X-12.2 Y5.75 Z0.78 F1800.0
G1 X-11.18 Y6.2 Z0.78 F1800.0
G1 X-10.1 Y6.43 Z0.78 F1800.0
G1 X-8.99 Y6.43 Z0.78 F1800.0
G1 X-7.91 Y6.2 Z0.78 F1800.0
G1 X-7.31 Y5.94 Z0.78 F1800.0
M108 R30.0
M102
G1 X-6.9 Y5.75 Z0.78 F1800.0
M108 R3.569
M103
(</perimeter>)
(</boundaryPerimeter>)
(</surroundingLoop>)
(<surroundingLoop>)
(<boundaryPerimeter>)
(<boundaryPoint> X17.513 Y6.237 Z0.78 </boundaryPoint>)
(<boundaryPoint> X18.58 Y6.237 Z0.78 </boundaryPoint>)
(<boundaryPoint> X19.623 Y6.015 Z0.78 </boundaryPoint>)
(<boundaryPoint> X20.597 Y5.581 Z0.78 </boundaryPoint>)
(<boundaryPoint> X21.459 Y4.955 Z0.78 </boundaryPoint>)
(<boundaryPoint> X22.173 Y4.162 Z0.78 </boundaryPoint>)
(<boundaryPoint> X22.706 Y3.239 Z0.78 </boundaryPoint>)
(<boundaryPoint> X23.035 Y2.225 Z0.78 </boundaryPoint>)
(<boundaryPoint> X23.147 Y1.165 Z0.78 </boundaryPoint>)
(<boundaryPoint> X23.035 Y0.104 Z0.78 </boundaryPoint>)
(<boundaryPoint> X22.706 Y-0.91 Z0.78 </boundaryPoint>)
(<boundaryPoint> X22.173 Y-1.833 Z0.78 </boundaryPoint>)
(<boundaryPoint> X21.459 Y-2.625 Z0.78 </boundaryPoint>)
(<boundaryPoint> X20.597 Y-3.252 Z0.78 </boundaryPoint>)
(<boundaryPoint> X19.623 Y-3.686 Z0.78 </boundaryPoint>)
(<boundaryPoint> X18.58 Y-3.907 Z0.78 </boundaryPoint>)
(<boundaryPoint> X17.513 Y-3.907 Z0.78 </boundaryPoint>)
(<boundaryPoint> X16.471 Y-3.686 Z0.78 </boundaryPoint>)
(<boundaryPoint> X15.497 Y-3.252 Z0.78 </boundaryPoint>)
(<boundaryPoint> X14.634 Y-2.625 Z0.78 </boundaryPoint>)
(<boundaryPoint> X13.921 Y-1.833 Z0.78 </boundaryPoint>)
(<boundaryPoint> X13.387 Y-0.91 Z0.78 </boundaryPoint>)
(<boundaryPoint> X13.058 Y0.104 Z0.78 </boundaryPoint>)
(<boundaryPoint> X12.947 Y1.165 Z0.78 </boundaryPoint>)
(<boundaryPoint> X13.058 Y2.225 Z0.78 </boundaryPoint>)
(<boundaryPoint> X13.387 Y3.239 Z0.78 </boundaryPoint>)
(<boundaryPoint> X13.921 Y4.162 Z0.78 </boundaryPoint>)
(<boundaryPoint> X14.634 Y4.955 Z0.78 </boundaryPoint>)
(<boundaryPoint> X15.497 Y5.581 Z0.78 </boundaryPoint>)
(<boundaryPoint> X16.471 Y6.015 Z0.78 </boundaryPoint>)
(<perimeter> inner )
G1 X12.08 Y2.4 Z0.78 F3000.0
M108 R30.0
M101
G1 X12.87 Y2.27 Z0.78 F3000.0
M108 R3.569
G1 X13.21 Y3.32 Z0.78 F1800.0
G1 X13.76 Y4.28 Z0.78 F1800.0
G1 X14.5 Y5.1 Z0.78 F1800.0
G1 X15.4 Y5.75 Z0.78 F1800.0
G1 X16.41 Y6.2 Z0.78 F1800.0
G1 X17.49 Y6.43 Z0.78 F1800.0
G1 X18.6 Y6.43 Z0.78 F1800.0
G1 X19.68 Y6.2 Z0.78 F1800.0
G1 X20.7 Y5.75 Z0.78 F1800.0
G1 X21.59 Y5.1 Z0.78 F1800.0
G1 X22.33 Y4.28 Z0.78 F1800.0
G1 X22.89 Y3.32 Z0.78 F1800.0
G1 X23.23 Y2.27 Z0.78 F1800.0
G1 X23.35 Y1.17 Z0.78 F1800.0
G1 X23.23 Y0.06 Z0.78 F1800.0
G1 X22.89 Y-0.99 Z0.78 F1800.0
G1 X22.33 Y-1.95 Z0.78 F1800.0
G1 X21.59 Y-2.77 Z0.78 F1800.0
G1 X20.7 Y-3.42 Z0.78 F1800.0
G1 X19.68 Y-3.87 Z0.78 F1800.0
G1 X18.6 Y-4.1 Z0.78 F1800.0
G1 X17.49 Y-4.1 Z0.78 F1800.0
G1 X16.41 Y-3.87 Z0.78 F1800.0
G1 X15.4 Y-3.42 Z0.78 F1800.0
G1 X14.5 Y-2.77 Z0.78 F1800.0
G1 X13.76 Y-1.95 Z0.78 F1800.0
G1 X13.21 Y-0.99 Z0.78 F1800.0
G1 X12.87 Y0.06 Z0.78 F1800.0
G1 X12.75 Y1.17 Z0.78 F1800.0
G1 X12.87 Y2.27 Z0.78 F1800.0
M103
(</perimeter>)
(</boundaryPerimeter>)
(</surroundingLoop>)
G1 X12.22 Y2.36 Z0.78 F3000.0
M101
G1 X-3.72 Y2.36 Z0.78 F1800.0
G1 X-3.68 Y1.96 Z0.78 F1800.0
G1 X12.18 Y1.96 Z0.78 F1800.0
G1 X12.14 Y1.57 Z0.78 F1800.0
G1 X-3.19 Y1.57 Z0.78 F1800.0
M108 R30.0
M102
G1 X-3.64 Y1.57 Z0.78 F1800.0
M108 R3.569
M103
G1 X11.54 Y2.69 Z0.78 F3000.0
M108 R30.0
M101
G1 X12.34 Y2.75 Z0.78 F3000.0
M108 R3.569
G1 X-3.84 Y2.75 Z0.78 F1800.0
M103
G1 X-3.97 Y3.14 Z0.78 F3000.0
M101
G1 X12.02 Y3.14 Z0.78 F1800.0
M108 R30.0
M102
G1 X12.47 Y3.14 Z0.78 F1800.0
M108 R3.569
M103
G1 X12.69 Y3.6 Z0.78 F3000.0
M108 R30.0
M101
G1 X13.04 Y4.32 Z0.78 F3000.0
M108 R3.569
G1 X-4.54 Y4.32 Z0.78 F1800.0
M103
G1 X-4.31 Y3.93 Z0.78 F3000.0
M101
G1 X12.81 Y3.93 Z0.78 F1800.0
G1 X12.6 Y3.53 Z0.78 F1800.0
G1 X-3.65 Y3.53 Z0.78 F1800.0
M108 R30.0
M102
G1 X-4.1 Y3.53 Z0.78 F1800.0
M108 R3.569
M103
G1 X-6.0 Y5.68 Z0.78 F3000.0
M108 R30.0
M101
G1 X-6.53 Y6.28 Z0.78 F3000.0
M108 R3.569
G1 X15.03 Y6.28 Z0.78 F1800.0
G1 X14.49 Y5.89 Z0.78 F1800.0
G1 X-5.99 Y5.89 Z0.78 F1800.0
G1 X-5.49 Y5.5 Z0.78 F1800.0
G1 X13.99 Y5.5 Z0.78 F1800.0
G1 X13.63 Y5.11 Z0.78 F1800.0
G1 X-5.13 Y5.11 Z0.78 F1800.0
G1 X-4.78 Y4.71 Z0.78 F1800.0
G1 X12.83 Y4.71 Z0.78 F1800.0
M108 R30.0
M102
G1 X13.28 Y4.71 Z0.78 F1800.0
M108 R3.569
M103
G1 X15.24 Y6.19 Z0.78 F3000.0
M108 R30.0
M101
G1 X15.88 Y6.68 Z0.78 F3000.0
M108 R3.569
G1 X-6.93 Y6.68 Z0.78 F1800.0
M108 R30.0
M102
G1 X-7.38 Y6.68 Z0.78 F1800.0
M108 R3.569
M103
G1 X16.56 Y7.06 Z0.78 F3000.0
M108 R30.0
M101
G1 X17.36 Y7.07 Z0.78 F3000.0
M108 R3.569
G1 X-8.41 Y7.07 Z0.78 F1800.0
M108 R30.0
M102
G1 X-8.86 Y7.07 Z0.78 F1800.0
M108 R3.569
M103
G1 X-9.43 Y7.07 Z0.78 F3000.0
M108 R30.0
M101
G1 X-10.23 Y7.07 Z0.78 F3000.0
M108 R3.569
G1 X-26.75 Y7.07 Z0.78 F1800.0
G1 X-26.75 Y6.68 Z0.78 F1800.0
G1 X-11.71 Y6.68 Z0.78 F1800.0
M103
G1 X-12.57 Y6.28 Z0.78 F3000.0
M101
G1 X-26.75 Y6.28 Z0.78 F1800.0
G1 X-26.75 Y5.89 Z0.78 F1800.0
G1 X-13.11 Y5.89 Z0.78 F1800.0
G1 X-13.61 Y5.5 Z0.78 F1800.0
G1 X-26.75 Y5.5 Z0.78 F1800.0
G1 X-26.75 Y5.11 Z0.78 F1800.0
G1 X-13.96 Y5.11 Z0.78 F1800.0
G1 X-14.31 Y4.71 Z0.78 F1800.0
G1 X-26.75 Y4.71 Z0.78 F1800.0
G1 X-26.75 Y4.32 Z0.78 F1800.0
G1 X-14.56 Y4.32 Z0.78 F1800.0
G1 X-14.78 Y3.93 Z0.78 F1800.0
G1 X-26.75 Y3.93 Z0.78 F1800.0
G1 X-26.75 Y3.53 Z0.78 F1800.0
G1 X-15.0 Y3.53 Z0.78 F1800.0
M103
G1 X-15.13 Y3.14 Z0.78 F3000.0
M101
G1 X-26.75 Y3.14 Z0.78 F1800.0
G1 X-26.75 Y2.75 Z0.78 F1800.0
G1 X-15.25 Y2.75 Z0.78 F1800.0
M103
G1 X-15.37 Y2.36 Z0.78 F3000.0
M101
G1 X-26.75 Y2.36 Z0.78 F1800.0
G1 X-26.75 Y1.96 Z0.78 F1800.0
G1 X-15.41 Y1.96 Z0.78 F1800.0
G1 X-15.45 Y1.57 Z0.78 F1800.0
G1 X-26.75 Y1.57 Z0.78 F1800.0
G1 X-26.75 Y1.18 Z0.78 F1800.0
G1 X-15.49 Y1.18 Z0.78 F1800.0
M103
G1 X-15.46 Y0.79 Z0.78 F3000.0
M101
G1 X-26.75 Y0.79 Z0.78 F1800.0
G1 X-26.75 Y0.39 Z0.78 F1800.0
G1 X-15.41 Y0.39 Z0.78 F1800.0
M103
G1 X-15.37 Y0.0 Z0.78 F3000.0
M101
G1 X-26.75 Y0.0 Z0.78 F1800.0
G1 X-26.75 Y-0.39 Z0.78 F1800.0
G1 X-15.26 Y-0.39 Z0.78 F1800.0
M103
G1 X-15.13 Y-0.79 Z0.78 F3000.0
M101
G1 X-26.75 Y-0.79 Z0.78 F1800.0
G1 X-26.75 Y-1.18 Z0.78 F1800.0
G1 X-15.01 Y-1.18 Z0.78 F1800.0
M103
G1 X-14.8 Y-1.57 Z0.78 F3000.0
M101
G1 X-26.75 Y-1.57 Z0.78 F1800.0
G1 X-26.75 Y-1.96 Z0.78 F1800.0
G1 X-14.57 Y-1.96 Z0.78 F1800.0
M103
G1 X-14.34 Y-2.36 Z0.78 F3000.0
M101
G1 X-26.75 Y-2.36 Z0.78 F1800.0
G1 X-26.75 Y-2.75 Z0.78 F1800.0
G1 X-13.98 Y-2.75 Z0.78 F1800.0
G1 X-13.63 Y-3.14 Z0.78 F1800.0
G1 X-26.75 Y-3.14 Z0.78 F1800.0
G1 X-26.75 Y-3.53 Z0.78 F1800.0
G1 X-13.14 Y-3.53 Z0.78 F1800.0
G1 X-12.6 Y-3.93 Z0.78 F1800.0
G1 X-26.75 Y-3.93 Z0.78 F1800.0
G1 X-26.75 Y-4.32 Z0.78 F1800.0
G1 X-12.23 Y-4.32 Z0.78 F1800.0
M108 R30.0
M102
G1 X-11.78 Y-4.32 Z0.78 F1800.0
M108 R3.569
M103
G1 X15.02 Y-4.32 Z0.78 F3000.0
M108 R30.0
M101
G1 X15.82 Y-4.32 Z0.78 F3000.0
M108 R3.569
G1 X-6.87 Y-4.32 Z0.78 F1800.0
M108 R30.0
M102
G1 X-7.32 Y-4.32 Z0.78 F1800.0
M108 R3.569
M103
G1 X-4.66 Y-1.74 Z0.78 F3000.0
M108 R30.0
M101
G1 X-4.09 Y-1.18 Z0.78 F3000.0
M108 R3.569
G1 X12.59 Y-1.18 Z0.78 F1800.0
G1 X12.79 Y-1.57 Z0.78 F1800.0
G1 X-3.84 Y-1.57 Z0.78 F1800.0
M108 R30.0
M102
G1 X-4.29 Y-1.57 Z0.78 F1800.0
M108 R3.569
M103
G1 X11.31 Y1.05 Z0.78 F3000.0
M108 R30.0
M101
G1 X12.1 Y1.18 Z0.78 F3000.0
M108 R3.569
G1 X-3.6 Y1.18 Z0.78 F1800.0
G1 X-3.64 Y0.79 Z0.78 F1800.0
G1 X12.14 Y0.79 Z0.78 F1800.0
G1 X12.18 Y0.39 Z0.78 F1800.0
G1 X-3.68 Y0.39 Z0.78 F1800.0
G1 X-3.72 Y0.0 Z0.78 F1800.0
G1 X12.22 Y-0.0 Z0.78 F1800.0
M103
G1 X12.33 Y-0.39 Z0.78 F3000.0
M101
G1 X-3.83 Y-0.39 Z0.78 F1800.0
G1 X-3.96 Y-0.79 Z0.78 F1800.0
G1 X12.01 Y-0.79 Z0.78 F1800.0
M108 R30.0
M102
G1 X12.46 Y-0.79 Z0.78 F1800.0
M108 R3.569
M103
G1 X12.68 Y-1.24 Z0.78 F3000.0
M108 R30.0
M101
G1 X13.02 Y-1.96 Z0.78 F3000.0
M108 R3.569
G1 X-4.52 Y-1.96 Z0.78 F1800.0
G1 X-4.76 Y-2.36 Z0.78 F1800.0
G1 X13.26 Y-2.36 Z0.78 F1800.0
G1 X13.61 Y-2.75 Z0.78 F1800.0
G1 X-5.11 Y-2.75 Z0.78 F1800.0
G1 X-5.46 Y-3.14 Z0.78 F1800.0
G1 X13.96 Y-3.14 Z0.78 F1800.0
G1 X14.45 Y-3.53 Z0.78 F1800.0
G1 X-5.95 Y-3.53 Z0.78 F1800.0
G1 X-6.49 Y-3.93 Z0.78 F1800.0
G1 X14.54 Y-3.93 Z0.78 F1800.0
M108 R30.0
M102
G1 X14.99 Y-3.93 Z0.78 F1800.0
M108 R3.569
M103
G1 X-25.96 Y-10.09 Z0.78 F3000.0
M108 R30.0
M101
G1 X-26.75 Y-10.21 Z0.78 F3000.0
M108 R3.569
G1 X26.75 Y-10.21 Z0.78 F1800.0
G1 X26.75 Y-9.82 Z0.78 F1800.0
G1 X-26.75 Y-9.82 Z0.78 F1800.0
G1 X-26.75 Y-9.43 Z0.78 F1800.0
G1 X26.75 Y-9.43 Z0.78 F1800.0
G1 X26.75 Y-9.03 Z0.78 F1800.0
G1 X-26.75 Y-9.03 Z0.78 F1800.0
G1 X-26.75 Y-8.64 Z0.78 F1800.0
G1 X26.75 Y-8.64 Z0.78 F1800.0
G1 X26.75 Y-8.25 Z0.78 F1800.0
G1 X-26.75 Y-8.25 Z0.78 F1800.0
G1 X-26.75 Y-7.85 Z0.78 F1800.0
G1 X26.75 Y-7.85 Z0.78 F1800.0
G1 X26.75 Y-7.46 Z0.78 F1800.0
G1 X-26.75 Y-7.46 Z0.78 F1800.0
G1 X-26.75 Y-7.07 Z0.78 F1800.0
G1 X26.75 Y-7.07 Z0.78 F1800.0
G1 X26.75 Y-6.68 Z0.78 F1800.0
G1 X-26.75 Y-6.68 Z0.78 F1800.0
G1 X-26.75 Y-6.28 Z0.78 F1800.0
G1 X26.75 Y-6.28 Z0.78 F1800.0
G1 X26.75 Y-5.89 Z0.78 F1800.0
G1 X-26.75 Y-5.89 Z0.78 F1800.0
G1 X-26.75 Y-5.5 Z0.78 F1800.0
G1 X26.75 Y-5.5 Z0.78 F1800.0
G1 X26.75 Y-5.11 Z0.78 F1800.0
G1 X-26.75 Y-5.11 Z0.78 F1800.0
G1 X-26.75 Y-4.71 Z0.78 F1800.0
G1 X26.75 Y-4.71 Z0.78 F1800.0
G1 X26.75 Y-4.32 Z0.78 F1800.0
G1 X20.28 Y-4.32 Z0.78 F1800.0
M103
G1 X21.11 Y-3.93 Z0.78 F3000.0
M101
G1 X26.75 Y-3.93 Z0.78 F1800.0
G1 X26.75 Y-3.53 Z0.78 F1800.0
G1 X21.65 Y-3.53 Z0.78 F1800.0
G1 X22.13 Y-3.14 Z0.78 F1800.0
G1 X26.75 Y-3.14 Z0.78 F1800.0
G1 X26.75 Y-2.75 Z0.78 F1800.0
G1 X22.48 Y-2.75 Z0.78 F1800.0
G1 X22.84 Y-2.36 Z0.78 F1800.0
G1 X26.75 Y-2.36 Z0.78 F1800.0
G1 X26.75 Y-1.96 Z0.78 F1800.0
G1 X23.07 Y-1.96 Z0.78 F1800.0
G1 X23.3 Y-1.57 Z0.78 F1800.0
G1 X26.75 Y-1.57 Z0.78 F1800.0
G1 X26.75 Y-1.18 Z0.78 F1800.0
G1 X23.51 Y-1.18 Z0.78 F1800.0
M103
G1 X23.63 Y-0.79 Z0.78 F3000.0
M101
G1 X26.75 Y-0.79 Z0.78 F1800.0
G1 X26.75 Y-0.39 Z0.78 F1800.0
G1 X23.76 Y-0.39 Z0.78 F1800.0
M103
G1 X23.87 Y-0.0 Z0.78 F3000.0
M101
G1 X26.75 Y-0.0 Z0.78 F1800.0
G1 X26.75 Y0.39 Z0.78 F1800.0
G1 X23.92 Y0.39 Z0.78 F1800.0
M103
G1 X23.96 Y0.79 Z0.78 F3000.0
M101
G1 X26.75 Y0.79 Z0.78 F1800.0
G1 X26.75 Y1.18 Z0.78 F1800.0
G1 X24.0 Y1.18 Z0.78 F1800.0
G1 X23.95 Y1.57 Z0.78 F1800.0
G1 X26.75 Y1.57 Z0.78 F1800.0
G1 X26.75 Y1.96 Z0.78 F1800.0
G1 X23.91 Y1.96 Z0.78 F1800.0
G1 X23.87 Y2.36 Z0.78 F1800.0
G1 X26.75 Y2.36 Z0.78 F1800.0
G1 X26.75 Y2.75 Z0.78 F1800.0
G1 X23.75 Y2.75 Z0.78 F1800.0
M103
G1 X23.63 Y3.14 Z0.78 F3000.0
M101
G1 X26.75 Y3.14 Z0.78 F1800.0
G1 X26.75 Y3.53 Z0.78 F1800.0
G1 X23.5 Y3.53 Z0.78 F1800.0
M103
G1 X23.28 Y3.93 Z0.78 F3000.0
M101
G1 X26.75 Y3.93 Z0.78 F1800.0
G1 X26.75 Y4.32 Z0.78 F1800.0
G1 X23.06 Y4.32 Z0.78 F1800.0
G1 X22.81 Y4.71 Z0.78 F1800.0
G1 X26.75 Y4.71 Z0.78 F1800.0
G1 X26.75 Y5.11 Z0.78 F1800.0
G1 X22.46 Y5.11 Z0.78 F1800.0
G1 X22.11 Y5.5 Z0.78 F1800.0
G1 X26.75 Y5.5 Z0.78 F1800.0
G1 X26.75 Y5.89 Z0.78 F1800.0
G1 X21.61 Y5.89 Z0.78 F1800.0
G1 X21.07 Y6.28 Z0.78 F1800.0
G1 X26.75 Y6.28 Z0.78 F1800.0
G1 X26.75 Y6.68 Z0.78 F1800.0
G1 X20.67 Y6.68 Z0.78 F1800.0
M108 R30.0
M102
G1 X20.22 Y6.68 Z0.78 F1800.0
M108 R3.569
M103
G1 X26.04 Y9.83 Z0.78 F3000.0
M108 R30.0
M101
G1 X26.75 Y10.21 Z0.78 F3000.0
M108 R3.569
G1 X-26.75 Y10.21 Z0.78 F1800.0
G1 X-26.75 Y9.82 Z0.78 F1800.0
G1 X26.75 Y9.82 Z0.78 F1800.0
G1 X26.75 Y9.43 Z0.78 F1800.0
G1 X-26.75 Y9.43 Z0.78 F1800.0
G1 X-26.75 Y9.03 Z0.78 F1800.0
G1 X26.75 Y9.03 Z0.78 F1800.0
G1 X26.75 Y8.64 Z0.78 F1800.0
G1 X-26.75 Y8.64 Z0.78 F1800.0
G1 X-26.75 Y8.25 Z0.78 F1800.0
G1 X26.75 Y8.25 Z0.78 F1800.0
G1 X26.75 Y7.85 Z0.78 F1800.0
G1 X-26.75 Y7.85 Z0.78 F1800.0
G1 X-26.75 Y7.46 Z0.78 F1800.0
G1 X26.75 Y7.46 Z0.78 F1800.0
G1 X26.75 Y7.07 Z0.78 F1800.0
G1 X19.18 Y7.07 Z0.78 F1800.0
M108 R30.0
M102
G1 X18.73 Y7.07 Z0.78 F1800.0
M108 R3.569
M103
(</surroundingLoop>)
(</layer>)
(<operatingLayerEnd> </operatingLayerEnd>)
(<layer> 1.1 )
(<surroundingLoop>)
(<boundaryPerimeter>)
(<boundaryPoint> X-27.593 Y11.365 Z1.1 </boundaryPoint>)
(<boundaryPoint> X-27.593 Y-11.184 Z1.1 </boundaryPoint>)
(<boundaryPoint> X27.593 Y-11.184 Z1.1 </boundaryPoint>)
(<boundaryPoint> X27.593 Y11.365 Z1.1 </boundaryPoint>)
(<loop> inner )
G1 X18.93 Y9.12 Z1.01 F3000.0
M108 R30.0
M101
G1 X19.01 Y9.91 Z1.1 F3000.0
M108 R3.569
G1 X25.42 Y9.91 Z1.1 F1800.0
G1 X25.42 Y-7.58 Z1.1 F1800.0
G1 X2.17 Y-7.58 Z1.1 F1800.0
G1 X2.17 Y9.91 Z1.1 F1800.0
G1 X18.56 Y9.91 Z1.1 F1800.0
M108 R30.0
M102
G1 X18.73 Y9.91 Z1.1 F1800.0
G1 X19.01 Y9.91 Z1.1 F1800.0
M108 R3.569
M103
(</loop>)
(<loop> inner )
G1 X-1.37 Y9.91 Z1.1 F3000.0
M108 R30.0
M101
G1 X-2.17 Y9.91 Z1.1 F3000.0
M108 R3.569
G1 X-2.17 Y-7.58 Z1.1 F1800.0
G1 X-25.42 Y-7.58 Z1.1 F1800.0
G1 X-25.42 Y9.91 Z1.1 F1800.0
G1 X-2.17 Y9.91 Z1.1 F1800.0
M103
(</loop>)
(<loop> outer )
G1 X-2.17 Y10.78 Z1.1 F3000.0
M101
G1 X-27.0 Y10.78 Z1.1 F1800.0
G1 X-27.0 Y-10.6 Z1.1 F1800.0
G1 X27.0 Y-10.6 Z1.1 F1800.0
G1 X27.0 Y10.78 Z1.1 F1800.0
G1 X-2.17 Y10.78 Z1.1 F1800.0
M103
(</loop>)
(<perimeter> outer )
G1 X-2.17 Y11.17 Z1.1 F3000.0
M101
G1 X-27.4 Y11.17 Z1.1 F1800.0
G1 X-27.4 Y-10.99 Z1.1 F1800.0
G1 X27.4 Y-10.99 Z1.1 F1800.0
G1 X27.4 Y11.17 Z1.1 F1800.0
G1 X-1.72 Y11.17 Z1.1 F1800.0
M108 R30.0
M102
G1 X-2.17 Y11.17 Z1.1 F1800.0
M108 R3.569
M103
(</perimeter>)
(</boundaryPerimeter>)
(<surroundingLoop>)
(<boundaryPerimeter>)
(<boundaryPoint> X-2.759 Y-6.995 Z1.1 </boundaryPoint>)
(<boundaryPoint> X-24.834 Y-6.995 Z1.1 </boundaryPoint>)
(<boundaryPoint> X-24.834 Y9.325 Z1.1 </boundaryPoint>)
(<boundaryPoint> X-2.759 Y9.325 Z1.1 </boundaryPoint>)
(<perimeter> inner )
G1 X-2.38 Y10.3 Z1.1 F3000.0
M108 R30.0
M101
G1 X-2.56 Y9.52 Z1.1 F3000.0
M108 R3.569
G1 X-2.56 Y-7.19 Z1.1 F1800.0
G1 X-25.03 Y-7.19 Z1.1 F1800.0
G1 X-25.03 Y9.52 Z1.1 F1800.0
G1 X-3.01 Y9.52 Z1.1 F1800.0
M108 R30.0
M102
G1 X-2.56 Y9.52 Z1.1 F1800.0
M108 R3.569
M103
(</perimeter>)
(</boundaryPerimeter>)
(</surroundingLoop>)
(<surroundingLoop>)
(<boundaryPerimeter>)
(<boundaryPoint> X24.834 Y-6.995 Z1.1 </boundaryPoint>)
(<boundaryPoint> X2.759 Y-6.995 Z1.1 </boundaryPoint>)
(<boundaryPoint> X2.759 Y9.325 Z1.1 </boundaryPoint>)
(<boundaryPoint> X24.834 Y9.325 Z1.1 </boundaryPoint>)
(<perimeter> inner )
G1 X1.76 Y9.52 Z1.1 F3000.0
M108 R30.0
M101
G1 X2.56 Y9.52 Z1.1 F3000.0
M108 R3.569
G1 X25.03 Y9.52 Z1.1 F1800.0
G1 X25.03 Y-7.19 Z1.1 F1800.0
G1 X2.56 Y-7.19 Z1.1 F1800.0
G1 X2.56 Y9.07 Z1.1 F1800.0
M108 R30.0
M102
G1 X2.56 Y9.52 Z1.1 F1800.0
M108 R3.569
M103
(</perimeter>)
(</boundaryPerimeter>)
(</surroundingLoop>)
G1 X2.8 Y9.6 Z1.1 F3000.0
G1 X2.62 Y9.46 Z1.1 F3000.0
G1 X2.62 Y-7.13 Z1.1 F3000.0
G1 X22.64 Y-7.27 Z1.1 F3000.0
G1 X26.07 Y-9.86 Z1.1 F3000.0
M108 R30.0
M101
G1 X26.7 Y-10.34 Z1.1 F3000.0
M108 R3.569
G1 X26.7 Y10.52 Z1.1 F1800.0
G1 X26.18 Y10.23 Z1.1 F1800.0
G1 X25.53 Y10.17 Z1.1 F1800.0
G1 X25.53 Y10.52 Z1.1 F1800.0
G1 X25.13 Y10.17 Z1.1 F1800.0
G1 X25.13 Y10.52 Z1.1 F1800.0
G1 X24.74 Y10.17 Z1.1 F1800.0
G1 X24.74 Y10.52 Z1.1 F1800.0
G1 X24.35 Y10.17 Z1.1 F1800.0
G1 X24.35 Y10.52 Z1.1 F1800.0
G1 X23.96 Y10.17 Z1.1 F1800.0
G1 X23.96 Y10.52 Z1.1 F1800.0
G1 X23.56 Y10.17 Z1.1 F1800.0
G1 X23.56 Y10.52 Z1.1 F1800.0
G1 X23.17 Y10.17 Z1.1 F1800.0
G1 X23.17 Y10.52 Z1.1 F1800.0
G1 X22.78 Y10.17 Z1.1 F1800.0
G1 X22.78 Y10.52 Z1.1 F1800.0
G1 X22.38 Y10.17 Z1.1 F1800.0
G1 X22.38 Y10.52 Z1.1 F1800.0
G1 X21.99 Y10.17 Z1.1 F1800.0
G1 X21.99 Y10.52 Z1.1 F1800.0
G1 X21.6 Y10.17 Z1.1 F1800.0
G1 X21.6 Y10.52 Z1.1 F1800.0
G1 X21.21 Y10.17 Z1.1 F1800.0
G1 X21.21 Y10.52 Z1.1 F1800.0
G1 X20.81 Y10.17 Z1.1 F1800.0
G1 X20.81 Y10.52 Z1.1 F1800.0
G1 X20.42 Y10.17 Z1.1 F1800.0
G1 X20.42 Y10.52 Z1.1 F1800.0
G1 X20.03 Y10.17 Z1.1 F1800.0
G1 X20.03 Y10.52 Z1.1 F1800.0
G1 X19.64 Y10.17 Z1.1 F1800.0
G1 X19.64 Y10.52 Z1.1 F1800.0
G1 X19.24 Y10.17 Z1.1 F1800.0
G1 X19.24 Y10.52 Z1.1 F1800.0
G1 X18.85 Y10.17 Z1.1 F1800.0
G1 X18.85 Y10.52 Z1.1 F1800.0
G1 X18.46 Y10.17 Z1.1 F1800.0
G1 X18.46 Y10.52 Z1.1 F1800.0
G1 X18.06 Y10.17 Z1.1 F1800.0
G1 X18.06 Y10.52 Z1.1 F1800.0
G1 X17.67 Y10.17 Z1.1 F1800.0
G1 X17.67 Y10.52 Z1.1 F1800.0
G1 X17.28 Y10.17 Z1.1 F1800.0
G1 X17.28 Y10.52 Z1.1 F1800.0
G1 X16.89 Y10.17 Z1.1 F1800.0
G1 X16.89 Y10.52 Z1.1 F1800.0
G1 X16.49 Y10.17 Z1.1 F1800.0
G1 X16.49 Y10.52 Z1.1 F1800.0
G1 X16.1 Y10.17 Z1.1 F1800.0
G1 X16.1 Y10.52 Z1.1 F1800.0
G1 X15.71 Y10.17 Z1.1 F1800.0
G1 X15.71 Y10.52 Z1.1 F1800.0
G1 X15.32 Y10.17 Z1.1 F1800.0
G1 X15.32 Y10.52 Z1.1 F1800.0
G1 X14.92 Y10.17 Z1.1 F1800.0
G1 X14.92 Y10.52 Z1.1 F1800.0
G1 X14.53 Y10.17 Z1.1 F1800.0
G1 X14.53 Y10.52 Z1.1 F1800.0
G1 X14.14 Y10.17 Z1.1 F1800.0
G1 X14.14 Y10.52 Z1.1 F1800.0
G1 X13.74 Y10.17 Z1.1 F1800.0
G1 X13.74 Y10.52 Z1.1 F1800.0
G1 X13.35 Y10.17 Z1.1 F1800.0
G1 X13.35 Y10.52 Z1.1 F1800.0
G1 X12.96 Y10.17 Z1.1 F1800.0
G1 X12.96 Y10.52 Z1.1 F1800.0
G1 X12.57 Y10.17 Z1.1 F1800.0
G1 X12.57 Y10.52 Z1.1 F1800.0
G1 X12.17 Y10.17 Z1.1 F1800.0
G1 X12.17 Y10.52 Z1.1 F1800.0
G1 X11.78 Y10.17 Z1.1 F1800.0
G1 X11.78 Y10.52 Z1.1 F1800.0
G1 X11.39 Y10.17 Z1.1 F1800.0
G1 X11.39 Y10.52 Z1.1 F1800.0
G1 X11.0 Y10.17 Z1.1 F1800.0
G1 X11.0 Y10.52 Z1.1 F1800.0
G1 X10.6 Y10.17 Z1.1 F1800.0
G1 X10.6 Y10.52 Z1.1 F1800.0
G1 X10.21 Y10.17 Z1.1 F1800.0
G1 X10.21 Y10.52 Z1.1 F1800.0
G1 X9.82 Y10.17 Z1.1 F1800.0
G1 X9.82 Y10.52 Z1.1 F1800.0
G1 X9.43 Y10.17 Z1.1 F1800.0
G1 X9.43 Y10.52 Z1.1 F1800.0
G1 X9.03 Y10.17 Z1.1 F1800.0
G1 X9.03 Y10.52 Z1.1 F1800.0
G1 X8.64 Y10.17 Z1.1 F1800.0
G1 X8.64 Y10.52 Z1.1 F1800.0
G1 X8.25 Y10.17 Z1.1 F1800.0
G1 X8.25 Y10.52 Z1.1 F1800.0
G1 X7.85 Y10.17 Z1.1 F1800.0
G1 X7.85 Y10.52 Z1.1 F1800.0
G1 X7.46 Y10.17 Z1.1 F1800.0
G1 X7.46 Y10.52 Z1.1 F1800.0
G1 X7.07 Y10.17 Z1.1 F1800.0
G1 X7.07 Y10.52 Z1.1 F1800.0
G1 X6.68 Y10.17 Z1.1 F1800.0
G1 X6.68 Y10.52 Z1.1 F1800.0
G1 X6.28 Y10.17 Z1.1 F1800.0
G1 X6.28 Y10.52 Z1.1 F1800.0
G1 X5.89 Y10.17 Z1.1 F1800.0
G1 X5.89 Y10.52 Z1.1 F1800.0
G1 X5.5 Y10.17 Z1.1 F1800.0
G1 X5.5 Y10.52 Z1.1 F1800.0
G1 X5.11 Y10.17 Z1.1 F1800.0
G1 X5.11 Y10.52 Z1.1 F1800.0
G1 X4.71 Y10.17 Z1.1 F1800.0
G1 X4.71 Y10.52 Z1.1 F1800.0
G1 X4.32 Y10.17 Z1.1 F1800.0
G1 X4.32 Y10.52 Z1.1 F1800.0
G1 X3.93 Y10.17 Z1.1 F1800.0
G1 X3.93 Y10.52 Z1.1 F1800.0
G1 X3.53 Y10.17 Z1.1 F1800.0
G1 X3.53 Y10.52 Z1.1 F1800.0
G1 X3.14 Y10.17 Z1.1 F1800.0
G1 X3.14 Y10.52 Z1.1 F1800.0
G1 X2.75 Y10.17 Z1.1 F1800.0
G1 X2.75 Y10.52 Z1.1 F1800.0
G1 X2.36 Y10.17 Z1.1 F1800.0
G1 X2.36 Y10.52 Z1.1 F1800.0
G1 X1.96 Y10.17 Z1.1 F1800.0
G1 X1.96 Y10.52 Z1.1 F1800.0
M103
G1 X1.18 Y10.52 Z1.1 F3000.0
M101
G1 X1.96 Y-7.84 Z1.1 F1800.0
G1 X1.21 Y-9.69 Z1.1 F1800.0
G1 X1.18 Y-10.34 Z1.1 F1800.0
G1 X1.57 Y-9.95 Z1.1 F1800.0
G1 X1.96 Y-10.34 Z1.1 F1800.0
G1 X2.36 Y-9.95 Z1.1 F1800.0
G1 X2.75 Y-8.23 Z1.1 F1800.0
G1 X3.14 Y-7.84 Z1.1 F1800.0
G1 X3.53 Y-8.23 Z1.1 F1800.0
G1 X2.75 Y-9.95 Z1.1 F1800.0
G1 X3.14 Y-10.34 Z1.1 F1800.0
G1 X3.53 Y-9.95 Z1.1 F1800.0
G1 X3.93 Y-8.23 Z1.1 F1800.0
G1 X4.32 Y-7.84 Z1.1 F1800.0
G1 X4.6 Y-8.12 Z1.1 F1800.0
G1 X5.11 Y-7.84 Z1.1 F1800.0
G1 X5.5 Y-8.23 Z1.1 F1800.0
G1 X4.32 Y-9.95 Z1.1 F1800.0
G1 X4.71 Y-9.95 Z1.1 F1800.0
G1 X5.11 Y-10.34 Z1.1 F1800.0
G1 X5.5 Y-9.95 Z1.1 F1800.0
G1 X5.45 Y-9.82 Z1.1 F1800.0
G1 X5.89 Y-8.23 Z1.1 F1800.0
G1 X6.28 Y-7.84 Z1.1 F1800.0
G1 X6.56 Y-8.12 Z1.1 F1800.0
G1 X7.07 Y-7.84 Z1.1 F1800.0
G1 X7.46 Y-8.23 Z1.1 F1800.0
G1 X6.28 Y-9.95 Z1.1 F1800.0
G1 X6.68 Y-9.95 Z1.1 F1800.0
G1 X7.07 Y-10.34 Z1.1 F1800.0
G1 X7.46 Y-9.95 Z1.1 F1800.0
G1 X7.85 Y-8.23 Z1.1 F1800.0
G1 X8.25 Y-7.84 Z1.1 F1800.0
G1 X8.52 Y-8.12 Z1.1 F1800.0
G1 X9.03 Y-7.84 Z1.1 F1800.0
G1 X9.43 Y-8.23 Z1.1 F1800.0
G1 X8.25 Y-9.95 Z1.1 F1800.0
G1 X8.64 Y-9.95 Z1.1 F1800.0
G1 X9.03 Y-10.34 Z1.1 F1800.0
G1 X9.43 Y-9.95 Z1.1 F1800.0
G1 X9.82 Y-10.34 Z1.1 F1800.0
G1 X10.21 Y-9.95 Z1.1 F1800.0
G1 X9.82 Y-9.95 Z1.1 F1800.0
G1 X9.82 Y-9.69 Z1.1 F1800.0
G1 X10.21 Y-8.23 Z1.1 F1800.0
G1 X10.6 Y-8.23 Z1.1 F1800.0
G1 X11.0 Y-7.84 Z1.1 F1800.0
G1 X11.39 Y-8.23 Z1.1 F1800.0
G1 X10.6 Y-9.95 Z1.1 F1800.0
G1 X11.0 Y-10.34 Z1.1 F1800.0
G1 X11.39 Y-9.95 Z1.1 F1800.0
G1 X11.78 Y-8.23 Z1.1 F1800.0
G1 X12.17 Y-7.84 Z1.1 F1800.0
G1 X12.45 Y-8.12 Z1.1 F1800.0
G1 X12.96 Y-7.84 Z1.1 F1800.0
G1 X13.35 Y-8.23 Z1.1 F1800.0
G1 X12.17 Y-9.95 Z1.1 F1800.0
G1 X12.57 Y-9.95 Z1.1 F1800.0
G1 X12.96 Y-10.34 Z1.1 F1800.0
G1 X13.35 Y-9.95 Z1.1 F1800.0
G1 X13.74 Y-10.34 Z1.1 F1800.0
G1 X14.14 Y-9.95 Z1.1 F1800.0
G1 X14.18 Y-9.95 Z1.1 F1800.0
G1 X14.14 Y-8.23 Z1.1 F1800.0
G1 X14.53 Y-8.23 Z1.1 F1800.0
G1 X14.92 Y-7.84 Z1.1 F1800.0
G1 X15.32 Y-8.23 Z1.1 F1800.0
G1 X14.53 Y-9.95 Z1.1 F1800.0
G1 X14.92 Y-10.34 Z1.1 F1800.0
G1 X15.32 Y-9.95 Z1.1 F1800.0
G1 X15.71 Y-8.23 Z1.1 F1800.0
G1 X16.1 Y-7.84 Z1.1 F1800.0
G1 X16.38 Y-8.12 Z1.1 F1800.0
G1 X16.49 Y-7.84 Z1.1 F1800.0
G1 X16.86 Y-7.99 Z1.1 F1800.0
G1 X16.89 Y-7.84 Z1.1 F1800.0
G1 X17.28 Y-8.23 Z1.1 F1800.0
G1 X16.1 Y-9.95 Z1.1 F1800.0
G1 X16.49 Y-9.95 Z1.1 F1800.0
G1 X16.89 Y-10.34 Z1.1 F1800.0
G1 X17.28 Y-9.95 Z1.1 F1800.0
G1 X17.67 Y-8.23 Z1.1 F1800.0
G1 X18.06 Y-7.84 Z1.1 F1800.0
G1 X18.34 Y-8.12 Z1.1 F1800.0
G1 X18.85 Y-7.84 Z1.1 F1800.0
G1 X19.24 Y-8.23 Z1.1 F1800.0
G1 X18.54 Y-9.69 Z1.1 F1800.0
G1 X18.54 Y-9.95 Z1.1 F1800.0
G1 X18.46 Y-9.95 Z1.1 F1800.0
G1 X18.85 Y-10.34 Z1.1 F1800.0
G1 X19.24 Y-9.95 Z1.1 F1800.0
G1 X19.64 Y-8.23 Z1.1 F1800.0
G1 X20.03 Y-7.84 Z1.1 F1800.0
G1 X20.31 Y-8.12 Z1.1 F1800.0
G1 X20.42 Y-7.84 Z1.1 F1800.0
G1 X20.78 Y-7.99 Z1.1 F1800.0
G1 X20.81 Y-7.84 Z1.1 F1800.0
G1 X21.21 Y-8.23 Z1.1 F1800.0
G1 X20.03 Y-9.95 Z1.1 F1800.0
G1 X20.42 Y-9.95 Z1.1 F1800.0
G1 X20.81 Y-10.34 Z1.1 F1800.0
G1 X21.21 Y-9.95 Z1.1 F1800.0
G1 X21.6 Y-9.95 Z1.1 F1800.0
G1 X21.99 Y-10.34 Z1.1 F1800.0
G1 X22.38 Y-9.95 Z1.1 F1800.0
G1 X21.6 Y-8.23 Z1.1 F1800.0
G1 X21.99 Y-7.84 Z1.1 F1800.0
G1 X22.27 Y-8.12 Z1.1 F1800.0
G1 X22.78 Y-7.84 Z1.1 F1800.0
G1 X23.17 Y-8.23 Z1.1 F1800.0
G1 X22.79 Y-9.69 Z1.1 F1800.0
G1 X22.78 Y-10.34 Z1.1 F1800.0
G1 X23.17 Y-9.95 Z1.1 F1800.0
G1 X23.02 Y-9.95 Z1.1 F1800.0
G1 X23.02 Y-9.69 Z1.1 F1800.0
G1 X23.56 Y-8.23 Z1.1 F1800.0
G1 X23.96 Y-7.84 Z1.1 F1800.0
G1 X24.23 Y-8.12 Z1.1 F1800.0
G1 X24.74 Y-7.84 Z1.1 F1800.0
G1 X25.13 Y-8.23 Z1.1 F1800.0
G1 X25.13 Y-9.95 Z1.1 F1800.0
G1 X25.06 Y-10.02 Z1.1 F1800.0
M108 R30.0
M102
G1 X24.74 Y-10.34 Z1.1 F1800.0
M108 R3.569
M103
G1 X0.02 Y-10.34 Z1.1 F3000.0
M108 R30.0
M101
G1 X-0.79 Y-10.34 Z1.1 F3000.0
M108 R3.569
G1 X-0.39 Y-9.95 Z1.1 F1800.0
G1 X-0.0 Y-10.34 Z1.1 F1800.0
G1 X0.39 Y-9.95 Z1.1 F1800.0
G1 X0.98 Y-9.95 Z1.1 F1800.0
G1 X0.98 Y-9.69 Z1.1 F1800.0
G1 X-1.09 Y-7.76 Z1.1 F1800.0
G1 X-1.09 Y9.95 Z1.1 F1800.0
G1 X-0.39 Y10.13 Z1.1 F1800.0
G1 X-0.79 Y10.52 Z1.1 F1800.0
G1 X-0.82 Y10.36 Z1.1 F1800.0
G1 X-1.31 Y10.23 Z1.1 F1800.0
G1 X-1.96 Y10.17 Z1.1 F1800.0
G1 X-1.96 Y10.52 Z1.1 F1800.0
G1 X-2.36 Y10.17 Z1.1 F1800.0
G1 X-2.36 Y10.52 Z1.1 F1800.0
G1 X-2.75 Y10.17 Z1.1 F1800.0
G1 X-2.75 Y10.52 Z1.1 F1800.0
G1 X-3.14 Y10.17 Z1.1 F1800.0
G1 X-3.14 Y10.52 Z1.1 F1800.0
G1 X-3.53 Y10.17 Z1.1 F1800.0
G1 X-3.53 Y10.52 Z1.1 F1800.0
G1 X-3.93 Y10.17 Z1.1 F1800.0
G1 X-3.93 Y10.52 Z1.1 F1800.0
G1 X-4.32 Y10.17 Z1.1 F1800.0
G1 X-4.32 Y10.52 Z1.1 F1800.0
G1 X-4.71 Y10.17 Z1.1 F1800.0
G1 X-4.71 Y10.52 Z1.1 F1800.0
G1 X-5.11 Y10.17 Z1.1 F1800.0
G1 X-5.11 Y10.52 Z1.1 F1800.0
G1 X-5.5 Y10.17 Z1.1 F1800.0
G1 X-5.5 Y10.52 Z1.1 F1800.0
G1 X-5.89 Y10.17 Z1.1 F1800.0
G1 X-5.89 Y10.52 Z1.1 F1800.0
G1 X-6.28 Y10.17 Z1.1 F1800.0
G1 X-6.28 Y10.52 Z1.1 F1800.0
G1 X-6.68 Y10.17 Z1.1 F1800.0
G1 X-6.68 Y10.52 Z1.1 F1800.0
G1 X-7.07 Y10.17 Z1.1 F1800.0
G1 X-7.07 Y10.52 Z1.1 F1800.0
G1 X-7.46 Y10.17 Z1.1 F1800.0
G1 X-7.46 Y10.52 Z1.1 F1800.0
G1 X-7.85 Y10.17 Z1.1 F1800.0
G1 X-7.85 Y10.52 Z1.1 F1800.0
G1 X-8.25 Y10.17 Z1.1 F1800.0
G1 X-8.25 Y10.52 Z1.1 F1800.0
G1 X-8.64 Y10.17 Z1.1 F1800.0
G1 X-8.64 Y10.52 Z1.1 F1800.0
G1 X-9.03 Y10.17 Z1.1 F1800.0
G1 X-9.03 Y10.52 Z1.1 F1800.0
G1 X-9.43 Y10.17 Z1.1 F1800.0
G1 X-9.43 Y10.52 Z1.1 F1800.0
G1 X-9.82 Y10.17 Z1.1 F1800.0
G1 X-9.82 Y10.52 Z1.1 F1800.0
G1 X-10.21 Y10.17 Z1.1 F1800.0
G1 X-10.21 Y10.52 Z1.1 F1800.0
G1 X-10.6 Y10.17 Z1.1 F1800.0
G1 X-10.6 Y10.52 Z1.1 F1800.0
G1 X-11.0 Y10.17 Z1.1 F1800.0
G1 X-11.0 Y10.52 Z1.1 F1800.0
G1 X-11.39 Y10.17 Z1.1 F1800.0
G1 X-11.39 Y10.52 Z1.1 F1800.0
G1 X-11.78 Y10.17 Z1.1 F1800.0
G1 X-11.78 Y10.52 Z1.1 F1800.0
G1 X-12.17 Y10.17 Z1.1 F1800.0
G1 X-12.17 Y10.52 Z1.1 F1800.0
G1 X-12.57 Y10.17 Z1.1 F1800.0
G1 X-12.57 Y10.52 Z1.1 F1800.0
G1 X-12.96 Y10.17 Z1.1 F1800.0
G1 X-12.96 Y10.52 Z1.1 F1800.0
G1 X-13.35 Y10.17 Z1.1 F1800.0
G1 X-13.35 Y10.52 Z1.1 F1800.0
G1 X-13.74 Y10.17 Z1.1 F1800.0
G1 X-13.74 Y10.52 Z1.1 F1800.0
G1 X-14.14 Y10.17 Z1.1 F1800.0
G1 X-14.14 Y10.52 Z1.1 F1800.0
G1 X-14.53 Y10.17 Z1.1 F1800.0
G1 X-14.53 Y10.52 Z1.1 F1800.0
G1 X-14.92 Y10.17 Z1.1 F1800.0
G1 X-14.92 Y10.52 Z1.1 F1800.0
G1 X-15.32 Y10.17 Z1.1 F1800.0
G1 X-15.32 Y10.52 Z1.1 F1800.0
G1 X-15.71 Y10.17 Z1.1 F1800.0
G1 X-15.71 Y10.52 Z1.1 F1800.0
G1 X-16.1 Y10.17 Z1.1 F1800.0
G1 X-16.1 Y10.52 Z1.1 F1800.0
G1 X-16.49 Y10.17 Z1.1 F1800.0
G1 X-16.49 Y10.52 Z1.1 F1800.0
G1 X-16.89 Y10.17 Z1.1 F1800.0
G1 X-16.89 Y10.52 Z1.1 F1800.0
G1 X-17.28 Y10.17 Z1.1 F1800.0
G1 X-17.28 Y10.52 Z1.1 F1800.0
G1 X-17.67 Y10.17 Z1.1 F1800.0
G1 X-17.67 Y10.52 Z1.1 F1800.0
G1 X-18.06 Y10.17 Z1.1 F1800.0
G1 X-18.06 Y10.52 Z1.1 F1800.0
G1 X-18.46 Y10.17 Z1.1 F1800.0
G1 X-18.46 Y10.52 Z1.1 F1800.0
G1 X-18.85 Y10.17 Z1.1 F1800.0
G1 X-18.85 Y10.52 Z1.1 F1800.0
G1 X-19.24 Y10.17 Z1.1 F1800.0
G1 X-19.24 Y10.52 Z1.1 F1800.0
G1 X-19.64 Y10.17 Z1.1 F1800.0
G1 X-19.64 Y10.52 Z1.1 F1800.0
G1 X-20.03 Y10.17 Z1.1 F1800.0
G1 X-20.03 Y10.52 Z1.1 F1800.0
G1 X-20.42 Y10.17 Z1.1 F1800.0
G1 X-20.42 Y10.52 Z1.1 F1800.0
G1 X-20.81 Y10.17 Z1.1 F1800.0
G1 X-20.81 Y10.52 Z1.1 F1800.0
G1 X-21.21 Y10.17 Z1.1 F1800.0
G1 X-21.21 Y10.52 Z1.1 F1800.0
G1 X-21.6 Y10.17 Z1.1 F1800.0
G1 X-21.6 Y10.52 Z1.1 F1800.0
G1 X-21.99 Y10.17 Z1.1 F1800.0
G1 X-21.99 Y10.52 Z1.1 F1800.0
G1 X-22.38 Y10.17 Z1.1 F1800.0
G1 X-22.38 Y10.52 Z1.1 F1800.0
G1 X-22.78 Y10.17 Z1.1 F1800.0
G1 X-22.78 Y10.52 Z1.1 F1800.0
G1 X-23.17 Y10.17 Z1.1 F1800.0
G1 X-23.17 Y10.52 Z1.1 F1800.0
G1 X-23.56 Y10.17 Z1.1 F1800.0
G1 X-23.56 Y10.52 Z1.1 F1800.0
G1 X-23.96 Y10.17 Z1.1 F1800.0
G1 X-23.96 Y10.52 Z1.1 F1800.0
G1 X-24.35 Y10.17 Z1.1 F1800.0
G1 X-24.35 Y10.52 Z1.1 F1800.0
G1 X-24.74 Y10.17 Z1.1 F1800.0
G1 X-24.74 Y10.52 Z1.1 F1800.0
G1 X-25.13 Y10.17 Z1.1 F1800.0
G1 X-25.13 Y10.52 Z1.1 F1800.0
G1 X-25.53 Y10.17 Z1.1 F1800.0
G1 X-25.53 Y10.52 Z1.1 F1800.0
M103
G1 X-26.31 Y10.52 Z1.1 F3000.0
M101
G1 X-25.9 Y-7.72 Z1.1 F1800.0
G1 X-26.31 Y-10.34 Z1.1 F1800.0
G1 X-25.92 Y-9.95 Z1.1 F1800.0
G1 X-25.53 Y-10.34 Z1.1 F1800.0
G1 X-25.13 Y-9.95 Z1.1 F1800.0
G1 X-25.09 Y-9.95 Z1.1 F1800.0
G1 X-25.13 Y-8.23 Z1.1 F1800.0
G1 X-24.74 Y-8.23 Z1.1 F1800.0
G1 X-24.35 Y-7.84 Z1.1 F1800.0
G1 X-23.96 Y-8.23 Z1.1 F1800.0
G1 X-24.74 Y-9.95 Z1.1 F1800.0
G1 X-24.35 Y-10.34 Z1.1 F1800.0
G1 X-23.96 Y-9.95 Z1.1 F1800.0
G1 X-23.56 Y-8.23 Z1.1 F1800.0
G1 X-23.17 Y-7.84 Z1.1 F1800.0
G1 X-22.89 Y-8.12 Z1.1 F1800.0
G1 X-22.38 Y-7.84 Z1.1 F1800.0
G1 X-21.99 Y-8.23 Z1.1 F1800.0
G1 X-23.17 Y-9.95 Z1.1 F1800.0
G1 X-22.78 Y-9.95 Z1.1 F1800.0
G1 X-22.38 Y-10.34 Z1.1 F1800.0
G1 X-21.99 Y-9.95 Z1.1 F1800.0
G1 X-21.6 Y-8.23 Z1.1 F1800.0
G1 X-21.21 Y-7.84 Z1.1 F1800.0
G1 X-20.93 Y-8.12 Z1.1 F1800.0
G1 X-20.42 Y-7.84 Z1.1 F1800.0
G1 X-20.03 Y-8.23 Z1.1 F1800.0
G1 X-20.73 Y-9.69 Z1.1 F1800.0
G1 X-20.73 Y-9.95 Z1.1 F1800.0
G1 X-20.81 Y-9.95 Z1.1 F1800.0
G1 X-20.42 Y-10.34 Z1.1 F1800.0
G1 X-20.03 Y-9.95 Z1.1 F1800.0
G1 X-19.64 Y-8.23 Z1.1 F1800.0
G1 X-19.24 Y-7.84 Z1.1 F1800.0
G1 X-18.97 Y-8.12 Z1.1 F1800.0
G1 X-18.85 Y-7.84 Z1.1 F1800.0
G1 X-18.49 Y-7.99 Z1.1 F1800.0
G1 X-18.46 Y-7.84 Z1.1 F1800.0
G1 X-18.06 Y-8.23 Z1.1 F1800.0
G1 X-19.24 Y-9.95 Z1.1 F1800.0
G1 X-18.85 Y-9.95 Z1.1 F1800.0
G1 X-18.46 Y-10.34 Z1.1 F1800.0
G1 X-18.06 Y-9.95 Z1.1 F1800.0
G1 X-17.67 Y-9.95 Z1.1 F1800.0
G1 X-17.28 Y-10.34 Z1.1 F1800.0
G1 X-16.89 Y-9.95 Z1.1 F1800.0
G1 X-17.67 Y-8.23 Z1.1 F1800.0
G1 X-17.28 Y-7.84 Z1.1 F1800.0
G1 X-17.0 Y-8.12 Z1.1 F1800.0
G1 X-16.49 Y-7.84 Z1.1 F1800.0
G1 X-16.1 Y-8.23 Z1.1 F1800.0
G1 X-16.48 Y-9.69 Z1.1 F1800.0
G1 X-16.49 Y-10.34 Z1.1 F1800.0
G1 X-16.1 Y-9.95 Z1.1 F1800.0
G1 X-16.25 Y-9.95 Z1.1 F1800.0
G1 X-16.25 Y-9.69 Z1.1 F1800.0
G1 X-15.71 Y-8.23 Z1.1 F1800.0
G1 X-15.32 Y-7.84 Z1.1 F1800.0
G1 X-15.04 Y-8.12 Z1.1 F1800.0
G1 X-14.92 Y-7.84 Z1.1 F1800.0
G1 X-14.56 Y-7.99 Z1.1 F1800.0
G1 X-14.53 Y-7.84 Z1.1 F1800.0
G1 X-14.14 Y-8.23 Z1.1 F1800.0
G1 X-15.32 Y-9.95 Z1.1 F1800.0
G1 X-14.92 Y-9.95 Z1.1 F1800.0
G1 X-14.53 Y-10.34 Z1.1 F1800.0
G1 X-14.14 Y-9.95 Z1.1 F1800.0
G1 X-13.74 Y-8.23 Z1.1 F1800.0
G1 X-13.35 Y-7.84 Z1.1 F1800.0
G1 X-13.07 Y-8.12 Z1.1 F1800.0
G1 X-12.96 Y-7.84 Z1.1 F1800.0
G1 X-12.6 Y-7.99 Z1.1 F1800.0
G1 X-12.57 Y-7.84 Z1.1 F1800.0
G1 X-12.17 Y-8.23 Z1.1 F1800.0
G1 X-13.35 Y-9.95 Z1.1 F1800.0
G1 X-12.96 Y-9.95 Z1.1 F1800.0
G1 X-12.57 Y-10.34 Z1.1 F1800.0
G1 X-12.17 Y-9.95 Z1.1 F1800.0
G1 X-12.0 Y-9.95 Z1.1 F1800.0
G1 X-11.78 Y-8.23 Z1.1 F1800.0
G1 X-11.39 Y-7.84 Z1.1 F1800.0
G1 X-11.11 Y-8.12 Z1.1 F1800.0
G1 X-11.0 Y-7.84 Z1.1 F1800.0
G1 X-10.63 Y-7.99 Z1.1 F1800.0
G1 X-10.6 Y-7.84 Z1.1 F1800.0
G1 X-10.21 Y-8.23 Z1.1 F1800.0
G1 X-11.39 Y-9.95 Z1.1 F1800.0
G1 X-11.0 Y-9.95 Z1.1 F1800.0
G1 X-10.6 Y-10.34 Z1.1 F1800.0
G1 X-10.21 Y-9.95 Z1.1 F1800.0
G1 X-9.82 Y-8.23 Z1.1 F1800.0
G1 X-9.43 Y-7.84 Z1.1 F1800.0
G1 X-9.15 Y-8.12 Z1.1 F1800.0
G1 X-8.64 Y-7.84 Z1.1 F1800.0
G1 X-8.25 Y-8.23 Z1.1 F1800.0
G1 X-9.43 Y-9.95 Z1.1 F1800.0
G1 X-9.03 Y-9.95 Z1.1 F1800.0
G1 X-8.64 Y-10.34 Z1.1 F1800.0
G1 X-8.25 Y-9.95 Z1.1 F1800.0
G1 X-7.85 Y-10.34 Z1.1 F1800.0
G1 X-7.46 Y-9.95 Z1.1 F1800.0
G1 X-7.64 Y-9.95 Z1.1 F1800.0
G1 X-7.46 Y-8.23 Z1.1 F1800.0
G1 X-7.07 Y-8.23 Z1.1 F1800.0
G1 X-6.68 Y-7.84 Z1.1 F1800.0
G1 X-6.28 Y-8.23 Z1.1 F1800.0
G1 X-7.07 Y-9.95 Z1.1 F1800.0
G1 X-6.68 Y-10.34 Z1.1 F1800.0
G1 X-6.28 Y-9.95 Z1.1 F1800.0
G1 X-5.89 Y-8.23 Z1.1 F1800.0
G1 X-5.5 Y-7.84 Z1.1 F1800.0
G1 X-5.22 Y-8.12 Z1.1 F1800.0
G1 X-4.71 Y-7.84 Z1.1 F1800.0
G1 X-4.32 Y-8.23 Z1.1 F1800.0
G1 X-5.5 Y-9.95 Z1.1 F1800.0
G1 X-5.11 Y-9.95 Z1.1 F1800.0
G1 X-4.71 Y-10.34 Z1.1 F1800.0
G1 X-4.32 Y-9.95 Z1.1 F1800.0
G1 X-3.93 Y-10.34 Z1.1 F1800.0
G1 X-3.39 Y-9.82 Z1.1 F1800.0
G1 X-3.53 Y-8.23 Z1.1 F1800.0
G1 X-3.14 Y-8.23 Z1.1 F1800.0
G1 X-2.75 Y-7.84 Z1.1 F1800.0
G1 X-2.36 Y-8.23 Z1.1 F1800.0
G1 X-3.16 Y-9.69 Z1.1 F1800.0
G1 X-3.16 Y-9.95 Z1.1 F1800.0
G1 X-3.07 Y-10.03 Z1.1 F1800.0
M108 R30.0
M102
G1 X-2.75 Y-10.34 Z1.1 F1800.0
M108 R3.569
M103
G1 X-25.9 Y-10.34 Z1.1 F3000.0
M108 R30.0
M101
G1 X-26.7 Y-10.34 Z1.1 F3000.0
M108 R3.569
G1 X-26.7 Y10.07 Z1.1 F1800.0
M108 R30.0
M102
G1 X-26.7 Y10.52 Z1.1 F1800.0
M108 R3.569
M103
(</surroundingLoop>)
(</layer>)
(<layer> 1.42 )
(<surroundingLoop>)
(<boundaryPerimeter>)
(<boundaryPoint> X-27.593 Y11.365 Z1.42 </boundaryPoint>)
(<boundaryPoint> X-27.593 Y-11.08 Z1.42 </boundaryPoint>)
(<boundaryPoint> X27.593 Y-11.08 Z1.42 </boundaryPoint>)
(<boundaryPoint> X27.593 Y11.365 Z1.42 </boundaryPoint>)
(<loop> inner )
G1 X1.37 Y9.91 Z1.41 F3000.0
M108 R30.0
M101
G1 X2.17 Y9.89 Z1.42 F3000.0
M108 R3.569
G1 X2.17 Y9.91 Z1.42 F1800.0
G1 X25.42 Y9.91 Z1.42 F1800.0
G1 X25.42 Y-7.58 Z1.42 F1800.0
G1 X2.17 Y-7.58 Z1.42 F1800.0
G1 X2.17 Y9.44 Z1.42 F1800.0
M108 R30.0
M102
G1 X2.17 Y9.89 Z1.42 F1800.0
M108 R3.569
M103
(</loop>)
(<loop> inner )
G1 X-1.37 Y9.91 Z1.42 F3000.0
M108 R30.0
M101
G1 X-2.17 Y9.91 Z1.42 F3000.0
M108 R3.569
G1 X-2.17 Y-7.58 Z1.42 F1800.0
G1 X-25.42 Y-7.58 Z1.42 F1800.0
G1 X-25.42 Y9.91 Z1.42 F1800.0
G1 X-2.17 Y9.91 Z1.42 F1800.0
M103
(</loop>)
(<loop> outer )
G1 X-2.17 Y10.78 Z1.42 F3000.0
M101
G1 X-27.0 Y10.78 Z1.42 F1800.0
G1 X-27.0 Y-10.49 Z1.42 F1800.0
G1 X27.0 Y-10.49 Z1.42 F1800.0
G1 X27.0 Y10.78 Z1.42 F1800.0
G1 X-2.17 Y10.78 Z1.42 F1800.0
M103
(</loop>)
(<perimeter> outer )
G1 X-2.17 Y11.17 Z1.42 F3000.0
M101
G1 X-27.4 Y11.17 Z1.42 F1800.0
G1 X-27.4 Y-10.88 Z1.42 F1800.0
G1 X27.4 Y-10.88 Z1.42 F1800.0
G1 X27.4 Y11.17 Z1.42 F1800.0
G1 X-1.72 Y11.17 Z1.42 F1800.0
M108 R30.0
M102
G1 X-2.17 Y11.17 Z1.42 F1800.0
M108 R3.569
M103
(</perimeter>)
(</boundaryPerimeter>)
(<surroundingLoop>)
(<boundaryPerimeter>)
(<boundaryPoint> X-2.759 Y-6.995 Z1.42 </boundaryPoint>)
(<boundaryPoint> X-24.834 Y-6.995 Z1.42 </boundaryPoint>)
(<boundaryPoint> X-24.834 Y9.325 Z1.42 </boundaryPoint>)
(<boundaryPoint> X-2.759 Y9.325 Z1.42 </boundaryPoint>)
(<perimeter> inner )
G1 X-2.38 Y10.3 Z1.42 F3000.0
M108 R30.0
M101
G1 X-2.56 Y9.52 Z1.42 F3000.0
M108 R3.569
G1 X-2.56 Y-7.19 Z1.42 F1800.0
G1 X-25.03 Y-7.19 Z1.42 F1800.0
G1 X-25.03 Y9.52 Z1.42 F1800.0
G1 X-3.01 Y9.52 Z1.42 F1800.0
M108 R30.0
M102
G1 X-2.56 Y9.52 Z1.42 F1800.0
M108 R3.569
M103
(</perimeter>)
(</boundaryPerimeter>)
(</surroundingLoop>)
(<surroundingLoop>)
(<boundaryPerimeter>)
(<boundaryPoint> X24.834 Y-6.995 Z1.42 </boundaryPoint>)
(<boundaryPoint> X2.759 Y-6.995 Z1.42 </boundaryPoint>)
(<boundaryPoint> X2.759 Y9.325 Z1.42 </boundaryPoint>)
(<boundaryPoint> X24.834 Y9.325 Z1.42 </boundaryPoint>)
(<perimeter> inner )
G1 X1.76 Y9.52 Z1.42 F3000.0
M108 R30.0
M101
G1 X2.56 Y9.52 Z1.42 F3000.0
M108 R3.569
G1 X25.03 Y9.52 Z1.42 F1800.0
G1 X25.03 Y-7.19 Z1.42 F1800.0
G1 X2.56 Y-7.19 Z1.42 F1800.0
G1 X2.56 Y9.07 Z1.42 F1800.0
M108 R30.0
M102
G1 X2.56 Y9.52 Z1.42 F1800.0
M108 R3.569
M103
(</perimeter>)
(</boundaryPerimeter>)
(</surroundingLoop>)
G1 X-1.69 Y-4.73 Z1.42 F3000.0
M108 R30.0
M101
G1 X-1.91 Y-5.5 Z1.42 F3000.0
M108 R3.569
G1 X-1.91 Y-7.46 Z1.42 F1800.0
G1 X1.91 Y-7.46 Z1.42 F1800.0
G1 X1.91 Y-3.93 Z1.42 F1800.0
G1 X-1.91 Y-5.11 Z1.42 F1800.0
G1 X-1.91 Y-1.96 Z1.42 F1800.0
G1 X-1.22 Y-3.27 Z1.42 F1800.0
G1 X1.91 Y-3.53 Z1.42 F1800.0
G1 X1.91 Y-0.0 Z1.42 F1800.0
G1 X-1.91 Y-1.57 Z1.42 F1800.0
G1 X-1.91 Y1.18 Z1.42 F1800.0
G1 X-1.22 Y0.98 Z1.42 F1800.0
G1 X-0.96 Y0.98 Z1.42 F1800.0
G1 X1.91 Y0.39 Z1.42 F1800.0
G1 X1.91 Y3.93 Z1.42 F1800.0
G1 X-0.96 Y1.21 Z1.42 F1800.0
G1 X-1.22 Y1.21 Z1.42 F1800.0
G1 X-1.91 Y1.57 Z1.42 F1800.0
G1 X-1.91 Y5.5 Z1.42 F1800.0
G1 X-1.22 Y5.34 Z1.42 F1800.0
G1 X-0.96 Y5.34 Z1.42 F1800.0
G1 X1.91 Y4.32 Z1.42 F1800.0
G1 X1.91 Y7.85 Z1.42 F1800.0
G1 X-0.96 Y5.57 Z1.42 F1800.0
G1 X-1.22 Y5.57 Z1.42 F1800.0
G1 X-1.91 Y5.89 Z1.42 F1800.0
G1 X-1.91 Y9.82 Z1.42 F1800.0
G1 X1.91 Y9.82 Z1.42 F1800.0
G1 X1.91 Y8.7 Z1.42 F1800.0
M108 R30.0
M102
G1 X1.91 Y8.25 Z1.42 F1800.0
M108 R3.569
M103
G1 X2.48 Y8.25 Z1.42 F3000.0
G1 X2.62 Y9.46 Z1.42 F3000.0
G1 X24.97 Y9.46 Z1.42 F3000.0
G1 X25.08 Y8.48 Z1.42 F3000.0
M108 R30.0
M101
G1 X25.11 Y8.25 Z1.42 F3000.0
G1 X25.68 Y8.25 Z1.42 F3000.0
M108 R3.569
G1 X25.68 Y9.82 Z1.42 F1800.0
G1 X26.75 Y9.82 Z1.42 F1800.0
G1 X26.75 Y6.28 Z1.42 F1800.0
G1 X25.68 Y7.85 Z1.42 F1800.0
G1 X25.68 Y4.32 Z1.42 F1800.0
G1 X26.75 Y5.89 Z1.42 F1800.0
G1 X26.75 Y2.36 Z1.42 F1800.0
G1 X25.68 Y3.93 Z1.42 F1800.0
G1 X25.68 Y0.39 Z1.42 F1800.0
G1 X26.75 Y1.96 Z1.42 F1800.0
G1 X26.75 Y-1.57 Z1.42 F1800.0
G1 X25.68 Y-0.0 Z1.42 F1800.0
G1 X25.68 Y-3.53 Z1.42 F1800.0
G1 X26.75 Y-1.96 Z1.42 F1800.0
G1 X26.75 Y-5.11 Z1.42 F1800.0
G1 X25.68 Y-3.93 Z1.42 F1800.0
G1 X25.68 Y-7.46 Z1.42 F1800.0
G1 X26.75 Y-7.46 Z1.42 F1800.0
G1 X26.75 Y-5.95 Z1.42 F1800.0
M108 R30.0
M102
G1 X26.75 Y-5.5 Z1.42 F1800.0
M108 R3.569
M103
G1 X26.75 Y9.41 Z1.42 F3000.0
M108 R30.0
M101
G1 X26.75 Y10.21 Z1.42 F3000.0
M108 R3.569
G1 X-26.75 Y10.21 Z1.42 F1800.0
G1 X-26.75 Y8.25 Z1.42 F1800.0
G1 X-25.68 Y9.43 Z1.42 F1800.0
G1 X-25.68 Y6.28 Z1.42 F1800.0
G1 X-26.75 Y7.85 Z1.42 F1800.0
G1 X-26.75 Y4.32 Z1.42 F1800.0
G1 X-25.68 Y5.89 Z1.42 F1800.0
G1 X-25.68 Y2.36 Z1.42 F1800.0
G1 X-26.75 Y3.93 Z1.42 F1800.0
G1 X-26.75 Y0.39 Z1.42 F1800.0
G1 X-25.68 Y1.96 Z1.42 F1800.0
G1 X-25.68 Y-1.57 Z1.42 F1800.0
G1 X-26.75 Y0.0 Z1.42 F1800.0
G1 X-26.75 Y-3.53 Z1.42 F1800.0
G1 X-25.68 Y-1.96 Z1.42 F1800.0
G1 X-25.68 Y-5.5 Z1.42 F1800.0
G1 X-26.75 Y-3.93 Z1.42 F1800.0
G1 X-26.75 Y-7.46 Z1.42 F1800.0
G1 X-25.68 Y-5.89 Z1.42 F1800.0
G1 X-25.68 Y-7.46 Z1.42 F1800.0
G1 X-26.36 Y-7.85 Z1.42 F1800.0
G1 X-26.75 Y-8.25 Z1.42 F1800.0
G1 X-26.75 Y-9.43 Z1.42 F1800.0
G1 X-25.22 Y-9.7 Z1.42 F1800.0
G1 X-3.15 Y-9.7 Z1.42 F1800.0
G1 X-1.22 Y-7.75 Z1.42 F1800.0
G1 X-0.96 Y-7.75 Z1.42 F1800.0
G1 X0.96 Y-9.7 Z1.42 F1800.0
G1 X23.04 Y-9.7 Z1.42 F1800.0
G1 X26.75 Y-7.85 Z1.42 F1800.0
G1 X26.75 Y-10.21 Z1.42 F1800.0
G1 X23.04 Y-9.93 Z1.42 F1800.0
G1 X-25.22 Y-9.93 Z1.42 F1800.0
G1 X-26.69 Y-9.82 Z1.42 F1800.0
M108 R30.0
M102
G1 X-26.75 Y-9.82 Z1.42 F1800.0
G1 X-26.75 Y-10.21 Z1.42 F1800.0
M108 R3.569
M103
(</surroundingLoop>)
(</layer>)
(<layer> 1.74 )
(<surroundingLoop>)
(<boundaryPerimeter>)
(<boundaryPoint> X-27.593 Y11.365 Z1.74 </boundaryPoint>)
(<boundaryPoint> X-27.593 Y-10.822 Z1.74 </boundaryPoint>)
(<boundaryPoint> X27.593 Y-10.822 Z1.74 </boundaryPoint>)
(<boundaryPoint> X27.593 Y11.365 Z1.74 </boundaryPoint>)
(<loop> inner )
G1 X1.7 Y-7.66 Z1.73 F3000.0
M108 R30.0
M101
G1 X2.49 Y-7.58 Z1.74 F3000.0
M108 R3.569
G1 X2.17 Y-7.58 Z1.74 F1800.0
G1 X2.17 Y9.91 Z1.74 F1800.0
G1 X25.42 Y9.91 Z1.74 F1800.0
G1 X25.42 Y-7.58 Z1.74 F1800.0
G1 X2.94 Y-7.58 Z1.74 F1800.0
M108 R30.0
M102
G1 X2.49 Y-7.58 Z1.74 F1800.0
M108 R3.569
M103
(</loop>)
(<loop> inner )
G1 X-1.37 Y-7.58 Z1.74 F3000.0
M108 R30.0
M101
G1 X-2.17 Y-7.58 Z1.74 F3000.0
M108 R3.569
G1 X-25.42 Y-7.58 Z1.74 F1800.0
G1 X-25.42 Y9.91 Z1.74 F1800.0
G1 X-2.17 Y9.91 Z1.74 F1800.0
G1 X-2.17 Y-7.13 Z1.74 F1800.0
M108 R30.0
M102
G1 X-2.17 Y-7.58 Z1.74 F1800.0
M108 R3.569
M103
(</loop>)
(<loop> outer )
G1 X-2.17 Y-9.43 Z1.74 F3000.0
M108 R30.0
M101
G1 X-2.17 Y-10.23 Z1.74 F3000.0
M108 R3.569
G1 X27.0 Y-10.23 Z1.74 F1800.0
G1 X27.0 Y10.78 Z1.74 F1800.0
G1 X-27.0 Y10.78 Z1.74 F1800.0
G1 X-27.0 Y-10.23 Z1.74 F1800.0
G1 X-2.17 Y-10.23 Z1.74 F1800.0
M103
(</loop>)
(<perimeter> outer )
G1 X-2.17 Y-10.63 Z1.74 F3000.0
M101
G1 X27.4 Y-10.63 Z1.74 F1800.0
G1 X27.4 Y11.17 Z1.74 F1800.0
G1 X-27.4 Y11.17 Z1.74 F1800.0
G1 X-27.4 Y-10.63 Z1.74 F1800.0
G1 X-2.62 Y-10.63 Z1.74 F1800.0
M108 R30.0
M102
G1 X-2.17 Y-10.63 Z1.74 F1800.0
M108 R3.569
M103
(</perimeter>)
(</boundaryPerimeter>)
(<surroundingLoop>)
(<boundaryPerimeter>)
(<boundaryPoint> X-2.759 Y-6.995 Z1.74 </boundaryPoint>)
(<boundaryPoint> X-24.834 Y-6.995 Z1.74 </boundaryPoint>)
(<boundaryPoint> X-24.834 Y9.325 Z1.74 </boundaryPoint>)
(<boundaryPoint> X-2.759 Y9.325 Z1.74 </boundaryPoint>)
(<perimeter> inner )
G1 X-2.47 Y-7.99 Z1.74 F3000.0
M108 R30.0
M101
G1 X-2.56 Y-7.19 Z1.74 F3000.0
M108 R3.569
G1 X-25.03 Y-7.19 Z1.74 F1800.0
G1 X-25.03 Y9.52 Z1.74 F1800.0
G1 X-2.56 Y9.52 Z1.74 F1800.0
G1 X-2.56 Y-6.74 Z1.74 F1800.0
M108 R30.0
M102
G1 X-2.56 Y-7.19 Z1.74 F1800.0
M108 R3.569
M103
(</perimeter>)
(</boundaryPerimeter>)
(</surroundingLoop>)
(<surroundingLoop>)
(<boundaryPerimeter>)
(<boundaryPoint> X2.759 Y9.325 Z1.74 </boundaryPoint>)
(<boundaryPoint> X24.834 Y9.325 Z1.74 </boundaryPoint>)
(<boundaryPoint> X24.834 Y-6.995 Z1.74 </boundaryPoint>)
(<boundaryPoint> X2.759 Y-6.995 Z1.74 </boundaryPoint>)
(<perimeter> inner )
G1 X1.76 Y-7.19 Z1.74 F3000.0
M108 R30.0
M101
G1 X2.56 Y-7.19 Z1.74 F3000.0
M108 R3.569
G1 X2.56 Y9.52 Z1.74 F1800.0
G1 X25.03 Y9.52 Z1.74 F1800.0
G1 X25.03 Y-7.19 Z1.74 F1800.0
G1 X3.01 Y-7.19 Z1.74 F1800.0
M108 R30.0
M102
G1 X2.56 Y-7.19 Z1.74 F1800.0
M108 R3.569
M103
(</perimeter>)
(</boundaryPerimeter>)
(</surroundingLoop>)
G1 X-1.49 Y-9.57 Z1.74 F3000.0
M108 R30.0
M101
G1 X-2.18 Y-9.98 Z1.74 F3000.0
M108 R3.569
G1 X-0.44 Y-9.98 Z1.74 F1800.0
G1 X-1.21 Y-7.76 Z1.74 F1800.0
G1 X-1.21 Y9.95 Z1.74 F1800.0
G1 X-1.75 Y10.52 Z1.74 F1800.0
G1 X-2.18 Y10.17 Z1.74 F1800.0
G1 X-2.18 Y10.52 Z1.74 F1800.0
G1 X-2.62 Y10.17 Z1.74 F1800.0
G1 X-2.62 Y10.52 Z1.74 F1800.0
G1 X-3.05 Y10.17 Z1.74 F1800.0
G1 X-3.05 Y10.52 Z1.74 F1800.0
G1 X-3.49 Y10.17 Z1.74 F1800.0
G1 X-3.49 Y10.52 Z1.74 F1800.0
G1 X-3.93 Y10.17 Z1.74 F1800.0
G1 X-3.93 Y10.52 Z1.74 F1800.0
G1 X-4.36 Y10.17 Z1.74 F1800.0
G1 X-4.36 Y10.52 Z1.74 F1800.0
G1 X-4.8 Y10.17 Z1.74 F1800.0
G1 X-4.8 Y10.52 Z1.74 F1800.0
G1 X-5.24 Y10.17 Z1.74 F1800.0
G1 X-5.24 Y10.52 Z1.74 F1800.0
G1 X-5.67 Y10.17 Z1.74 F1800.0
G1 X-5.67 Y10.52 Z1.74 F1800.0
G1 X-6.11 Y10.17 Z1.74 F1800.0
G1 X-6.11 Y10.52 Z1.74 F1800.0
G1 X-6.55 Y10.17 Z1.74 F1800.0
G1 X-6.55 Y10.52 Z1.74 F1800.0
G1 X-6.98 Y10.17 Z1.74 F1800.0
G1 X-6.98 Y10.52 Z1.74 F1800.0
G1 X-7.42 Y10.17 Z1.74 F1800.0
G1 X-7.42 Y10.52 Z1.74 F1800.0
G1 X-7.85 Y10.17 Z1.74 F1800.0
G1 X-7.85 Y10.52 Z1.74 F1800.0
G1 X-8.29 Y10.17 Z1.74 F1800.0
G1 X-8.29 Y10.52 Z1.74 F1800.0
G1 X-8.73 Y10.17 Z1.74 F1800.0
G1 X-8.73 Y10.52 Z1.74 F1800.0
G1 X-9.16 Y10.17 Z1.74 F1800.0
G1 X-9.16 Y10.52 Z1.74 F1800.0
G1 X-9.6 Y10.17 Z1.74 F1800.0
G1 X-9.6 Y10.52 Z1.74 F1800.0
G1 X-10.04 Y10.17 Z1.74 F1800.0
G1 X-10.04 Y10.52 Z1.74 F1800.0
G1 X-10.47 Y10.17 Z1.74 F1800.0
G1 X-10.47 Y10.52 Z1.74 F1800.0
G1 X-10.91 Y10.17 Z1.74 F1800.0
G1 X-10.91 Y10.52 Z1.74 F1800.0
G1 X-11.35 Y10.17 Z1.74 F1800.0
G1 X-11.35 Y10.52 Z1.74 F1800.0
G1 X-11.78 Y10.17 Z1.74 F1800.0
G1 X-11.78 Y10.52 Z1.74 F1800.0
G1 X-12.22 Y10.17 Z1.74 F1800.0
G1 X-12.22 Y10.52 Z1.74 F1800.0
G1 X-12.65 Y10.17 Z1.74 F1800.0
G1 X-12.65 Y10.52 Z1.74 F1800.0
G1 X-13.09 Y10.17 Z1.74 F1800.0
G1 X-13.09 Y10.52 Z1.74 F1800.0
G1 X-13.53 Y10.17 Z1.74 F1800.0
G1 X-13.53 Y10.52 Z1.74 F1800.0
G1 X-13.96 Y10.17 Z1.74 F1800.0
G1 X-13.96 Y10.52 Z1.74 F1800.0
G1 X-14.4 Y10.17 Z1.74 F1800.0
G1 X-14.4 Y10.52 Z1.74 F1800.0
G1 X-14.84 Y10.17 Z1.74 F1800.0
G1 X-14.84 Y10.52 Z1.74 F1800.0
G1 X-15.27 Y10.17 Z1.74 F1800.0
G1 X-15.27 Y10.52 Z1.74 F1800.0
G1 X-15.71 Y10.17 Z1.74 F1800.0
G1 X-15.71 Y10.52 Z1.74 F1800.0
G1 X-16.14 Y10.17 Z1.74 F1800.0
G1 X-16.14 Y10.52 Z1.74 F1800.0
G1 X-16.58 Y10.17 Z1.74 F1800.0
G1 X-16.58 Y10.52 Z1.74 F1800.0
G1 X-17.02 Y10.17 Z1.74 F1800.0
G1 X-17.02 Y10.52 Z1.74 F1800.0
G1 X-17.45 Y10.17 Z1.74 F1800.0
G1 X-17.45 Y10.52 Z1.74 F1800.0
G1 X-17.89 Y10.17 Z1.74 F1800.0
G1 X-17.89 Y10.52 Z1.74 F1800.0
G1 X-18.33 Y10.17 Z1.74 F1800.0
G1 X-18.33 Y10.52 Z1.74 F1800.0
G1 X-18.76 Y10.17 Z1.74 F1800.0
G1 X-18.76 Y10.52 Z1.74 F1800.0
G1 X-19.2 Y10.17 Z1.74 F1800.0
G1 X-19.2 Y10.52 Z1.74 F1800.0
G1 X-19.64 Y10.17 Z1.74 F1800.0
G1 X-19.64 Y10.52 Z1.74 F1800.0
G1 X-20.07 Y10.17 Z1.74 F1800.0
G1 X-20.07 Y10.52 Z1.74 F1800.0
G1 X-20.51 Y10.17 Z1.74 F1800.0
G1 X-20.51 Y10.52 Z1.74 F1800.0
G1 X-20.94 Y10.17 Z1.74 F1800.0
G1 X-20.94 Y10.52 Z1.74 F1800.0
G1 X-21.38 Y10.17 Z1.74 F1800.0
G1 X-21.38 Y10.52 Z1.74 F1800.0
G1 X-21.82 Y10.17 Z1.74 F1800.0
G1 X-21.82 Y10.52 Z1.74 F1800.0
G1 X-22.25 Y10.17 Z1.74 F1800.0
G1 X-22.25 Y10.52 Z1.74 F1800.0
G1 X-22.69 Y10.17 Z1.74 F1800.0
G1 X-22.69 Y10.52 Z1.74 F1800.0
G1 X-23.13 Y10.17 Z1.74 F1800.0
G1 X-23.13 Y10.52 Z1.74 F1800.0
G1 X-23.56 Y10.17 Z1.74 F1800.0
G1 X-23.56 Y10.52 Z1.74 F1800.0
G1 X-24.0 Y10.17 Z1.74 F1800.0
G1 X-24.0 Y10.52 Z1.74 F1800.0
G1 X-24.44 Y10.17 Z1.74 F1800.0
G1 X-24.44 Y10.52 Z1.74 F1800.0
G1 X-24.87 Y10.17 Z1.74 F1800.0
G1 X-24.87 Y10.52 Z1.74 F1800.0
G1 X-25.31 Y10.17 Z1.74 F1800.0
G1 X-25.31 Y10.52 Z1.74 F1800.0
M103
G1 X-25.74 Y10.52 Z1.74 F3000.0
M101
G1 X-25.74 Y-9.98 Z1.74 F1800.0
G1 X-26.62 Y-9.98 Z1.74 F1800.0
G1 X-26.62 Y10.07 Z1.74 F1800.0
M108 R30.0
M102
G1 X-26.62 Y10.52 Z1.74 F1800.0
M108 R3.569
M103
G1 X-25.11 Y-0.19 Z1.74 F3000.0
G1 X-24.97 Y-7.13 Z1.74 F3000.0
G1 X-23.92 Y-7.25 Z1.74 F3000.0
M108 R30.0
M101
G1 X-23.7 Y-7.27 Z1.74 F3000.0
G1 X-23.56 Y-7.84 Z1.74 F3000.0
M108 R3.569
G1 X-24.0 Y-8.28 Z1.74 F1800.0
G1 X-24.44 Y-7.84 Z1.74 F1800.0
G1 X-24.87 Y-8.28 Z1.74 F1800.0
G1 X-25.31 Y-7.84 Z1.74 F1800.0
G1 X-24.87 Y-9.98 Z1.74 F1800.0
G1 X-20.51 Y-9.98 Z1.74 F1800.0
G1 X-21.82 Y-8.28 Z1.74 F1800.0
G1 X-21.38 Y-7.84 Z1.74 F1800.0
G1 X-20.94 Y-8.28 Z1.74 F1800.0
G1 X-20.51 Y-7.84 Z1.74 F1800.0
G1 X-20.07 Y-8.28 Z1.74 F1800.0
G1 X-20.07 Y-9.98 Z1.74 F1800.0
G1 X-18.76 Y-9.98 Z1.74 F1800.0
G1 X-19.64 Y-8.28 Z1.74 F1800.0
G1 X-19.2 Y-7.84 Z1.74 F1800.0
G1 X-18.76 Y-8.28 Z1.74 F1800.0
G1 X-18.33 Y-9.98 Z1.74 F1800.0
G1 X-16.58 Y-9.98 Z1.74 F1800.0
G1 X-17.89 Y-8.28 Z1.74 F1800.0
G1 X-17.02 Y-7.84 Z1.74 F1800.0
G1 X-16.58 Y-8.28 Z1.74 F1800.0
G1 X-16.14 Y-9.98 Z1.74 F1800.0
G1 X-13.96 Y-9.98 Z1.74 F1800.0
G1 X-15.71 Y-8.28 Z1.74 F1800.0
G1 X-14.84 Y-7.84 Z1.74 F1800.0
G1 X-14.4 Y-8.28 Z1.74 F1800.0
G1 X-13.96 Y-7.84 Z1.74 F1800.0
G1 X-13.53 Y-8.28 Z1.74 F1800.0
G1 X-13.53 Y-9.98 Z1.74 F1800.0
G1 X-11.78 Y-9.98 Z1.74 F1800.0
G1 X-13.09 Y-8.28 Z1.74 F1800.0
G1 X-12.65 Y-7.84 Z1.74 F1800.0
G1 X-12.22 Y-8.28 Z1.74 F1800.0
G1 X-11.78 Y-7.84 Z1.74 F1800.0
G1 X-11.35 Y-8.28 Z1.74 F1800.0
G1 X-11.35 Y-9.98 Z1.74 F1800.0
G1 X-10.04 Y-9.98 Z1.74 F1800.0
G1 X-10.91 Y-8.28 Z1.74 F1800.0
G1 X-10.47 Y-7.84 Z1.74 F1800.0
G1 X-10.04 Y-8.28 Z1.74 F1800.0
G1 X-9.6 Y-9.98 Z1.74 F1800.0
G1 X-7.85 Y-9.98 Z1.74 F1800.0
G1 X-9.16 Y-8.28 Z1.74 F1800.0
G1 X-8.29 Y-7.84 Z1.74 F1800.0
G1 X-7.85 Y-8.28 Z1.74 F1800.0
G1 X-7.42 Y-9.98 Z1.74 F1800.0
G1 X-5.67 Y-9.98 Z1.74 F1800.0
G1 X-6.98 Y-8.28 Z1.74 F1800.0
G1 X-6.11 Y-7.84 Z1.74 F1800.0
G1 X-5.67 Y-8.28 Z1.74 F1800.0
G1 X-5.24 Y-9.98 Z1.74 F1800.0
G1 X-2.62 Y-9.98 Z1.74 F1800.0
G1 X-2.18 Y-7.84 Z1.74 F1800.0
G1 X-2.62 Y-8.28 Z1.74 F1800.0
G1 X-3.49 Y-8.28 Z1.74 F1800.0
G1 X-3.61 Y-8.16 Z1.74 F1800.0
M108 R30.0
M102
G1 X-3.93 Y-7.84 Z1.74 F1800.0
M108 R3.569
M103
G1 X-3.73 Y-7.27 Z1.74 F3000.0
G1 X-2.62 Y-7.13 Z1.74 F3000.0
G1 X-2.48 Y-2.93 Z1.74 F3000.0
G1 X0.27 Y9.74 Z1.74 F3000.0
M108 R30.0
M101
G1 X0.44 Y10.52 Z1.74 F3000.0
M108 R3.569
G1 X0.41 Y10.36 Z1.74 F1800.0
G1 X-0.12 Y10.22 Z1.74 F1800.0
G1 X-0.87 Y10.52 Z1.74 F1800.0
G1 X-0.98 Y9.95 Z1.74 F1800.0
G1 X-0.98 Y-7.76 Z1.74 F1800.0
G1 X-0.0 Y-9.98 Z1.74 F1800.0
G1 X3.05 Y-9.98 Z1.74 F1800.0
G1 X2.18 Y-8.28 Z1.74 F1800.0
G1 X2.62 Y-7.84 Z1.74 F1800.0
G1 X3.05 Y-8.28 Z1.74 F1800.0
G1 X3.49 Y-9.98 Z1.74 F1800.0
G1 X5.67 Y-9.98 Z1.74 F1800.0
G1 X3.93 Y-8.28 Z1.74 F1800.0
G1 X4.8 Y-7.84 Z1.74 F1800.0
G1 X5.24 Y-8.28 Z1.74 F1800.0
G1 X5.67 Y-7.84 Z1.74 F1800.0
G1 X6.11 Y-8.28 Z1.74 F1800.0
G1 X6.11 Y-9.98 Z1.74 F1800.0
G1 X7.85 Y-9.98 Z1.74 F1800.0
G1 X6.55 Y-8.28 Z1.74 F1800.0
G1 X6.98 Y-7.84 Z1.74 F1800.0
G1 X7.42 Y-8.28 Z1.74 F1800.0
G1 X7.85 Y-7.84 Z1.74 F1800.0
G1 X8.29 Y-8.28 Z1.74 F1800.0
G1 X8.29 Y-9.98 Z1.74 F1800.0
G1 X9.6 Y-9.98 Z1.74 F1800.0
G1 X8.73 Y-8.28 Z1.74 F1800.0
G1 X9.16 Y-7.84 Z1.74 F1800.0
G1 X9.6 Y-8.28 Z1.74 F1800.0
G1 X10.04 Y-9.98 Z1.74 F1800.0
G1 X11.78 Y-9.98 Z1.74 F1800.0
G1 X10.47 Y-8.28 Z1.74 F1800.0
G1 X11.35 Y-7.84 Z1.74 F1800.0
G1 X11.78 Y-8.28 Z1.74 F1800.0
G1 X12.22 Y-9.98 Z1.74 F1800.0
G1 X13.96 Y-9.98 Z1.74 F1800.0
G1 X12.65 Y-8.28 Z1.74 F1800.0
G1 X13.53 Y-7.84 Z1.74 F1800.0
G1 X13.96 Y-8.28 Z1.74 F1800.0
G1 X14.4 Y-9.98 Z1.74 F1800.0
G1 X16.58 Y-9.98 Z1.74 F1800.0
G1 X14.84 Y-8.28 Z1.74 F1800.0
G1 X15.71 Y-7.84 Z1.74 F1800.0
G1 X16.14 Y-8.28 Z1.74 F1800.0
G1 X16.58 Y-7.84 Z1.74 F1800.0
G1 X17.02 Y-8.28 Z1.74 F1800.0
G1 X17.02 Y-9.98 Z1.74 F1800.0
G1 X18.76 Y-9.98 Z1.74 F1800.0
G1 X17.45 Y-8.28 Z1.74 F1800.0
G1 X17.89 Y-7.84 Z1.74 F1800.0
G1 X18.33 Y-8.28 Z1.74 F1800.0
G1 X18.76 Y-7.84 Z1.74 F1800.0
G1 X19.2 Y-8.28 Z1.74 F1800.0
G1 X19.2 Y-9.98 Z1.74 F1800.0
G1 X20.51 Y-9.98 Z1.74 F1800.0
G1 X19.64 Y-8.28 Z1.74 F1800.0
G1 X20.07 Y-7.84 Z1.74 F1800.0
G1 X20.51 Y-8.28 Z1.74 F1800.0
G1 X20.94 Y-9.98 Z1.74 F1800.0
G1 X22.69 Y-9.98 Z1.74 F1800.0
G1 X21.38 Y-8.28 Z1.74 F1800.0
G1 X22.25 Y-7.84 Z1.74 F1800.0
G1 X22.69 Y-8.28 Z1.74 F1800.0
G1 X23.13 Y-9.98 Z1.74 F1800.0
G1 X26.18 Y-9.98 Z1.74 F1800.0
G1 X25.31 Y-7.84 Z1.74 F1800.0
G1 X24.87 Y-8.28 Z1.74 F1800.0
G1 X24.75 Y-8.16 Z1.74 F1800.0
M108 R30.0
M102
G1 X24.44 Y-7.84 Z1.74 F1800.0
M108 R3.569
M103
G1 X26.05 Y-9.42 Z1.74 F3000.0
M108 R30.0
M101
G1 X26.62 Y-9.98 Z1.74 F3000.0
M108 R3.569
G1 X26.62 Y10.52 Z1.74 F1800.0
G1 X26.02 Y10.18 Z1.74 F1800.0
G1 X25.31 Y10.17 Z1.74 F1800.0
G1 X25.31 Y10.52 Z1.74 F1800.0
G1 X24.87 Y10.17 Z1.74 F1800.0
G1 X24.87 Y10.52 Z1.74 F1800.0
G1 X24.44 Y10.17 Z1.74 F1800.0
G1 X24.44 Y10.52 Z1.74 F1800.0
G1 X24.0 Y10.17 Z1.74 F1800.0
G1 X24.0 Y10.52 Z1.74 F1800.0
G1 X23.56 Y10.17 Z1.74 F1800.0
G1 X23.56 Y10.52 Z1.74 F1800.0
G1 X23.13 Y10.17 Z1.74 F1800.0
G1 X23.13 Y10.52 Z1.74 F1800.0
G1 X22.69 Y10.17 Z1.74 F1800.0
G1 X22.69 Y10.52 Z1.74 F1800.0
G1 X22.25 Y10.17 Z1.74 F1800.0
G1 X22.25 Y10.52 Z1.74 F1800.0
G1 X21.82 Y10.17 Z1.74 F1800.0
G1 X21.82 Y10.52 Z1.74 F1800.0
G1 X21.38 Y10.17 Z1.74 F1800.0
G1 X21.38 Y10.52 Z1.74 F1800.0
G1 X20.94 Y10.17 Z1.74 F1800.0
G1 X20.94 Y10.52 Z1.74 F1800.0
G1 X20.51 Y10.17 Z1.74 F1800.0
G1 X20.51 Y10.52 Z1.74 F1800.0
G1 X20.07 Y10.17 Z1.74 F1800.0
G1 X20.07 Y10.52 Z1.74 F1800.0
G1 X19.64 Y10.17 Z1.74 F1800.0
G1 X19.64 Y10.52 Z1.74 F1800.0
G1 X19.2 Y10.17 Z1.74 F1800.0
G1 X19.2 Y10.52 Z1.74 F1800.0
G1 X18.76 Y10.17 Z1.74 F1800.0
G1 X18.76 Y10.52 Z1.74 F1800.0
G1 X18.33 Y10.17 Z1.74 F1800.0
G1 X18.33 Y10.52 Z1.74 F1800.0
G1 X17.89 Y10.17 Z1.74 F1800.0
G1 X17.89 Y10.52 Z1.74 F1800.0
G1 X17.45 Y10.17 Z1.74 F1800.0
G1 X17.45 Y10.52 Z1.74 F1800.0
G1 X17.02 Y10.17 Z1.74 F1800.0
G1 X17.02 Y10.52 Z1.74 F1800.0
G1 X16.58 Y10.17 Z1.74 F1800.0
G1 X16.58 Y10.52 Z1.74 F1800.0
G1 X16.14 Y10.17 Z1.74 F1800.0
G1 X16.14 Y10.52 Z1.74 F1800.0
G1 X15.71 Y10.17 Z1.74 F1800.0
G1 X15.71 Y10.52 Z1.74 F1800.0
G1 X15.27 Y10.17 Z1.74 F1800.0
G1 X15.27 Y10.52 Z1.74 F1800.0
G1 X14.84 Y10.17 Z1.74 F1800.0
G1 X14.84 Y10.52 Z1.74 F1800.0
G1 X14.4 Y10.17 Z1.74 F1800.0
G1 X14.4 Y10.52 Z1.74 F1800.0
G1 X13.96 Y10.17 Z1.74 F1800.0
G1 X13.96 Y10.52 Z1.74 F1800.0
G1 X13.53 Y10.17 Z1.74 F1800.0
G1 X13.53 Y10.52 Z1.74 F1800.0
G1 X13.09 Y10.17 Z1.74 F1800.0
G1 X13.09 Y10.52 Z1.74 F1800.0
G1 X12.65 Y10.17 Z1.74 F1800.0
G1 X12.65 Y10.52 Z1.74 F1800.0
G1 X12.22 Y10.17 Z1.74 F1800.0
G1 X12.22 Y10.52 Z1.74 F1800.0
G1 X11.78 Y10.17 Z1.74 F1800.0
G1 X11.78 Y10.52 Z1.74 F1800.0
G1 X11.35 Y10.17 Z1.74 F1800.0
G1 X11.35 Y10.52 Z1.74 F1800.0
G1 X10.91 Y10.17 Z1.74 F1800.0
G1 X10.91 Y10.52 Z1.74 F1800.0
G1 X10.47 Y10.17 Z1.74 F1800.0
G1 X10.47 Y10.52 Z1.74 F1800.0
G1 X10.04 Y10.17 Z1.74 F1800.0
G1 X10.04 Y10.52 Z1.74 F1800.0
G1 X9.6 Y10.17 Z1.74 F1800.0
G1 X9.6 Y10.52 Z1.74 F1800.0
G1 X9.16 Y10.17 Z1.74 F1800.0
G1 X9.16 Y10.52 Z1.74 F1800.0
G1 X8.73 Y10.17 Z1.74 F1800.0
G1 X8.73 Y10.52 Z1.74 F1800.0
G1 X8.29 Y10.17 Z1.74 F1800.0
G1 X8.29 Y10.52 Z1.74 F1800.0
G1 X7.85 Y10.17 Z1.74 F1800.0
G1 X7.85 Y10.52 Z1.74 F1800.0
G1 X7.42 Y10.17 Z1.74 F1800.0
G1 X7.42 Y10.52 Z1.74 F1800.0
G1 X6.98 Y10.17 Z1.74 F1800.0
G1 X6.98 Y10.52 Z1.74 F1800.0
G1 X6.55 Y10.17 Z1.74 F1800.0
G1 X6.55 Y10.52 Z1.74 F1800.0
G1 X6.11 Y10.17 Z1.74 F1800.0
G1 X6.11 Y10.52 Z1.74 F1800.0
G1 X5.67 Y10.17 Z1.74 F1800.0
G1 X5.67 Y10.52 Z1.74 F1800.0
G1 X5.24 Y10.17 Z1.74 F1800.0
G1 X5.24 Y10.52 Z1.74 F1800.0
G1 X4.8 Y10.17 Z1.74 F1800.0
G1 X4.8 Y10.52 Z1.74 F1800.0
G1 X4.36 Y10.17 Z1.74 F1800.0
G1 X4.36 Y10.52 Z1.74 F1800.0
G1 X3.93 Y10.17 Z1.74 F1800.0
G1 X3.93 Y10.52 Z1.74 F1800.0
G1 X3.49 Y10.17 Z1.74 F1800.0
G1 X3.49 Y10.52 Z1.74 F1800.0
G1 X3.05 Y10.17 Z1.74 F1800.0
G1 X3.05 Y10.52 Z1.74 F1800.0
G1 X2.62 Y10.17 Z1.74 F1800.0
G1 X2.62 Y10.52 Z1.74 F1800.0
G1 X2.18 Y10.17 Z1.74 F1800.0
G1 X2.18 Y10.52 Z1.74 F1800.0
M103
(</surroundingLoop>)
(</layer>)
(<layer> 2.06 )
(<surroundingLoop>)
(<boundaryPerimeter>)
(<boundaryPoint> X-27.593 Y11.365 Z2.06 </boundaryPoint>)
(<boundaryPoint> X-27.593 Y-10.533 Z2.06 </boundaryPoint>)
(<boundaryPoint> X27.593 Y-10.533 Z2.06 </boundaryPoint>)
(<boundaryPoint> X27.593 Y11.365 Z2.06 </boundaryPoint>)
(<loop> inner )
G1 X2.33 Y9.91 Z2.06 F3000.0
M101
G1 X25.42 Y9.91 Z2.06 F1800.0
G1 X25.42 Y-7.58 Z2.06 F1800.0
G1 X2.17 Y-7.58 Z2.06 F1800.0
G1 X2.17 Y9.63 Z2.06 F1800.0
M108 R30.0
M102
G1 X2.17 Y9.91 Z2.06 F1800.0
G1 X2.33 Y9.91 Z2.06 F1800.0
M108 R3.569
M103
(</loop>)
(<loop> inner )
G1 X-1.37 Y9.91 Z2.06 F3000.0
M108 R30.0
M101
G1 X-2.17 Y9.91 Z2.06 F3000.0
M108 R3.569
G1 X-2.17 Y-7.58 Z2.06 F1800.0
G1 X-25.42 Y-7.58 Z2.06 F1800.0
G1 X-25.42 Y9.91 Z2.06 F1800.0
G1 X-2.17 Y9.91 Z2.06 F1800.0
M103
(</loop>)
(<loop> outer )
G1 X-2.17 Y10.78 Z2.06 F3000.0
M101
G1 X-27.0 Y10.78 Z2.06 F1800.0
G1 X-27.0 Y-9.94 Z2.06 F1800.0
G1 X27.0 Y-9.94 Z2.06 F1800.0
G1 X27.0 Y10.78 Z2.06 F1800.0
G1 X-2.17 Y10.78 Z2.06 F1800.0
M103
(</loop>)
(<perimeter> outer )
G1 X-2.17 Y11.17 Z2.06 F3000.0
M101
G1 X-27.4 Y11.17 Z2.06 F1800.0
G1 X-27.4 Y-10.34 Z2.06 F1800.0
G1 X27.4 Y-10.34 Z2.06 F1800.0
G1 X27.4 Y11.17 Z2.06 F1800.0
G1 X-1.72 Y11.17 Z2.06 F1800.0
M108 R30.0
M102
G1 X-2.17 Y11.17 Z2.06 F1800.0
M108 R3.569
M103
(</perimeter>)
(</boundaryPerimeter>)
(<surroundingLoop>)
(<boundaryPerimeter>)
(<boundaryPoint> X-2.759 Y-6.995 Z2.06 </boundaryPoint>)
(<boundaryPoint> X-24.834 Y-6.995 Z2.06 </boundaryPoint>)
(<boundaryPoint> X-24.834 Y9.325 Z2.06 </boundaryPoint>)
(<boundaryPoint> X-2.759 Y9.325 Z2.06 </boundaryPoint>)
(<perimeter> inner )
G1 X-2.38 Y10.3 Z2.06 F3000.0
M108 R30.0
M101
G1 X-2.56 Y9.52 Z2.06 F3000.0
M108 R3.569
G1 X-2.56 Y-7.19 Z2.06 F1800.0
G1 X-25.03 Y-7.19 Z2.06 F1800.0
G1 X-25.03 Y9.52 Z2.06 F1800.0
G1 X-3.01 Y9.52 Z2.06 F1800.0
M108 R30.0
M102
G1 X-2.56 Y9.52 Z2.06 F1800.0
M108 R3.569
M103
(</perimeter>)
(</boundaryPerimeter>)
(</surroundingLoop>)
(<surroundingLoop>)
(<boundaryPerimeter>)
(<boundaryPoint> X2.759 Y9.325 Z2.06 </boundaryPoint>)
(<boundaryPoint> X24.834 Y9.325 Z2.06 </boundaryPoint>)
(<boundaryPoint> X24.834 Y-6.995 Z2.06 </boundaryPoint>)
(<boundaryPoint> X2.759 Y-6.995 Z2.06 </boundaryPoint>)
(<perimeter> inner )
G1 X1.76 Y9.52 Z2.06 F3000.0
M108 R30.0
M101
G1 X2.56 Y9.52 Z2.06 F3000.0
M108 R3.569
G1 X25.03 Y9.52 Z2.06 F1800.0
G1 X25.03 Y-7.19 Z2.06 F1800.0
G1 X2.56 Y-7.19 Z2.06 F1800.0
G1 X2.56 Y9.07 Z2.06 F1800.0
M108 R30.0
M102
G1 X2.56 Y9.52 Z2.06 F1800.0
M108 R3.569
M103
(</perimeter>)
(</boundaryPerimeter>)
(</surroundingLoop>)
G1 X-1.68 Y-4.47 Z2.06 F3000.0
M108 R30.0
M101
G1 X-1.91 Y-5.24 Z2.06 F3000.0
M108 R3.569
G1 X-1.91 Y-7.42 Z2.06 F1800.0
G1 X-1.22 Y-7.64 Z2.06 F1800.0
G1 X1.91 Y-7.42 Z2.06 F1800.0
G1 X1.91 Y-3.49 Z2.06 F1800.0
G1 X-1.09 Y-3.39 Z2.06 F1800.0
G1 X-1.91 Y-4.8 Z2.06 F1800.0
G1 X-1.91 Y-1.31 Z2.06 F1800.0
G1 X-1.48 Y-1.31 Z2.06 F1800.0
G1 X-1.22 Y-3.16 Z2.06 F1800.0
G1 X1.91 Y-3.05 Z2.06 F1800.0
G1 X1.91 Y0.87 Z2.06 F1800.0
G1 X-1.91 Y-0.87 Z2.06 F1800.0
G1 X-1.91 Y3.49 Z2.06 F1800.0
G1 X-1.48 Y2.62 Z2.06 F1800.0
G1 X-1.22 Y1.09 Z2.06 F1800.0
G1 X1.91 Y1.31 Z2.06 F1800.0
G1 X1.91 Y5.24 Z2.06 F1800.0
G1 X-1.09 Y5.34 Z2.06 F1800.0
G1 X-1.91 Y3.93 Z2.06 F1800.0
G1 X-1.91 Y7.42 Z2.06 F1800.0
G1 X-1.48 Y7.42 Z2.06 F1800.0
G1 X-1.22 Y5.57 Z2.06 F1800.0
G1 X1.91 Y5.67 Z2.06 F1800.0
G1 X1.91 Y10.04 Z2.06 F1800.0
G1 X-1.22 Y9.82 Z2.06 F1800.0
G1 X-1.91 Y10.04 Z2.06 F1800.0
G1 X-1.91 Y8.3 Z2.06 F1800.0
M108 R30.0
M102
G1 X-1.91 Y7.85 Z2.06 F1800.0
M108 R3.569
M103
G1 X2.48 Y7.78 Z2.06 F3000.0
G1 X2.62 Y9.46 Z2.06 F3000.0
G1 X24.97 Y9.46 Z2.06 F3000.0
G1 X25.09 Y7.66 Z2.06 F3000.0
M108 R30.0
M101
G1 X25.11 Y7.43 Z2.06 F3000.0
G1 X25.68 Y7.42 Z2.06 F3000.0
M108 R3.569
G1 X25.68 Y10.04 Z2.06 F1800.0
G1 X26.75 Y9.6 Z2.06 F1800.0
G1 X26.75 Y5.67 Z2.06 F1800.0
G1 X25.68 Y6.98 Z2.06 F1800.0
G1 X25.68 Y3.49 Z2.06 F1800.0
G1 X26.75 Y5.24 Z2.06 F1800.0
G1 X26.75 Y1.31 Z2.06 F1800.0
G1 X25.68 Y3.05 Z2.06 F1800.0
G1 X25.68 Y-0.87 Z2.06 F1800.0
G1 X26.75 Y0.87 Z2.06 F1800.0
G1 X26.75 Y-3.05 Z2.06 F1800.0
G1 X25.68 Y-1.31 Z2.06 F1800.0
G1 X25.68 Y-5.24 Z2.06 F1800.0
G1 X26.75 Y-3.93 Z2.06 F1800.0
G1 X26.75 Y-7.42 Z2.06 F1800.0
G1 X25.68 Y-5.67 Z2.06 F1800.0
G1 X25.68 Y-6.97 Z2.06 F1800.0
M108 R30.0
M102
G1 X25.68 Y-7.42 Z2.06 F1800.0
M108 R3.569
M103
G1 X26.7 Y9.24 Z2.06 F3000.0
M108 R30.0
M101
G1 X26.75 Y10.04 Z2.06 F3000.0
M108 R3.569
G1 X26.75 Y10.47 Z2.06 F1800.0
G1 X-26.75 Y10.47 Z2.06 F1800.0
G1 X-26.75 Y7.42 Z2.06 F1800.0
G1 X-25.68 Y9.16 Z2.06 F1800.0
G1 X-25.68 Y5.67 Z2.06 F1800.0
G1 X-26.75 Y6.98 Z2.06 F1800.0
G1 X-26.75 Y3.49 Z2.06 F1800.0
G1 X-25.68 Y5.24 Z2.06 F1800.0
G1 X-25.68 Y1.31 Z2.06 F1800.0
G1 X-26.75 Y3.05 Z2.06 F1800.0
G1 X-26.75 Y-0.87 Z2.06 F1800.0
G1 X-25.68 Y0.87 Z2.06 F1800.0
G1 X-25.68 Y-3.05 Z2.06 F1800.0
G1 X-26.75 Y-1.31 Z2.06 F1800.0
G1 X-26.75 Y-5.24 Z2.06 F1800.0
G1 X-25.68 Y-3.93 Z2.06 F1800.0
G1 X-25.68 Y-7.42 Z2.06 F1800.0
G1 X-26.75 Y-5.67 Z2.06 F1800.0
G1 X-26.75 Y-9.16 Z2.06 F1800.0
G1 X26.75 Y-7.85 Z2.06 F1800.0
G1 X26.75 Y-9.6 Z2.06 F1800.0
G1 X-26.3 Y-9.6 Z2.06 F1800.0
M108 R30.0
M102
G1 X-26.75 Y-9.6 Z2.06 F1800.0
M108 R3.569
M103
(</surroundingLoop>)
(</layer>)
(<layer> 2.38 )
(<surroundingLoop>)
(<boundaryPerimeter>)
(<boundaryPoint> X-21.314 Y-9.996 Z2.38 </boundaryPoint>)
(<boundaryPoint> X-21.244 Y-10.113 Z2.38 </boundaryPoint>)
(<boundaryPoint> X-21.134 Y-10.441 Z2.38 </boundaryPoint>)
(<boundaryPoint> X-19.89 Y-10.441 Z2.38 </boundaryPoint>)
(<boundaryPoint> X-19.781 Y-10.113 Z2.38 </boundaryPoint>)
(<boundaryPoint> X-19.711 Y-9.996 Z2.38 </boundaryPoint>)
(<boundaryPoint> X0.618 Y-9.996 Z2.38 </boundaryPoint>)
(<boundaryPoint> X0.688 Y-10.113 Z2.38 </boundaryPoint>)
(<boundaryPoint> X0.798 Y-10.441 Z2.38 </boundaryPoint>)
(<boundaryPoint> X2.042 Y-10.441 Z2.38 </boundaryPoint>)
(<boundaryPoint> X2.151 Y-10.113 Z2.38 </boundaryPoint>)
(<boundaryPoint> X2.221 Y-9.996 Z2.38 </boundaryPoint>)
(<boundaryPoint> X3.457 Y-9.996 Z2.38 </boundaryPoint>)
(<boundaryPoint> X3.527 Y-10.113 Z2.38 </boundaryPoint>)
(<boundaryPoint> X3.637 Y-10.441 Z2.38 </boundaryPoint>)
(<boundaryPoint> X4.864 Y-10.441 Z2.38 </boundaryPoint>)
(<boundaryPoint> X4.973 Y-10.113 Z2.38 </boundaryPoint>)
(<boundaryPoint> X5.043 Y-9.996 Z2.38 </boundaryPoint>)
(<boundaryPoint> X6.279 Y-9.996 Z2.38 </boundaryPoint>)
(<boundaryPoint> X6.349 Y-10.113 Z2.38 </boundaryPoint>)
(<boundaryPoint> X6.459 Y-10.441 Z2.38 </boundaryPoint>)
(<boundaryPoint> X7.703 Y-10.441 Z2.38 </boundaryPoint>)
(<boundaryPoint> X7.812 Y-10.113 Z2.38 </boundaryPoint>)
(<boundaryPoint> X7.882 Y-9.996 Z2.38 </boundaryPoint>)
(<boundaryPoint> X27.593 Y-9.996 Z2.38 </boundaryPoint>)
(<boundaryPoint> X27.593 Y11.365 Z2.38 </boundaryPoint>)
(<boundaryPoint> X-27.593 Y11.365 Z2.38 </boundaryPoint>)
(<boundaryPoint> X-27.593 Y-9.996 Z2.38 </boundaryPoint>)
(<boundaryPoint> X-26.975 Y-9.996 Z2.38 </boundaryPoint>)
(<boundaryPoint> X-26.905 Y-10.113 Z2.38 </boundaryPoint>)
(<boundaryPoint> X-26.795 Y-10.441 Z2.38 </boundaryPoint>)
(<boundaryPoint> X-25.551 Y-10.441 Z2.38 </boundaryPoint>)
(<boundaryPoint> X-25.442 Y-10.113 Z2.38 </boundaryPoint>)
(<boundaryPoint> X-25.372 Y-9.996 Z2.38 </boundaryPoint>)
(<boundaryPoint> X-24.136 Y-9.996 Z2.38 </boundaryPoint>)
(<boundaryPoint> X-24.066 Y-10.113 Z2.38 </boundaryPoint>)
(<boundaryPoint> X-23.956 Y-10.441 Z2.38 </boundaryPoint>)
(<boundaryPoint> X-22.729 Y-10.441 Z2.38 </boundaryPoint>)
(<boundaryPoint> X-22.62 Y-10.113 Z2.38 </boundaryPoint>)
(<boundaryPoint> X-22.55 Y-9.996 Z2.38 </boundaryPoint>)
(<loop> inner )
G1 X1.51 Y-7.64 Z2.37 F3000.0
M108 R30.0
M101
G1 X2.31 Y-7.58 Z2.38 F3000.0
M108 R3.569
G1 X2.17 Y-7.58 Z2.38 F1800.0
G1 X2.17 Y9.91 Z2.38 F1800.0
G1 X25.42 Y9.91 Z2.38 F1800.0
G1 X25.42 Y-7.58 Z2.38 F1800.0
G1 X2.76 Y-7.58 Z2.38 F1800.0
M108 R30.0
M102
G1 X2.31 Y-7.58 Z2.38 F1800.0
M108 R3.569
M103
(</loop>)
(<loop> inner )
G1 X-1.37 Y-7.58 Z2.38 F3000.0
M108 R30.0
M101
G1 X-2.17 Y-7.58 Z2.38 F3000.0
M108 R3.569
G1 X-25.42 Y-7.58 Z2.38 F1800.0
G1 X-25.42 Y9.91 Z2.38 F1800.0
G1 X-2.17 Y9.91 Z2.38 F1800.0
G1 X-2.17 Y-7.13 Z2.38 F1800.0
M108 R30.0
M102
G1 X-2.17 Y-7.58 Z2.38 F1800.0
M108 R3.569
M103
(</loop>)
(<loop> outer )
G1 X-2.17 Y-8.61 Z2.38 F3000.0
M108 R30.0
M101
G1 X-2.17 Y-9.41 Z2.38 F3000.0
M108 R3.569
G1 X0.95 Y-9.41 Z2.38 F1800.0
G1 X1.23 Y-9.87 Z2.38 F1800.0
G1 X1.22 Y-9.85 Z2.38 F1800.0
G1 X1.62 Y-9.85 Z2.38 F1800.0
G1 X1.61 Y-9.87 Z2.38 F1800.0
G1 X1.89 Y-9.41 Z2.38 F1800.0
G1 X3.79 Y-9.41 Z2.38 F1800.0
G1 X3.93 Y-9.64 Z2.38 F1800.0
G1 X4.57 Y-9.64 Z2.38 F1800.0
G1 X4.71 Y-9.41 Z2.38 F1800.0
G1 X6.61 Y-9.41 Z2.38 F1800.0
G1 X6.89 Y-9.87 Z2.38 F1800.0
G1 X6.88 Y-9.85 Z2.38 F1800.0
G1 X7.28 Y-9.85 Z2.38 F1800.0
G1 X7.27 Y-9.87 Z2.38 F1800.0
G1 X7.55 Y-9.41 Z2.38 F1800.0
G1 X27.0 Y-9.41 Z2.38 F1800.0
G1 X27.0 Y10.78 Z2.38 F1800.0
G1 X-27.0 Y10.78 Z2.38 F1800.0
G1 X-27.0 Y-9.41 Z2.38 F1800.0
G1 X-26.64 Y-9.41 Z2.38 F1800.0
G1 X-26.37 Y-9.87 Z2.38 F1800.0
G1 X-26.37 Y-9.85 Z2.38 F1800.0
G1 X-25.98 Y-9.85 Z2.38 F1800.0
G1 X-25.98 Y-9.87 Z2.38 F1800.0
G1 X-25.71 Y-9.41 Z2.38 F1800.0
G1 X-23.8 Y-9.41 Z2.38 F1800.0
G1 X-23.66 Y-9.64 Z2.38 F1800.0
G1 X-23.02 Y-9.64 Z2.38 F1800.0
G1 X-22.88 Y-9.41 Z2.38 F1800.0
G1 X-20.98 Y-9.41 Z2.38 F1800.0
G1 X-20.71 Y-9.87 Z2.38 F1800.0
G1 X-20.71 Y-9.85 Z2.38 F1800.0
G1 X-20.32 Y-9.85 Z2.38 F1800.0
G1 X-20.32 Y-9.87 Z2.38 F1800.0
G1 X-20.05 Y-9.41 Z2.38 F1800.0
G1 X-2.17 Y-9.41 Z2.38 F1800.0
M103
(</loop>)
(<perimeter> outer )
G1 X-2.17 Y-9.8 Z2.38 F3000.0
M101
G1 X0.73 Y-9.8 Z2.38 F1800.0
G1 X0.87 Y-10.03 Z2.38 F1800.0
G1 X0.94 Y-10.25 Z2.38 F1800.0
G1 X1.9 Y-10.25 Z2.38 F1800.0
G1 X1.97 Y-10.03 Z2.38 F1800.0
G1 X2.11 Y-9.8 Z2.38 F1800.0
G1 X3.57 Y-9.8 Z2.38 F1800.0
G1 X3.71 Y-10.03 Z2.38 F1800.0
G1 X3.78 Y-10.25 Z2.38 F1800.0
G1 X4.72 Y-10.25 Z2.38 F1800.0
G1 X4.79 Y-10.03 Z2.38 F1800.0
G1 X4.93 Y-9.8 Z2.38 F1800.0
G1 X6.39 Y-9.8 Z2.38 F1800.0
G1 X6.53 Y-10.03 Z2.38 F1800.0
G1 X6.6 Y-10.25 Z2.38 F1800.0
G1 X7.56 Y-10.25 Z2.38 F1800.0
G1 X7.63 Y-10.03 Z2.38 F1800.0
G1 X7.77 Y-9.8 Z2.38 F1800.0
G1 X27.4 Y-9.8 Z2.38 F1800.0
G1 X27.4 Y11.17 Z2.38 F1800.0
G1 X-27.4 Y11.17 Z2.38 F1800.0
G1 X-27.4 Y-9.8 Z2.38 F1800.0
G1 X-26.86 Y-9.8 Z2.38 F1800.0
G1 X-26.73 Y-10.03 Z2.38 F1800.0
G1 X-26.65 Y-10.25 Z2.38 F1800.0
G1 X-25.69 Y-10.25 Z2.38 F1800.0
G1 X-25.62 Y-10.03 Z2.38 F1800.0
G1 X-25.48 Y-9.8 Z2.38 F1800.0
G1 X-24.03 Y-9.8 Z2.38 F1800.0
G1 X-23.89 Y-10.03 Z2.38 F1800.0
G1 X-23.82 Y-10.25 Z2.38 F1800.0
G1 X-22.87 Y-10.25 Z2.38 F1800.0
G1 X-22.8 Y-10.03 Z2.38 F1800.0
G1 X-22.66 Y-9.8 Z2.38 F1800.0
G1 X-21.2 Y-9.8 Z2.38 F1800.0
G1 X-21.06 Y-10.03 Z2.38 F1800.0
G1 X-20.99 Y-10.25 Z2.38 F1800.0
G1 X-20.03 Y-10.25 Z2.38 F1800.0
G1 X-19.96 Y-10.03 Z2.38 F1800.0
G1 X-19.82 Y-9.8 Z2.38 F1800.0
G1 X-2.62 Y-9.8 Z2.38 F1800.0
M108 R30.0
M102
G1 X-2.17 Y-9.8 Z2.38 F1800.0
M108 R3.569
M103
(</perimeter>)
(</boundaryPerimeter>)
(<surroundingLoop>)
(<boundaryPerimeter>)
(<boundaryPoint> X-2.759 Y-6.995 Z2.38 </boundaryPoint>)
(<boundaryPoint> X-24.834 Y-6.995 Z2.38 </boundaryPoint>)
(<boundaryPoint> X-24.834 Y9.325 Z2.38 </boundaryPoint>)
(<boundaryPoint> X-2.759 Y9.325 Z2.38 </boundaryPoint>)
(<perimeter> inner )
G1 X-2.44 Y-7.98 Z2.38 F3000.0
M108 R30.0
M101
G1 X-2.56 Y-7.19 Z2.38 F3000.0
M108 R3.569
G1 X-25.03 Y-7.19 Z2.38 F1800.0
G1 X-25.03 Y9.52 Z2.38 F1800.0
G1 X-2.56 Y9.52 Z2.38 F1800.0
G1 X-2.56 Y-6.74 Z2.38 F1800.0
M108 R30.0
M102
G1 X-2.56 Y-7.19 Z2.38 F1800.0
M108 R3.569
M103
(</perimeter>)
(</boundaryPerimeter>)
(</surroundingLoop>)
(<surroundingLoop>)
(<boundaryPerimeter>)
(<boundaryPoint> X24.834 Y-6.995 Z2.38 </boundaryPoint>)
(<boundaryPoint> X2.759 Y-6.995 Z2.38 </boundaryPoint>)
(<boundaryPoint> X2.759 Y9.325 Z2.38 </boundaryPoint>)
(<boundaryPoint> X24.834 Y9.325 Z2.38 </boundaryPoint>)
(<perimeter> inner )
G1 X1.76 Y-7.19 Z2.38 F3000.0
M108 R30.0
M101
G1 X2.56 Y-7.19 Z2.38 F3000.0
M108 R3.569
G1 X2.56 Y9.52 Z2.38 F1800.0
G1 X25.03 Y9.52 Z2.38 F1800.0
G1 X25.03 Y-7.19 Z2.38 F1800.0
G1 X3.01 Y-7.19 Z2.38 F1800.0
M108 R30.0
M102
G1 X2.56 Y-7.19 Z2.38 F1800.0
M108 R3.569
M103
(</perimeter>)
(</boundaryPerimeter>)
(</surroundingLoop>)
G1 X0.64 Y-8.66 Z2.38 F3000.0
M108 R30.0
M101
G1 X-0.0 Y-9.15 Z2.38 F3000.0
M108 R3.569
G1 X0.0 Y10.52 Z2.38 F1800.0
M103
G1 X-0.44 Y10.52 Z2.38 F3000.0
M101
G1 X-0.44 Y-9.15 Z2.38 F1800.0
M103
G1 X-0.87 Y-9.15 Z2.38 F3000.0
M101
G1 X-0.87 Y10.52 Z2.38 F1800.0
M103
G1 X-1.31 Y10.52 Z2.38 F3000.0
M101
G1 X-1.31 Y-9.15 Z2.38 F1800.0
M103
G1 X-1.75 Y-9.15 Z2.38 F3000.0
M101
G1 X-1.75 Y10.52 Z2.38 F1800.0
G1 X-2.18 Y10.17 Z2.38 F1800.0
G1 X-2.18 Y10.52 Z2.38 F1800.0
G1 X-2.62 Y10.17 Z2.38 F1800.0
G1 X-2.62 Y10.52 Z2.38 F1800.0
G1 X-3.05 Y10.17 Z2.38 F1800.0
G1 X-3.05 Y10.52 Z2.38 F1800.0
G1 X-3.49 Y10.17 Z2.38 F1800.0
G1 X-3.49 Y10.52 Z2.38 F1800.0
G1 X-3.93 Y10.17 Z2.38 F1800.0
G1 X-3.93 Y10.52 Z2.38 F1800.0
G1 X-4.36 Y10.17 Z2.38 F1800.0
G1 X-4.36 Y10.52 Z2.38 F1800.0
G1 X-4.8 Y10.17 Z2.38 F1800.0
G1 X-4.8 Y10.52 Z2.38 F1800.0
G1 X-5.24 Y10.17 Z2.38 F1800.0
G1 X-5.24 Y10.52 Z2.38 F1800.0
G1 X-5.67 Y10.17 Z2.38 F1800.0
G1 X-5.67 Y10.52 Z2.38 F1800.0
G1 X-6.11 Y10.17 Z2.38 F1800.0
G1 X-6.11 Y10.52 Z2.38 F1800.0
G1 X-6.55 Y10.17 Z2.38 F1800.0
G1 X-6.55 Y10.52 Z2.38 F1800.0
G1 X-6.98 Y10.17 Z2.38 F1800.0
G1 X-6.98 Y10.52 Z2.38 F1800.0
G1 X-7.42 Y10.17 Z2.38 F1800.0
G1 X-7.42 Y10.52 Z2.38 F1800.0
G1 X-7.85 Y10.17 Z2.38 F1800.0
G1 X-7.85 Y10.52 Z2.38 F1800.0
G1 X-8.29 Y10.17 Z2.38 F1800.0
G1 X-8.29 Y10.52 Z2.38 F1800.0
G1 X-8.73 Y10.17 Z2.38 F1800.0
G1 X-8.73 Y10.52 Z2.38 F1800.0
G1 X-9.16 Y10.17 Z2.38 F1800.0
G1 X-9.16 Y10.52 Z2.38 F1800.0
G1 X-9.6 Y10.17 Z2.38 F1800.0
G1 X-9.6 Y10.52 Z2.38 F1800.0
G1 X-10.04 Y10.17 Z2.38 F1800.0
G1 X-10.04 Y10.52 Z2.38 F1800.0
G1 X-10.47 Y10.17 Z2.38 F1800.0
G1 X-10.47 Y10.52 Z2.38 F1800.0
G1 X-10.91 Y10.17 Z2.38 F1800.0
G1 X-10.91 Y10.52 Z2.38 F1800.0
G1 X-11.35 Y10.17 Z2.38 F1800.0
G1 X-11.35 Y10.52 Z2.38 F1800.0
G1 X-11.78 Y10.17 Z2.38 F1800.0
G1 X-11.78 Y10.52 Z2.38 F1800.0
G1 X-12.22 Y10.17 Z2.38 F1800.0
G1 X-12.22 Y10.52 Z2.38 F1800.0
G1 X-12.65 Y10.17 Z2.38 F1800.0
G1 X-12.65 Y10.52 Z2.38 F1800.0
G1 X-13.09 Y10.17 Z2.38 F1800.0
G1 X-13.09 Y10.52 Z2.38 F1800.0
G1 X-13.53 Y10.17 Z2.38 F1800.0
G1 X-13.53 Y10.52 Z2.38 F1800.0
G1 X-13.96 Y10.17 Z2.38 F1800.0
G1 X-13.96 Y10.52 Z2.38 F1800.0
G1 X-14.4 Y10.17 Z2.38 F1800.0
G1 X-14.4 Y10.52 Z2.38 F1800.0
G1 X-14.84 Y10.17 Z2.38 F1800.0
G1 X-14.84 Y10.52 Z2.38 F1800.0
G1 X-15.27 Y10.17 Z2.38 F1800.0
G1 X-15.27 Y10.52 Z2.38 F1800.0
G1 X-15.71 Y10.17 Z2.38 F1800.0
G1 X-15.71 Y10.52 Z2.38 F1800.0
G1 X-16.14 Y10.17 Z2.38 F1800.0
G1 X-16.14 Y10.52 Z2.38 F1800.0
G1 X-16.58 Y10.17 Z2.38 F1800.0
G1 X-16.58 Y10.52 Z2.38 F1800.0
G1 X-17.02 Y10.17 Z2.38 F1800.0
G1 X-17.02 Y10.52 Z2.38 F1800.0
G1 X-17.45 Y10.17 Z2.38 F1800.0
G1 X-17.45 Y10.52 Z2.38 F1800.0
G1 X-17.89 Y10.17 Z2.38 F1800.0
G1 X-17.89 Y10.52 Z2.38 F1800.0
G1 X-18.33 Y10.17 Z2.38 F1800.0
G1 X-18.33 Y10.52 Z2.38 F1800.0
G1 X-18.76 Y10.17 Z2.38 F1800.0
G1 X-18.76 Y10.52 Z2.38 F1800.0
G1 X-19.2 Y10.17 Z2.38 F1800.0
G1 X-19.2 Y10.52 Z2.38 F1800.0
G1 X-19.64 Y10.17 Z2.38 F1800.0
G1 X-19.64 Y10.52 Z2.38 F1800.0
G1 X-20.07 Y10.17 Z2.38 F1800.0
G1 X-20.07 Y10.52 Z2.38 F1800.0
G1 X-20.51 Y10.17 Z2.38 F1800.0
G1 X-20.51 Y10.52 Z2.38 F1800.0
G1 X-20.94 Y10.17 Z2.38 F1800.0
G1 X-20.94 Y10.52 Z2.38 F1800.0
G1 X-21.38 Y10.17 Z2.38 F1800.0
G1 X-21.38 Y10.52 Z2.38 F1800.0
G1 X-21.82 Y10.17 Z2.38 F1800.0
G1 X-21.82 Y10.52 Z2.38 F1800.0
G1 X-22.25 Y10.17 Z2.38 F1800.0
G1 X-22.25 Y10.52 Z2.38 F1800.0
