(** This GCode was generated by ReplicatorG 0034 **)
(*  using Skeinforge (35)  *)
(*  for a Single headed Thing-O-Matic  *)
(*  on 2012/04/22 00:48:49 (-0400) *)
(<alteration>)
(**** beginning of start.gcode ****)
(This file is for a MakerBot Thing-O-Matic)
(**** begin initialization commands ****)
G21 (set units to mm)
G90 (set positioning to absolute)
M108 R5.0 (set extruder speed)
M103 (Make sure extruder is off)
M104 S225 T0 (set extruder temperature)
M109 S120 T0 (set heated-build-platform temperature)
(**** end initialization commands ****)
(**** begin homing ****)
G162 Z F1000 (home Z axis maximum)
G92 Z10 (set Z to 0)
G1 Z0.0 (move z down 10)
G162 Z F150 (home Z axis maximum)
G161 X Y F2500 (home XY axes minimum)
M132 X Y Z A B (Recall stored home offsets for XYZAB axis)
(**** end homing ****)
(**** begin pre-wipe commands ****)
( Some people have had problems with the nozzle hitting )
( bolts or wipers during this pre-extrusion warmup.     )
( If this happens to you, you can change the values for )
( the X and Y positions in the following code.          )
( The goal is to have the toolhead wipe its initial     )
( extrusion near the edge of the platform, [anchor it]  )
( so as not to have it interfere with the print.        )
( This file can be found in:                            )
( replicatorg/skein_engines/skeinforge-##/skeinforge_application/ )
( prefs/<profile name [e.g. Thingomatic-ABP-Mk7]>/alterations )
G1 X25.0 Y-60.0 Z10.0 F3300.0 (move to waiting position)
M6 T0 (wait for toolhead parts, nozzle, HBP, etc., to reach temperature)
G0 X25 Y-57 (Position Nozzle)
G0 Z0.6     (Position Height)
M108 R4.0   (Set Extruder Speed)
M101        (Start Extruder)
G4 P1500    (Create Anchor)
(**** end pre-wipe commands ****)
(**** end of start.gcode ****)
(</alteration>)
(<creation> skeinforge </creation>)
(<version> 10.11.05 </version>)
(<extruderInitialization>)
(<craftTypeName> extrusion </craftTypeName>)
M105
(<bridgeWidthMultiplier> 1.0 </bridgeWidthMultiplier>)
(<decimalPlacesCarried> 3 </decimalPlacesCarried>)
(<layerThickness> 0.32 </layerThickness>)
(<threadSequenceString> loops perimeter infill </threadSequenceString>)
(<operatingFeedRatePerSecond> 30.0 </operatingFeedRatePerSecond>)
(<operatingFlowRate> 3.56914845556 </operatingFlowRate>)
(<orbitalFeedRatePerSecond> 15.0 </orbitalFeedRatePerSecond>)
(<travelFeedRatePerSecond> 50.0 </travelFeedRatePerSecond>)
(<perimeterWidth> 0.393 </perimeterWidth>)
(<profileName> ABS </profileName>)
(<procedureDone> carve,bottom </procedureDone>)
(<procedureDone> preface </procedureDone>)
(<procedureDone> inset </procedureDone>)
(<procedureDone> fill </procedureDone>)
(<procedureDone> speed </procedureDone>)
(<procedureDone> raft </procedureDone>)
(<procedureDone> jitter </procedureDone>)
(<procedureDone> comb </procedureDone>)
(<procedureDone> cool </procedureDone>)
(<procedureDone> outline </procedureDone>)
(<procedureDone> reversal </procedureDone>)
(<procedureDone> export </procedureDone>)
(</extruderInitialization>)
(<extrusion>)
;M113 S1.0
M108 R3.569
(<layer> 0.46 )
(<surroundingLoop>)
(<boundaryPerimeter>)
(<boundaryPoint> X6.8 Y5.1 Z0.46 </boundaryPoint>)
(<boundaryPoint> X-6.8 Y5.1 Z0.46 </boundaryPoint>)
(<boundaryPoint> X-6.8 Y-5.1 Z0.46 </boundaryPoint>)
(<boundaryPoint> X6.8 Y-5.1 Z0.46 </boundaryPoint>)
(<loop> outer )
M108 R2.141
G1 X8.6 Y-6.9 Z0.46 F1080.0
M101
G1 X-8.6 Y-6.9 Z0.46 F1080.0
G1 X-8.6 Y6.9 Z0.46 F1080.0
G1 X8.6 Y6.9 Z0.46 F1080.0
G1 X8.6 Y-6.63 Z0.46 F1080.0
M108 R30.0
M102
G1 X8.6 Y-6.9 Z0.46 F1080.0
M108 R2.141
M103
G1 X0.39 Y3.88 Z0.46 F3000.0
M108 R30.0
M101
G1 X-0.09 Y4.51 Z0.46 F3000.0
M108 R2.141
G1 X-6.21 Y4.51 Z0.46 F1080.0
G1 X-6.21 Y-4.51 Z0.46 F1080.0
G1 X6.21 Y-4.51 Z0.46 F1080.0
G1 X6.21 Y4.51 Z0.46 F1080.0
G1 X0.0 Y4.51 Z0.46 F1080.0
G1 X-0.09 Y4.51 Z0.46 F1080.0
M103
(</loop>)
(<perimeter> outer )
G1 X0.0 Y4.9 Z0.46 F3000.0
M101
G1 X-6.6 Y4.9 Z0.46 F1080.0
G1 X-6.6 Y-4.9 Z0.46 F1080.0
G1 X6.6 Y-4.9 Z0.46 F1080.0
G1 X6.6 Y4.9 Z0.46 F1080.0
G1 X0.0 Y4.9 Z0.46 F1080.0
M103
(</perimeter>)
(</boundaryPerimeter>)
G1 X0.0 Y4.26 Z0.46 F1800.0
M101
G1 X-0.0 Y-4.26 Z0.46 F1080.0
M103
G1 X0.39 Y-4.26 Z0.46 F1800.0
M101
G1 X0.39 Y4.26 Z0.46 F1080.0
M103
G1 X0.79 Y4.26 Z0.46 F1800.0
M101
G1 X0.79 Y-4.26 Z0.46 F1080.0
M103
G1 X1.18 Y-4.26 Z0.46 F1800.0
M101
G1 X1.18 Y4.26 Z0.46 F1080.0
M103
G1 X1.57 Y4.26 Z0.46 F1800.0
M101
G1 X1.57 Y-4.26 Z0.46 F1080.0
M103
G1 X1.96 Y-4.26 Z0.46 F1800.0
M101
G1 X1.96 Y4.26 Z0.46 F1080.0
M103
G1 X2.36 Y4.26 Z0.46 F1800.0
M101
G1 X2.36 Y-4.26 Z0.46 F1080.0
M103
G1 X2.75 Y-4.26 Z0.46 F1800.0
M101
G1 X2.75 Y4.26 Z0.46 F1080.0
M103
G1 X3.14 Y4.26 Z0.46 F1800.0
M101
G1 X3.14 Y-4.26 Z0.46 F1080.0
M103
G1 X3.53 Y-4.26 Z0.46 F1800.0
M101
G1 X3.53 Y4.26 Z0.46 F1080.0
M103
G1 X3.93 Y4.26 Z0.46 F1800.0
M101
G1 X3.93 Y-4.26 Z0.46 F1080.0
M103
G1 X4.32 Y-4.26 Z0.46 F1800.0
M101
G1 X4.32 Y4.26 Z0.46 F1080.0
M103
G1 X4.71 Y4.26 Z0.46 F1800.0
M101
G1 X4.71 Y-4.26 Z0.46 F1080.0
M103
G1 X5.11 Y-4.26 Z0.46 F1800.0
M101
G1 X5.11 Y4.26 Z0.46 F1080.0
M103
G1 X5.5 Y4.26 Z0.46 F1800.0
M101
G1 X5.5 Y-4.26 Z0.46 F1080.0
M103
G1 X5.89 Y-4.26 Z0.46 F1800.0
M101
G1 X5.89 Y3.99 Z0.46 F1080.0
M108 R30.0
M102
G1 X5.89 Y4.26 Z0.46 F1080.0
M108 R2.141
M103
G1 X-0.11 Y-3.87 Z0.46 F1800.0
M108 R30.0
M101
G1 X-0.39 Y-4.26 Z0.46 F1800.0
M108 R2.141
G1 X-0.39 Y4.26 Z0.46 F1080.0
M103
G1 X-0.79 Y4.26 Z0.46 F1800.0
M101
G1 X-0.79 Y-4.26 Z0.46 F1080.0
M103
G1 X-1.18 Y-4.26 Z0.46 F1800.0
M101
G1 X-1.18 Y4.26 Z0.46 F1080.0
M103
G1 X-1.57 Y4.26 Z0.46 F1800.0
M101
G1 X-1.57 Y-4.26 Z0.46 F1080.0
M103
G1 X-1.96 Y-4.26 Z0.46 F1800.0
M101
G1 X-1.96 Y4.26 Z0.46 F1080.0
M103
G1 X-2.36 Y4.26 Z0.46 F1800.0
M101
G1 X-2.36 Y-4.26 Z0.46 F1080.0
M103
G1 X-2.75 Y-4.26 Z0.46 F1800.0
M101
G1 X-2.75 Y4.26 Z0.46 F1080.0
M103
G1 X-3.14 Y4.26 Z0.46 F1800.0
M101
G1 X-3.14 Y-4.26 Z0.46 F1080.0
M103
G1 X-3.53 Y-4.26 Z0.46 F1800.0
M101
G1 X-3.53 Y4.26 Z0.46 F1080.0
M103
G1 X-3.93 Y4.26 Z0.46 F1800.0
M101
G1 X-3.93 Y-4.26 Z0.46 F1080.0
M103
G1 X-4.32 Y-4.26 Z0.46 F1800.0
M101
G1 X-4.32 Y4.26 Z0.46 F1080.0
M103
G1 X-4.71 Y4.26 Z0.46 F1800.0
M101
G1 X-4.71 Y-4.26 Z0.46 F1080.0
M103
G1 X-5.11 Y-4.26 Z0.46 F1800.0
M101
G1 X-5.11 Y4.26 Z0.46 F1080.0
M103
G1 X-5.5 Y4.26 Z0.46 F1800.0
M101
G1 X-5.5 Y-4.26 Z0.46 F1080.0
M103
G1 X-5.89 Y-4.26 Z0.46 F1800.0
M101
G1 X-5.89 Y4.26 Z0.46 F1080.0
M103
(</surroundingLoop>)
(</layer>)
(<layer> 0.78 )
(<surroundingLoop>)
(<boundaryPerimeter>)
(<boundaryPoint> X6.8 Y5.1 Z0.78 </boundaryPoint>)
(<boundaryPoint> X-6.8 Y5.1 Z0.78 </boundaryPoint>)
(<boundaryPoint> X-6.8 Y-5.1 Z0.78 </boundaryPoint>)
(<boundaryPoint> X6.8 Y-5.1 Z0.78 </boundaryPoint>)
(<loop> outer )
M108 R3.569
G1 X-5.68 Y4.51 Z0.78 F3000.0
M101
G1 X-5.89 Y4.51 Z0.78 F1800.0
G1 X-6.21 Y4.51 Z0.78 F1800.0
G1 X-6.21 Y-4.51 Z0.78 F1800.0
G1 X6.21 Y-4.51 Z0.78 F1800.0
G1 X6.21 Y4.51 Z0.78 F1800.0
G1 X-5.68 Y4.51 Z0.78 F1800.0
M103
(</loop>)
(<perimeter> outer )
G1 X-5.68 Y4.9 Z0.78 F3000.0
M101
G1 X-5.89 Y4.9 Z0.78 F1800.0
G1 X-6.6 Y4.9 Z0.78 F1800.0
G1 X-6.6 Y-4.9 Z0.78 F1800.0
G1 X6.6 Y-4.9 Z0.78 F1800.0
G1 X6.6 Y4.9 Z0.78 F1800.0
G1 X-5.23 Y4.9 Z0.78 F1800.0
M108 R30.0
M102
G1 X-5.68 Y4.9 Z0.78 F1800.0
M108 R3.569
M103
(</perimeter>)
(</boundaryPerimeter>)
G1 X5.16 Y3.99 Z0.78 F3000.0
M108 R30.0
M101
G1 X5.96 Y3.93 Z0.78 F3000.0
M108 R3.569
G1 X-5.96 Y3.93 Z0.78 F1800.0
G1 X-5.96 Y3.53 Z0.78 F1800.0
G1 X5.96 Y3.53 Z0.78 F1800.0
G1 X5.96 Y3.14 Z0.78 F1800.0
G1 X-5.96 Y3.14 Z0.78 F1800.0
G1 X-5.96 Y2.75 Z0.78 F1800.0
G1 X5.96 Y2.75 Z0.78 F1800.0
G1 X5.96 Y2.36 Z0.78 F1800.0
G1 X-5.96 Y2.36 Z0.78 F1800.0
G1 X-5.96 Y1.96 Z0.78 F1800.0
G1 X5.96 Y1.96 Z0.78 F1800.0
G1 X5.96 Y1.57 Z0.78 F1800.0
G1 X-5.96 Y1.57 Z0.78 F1800.0
G1 X-5.96 Y1.18 Z0.78 F1800.0
G1 X5.96 Y1.18 Z0.78 F1800.0
G1 X5.96 Y0.79 Z0.78 F1800.0
G1 X-5.96 Y0.79 Z0.78 F1800.0
G1 X-5.96 Y0.39 Z0.78 F1800.0
G1 X5.96 Y0.39 Z0.78 F1800.0
G1 X5.96 Y-0.0 Z0.78 F1800.0
G1 X-5.96 Y0.0 Z0.78 F1800.0
G1 X-5.96 Y-0.39 Z0.78 F1800.0
G1 X5.96 Y-0.39 Z0.78 F1800.0
G1 X5.96 Y-0.79 Z0.78 F1800.0
G1 X-5.96 Y-0.79 Z0.78 F1800.0
G1 X-5.96 Y-1.18 Z0.78 F1800.0
G1 X5.96 Y-1.18 Z0.78 F1800.0
G1 X5.96 Y-1.57 Z0.78 F1800.0
G1 X-5.96 Y-1.57 Z0.78 F1800.0
G1 X-5.96 Y-1.96 Z0.78 F1800.0
G1 X5.96 Y-1.96 Z0.78 F1800.0
G1 X5.96 Y-2.36 Z0.78 F1800.0
G1 X-5.96 Y-2.36 Z0.78 F1800.0
G1 X-5.96 Y-2.75 Z0.78 F1800.0
G1 X5.96 Y-2.75 Z0.78 F1800.0
G1 X5.96 Y-3.14 Z0.78 F1800.0
G1 X-5.96 Y-3.14 Z0.78 F1800.0
G1 X-5.96 Y-3.53 Z0.78 F1800.0
G1 X5.96 Y-3.53 Z0.78 F1800.0
G1 X5.96 Y-3.93 Z0.78 F1800.0
G1 X-5.96 Y-3.93 Z0.78 F1800.0
M103
(</surroundingLoop>)
(</layer>)
(<operatingLayerEnd> </operatingLayerEnd>)
(<layer> 1.1 )
(<surroundingLoop>)
(<boundaryPerimeter>)
(<boundaryPoint> X6.8 Y5.1 Z1.1 </boundaryPoint>)
(<boundaryPoint> X-6.8 Y5.1 Z1.1 </boundaryPoint>)
(<boundaryPoint> X-6.8 Y-5.1 Z1.1 </boundaryPoint>)
(<boundaryPoint> X6.8 Y-5.1 Z1.1 </boundaryPoint>)
(<loop> outer )
G1 X-6.21 Y-4.21 Z1.1 F3000.0
M101
G1 X-6.21 Y-4.51 Z1.1 F1800.0
G1 X6.21 Y-4.51 Z1.1 F1800.0
G1 X6.21 Y4.51 Z1.1 F1800.0
G1 X-6.21 Y4.51 Z1.1 F1800.0
G1 X-6.21 Y-3.93 Z1.1 F1800.0
G1 X-6.21 Y-4.21 Z1.1 F1800.0
M103
(</loop>)
(<perimeter> outer )
G1 X-6.6 Y-4.21 Z1.1 F3000.0
M101
G1 X-6.6 Y-4.9 Z1.1 F1800.0
G1 X6.6 Y-4.9 Z1.1 F1800.0
G1 X6.6 Y4.9 Z1.1 F1800.0
G1 X-6.6 Y4.9 Z1.1 F1800.0
G1 X-6.6 Y-3.76 Z1.1 F1800.0
M108 R30.0
M102
G1 X-6.6 Y-3.93 Z1.1 F1800.0
G1 X-6.6 Y-4.21 Z1.1 F1800.0
M108 R3.569
M103
(</perimeter>)
(</boundaryPerimeter>)
G1 X-5.96 Y3.46 Z1.1 F3000.0
M108 R30.0
M101
G1 X-5.89 Y4.26 Z1.1 F3000.0
M108 R3.569
G1 X-5.89 Y-4.26 Z1.1 F1800.0
M103
G1 X-5.5 Y-4.26 Z1.1 F3000.0
M101
G1 X-5.5 Y4.26 Z1.1 F1800.0
M103
G1 X-5.11 Y4.26 Z1.1 F3000.0
M101
G1 X-5.11 Y-4.26 Z1.1 F1800.0
M103
G1 X-4.71 Y-4.26 Z1.1 F3000.0
M101
G1 X-4.71 Y4.26 Z1.1 F1800.0
M103
G1 X-4.32 Y4.26 Z1.1 F3000.0
M101
G1 X-4.32 Y-4.26 Z1.1 F1800.0
M103
G1 X-3.93 Y-4.26 Z1.1 F3000.0
M101
G1 X-3.93 Y4.26 Z1.1 F1800.0
M103
G1 X-3.53 Y4.26 Z1.1 F3000.0
M101
G1 X-3.53 Y-4.26 Z1.1 F1800.0
M103
G1 X-3.14 Y-4.26 Z1.1 F3000.0
M101
G1 X-3.14 Y4.26 Z1.1 F1800.0
M103
G1 X-2.75 Y4.26 Z1.1 F3000.0
M101
G1 X-2.75 Y-4.26 Z1.1 F1800.0
M103
G1 X-1.96 Y-4.26 Z1.1 F3000.0
M101
G1 X-1.21 Y-3.4 Z1.1 F1800.0
G1 X-1.21 Y1.22 Z1.1 F1800.0
G1 X-1.57 Y3.86 Z1.1 F1800.0
G1 X-1.65 Y3.94 Z1.1 F1800.0
M108 R30.0
M102
G1 X-1.96 Y4.26 Z1.1 F1800.0
M108 R3.569
M103
G1 X-0.8 Y4.26 Z1.1 F3000.0
M108 R30.0
M101
G1 X0.0 Y4.26 Z1.1 F3000.0
M108 R3.569
G1 X-0.39 Y3.86 Z1.1 F1800.0
G1 X-0.79 Y3.86 Z1.1 F1800.0
G1 X-1.18 Y4.26 Z1.1 F1800.0
G1 X-0.98 Y1.22 Z1.1 F1800.0
G1 X-0.98 Y-3.4 Z1.1 F1800.0
G1 X-1.18 Y-4.26 Z1.1 F1800.0
G1 X-0.79 Y-3.86 Z1.1 F1800.0
G1 X-0.39 Y-3.86 Z1.1 F1800.0
G1 X-0.0 Y-4.26 Z1.1 F1800.0
M103
G1 X0.39 Y-4.26 Z1.1 F3000.0
M101
G1 X0.39 Y4.26 Z1.1 F1800.0
M103
G1 X0.79 Y4.26 Z1.1 F3000.0
M101
G1 X0.79 Y-4.26 Z1.1 F1800.0
M103
G1 X1.18 Y-4.26 Z1.1 F3000.0
M101
G1 X1.18 Y4.26 Z1.1 F1800.0
M103
G1 X1.57 Y4.26 Z1.1 F3000.0
M101
G1 X1.57 Y-4.26 Z1.1 F1800.0
M103
G1 X1.96 Y-4.26 Z1.1 F3000.0
M101
G1 X1.96 Y4.26 Z1.1 F1800.0
M103
G1 X2.36 Y4.26 Z1.1 F3000.0
M101
G1 X2.36 Y-4.26 Z1.1 F1800.0
M103
G1 X2.75 Y-4.26 Z1.1 F3000.0
M101
G1 X2.75 Y4.26 Z1.1 F1800.0
M103
G1 X3.14 Y4.26 Z1.1 F3000.0
M101
G1 X3.14 Y-4.26 Z1.1 F1800.0
M103
G1 X3.53 Y-4.26 Z1.1 F3000.0
M101
G1 X3.53 Y4.26 Z1.1 F1800.0
M103
G1 X3.93 Y4.26 Z1.1 F3000.0
M101
G1 X3.93 Y-4.26 Z1.1 F1800.0
M103
G1 X4.32 Y-4.26 Z1.1 F3000.0
M101
G1 X4.32 Y4.26 Z1.1 F1800.0
M103
G1 X4.71 Y4.26 Z1.1 F3000.0
M101
G1 X4.71 Y-4.26 Z1.1 F1800.0
M103
G1 X5.11 Y-4.26 Z1.1 F3000.0
M101
G1 X5.11 Y4.26 Z1.1 F1800.0
M103
G1 X5.5 Y4.26 Z1.1 F3000.0
M101
G1 X5.5 Y-4.26 Z1.1 F1800.0
M103
G1 X5.89 Y-4.26 Z1.1 F3000.0
M101
G1 X5.89 Y4.26 Z1.1 F1800.0
M103
(</surroundingLoop>)
(</layer>)
(<layer> 1.42 )
(<surroundingLoop>)
(<boundaryPerimeter>)
(<boundaryPoint> X6.8 Y5.1 Z1.42 </boundaryPoint>)
(<boundaryPoint> X-6.8 Y5.1 Z1.42 </boundaryPoint>)
(<boundaryPoint> X-6.8 Y-5.1 Z1.42 </boundaryPoint>)
(<boundaryPoint> X6.8 Y-5.1 Z1.42 </boundaryPoint>)
(<loop> outer )
G1 X5.91 Y4.51 Z1.42 F3000.0
M101
G1 X5.89 Y4.51 Z1.42 F1800.0
G1 X-6.21 Y4.51 Z1.42 F1800.0
G1 X-6.21 Y-4.51 Z1.42 F1800.0
G1 X6.21 Y-4.51 Z1.42 F1800.0
G1 X6.21 Y4.51 Z1.42 F1800.0
G1 X5.91 Y4.51 Z1.42 F1800.0
M103
(</loop>)
(<perimeter> outer )
G1 X5.89 Y4.9 Z1.42 F3000.0
M101
G1 X-6.6 Y4.9 Z1.42 F1800.0
G1 X-6.6 Y-4.9 Z1.42 F1800.0
G1 X6.6 Y-4.9 Z1.42 F1800.0
G1 X6.6 Y4.9 Z1.42 F1800.0
G1 X5.89 Y4.9 Z1.42 F1800.0
M103
(</perimeter>)
(</boundaryPerimeter>)
G1 X5.96 Y3.93 Z1.42 F3000.0
M101
G1 X-5.96 Y3.93 Z1.42 F1800.0
G1 X-5.96 Y3.53 Z1.42 F1800.0
G1 X5.96 Y3.53 Z1.42 F1800.0
G1 X5.96 Y3.14 Z1.42 F1800.0
G1 X-5.96 Y3.14 Z1.42 F1800.0
G1 X-5.96 Y2.75 Z1.42 F1800.0
G1 X5.96 Y2.75 Z1.42 F1800.0
G1 X5.96 Y2.36 Z1.42 F1800.0
G1 X-5.96 Y2.36 Z1.42 F1800.0
G1 X-5.96 Y1.96 Z1.42 F1800.0
G1 X5.96 Y1.96 Z1.42 F1800.0
G1 X5.96 Y1.57 Z1.42 F1800.0
G1 X-5.96 Y1.57 Z1.42 F1800.0
G1 X-5.96 Y1.18 Z1.42 F1800.0
G1 X5.96 Y1.18 Z1.42 F1800.0
G1 X5.96 Y0.79 Z1.42 F1800.0
G1 X-5.96 Y0.79 Z1.42 F1800.0
G1 X-5.96 Y0.39 Z1.42 F1800.0
G1 X5.96 Y0.39 Z1.42 F1800.0
G1 X5.96 Y-0.0 Z1.42 F1800.0
G1 X-5.96 Y0.0 Z1.42 F1800.0
G1 X-5.96 Y-0.39 Z1.42 F1800.0
G1 X5.96 Y-0.39 Z1.42 F1800.0
G1 X5.96 Y-0.79 Z1.42 F1800.0
G1 X-5.96 Y-0.79 Z1.42 F1800.0
G1 X-5.96 Y-1.18 Z1.42 F1800.0
G1 X5.96 Y-1.18 Z1.42 F1800.0
G1 X5.96 Y-1.57 Z1.42 F1800.0
G1 X-5.96 Y-1.57 Z1.42 F1800.0
G1 X-5.96 Y-1.96 Z1.42 F1800.0
G1 X5.96 Y-1.96 Z1.42 F1800.0
G1 X5.96 Y-2.36 Z1.42 F1800.0
G1 X-5.96 Y-2.36 Z1.42 F1800.0
G1 X-5.96 Y-2.75 Z1.42 F1800.0
G1 X5.96 Y-2.75 Z1.42 F1800.0
G1 X5.96 Y-3.14 Z1.42 F1800.0
G1 X-5.96 Y-3.14 Z1.42 F1800.0
G1 X-5.96 Y-3.53 Z1.42 F1800.0
G1 X5.96 Y-3.53 Z1.42 F1800.0
G1 X5.96 Y-3.93 Z1.42 F1800.0
G1 X-5.51 Y-3.93 Z1.42 F1800.0
M108 R30.0
M102
G1 X-5.96 Y-3.93 Z1.42 F1800.0
M108 R3.569
M103
(</surroundingLoop>)
(</layer>)
(<layer> 1.74 )
(<surroundingLoop>)
(<boundaryPerimeter>)
(<boundaryPoint> X2.708 Y1.882 Z1.74 </boundaryPoint>)
(<boundaryPoint> X2.208 Y2.712 Z1.74 </boundaryPoint>)
(<boundaryPoint> X1.542 Y3.416 Z1.74 </boundaryPoint>)
(<boundaryPoint> X0.739 Y3.96 Z1.74 </boundaryPoint>)
(<boundaryPoint> X-0.161 Y4.319 Z1.74 </boundaryPoint>)
(<boundaryPoint> X-1.117 Y4.475 Z1.74 </boundaryPoint>)
(<boundaryPoint> X-2.085 Y4.423 Z1.74 </boundaryPoint>)
(<boundaryPoint> X-3.019 Y4.164 Z1.74 </boundaryPoint>)
(<boundaryPoint> X-3.875 Y3.71 Z1.74 </boundaryPoint>)
(<boundaryPoint> X-4.614 Y3.082 Z1.74 </boundaryPoint>)
(<boundaryPoint> X-5.2 Y2.311 Z1.74 </boundaryPoint>)
(<boundaryPoint> X-5.607 Y1.431 Z1.74 </boundaryPoint>)
(<boundaryPoint> X-5.816 Y0.485 Z1.74 </boundaryPoint>)
(<boundaryPoint> X-5.816 Y-0.485 Z1.74 </boundaryPoint>)
(<boundaryPoint> X-5.607 Y-1.431 Z1.74 </boundaryPoint>)
(<boundaryPoint> X-5.2 Y-2.311 Z1.74 </boundaryPoint>)
(<boundaryPoint> X-4.614 Y-3.082 Z1.74 </boundaryPoint>)
(<boundaryPoint> X-3.875 Y-3.71 Z1.74 </boundaryPoint>)
(<boundaryPoint> X-3.019 Y-4.164 Z1.74 </boundaryPoint>)
(<boundaryPoint> X-2.085 Y-4.423 Z1.74 </boundaryPoint>)
(<boundaryPoint> X-1.117 Y-4.475 Z1.74 </boundaryPoint>)
(<boundaryPoint> X-0.161 Y-4.319 Z1.74 </boundaryPoint>)
(<boundaryPoint> X0.739 Y-3.96 Z1.74 </boundaryPoint>)
(<boundaryPoint> X1.542 Y-3.416 Z1.74 </boundaryPoint>)
(<boundaryPoint> X2.208 Y-2.712 Z1.74 </boundaryPoint>)
(<boundaryPoint> X2.708 Y-1.882 Z1.74 </boundaryPoint>)
(<boundaryPoint> X3.017 Y-0.963 Z1.74 </boundaryPoint>)
(<boundaryPoint> X3.122 Y-0.0 Z1.74 </boundaryPoint>)
(<boundaryPoint> X3.017 Y0.963 Z1.74 </boundaryPoint>)
(<loop> outer )
M108 R2.311
G1 X-4.75 Y-2.77 Z1.67 F1942.624
M108 R30.0
M101
G1 X-4.38 Y-2.42 Z1.74 F1942.624
M108 R2.311
G1 X-4.18 Y-2.67 Z1.74 F1165.575
G1 X-3.54 Y-3.22 Z1.74 F1165.575
G1 X-2.8 Y-3.61 Z1.74 F1165.575
G1 X-1.99 Y-3.84 Z1.74 F1165.575
G1 X-1.15 Y-3.88 Z1.74 F1165.575
G1 X-0.32 Y-3.75 Z1.74 F1165.575
G1 X0.46 Y-3.44 Z1.74 F1165.575
G1 X1.16 Y-2.96 Z1.74 F1165.575
G1 X1.74 Y-2.35 Z1.74 F1165.575
G1 X2.17 Y-1.63 Z1.74 F1165.575
G1 X2.44 Y-0.84 Z1.74 F1165.575
G1 X2.53 Y0.0 Z1.74 F1165.575
G1 X2.44 Y0.84 Z1.74 F1165.575
G1 X2.17 Y1.63 Z1.74 F1165.575
G1 X1.74 Y2.35 Z1.74 F1165.575
G1 X1.16 Y2.96 Z1.74 F1165.575
G1 X0.46 Y3.44 Z1.74 F1165.575
G1 X-0.32 Y3.75 Z1.74 F1165.575
G1 X-1.15 Y3.88 Z1.74 F1165.575
G1 X-1.99 Y3.84 Z1.74 F1165.575
G1 X-2.8 Y3.61 Z1.74 F1165.575
G1 X-3.54 Y3.22 Z1.74 F1165.575
G1 X-4.18 Y2.67 Z1.74 F1165.575
G1 X-4.69 Y2.01 Z1.74 F1165.575
G1 X-5.05 Y1.24 Z1.74 F1165.575
G1 X-5.23 Y0.42 Z1.74 F1165.575
G1 X-5.23 Y-0.42 Z1.74 F1165.575
G1 X-5.05 Y-1.24 Z1.74 F1165.575
G1 X-4.69 Y-2.01 Z1.74 F1165.575
G1 X-4.38 Y-2.42 Z1.74 F1165.575
M103
(</loop>)
(<perimeter> outer )
G1 X-4.69 Y-2.66 Z1.74 F1942.624
M101
G1 X-4.47 Y-2.95 Z1.74 F1165.575
G1 X-3.76 Y-3.55 Z1.74 F1165.575
G1 X-2.95 Y-3.98 Z1.74 F1165.575
G1 X-2.05 Y-4.23 Z1.74 F1165.575
G1 X-1.13 Y-4.28 Z1.74 F1165.575
G1 X-0.21 Y-4.13 Z1.74 F1165.575
G1 X0.65 Y-3.79 Z1.74 F1165.575
G1 X1.41 Y-3.27 Z1.74 F1165.575
G1 X2.05 Y-2.59 Z1.74 F1165.575
G1 X2.53 Y-1.8 Z1.74 F1165.575
G1 X2.82 Y-0.92 Z1.74 F1165.575
G1 X2.92 Y0.0 Z1.74 F1165.575
G1 X2.82 Y0.92 Z1.74 F1165.575
G1 X2.53 Y1.8 Z1.74 F1165.575
G1 X2.05 Y2.59 Z1.74 F1165.575
G1 X1.41 Y3.27 Z1.74 F1165.575
G1 X0.65 Y3.79 Z1.74 F1165.575
G1 X-0.21 Y4.13 Z1.74 F1165.575
G1 X-1.13 Y4.28 Z1.74 F1165.575
G1 X-2.05 Y4.23 Z1.74 F1165.575
G1 X-2.95 Y3.98 Z1.74 F1165.575
G1 X-3.76 Y3.55 Z1.74 F1165.575
G1 X-4.47 Y2.95 Z1.74 F1165.575
G1 X-5.03 Y2.21 Z1.74 F1165.575
G1 X-5.42 Y1.37 Z1.74 F1165.575
G1 X-5.62 Y0.46 Z1.74 F1165.575
G1 X-5.62 Y-0.46 Z1.74 F1165.575
G1 X-5.42 Y-1.37 Z1.74 F1165.575
G1 X-5.03 Y-2.21 Z1.74 F1165.575
G1 X-4.87 Y-2.42 Z1.74 F1165.575
M108 R30.0
M102
G1 X-4.69 Y-2.66 Z1.74 F1165.575
M108 R2.311
M103
(</perimeter>)
(</boundaryPerimeter>)
G1 X1.45 Y-1.54 Z1.74 F1942.624
M108 R30.0
M101
G1 X1.96 Y-1.45 Z1.74 F1942.624
M108 R2.311
G1 X1.96 Y1.45 Z1.74 F1165.575
G1 X1.57 Y2.13 Z1.74 F1165.575
G1 X1.18 Y2.57 Z1.74 F1165.575
G1 X0.39 Y3.17 Z1.74 F1165.575
G1 X0.0 Y3.35 Z1.74 F1165.575
G1 X-0.98 Y1.22 Z1.74 F1165.575
G1 X-0.98 Y0.96 Z1.74 F1165.575
G1 X1.57 Y-2.13 Z1.74 F1165.575
G1 X1.18 Y-2.57 Z1.74 F1165.575
G1 X0.39 Y-3.17 Z1.74 F1165.575
G1 X-0.0 Y-3.35 Z1.74 F1165.575
G1 X-0.46 Y-3.11 Z1.74 F1165.575
G1 X-0.79 Y-3.57 Z1.74 F1165.575
G1 X-1.18 Y-3.63 Z1.74 F1165.575
G1 X-1.96 Y-3.58 Z1.74 F1165.575
G1 X-2.24 Y-3.1 Z1.74 F1165.575
G1 X-2.75 Y-3.35 Z1.74 F1165.575
G1 X-3.14 Y-3.14 Z1.74 F1165.575
G1 X-3.16 Y-0.96 Z1.74 F1165.575
G1 X-1.21 Y0.96 Z1.74 F1165.575
G1 X-1.21 Y1.22 Z1.74 F1165.575
G1 X-0.39 Y3.5 Z1.74 F1165.575
G1 X-1.18 Y3.63 Z1.74 F1165.575
G1 X-1.96 Y3.58 Z1.74 F1165.575
G1 X-2.24 Y3.1 Z1.74 F1165.575
G1 X-2.75 Y3.35 Z1.74 F1165.575
G1 X-3.53 Y2.89 Z1.74 F1165.575
G1 X-3.93 Y2.56 Z1.74 F1165.575
G1 X-4.32 Y2.07 Z1.74 F1165.575
G1 X-3.39 Y-0.96 Z1.74 F1165.575
G1 X-3.53 Y-2.89 Z1.74 F1165.575
G1 X-3.93 Y-2.56 Z1.74 F1165.575
G1 X-4.32 Y-2.07 Z1.74 F1165.575
G1 X-4.71 Y-1.35 Z1.74 F1165.575
G1 X-4.71 Y1.35 Z1.74 F1165.575
M103
(</surroundingLoop>)
M108 R3.569
(</layer>)
(<layer> 2.06 )
(<surroundingLoop>)
(<boundaryPerimeter>)
(<boundaryPoint> X2.694 Y1.876 Z2.06 </boundaryPoint>)
(<boundaryPoint> X2.196 Y2.703 Z2.06 </boundaryPoint>)
(<boundaryPoint> X1.532 Y3.404 Z2.06 </boundaryPoint>)
(<boundaryPoint> X0.732 Y3.947 Z2.06 </boundaryPoint>)
(<boundaryPoint> X-0.165 Y4.304 Z2.06 </boundaryPoint>)
(<boundaryPoint> X-1.118 Y4.46 Z2.06 </boundaryPoint>)
(<boundaryPoint> X-2.083 Y4.408 Z2.06 </boundaryPoint>)
(<boundaryPoint> X-3.013 Y4.15 Z2.06 </boundaryPoint>)
(<boundaryPoint> X-3.867 Y3.697 Z2.06 </boundaryPoint>)
(<boundaryPoint> X-4.603 Y3.072 Z2.06 </boundaryPoint>)
(<boundaryPoint> X-5.187 Y2.303 Z2.06 </boundaryPoint>)
(<boundaryPoint> X-5.593 Y1.426 Z2.06 </boundaryPoint>)
(<boundaryPoint> X-5.801 Y0.483 Z2.06 </boundaryPoint>)
(<boundaryPoint> X-5.801 Y-0.483 Z2.06 </boundaryPoint>)
(<boundaryPoint> X-5.593 Y-1.426 Z2.06 </boundaryPoint>)
(<boundaryPoint> X-5.187 Y-2.303 Z2.06 </boundaryPoint>)
(<boundaryPoint> X-4.603 Y-3.072 Z2.06 </boundaryPoint>)
(<boundaryPoint> X-3.867 Y-3.697 Z2.06 </boundaryPoint>)
(<boundaryPoint> X-3.013 Y-4.15 Z2.06 </boundaryPoint>)
(<boundaryPoint> X-2.083 Y-4.408 Z2.06 </boundaryPoint>)
(<boundaryPoint> X-1.118 Y-4.46 Z2.06 </boundaryPoint>)
(<boundaryPoint> X-0.165 Y-4.304 Z2.06 </boundaryPoint>)
(<boundaryPoint> X0.732 Y-3.947 Z2.06 </boundaryPoint>)
(<boundaryPoint> X1.532 Y-3.404 Z2.06 </boundaryPoint>)
(<boundaryPoint> X2.196 Y-2.703 Z2.06 </boundaryPoint>)
(<boundaryPoint> X2.694 Y-1.876 Z2.06 </boundaryPoint>)
(<boundaryPoint> X3.002 Y-0.96 Z2.06 </boundaryPoint>)
(<boundaryPoint> X3.107 Y0.0 Z2.06 </boundaryPoint>)
(<boundaryPoint> X3.002 Y0.96 Z2.06 </boundaryPoint>)
(<loop> outer )
M108 R2.324
G1 X-5.0 Y1.31 Z2.06 F1953.299
M101
G1 X-5.03 Y1.24 Z2.06 F1171.979
G1 X-5.21 Y0.42 Z2.06 F1171.979
G1 X-5.21 Y-0.42 Z2.06 F1171.979
G1 X-5.03 Y-1.24 Z2.06 F1171.979
G1 X-4.68 Y-2.0 Z2.06 F1171.979
G1 X-4.17 Y-2.66 Z2.06 F1171.979
G1 X-3.53 Y-3.21 Z2.06 F1171.979
G1 X-2.79 Y-3.6 Z2.06 F1171.979
G1 X-1.99 Y-3.82 Z2.06 F1171.979
G1 X-1.15 Y-3.87 Z2.06 F1171.979
G1 X-0.32 Y-3.73 Z2.06 F1171.979
G1 X0.45 Y-3.42 Z2.06 F1171.979
G1 X1.15 Y-2.95 Z2.06 F1171.979
G1 X1.72 Y-2.34 Z2.06 F1171.979
G1 X2.16 Y-1.63 Z2.06 F1171.979
G1 X2.42 Y-0.83 Z2.06 F1171.979
G1 X2.51 Y0.0 Z2.06 F1171.979
G1 X2.42 Y0.83 Z2.06 F1171.979
G1 X2.16 Y1.63 Z2.06 F1171.979
G1 X1.72 Y2.34 Z2.06 F1171.979
G1 X1.15 Y2.95 Z2.06 F1171.979
G1 X0.45 Y3.42 Z2.06 F1171.979
G1 X-0.32 Y3.73 Z2.06 F1171.979
G1 X-1.15 Y3.87 Z2.06 F1171.979
G1 X-1.99 Y3.82 Z2.06 F1171.979
G1 X-2.79 Y3.6 Z2.06 F1171.979
G1 X-3.53 Y3.21 Z2.06 F1171.979
G1 X-4.17 Y2.66 Z2.06 F1171.979
G1 X-4.68 Y2.0 Z2.06 F1171.979
G1 X-4.93 Y1.45 Z2.06 F1171.979
G1 X-5.0 Y1.31 Z2.06 F1171.979
M103
(</loop>)
(<perimeter> outer )
G1 X-5.41 Y1.36 Z2.06 F1953.299
M101
G1 X-5.61 Y0.46 Z2.06 F1171.979
G1 X-5.61 Y-0.46 Z2.06 F1171.979
G1 X-5.41 Y-1.36 Z2.06 F1171.979
G1 X-5.02 Y-2.2 Z2.06 F1171.979
G1 X-4.46 Y-2.94 Z2.06 F1171.979
G1 X-3.76 Y-3.53 Z2.06 F1171.979
G1 X-2.94 Y-3.97 Z2.06 F1171.979
G1 X-2.05 Y-4.21 Z2.06 F1171.979
G1 X-1.13 Y-4.26 Z2.06 F1171.979
G1 X-0.22 Y-4.11 Z2.06 F1171.979
G1 X0.64 Y-3.77 Z2.06 F1171.979
G1 X1.4 Y-3.25 Z2.06 F1171.979
G1 X2.04 Y-2.58 Z2.06 F1171.979
G1 X2.52 Y-1.79 Z2.06 F1171.979
G1 X2.81 Y-0.92 Z2.06 F1171.979
G1 X2.91 Y0.0 Z2.06 F1171.979
G1 X2.81 Y0.92 Z2.06 F1171.979
G1 X2.52 Y1.79 Z2.06 F1171.979
G1 X2.04 Y2.58 Z2.06 F1171.979
G1 X1.4 Y3.25 Z2.06 F1171.979
G1 X0.64 Y3.77 Z2.06 F1171.979
G1 X-0.22 Y4.11 Z2.06 F1171.979
G1 X-1.13 Y4.26 Z2.06 F1171.979
G1 X-2.05 Y4.21 Z2.06 F1171.979
G1 X-2.94 Y3.97 Z2.06 F1171.979
G1 X-3.76 Y3.53 Z2.06 F1171.979
G1 X-4.46 Y2.94 Z2.06 F1171.979
G1 X-5.02 Y2.2 Z2.06 F1171.979
G1 X-5.28 Y1.63 Z2.06 F1171.979
M108 R30.0
M102
G1 X-5.29 Y1.62 Z2.06 F1171.979
G1 X-5.41 Y1.36 Z2.06 F1171.979
M108 R2.324
M103
(</perimeter>)
(</boundaryPerimeter>)
G1 X-1.16 Y3.32 Z2.06 F1953.299
M108 R30.0
M101
G1 X-0.69 Y3.53 Z2.06 F1953.299
M108 R2.324
G1 X-2.07 Y3.53 Z2.06 F1171.979
G1 X-3.11 Y3.14 Z2.06 F1171.979
G1 X-3.68 Y2.75 Z2.06 F1171.979
G1 X-4.09 Y2.36 Z2.06 F1171.979
G1 X-4.38 Y1.96 Z2.06 F1171.979
G1 X-4.6 Y1.57 Z2.06 F1171.979
G1 X-0.96 Y1.21 Z2.06 F1171.979
G1 X0.42 Y3.14 Z2.06 F1171.979
G1 X0.99 Y2.75 Z2.06 F1171.979
G1 X1.36 Y2.36 Z2.06 F1171.979
G1 X1.89 Y1.57 Z2.06 F1171.979
G1 X2.04 Y1.18 Z2.06 F1171.979
G1 X1.86 Y1.03 Z2.06 F1171.979
G1 X1.82 Y0.35 Z2.06 F1171.979
G1 X2.26 Y-0.0 Z2.06 F1171.979
G1 X2.21 Y-0.39 Z2.06 F1171.979
G1 X1.78 Y-0.74 Z2.06 F1171.979
G1 X-0.96 Y0.98 Z2.06 F1171.979
G1 X-1.22 Y0.98 Z2.06 F1171.979
G1 X-3.15 Y-0.98 Z2.06 F1171.979
G1 X-4.87 Y-0.79 Z2.06 F1171.979
G1 X-4.96 Y-0.39 Z2.06 F1171.979
G1 X-4.96 Y0.39 Z2.06 F1171.979
G1 X-4.84 Y0.89 Z2.06 F1171.979
M108 R30.0
M102
G1 X-4.78 Y1.18 Z2.06 F1171.979
M108 R2.324
M103
G1 X-3.82 Y-2.25 Z2.06 F1953.299
M108 R30.0
M101
G1 X-3.68 Y-2.75 Z2.06 F1953.299
M108 R2.324
G1 X-4.09 Y-2.36 Z2.06 F1171.979
G1 X-4.38 Y-1.96 Z2.06 F1171.979
G1 X-4.6 Y-1.57 Z2.06 F1171.979
G1 X-4.42 Y-1.01 Z2.06 F1171.979
G1 X-3.4 Y-1.21 Z2.06 F1171.979
G1 X2.04 Y-1.18 Z2.06 F1171.979
G1 X1.89 Y-1.57 Z2.06 F1171.979
G1 X1.36 Y-2.36 Z2.06 F1171.979
G1 X0.99 Y-2.75 Z2.06 F1171.979
G1 X0.42 Y-3.14 Z2.06 F1171.979
G1 X-0.69 Y-3.53 Z2.06 F1171.979
G1 X-2.07 Y-3.53 Z2.06 F1171.979
G1 X-3.11 Y-3.14 Z2.06 F1171.979
M103
(</surroundingLoop>)
M108 R3.569
(</layer>)
(<layer> 2.38 )
(<surroundingLoop>)
(<boundaryPerimeter>)
(<boundaryPoint> X2.68 Y1.869 Z2.38 </boundaryPoint>)
(<boundaryPoint> X2.184 Y2.694 Z2.38 </boundaryPoint>)
(<boundaryPoint> X1.522 Y3.393 Z2.38 </boundaryPoint>)
(<boundaryPoint> X0.725 Y3.933 Z2.38 </boundaryPoint>)
(<boundaryPoint> X-0.169 Y4.29 Z2.38 </boundaryPoint>)
(<boundaryPoint> X-1.119 Y4.445 Z2.38 </boundaryPoint>)
(<boundaryPoint> X-2.08 Y4.393 Z2.38 </boundaryPoint>)
(<boundaryPoint> X-3.008 Y4.136 Z2.38 </boundaryPoint>)
(<boundaryPoint> X-3.858 Y3.685 Z2.38 </boundaryPoint>)
(<boundaryPoint> X-4.592 Y3.062 Z2.38 </boundaryPoint>)
(<boundaryPoint> X-5.175 Y2.295 Z2.38 </boundaryPoint>)
(<boundaryPoint> X-5.579 Y1.421 Z2.38 </boundaryPoint>)
(<boundaryPoint> X-5.786 Y0.481 Z2.38 </boundaryPoint>)
(<boundaryPoint> X-5.786 Y-0.481 Z2.38 </boundaryPoint>)
(<boundaryPoint> X-5.579 Y-1.421 Z2.38 </boundaryPoint>)
(<boundaryPoint> X-5.175 Y-2.295 Z2.38 </boundaryPoint>)
(<boundaryPoint> X-4.592 Y-3.062 Z2.38 </boundaryPoint>)
(<boundaryPoint> X-3.858 Y-3.685 Z2.38 </boundaryPoint>)
(<boundaryPoint> X-3.008 Y-4.136 Z2.38 </boundaryPoint>)
(<boundaryPoint> X-2.08 Y-4.393 Z2.38 </boundaryPoint>)
(<boundaryPoint> X-1.119 Y-4.445 Z2.38 </boundaryPoint>)
(<boundaryPoint> X-0.169 Y-4.29 Z2.38 </boundaryPoint>)
(<boundaryPoint> X0.725 Y-3.933 Z2.38 </boundaryPoint>)
(<boundaryPoint> X1.522 Y-3.393 Z2.38 </boundaryPoint>)
(<boundaryPoint> X2.184 Y-2.694 Z2.38 </boundaryPoint>)
(<boundaryPoint> X2.68 Y-1.869 Z2.38 </boundaryPoint>)
(<boundaryPoint> X2.988 Y-0.957 Z2.38 </boundaryPoint>)
(<boundaryPoint> X3.092 Y-0.0 Z2.38 </boundaryPoint>)
(<boundaryPoint> X2.988 Y0.957 Z2.38 </boundaryPoint>)
(<loop> outer )
M108 R2.33
G1 X-3.35 Y-3.29 Z2.38 F1958.531
M101
G1 X-3.22 Y-3.35 Z2.38 F1175.119
G1 X-2.79 Y-3.59 Z2.38 F1175.119
G1 X-1.98 Y-3.81 Z2.38 F1175.119
G1 X-1.15 Y-3.85 Z2.38 F1175.119
G1 X-0.33 Y-3.72 Z2.38 F1175.119
G1 X0.45 Y-3.41 Z2.38 F1175.119
G1 X1.14 Y-2.94 Z2.38 F1175.119
G1 X1.71 Y-2.34 Z2.38 F1175.119
G1 X2.14 Y-1.62 Z2.38 F1175.119
G1 X2.41 Y-0.83 Z2.38 F1175.119
G1 X2.5 Y0.0 Z2.38 F1175.119
G1 X2.41 Y0.83 Z2.38 F1175.119
G1 X2.14 Y1.62 Z2.38 F1175.119
G1 X1.71 Y2.34 Z2.38 F1175.119
G1 X1.14 Y2.94 Z2.38 F1175.119
G1 X0.45 Y3.41 Z2.38 F1175.119
G1 X-0.33 Y3.72 Z2.38 F1175.119
G1 X-1.15 Y3.85 Z2.38 F1175.119
G1 X-1.98 Y3.81 Z2.38 F1175.119
G1 X-2.79 Y3.59 Z2.38 F1175.119
G1 X-3.53 Y3.19 Z2.38 F1175.119
G1 X-4.16 Y2.65 Z2.38 F1175.119
G1 X-4.67 Y1.99 Z2.38 F1175.119
G1 X-5.02 Y1.23 Z2.38 F1175.119
G1 X-5.2 Y0.42 Z2.38 F1175.119
G1 X-5.2 Y-0.42 Z2.38 F1175.119
G1 X-5.02 Y-1.23 Z2.38 F1175.119
G1 X-4.67 Y-1.99 Z2.38 F1175.119
G1 X-4.16 Y-2.65 Z2.38 F1175.119
G1 X-3.53 Y-3.19 Z2.38 F1175.119
G1 X-3.35 Y-3.29 Z2.38 F1175.119
M103
(</loop>)
(<perimeter> outer )
G1 X-3.41 Y-3.7 Z2.38 F1958.531
M101
G1 X-2.94 Y-3.95 Z2.38 F1175.119
G1 X-2.05 Y-4.2 Z2.38 F1175.119
G1 X-1.13 Y-4.25 Z2.38 F1175.119
G1 X-0.22 Y-4.1 Z2.38 F1175.119
G1 X0.63 Y-3.76 Z2.38 F1175.119
G1 X1.39 Y-3.24 Z2.38 F1175.119
G1 X2.03 Y-2.57 Z2.38 F1175.119
G1 X2.5 Y-1.79 Z2.38 F1175.119
G1 X2.8 Y-0.91 Z2.38 F1175.119
G1 X2.89 Y-0.0 Z2.38 F1175.119
G1 X2.8 Y0.91 Z2.38 F1175.119
G1 X2.5 Y1.79 Z2.38 F1175.119
G1 X2.03 Y2.57 Z2.38 F1175.119
G1 X1.39 Y3.24 Z2.38 F1175.119
G1 X0.63 Y3.76 Z2.38 F1175.119
G1 X-0.22 Y4.1 Z2.38 F1175.119
G1 X-1.13 Y4.25 Z2.38 F1175.119
G1 X-2.05 Y4.2 Z2.38 F1175.119
G1 X-2.94 Y3.95 Z2.38 F1175.119
G1 X-3.75 Y3.52 Z2.38 F1175.119
G1 X-4.45 Y2.93 Z2.38 F1175.119
G1 X-5.01 Y2.19 Z2.38 F1175.119
G1 X-5.39 Y1.36 Z2.38 F1175.119
G1 X-5.59 Y0.46 Z2.38 F1175.119
G1 X-5.59 Y-0.46 Z2.38 F1175.119
G1 X-5.39 Y-1.36 Z2.38 F1175.119
G1 X-5.01 Y-2.19 Z2.38 F1175.119
G1 X-4.45 Y-2.93 Z2.38 F1175.119
G1 X-3.75 Y-3.52 Z2.38 F1175.119
G1 X-3.67 Y-3.56 Z2.38 F1175.119
M108 R30.0
M102
G1 X-3.41 Y-3.7 Z2.38 F1175.119
M108 R2.33
M103
(</perimeter>)
(</boundaryPerimeter>)
G1 X-1.45 Y3.09 Z2.38 F1958.531
M108 R30.0
M101
G1 X-1.31 Y3.59 Z2.38 F1958.531
M108 R2.33
G1 X-0.44 Y3.48 Z2.38 F1175.119
G1 X0.44 Y3.11 Z2.38 F1175.119
G1 X0.87 Y2.81 Z2.38 F1175.119
G1 X1.31 Y2.39 Z2.38 F1175.119
G1 X1.75 Y1.78 Z2.38 F1175.119
G1 X-0.98 Y1.22 Z2.38 F1175.119
G1 X-0.98 Y0.96 Z2.38 F1175.119
G1 X1.75 Y-1.78 Z2.38 F1175.119
G1 X1.31 Y-2.39 Z2.38 F1175.119
G1 X0.87 Y-2.81 Z2.38 F1175.119
G1 X0.44 Y-3.11 Z2.38 F1175.119
G1 X-0.44 Y-3.48 Z2.38 F1175.119
G1 X-0.91 Y-3.12 Z2.38 F1175.119
G1 X-1.31 Y-3.59 Z2.38 F1175.119
G1 X-1.67 Y-3.14 Z2.38 F1175.119
G1 X-2.18 Y-3.49 Z2.38 F1175.119
G1 X-2.62 Y-3.37 Z2.38 F1175.119
G1 X-3.05 Y-3.16 Z2.38 F1175.119
G1 X-3.16 Y-0.96 Z2.38 F1175.119
G1 X-1.21 Y0.96 Z2.38 F1175.119
G1 X-1.21 Y1.22 Z2.38 F1175.119
G1 X-1.67 Y3.14 Z2.38 F1175.119
G1 X-2.18 Y3.49 Z2.38 F1175.119
G1 X-2.62 Y3.37 Z2.38 F1175.119
G1 X-3.49 Y2.89 Z2.38 F1175.119
G1 X-3.93 Y2.52 Z2.38 F1175.119
G1 X-4.36 Y1.97 Z2.38 F1175.119
G1 X-3.39 Y-0.96 Z2.38 F1175.119
G1 X-3.39 Y-1.22 Z2.38 F1175.119
G1 X-4.36 Y-1.97 Z2.38 F1175.119
G1 X-3.93 Y-2.52 Z2.38 F1175.119
G1 X-3.72 Y-2.7 Z2.38 F1175.119
M108 R30.0
M102
G1 X-3.49 Y-2.89 Z2.38 F1175.119
M108 R2.33
M103
G1 X-4.5 Y-1.46 Z2.38 F1958.531
M108 R30.0
M101
G1 X-4.8 Y-1.03 Z2.38 F1958.531
M108 R2.33
G1 X-4.8 Y0.74 Z2.38 F1175.119
M108 R30.0
M102
G1 X-4.8 Y1.03 Z2.38 F1175.119
M108 R2.33
M103
G1 X1.67 Y-0.44 Z2.38 F1958.531
M108 R30.0
M101
G1 X2.18 Y-0.56 Z2.38 F1958.531
M108 R2.33
G1 X2.18 Y0.56 Z2.38 F1175.119
M103
(</surroundingLoop>)
M108 R3.569
(</layer>)
(<layer> 2.7 )
(<surroundingLoop>)
(<boundaryPerimeter>)
(<boundaryPoint> X2.667 Y1.863 Z2.7 </boundaryPoint>)
(<boundaryPoint> X2.172 Y2.685 Z2.7 </boundaryPoint>)
(<boundaryPoint> X1.512 Y3.382 Z2.7 </boundaryPoint>)
(<boundaryPoint> X0.718 Y3.92 Z2.7 </boundaryPoint>)
(<boundaryPoint> X-0.173 Y4.275 Z2.7 </boundaryPoint>)
(<boundaryPoint> X-1.12 Y4.43 Z2.7 </boundaryPoint>)
(<boundaryPoint> X-2.078 Y4.378 Z2.7 </boundaryPoint>)
(<boundaryPoint> X-3.002 Y4.122 Z2.7 </boundaryPoint>)
(<boundaryPoint> X-3.85 Y3.672 Z2.7 </boundaryPoint>)
(<boundaryPoint> X-4.581 Y3.051 Z2.7 </boundaryPoint>)
(<boundaryPoint> X-5.162 Y2.287 Z2.7 </boundaryPoint>)
(<boundaryPoint> X-5.565 Y1.417 Z2.7 </boundaryPoint>)
(<boundaryPoint> X-5.771 Y0.48 Z2.7 </boundaryPoint>)
(<boundaryPoint> X-5.771 Y-0.48 Z2.7 </boundaryPoint>)
(<boundaryPoint> X-5.565 Y-1.417 Z2.7 </boundaryPoint>)
(<boundaryPoint> X-5.162 Y-2.287 Z2.7 </boundaryPoint>)
(<boundaryPoint> X-4.581 Y-3.051 Z2.7 </boundaryPoint>)
(<boundaryPoint> X-3.85 Y-3.672 Z2.7 </boundaryPoint>)
(<boundaryPoint> X-3.002 Y-4.122 Z2.7 </boundaryPoint>)
(<boundaryPoint> X-2.078 Y-4.378 Z2.7 </boundaryPoint>)
(<boundaryPoint> X-1.12 Y-4.43 Z2.7 </boundaryPoint>)
(<boundaryPoint> X-0.173 Y-4.275 Z2.7 </boundaryPoint>)
(<boundaryPoint> X0.718 Y-3.92 Z2.7 </boundaryPoint>)
(<boundaryPoint> X1.512 Y-3.382 Z2.7 </boundaryPoint>)
(<boundaryPoint> X2.172 Y-2.685 Z2.7 </boundaryPoint>)
(<boundaryPoint> X2.667 Y-1.863 Z2.7 </boundaryPoint>)
(<boundaryPoint> X2.973 Y-0.954 Z2.7 </boundaryPoint>)
(<boundaryPoint> X3.077 Y-0.0 Z2.7 </boundaryPoint>)
(<boundaryPoint> X2.973 Y0.954 Z2.7 </boundaryPoint>)
(<loop> outer )
M108 R2.233
G1 X2.36 Y0.93 Z2.7 F1877.335
M101
G1 X2.13 Y1.61 Z2.7 F1126.401
G1 X1.7 Y2.33 Z2.7 F1126.401
G1 X1.13 Y2.93 Z2.7 F1126.401
G1 X0.44 Y3.4 Z2.7 F1126.401
G1 X-0.33 Y3.7 Z2.7 F1126.401
G1 X-1.15 Y3.84 Z2.7 F1126.401
G1 X-1.98 Y3.79 Z2.7 F1126.401
G1 X-2.78 Y3.57 Z2.7 F1126.401
G1 X-3.52 Y3.18 Z2.7 F1126.401
G1 X-4.15 Y2.64 Z2.7 F1126.401
G1 X-4.65 Y1.98 Z2.7 F1126.401
G1 X-5.0 Y1.23 Z2.7 F1126.401
G1 X-5.18 Y0.42 Z2.7 F1126.401
G1 X-5.18 Y-0.42 Z2.7 F1126.401
G1 X-5.0 Y-1.23 Z2.7 F1126.401
G1 X-4.65 Y-1.98 Z2.7 F1126.401
G1 X-4.15 Y-2.64 Z2.7 F1126.401
G1 X-3.52 Y-3.18 Z2.7 F1126.401
G1 X-2.78 Y-3.57 Z2.7 F1126.401
G1 X-1.98 Y-3.79 Z2.7 F1126.401
G1 X-1.15 Y-3.84 Z2.7 F1126.401
G1 X-0.33 Y-3.7 Z2.7 F1126.401
G1 X0.44 Y-3.4 Z2.7 F1126.401
G1 X1.13 Y-2.93 Z2.7 F1126.401
G1 X1.7 Y-2.33 Z2.7 F1126.401
G1 X2.13 Y-1.61 Z2.7 F1126.401
G1 X2.39 Y-0.83 Z2.7 F1126.401
G1 X2.48 Y0.0 Z2.7 F1126.401
G1 X2.42 Y0.59 Z2.7 F1126.401
G1 X2.39 Y0.83 Z2.7 F1126.401
G1 X2.36 Y0.93 Z2.7 F1126.401
M103
(</loop>)
(<perimeter> outer )
G1 X2.78 Y0.91 Z2.7 F1877.335
M101
G1 X2.49 Y1.78 Z2.7 F1126.401
G1 X2.02 Y2.57 Z2.7 F1126.401
G1 X1.38 Y3.23 Z2.7 F1126.401
G1 X0.63 Y3.75 Z2.7 F1126.401
G1 X-0.23 Y4.09 Z2.7 F1126.401
G1 X-1.13 Y4.23 Z2.7 F1126.401
G1 X-2.05 Y4.18 Z2.7 F1126.401
G1 X-2.93 Y3.94 Z2.7 F1126.401
G1 X-3.74 Y3.51 Z2.7 F1126.401
G1 X-4.44 Y2.92 Z2.7 F1126.401
G1 X-4.99 Y2.19 Z2.7 F1126.401
G1 X-5.38 Y1.35 Z2.7 F1126.401
G1 X-5.58 Y0.46 Z2.7 F1126.401
G1 X-5.58 Y-0.46 Z2.7 F1126.401
G1 X-5.38 Y-1.35 Z2.7 F1126.401
G1 X-4.99 Y-2.19 Z2.7 F1126.401
G1 X-4.44 Y-2.92 Z2.7 F1126.401
G1 X-3.74 Y-3.51 Z2.7 F1126.401
G1 X-2.93 Y-3.94 Z2.7 F1126.401
G1 X-2.05 Y-4.18 Z2.7 F1126.401
G1 X-1.13 Y-4.23 Z2.7 F1126.401
G1 X-0.23 Y-4.09 Z2.7 F1126.401
G1 X0.63 Y-3.75 Z2.7 F1126.401
G1 X1.38 Y-3.23 Z2.7 F1126.401
G1 X2.02 Y-2.57 Z2.7 F1126.401
G1 X2.49 Y-1.78 Z2.7 F1126.401
G1 X2.78 Y-0.91 Z2.7 F1126.401
G1 X2.88 Y-0.0 Z2.7 F1126.401
G1 X2.81 Y0.63 Z2.7 F1126.401
G1 X2.81 Y0.63 Z2.7 F1126.401
M108 R30.0
M102
G1 X2.78 Y0.91 Z2.7 F1126.401
M108 R2.233
M103
(</perimeter>)
(</boundaryPerimeter>)
G1 X-0.21 Y3.19 Z2.7 F1877.335
M108 R30.0
M101
G1 X-0.61 Y3.49 Z2.7 F1877.335
M108 R2.233
G1 X-2.12 Y3.49 Z2.7 F1126.401
G1 X-3.21 Y3.05 Z2.7 F1126.401
G1 X-3.79 Y2.62 Z2.7 F1126.401
G1 X-4.18 Y2.18 Z2.7 F1126.401
G1 X-4.09 Y1.56 Z2.7 F1126.401
G1 X-4.68 Y1.31 Z2.7 F1126.401
G1 X-4.92 Y0.44 Z2.7 F1126.401
G1 X-1.22 Y1.21 Z2.7 F1126.401
G1 X-0.96 Y1.21 Z2.7 F1126.401
G1 X0.49 Y3.05 Z2.7 F1126.401
G1 X1.07 Y2.62 Z2.7 F1126.401
G1 X1.49 Y2.18 Z2.7 F1126.401
G1 X1.96 Y1.31 Z2.7 F1126.401
G1 X2.01 Y0.84 Z2.7 F1126.401
G1 X1.96 Y0.35 Z2.7 F1126.401
G1 X1.75 Y-0.37 Z2.7 F1126.401
G1 X2.11 Y-0.87 Z2.7 F1126.401
G1 X1.96 Y-1.31 Z2.7 F1126.401
G1 X-0.96 Y0.98 Z2.7 F1126.401
G1 X-1.22 Y0.98 Z2.7 F1126.401
G1 X-3.15 Y-0.98 Z2.7 F1126.401
G1 X-3.4 Y-0.98 Z2.7 F1126.401
G1 X-4.49 Y0.01 Z2.7 F1126.401
G1 X-4.92 Y-0.44 Z2.7 F1126.401
G1 X-4.68 Y-1.31 Z2.7 F1126.401
G1 X-4.09 Y-1.56 Z2.7 F1126.401
G1 X-3.4 Y-1.21 Z2.7 F1126.401
G1 X-3.15 Y-1.21 Z2.7 F1126.401
G1 X-4.18 Y-2.18 Z2.7 F1126.401
G1 X-3.79 Y-2.62 Z2.7 F1126.401
G1 X-3.21 Y-3.05 Z2.7 F1126.401
G1 X0.49 Y-3.05 Z2.7 F1126.401
G1 X1.07 Y-2.62 Z2.7 F1126.401
G1 X1.29 Y-2.39 Z2.7 F1126.401
M108 R30.0
M102
G1 X1.49 Y-2.18 Z2.7 F1126.401
M108 R2.233
M103
G1 X-0.19 Y-3.23 Z2.7 F1877.335
M108 R30.0
M101
G1 X-0.61 Y-3.49 Z2.7 F1877.335
M108 R2.233
G1 X-2.12 Y-3.49 Z2.7 F1126.401
M103
(</surroundingLoop>)
M108 R3.569
(</layer>)
(<layer> 3.02 )
(<surroundingLoop>)
(<boundaryPerimeter>)
(<boundaryPoint> X2.653 Y1.857 Z3.02 </boundaryPoint>)
(<boundaryPoint> X2.16 Y2.676 Z3.02 </boundaryPoint>)
(<boundaryPoint> X1.503 Y3.37 Z3.02 </boundaryPoint>)
(<boundaryPoint> X0.711 Y3.907 Z3.02 </boundaryPoint>)
(<boundaryPoint> X-0.177 Y4.261 Z3.02 </boundaryPoint>)
(<boundaryPoint> X-1.121 Y4.415 Z3.02 </boundaryPoint>)
(<boundaryPoint> X-2.075 Y4.364 Z3.02 </boundaryPoint>)
(<boundaryPoint> X-2.997 Y4.108 Z3.02 </boundaryPoint>)
(<boundaryPoint> X-3.841 Y3.66 Z3.02 </boundaryPoint>)
(<boundaryPoint> X-4.57 Y3.041 Z3.02 </boundaryPoint>)
(<boundaryPoint> X-5.149 Y2.28 Z3.02 </boundaryPoint>)
(<boundaryPoint> X-5.55 Y1.412 Z3.02 </boundaryPoint>)
(<boundaryPoint> X-5.756 Y0.478 Z3.02 </boundaryPoint>)
(<boundaryPoint> X-5.756 Y-0.478 Z3.02 </boundaryPoint>)
(<boundaryPoint> X-5.55 Y-1.412 Z3.02 </boundaryPoint>)
(<boundaryPoint> X-5.149 Y-2.28 Z3.02 </boundaryPoint>)
(<boundaryPoint> X-4.57 Y-3.041 Z3.02 </boundaryPoint>)
(<boundaryPoint> X-3.841 Y-3.66 Z3.02 </boundaryPoint>)
(<boundaryPoint> X-2.997 Y-4.108 Z3.02 </boundaryPoint>)
(<boundaryPoint> X-2.075 Y-4.364 Z3.02 </boundaryPoint>)
(<boundaryPoint> X-1.121 Y-4.415 Z3.02 </boundaryPoint>)
(<boundaryPoint> X-0.177 Y-4.261 Z3.02 </boundaryPoint>)
(<boundaryPoint> X0.711 Y-3.907 Z3.02 </boundaryPoint>)
(<boundaryPoint> X1.503 Y-3.37 Z3.02 </boundaryPoint>)
(<boundaryPoint> X2.16 Y-2.676 Z3.02 </boundaryPoint>)
(<boundaryPoint> X2.653 Y-1.857 Z3.02 </boundaryPoint>)
(<boundaryPoint> X2.958 Y-0.951 Z3.02 </boundaryPoint>)
(<boundaryPoint> X3.062 Y-0.0 Z3.02 </boundaryPoint>)
(<boundaryPoint> X2.958 Y0.951 Z3.02 </boundaryPoint>)
(<loop> outer )
M108 R2.313
G1 X-2.13 Y-3.74 Z3.02 F1944.466
M101
G1 X-1.98 Y-3.78 Z3.02 F1166.679
G1 X-1.15 Y-3.82 Z3.02 F1166.679
G1 X-0.34 Y-3.69 Z3.02 F1166.679
G1 X0.43 Y-3.38 Z3.02 F1166.679
G1 X1.12 Y-2.92 Z3.02 F1166.679
G1 X1.69 Y-2.32 Z3.02 F1166.679
G1 X2.12 Y-1.61 Z3.02 F1166.679
G1 X2.38 Y-0.82 Z3.02 F1166.679
G1 X2.47 Y0.0 Z3.02 F1166.679
G1 X2.38 Y0.82 Z3.02 F1166.679
G1 X2.12 Y1.61 Z3.02 F1166.679
G1 X1.69 Y2.32 Z3.02 F1166.679
G1 X1.12 Y2.92 Z3.02 F1166.679
G1 X0.43 Y3.38 Z3.02 F1166.679
G1 X-0.34 Y3.69 Z3.02 F1166.679
G1 X-1.15 Y3.82 Z3.02 F1166.679
G1 X-1.98 Y3.78 Z3.02 F1166.679
G1 X-2.78 Y3.56 Z3.02 F1166.679
G1 X-3.51 Y3.17 Z3.02 F1166.679
G1 X-4.14 Y2.63 Z3.02 F1166.679
G1 X-4.64 Y1.97 Z3.02 F1166.679
G1 X-4.99 Y1.22 Z3.02 F1166.679
G1 X-5.17 Y0.41 Z3.02 F1166.679
G1 X-5.17 Y-0.41 Z3.02 F1166.679
G1 X-4.99 Y-1.22 Z3.02 F1166.679
G1 X-4.64 Y-1.97 Z3.02 F1166.679
G1 X-4.14 Y-2.63 Z3.02 F1166.679
G1 X-3.51 Y-3.17 Z3.02 F1166.679
G1 X-2.78 Y-3.56 Z3.02 F1166.679
G1 X-2.18 Y-3.72 Z3.02 F1166.679
G1 X-2.13 Y-3.74 Z3.02 F1166.679
M103
(</loop>)
(<perimeter> outer )
G1 X-2.29 Y-4.1 Z3.02 F1944.466
M101
G1 X-2.04 Y-4.17 Z3.02 F1166.679
G1 X-1.13 Y-4.22 Z3.02 F1166.679
G1 X-0.23 Y-4.07 Z3.02 F1166.679
G1 X0.62 Y-3.73 Z3.02 F1166.679
G1 X1.38 Y-3.22 Z3.02 F1166.679
G1 X2.0 Y-2.56 Z3.02 F1166.679
G1 X2.47 Y-1.77 Z3.02 F1166.679
G1 X2.77 Y-0.91 Z3.02 F1166.679
G1 X2.86 Y0.0 Z3.02 F1166.679
G1 X2.77 Y0.91 Z3.02 F1166.679
G1 X2.47 Y1.77 Z3.02 F1166.679
G1 X2.0 Y2.56 Z3.02 F1166.679
G1 X1.38 Y3.22 Z3.02 F1166.679
G1 X0.62 Y3.73 Z3.02 F1166.679
G1 X-0.23 Y4.07 Z3.02 F1166.679
G1 X-1.13 Y4.22 Z3.02 F1166.679
G1 X-2.04 Y4.17 Z3.02 F1166.679
G1 X-2.92 Y3.92 Z3.02 F1166.679
G1 X-3.73 Y3.5 Z3.02 F1166.679
G1 X-4.43 Y2.91 Z3.02 F1166.679
G1 X-4.98 Y2.18 Z3.02 F1166.679
G1 X-5.36 Y1.35 Z3.02 F1166.679
G1 X-5.56 Y0.46 Z3.02 F1166.679
G1 X-5.56 Y-0.46 Z3.02 F1166.679
G1 X-5.36 Y-1.35 Z3.02 F1166.679
G1 X-4.98 Y-2.18 Z3.02 F1166.679
G1 X-4.43 Y-2.91 Z3.02 F1166.679
G1 X-3.73 Y-3.5 Z3.02 F1166.679
G1 X-2.92 Y-3.92 Z3.02 F1166.679
G1 X-2.57 Y-4.02 Z3.02 F1166.679
M108 R30.0
M102
G1 X-2.29 Y-4.1 Z3.02 F1166.679
M108 R2.313
M103
(</perimeter>)
(</boundaryPerimeter>)
G1 X-0.56 Y2.94 Z3.02 F1944.466
M108 R30.0
M101
G1 X-0.44 Y3.45 Z3.02 F1944.466
M108 R2.313
G1 X0.44 Y3.07 Z3.02 F1166.679
G1 X0.87 Y2.78 Z3.02 F1166.679
G1 X1.31 Y2.35 Z3.02 F1166.679
G1 X1.75 Y1.73 Z3.02 F1166.679
G1 X-0.98 Y1.22 Z3.02 F1166.679
G1 X-0.98 Y0.96 Z3.02 F1166.679
G1 X1.75 Y-1.73 Z3.02 F1166.679
G1 X1.31 Y-2.35 Z3.02 F1166.679
G1 X0.87 Y-2.78 Z3.02 F1166.679
G1 X0.44 Y-3.07 Z3.02 F1166.679
G1 X-0.44 Y-3.45 Z3.02 F1166.679
G1 X-0.57 Y-3.2 Z3.02 F1166.679
G1 X-1.29 Y-3.12 Z3.02 F1166.679
G1 X-1.75 Y-3.54 Z3.02 F1166.679
G1 X-2.18 Y-3.46 Z3.02 F1166.679
G1 X-2.5 Y-2.92 Z3.02 F1166.679
G1 X-3.05 Y-3.12 Z3.02 F1166.679
G1 X-3.16 Y-0.96 Z3.02 F1166.679
G1 X-1.21 Y0.96 Z3.02 F1166.679
G1 X-1.29 Y3.12 Z3.02 F1166.679
G1 X-0.87 Y3.52 Z3.02 F1166.679
G1 X-1.75 Y3.54 Z3.02 F1166.679
G1 X-2.18 Y3.46 Z3.02 F1166.679
G1 X-2.5 Y2.92 Z3.02 F1166.679
G1 X-3.05 Y3.12 Z3.02 F1166.679
G1 X-3.49 Y2.85 Z3.02 F1166.679
G1 X-3.93 Y2.48 Z3.02 F1166.679
G1 X-4.36 Y1.92 Z3.02 F1166.679
G1 X-3.39 Y-0.96 Z3.02 F1166.679
G1 X-3.39 Y-1.22 Z3.02 F1166.679
G1 X-4.36 Y-1.92 Z3.02 F1166.679
G1 X-3.93 Y-2.48 Z3.02 F1166.679
G1 X-3.71 Y-2.66 Z3.02 F1166.679
M108 R30.0
M102
G1 X-3.49 Y-2.85 Z3.02 F1166.679
M108 R2.313
M103
G1 X-4.51 Y-1.32 Z3.02 F1944.466
M108 R30.0
M101
G1 X-4.8 Y-0.89 Z3.02 F1944.466
M108 R2.313
G1 X-4.8 Y0.6 Z3.02 F1166.679
M108 R30.0
M102
G1 X-4.8 Y0.89 Z3.02 F1166.679
M108 R2.313
M103
G1 X2.18 Y-0.28 Z3.02 F1944.466
M101
G1 X2.18 Y0.28 Z3.02 F1166.679
M103
(</surroundingLoop>)
M108 R3.569
(</layer>)
(<layer> 3.34 )
(<surroundingLoop>)
(<boundaryPerimeter>)
(<boundaryPoint> X2.64 Y1.85 Z3.34 </boundaryPoint>)
(<boundaryPoint> X2.148 Y2.667 Z3.34 </boundaryPoint>)
(<boundaryPoint> X1.493 Y3.359 Z3.34 </boundaryPoint>)
(<boundaryPoint> X0.704 Y3.893 Z3.34 </boundaryPoint>)
(<boundaryPoint> X-0.181 Y4.246 Z3.34 </boundaryPoint>)
(<boundaryPoint> X-1.121 Y4.4 Z3.34 </boundaryPoint>)
(<boundaryPoint> X-2.073 Y4.349 Z3.34 </boundaryPoint>)
(<boundaryPoint> X-2.991 Y4.094 Z3.34 </boundaryPoint>)
(<boundaryPoint> X-3.833 Y3.647 Z3.34 </boundaryPoint>)
(<boundaryPoint> X-4.559 Y3.031 Z3.34 </boundaryPoint>)
(<boundaryPoint> X-5.136 Y2.272 Z3.34 </boundaryPoint>)
(<boundaryPoint> X-5.536 Y1.407 Z3.34 </boundaryPoint>)
(<boundaryPoint> X-5.741 Y0.476 Z3.34 </boundaryPoint>)
(<boundaryPoint> X-5.741 Y-0.476 Z3.34 </boundaryPoint>)
(<boundaryPoint> X-5.536 Y-1.407 Z3.34 </boundaryPoint>)
(<boundaryPoint> X-5.136 Y-2.272 Z3.34 </boundaryPoint>)
(<boundaryPoint> X-4.559 Y-3.031 Z3.34 </boundaryPoint>)
(<boundaryPoint> X-3.833 Y-3.647 Z3.34 </boundaryPoint>)
(<boundaryPoint> X-2.991 Y-4.094 Z3.34 </boundaryPoint>)
(<boundaryPoint> X-2.073 Y-4.349 Z3.34 </boundaryPoint>)
(<boundaryPoint> X-1.121 Y-4.4 Z3.34 </boundaryPoint>)
(<boundaryPoint> X-0.181 Y-4.246 Z3.34 </boundaryPoint>)
(<boundaryPoint> X0.704 Y-3.893 Z3.34 </boundaryPoint>)
(<boundaryPoint> X1.493 Y-3.359 Z3.34 </boundaryPoint>)
(<boundaryPoint> X2.148 Y-2.667 Z3.34 </boundaryPoint>)
(<boundaryPoint> X2.64 Y-1.85 Z3.34 </boundaryPoint>)
(<boundaryPoint> X2.944 Y-0.947 Z3.34 </boundaryPoint>)
(<boundaryPoint> X3.047 Y0.0 Z3.34 </boundaryPoint>)
(<boundaryPoint> X2.944 Y0.947 Z3.34 </boundaryPoint>)
(<loop> outer )
M108 R2.251
M108 R30.0
M101
G1 X2.45 Y0.06 Z3.34 F1772.176
M108 R2.251
G1 X2.42 Y0.31 Z3.34 F1135.335
G1 X2.37 Y0.82 Z3.34 F1135.335
G1 X2.1 Y1.6 Z3.34 F1135.335
G1 X1.68 Y2.31 Z3.34 F1135.335
G1 X1.11 Y2.91 Z3.34 F1135.335
G1 X0.43 Y3.37 Z3.34 F1135.335
G1 X-0.34 Y3.68 Z3.34 F1135.335
G1 X-1.15 Y3.81 Z3.34 F1135.335
G1 X-1.98 Y3.76 Z3.34 F1135.335
G1 X-2.77 Y3.54 Z3.34 F1135.335
G1 X-3.5 Y3.16 Z3.34 F1135.335
G1 X-4.13 Y2.62 Z3.34 F1135.335
G1 X-4.63 Y1.97 Z3.34 F1135.335
G1 X-4.97 Y1.22 Z3.34 F1135.335
G1 X-5.15 Y0.41 Z3.34 F1135.335
G1 X-5.15 Y-0.41 Z3.34 F1135.335
G1 X-4.97 Y-1.22 Z3.34 F1135.335
G1 X-4.63 Y-1.97 Z3.34 F1135.335
G1 X-4.13 Y-2.62 Z3.34 F1135.335
G1 X-3.5 Y-3.16 Z3.34 F1135.335
G1 X-2.77 Y-3.54 Z3.34 F1135.335
G1 X-1.98 Y-3.76 Z3.34 F1135.335
G1 X-1.15 Y-3.81 Z3.34 F1135.335
G1 X-0.34 Y-3.68 Z3.34 F1135.335
G1 X0.43 Y-3.37 Z3.34 F1135.335
G1 X1.11 Y-2.91 Z3.34 F1135.335
G1 X1.68 Y-2.31 Z3.34 F1135.335
G1 X2.1 Y-1.6 Z3.34 F1135.335
G1 X2.37 Y-0.82 Z3.34 F1135.335
G1 X2.45 Y0.0 Z3.34 F1135.335
G1 X2.45 Y0.06 Z3.34 F1135.335
M103
(</loop>)
(<perimeter> outer )
G1 X2.85 Y0.0 Z3.34 F1892.226
M101
G1 X2.81 Y0.35 Z3.34 F1135.335
G1 X2.75 Y0.91 Z3.34 F1135.335
G1 X2.46 Y1.77 Z3.34 F1135.335
G1 X1.99 Y2.55 Z3.34 F1135.335
G1 X1.37 Y3.21 Z3.34 F1135.335
G1 X0.61 Y3.72 Z3.34 F1135.335
G1 X-0.23 Y4.06 Z3.34 F1135.335
G1 X-1.13 Y4.2 Z3.34 F1135.335
G1 X-2.04 Y4.15 Z3.34 F1135.335
G1 X-2.92 Y3.91 Z3.34 F1135.335
G1 X-3.72 Y3.48 Z3.34 F1135.335
G1 X-4.42 Y2.9 Z3.34 F1135.335
G1 X-4.97 Y2.17 Z3.34 F1135.335
G1 X-5.35 Y1.34 Z3.34 F1135.335
G1 X-5.55 Y0.46 Z3.34 F1135.335
G1 X-5.55 Y-0.46 Z3.34 F1135.335
G1 X-5.35 Y-1.34 Z3.34 F1135.335
G1 X-4.97 Y-2.17 Z3.34 F1135.335
G1 X-4.42 Y-2.9 Z3.34 F1135.335
G1 X-3.72 Y-3.48 Z3.34 F1135.335
G1 X-2.92 Y-3.91 Z3.34 F1135.335
G1 X-2.04 Y-4.15 Z3.34 F1135.335
G1 X-1.13 Y-4.2 Z3.34 F1135.335
G1 X-0.23 Y-4.06 Z3.34 F1135.335
G1 X0.61 Y-3.72 Z3.34 F1135.335
G1 X1.37 Y-3.21 Z3.34 F1135.335
G1 X1.99 Y-2.55 Z3.34 F1135.335
G1 X2.46 Y-1.77 Z3.34 F1135.335
G1 X2.75 Y-0.91 Z3.34 F1135.335
G1 X2.82 Y-0.28 Z3.34 F1135.335
M108 R30.0
M102
G1 X2.85 Y0.0 Z3.34 F1135.335
M108 R2.251
M103
(</perimeter>)
(</boundaryPerimeter>)
G1 X-0.43 Y3.14 Z3.34 F1892.226
M108 R30.0
M101
G1 X-0.8 Y3.49 Z3.34 F1892.226
M108 R2.251
G1 X-2.01 Y3.49 Z3.34 F1135.335
G1 X-3.15 Y3.05 Z3.34 F1135.335
G1 X-3.74 Y2.62 Z3.34 F1135.335
G1 X-4.14 Y2.18 Z3.34 F1135.335
G1 X-4.05 Y1.56 Z3.34 F1135.335
G1 X-4.65 Y1.31 Z3.34 F1135.335
G1 X-4.79 Y0.87 Z3.34 F1135.335
G1 X-0.96 Y1.21 Z3.34 F1135.335
G1 X0.44 Y3.05 Z3.34 F1135.335
G1 X1.03 Y2.62 Z3.34 F1135.335
G1 X1.44 Y2.18 Z3.34 F1135.335
G1 X1.93 Y1.31 Z3.34 F1135.335
G1 X2.08 Y0.87 Z3.34 F1135.335
G1 X2.15 Y0.44 Z3.34 F1135.335
G1 X1.76 Y0.05 Z3.34 F1135.335
G1 X2.15 Y-0.44 Z3.34 F1135.335
G1 X2.08 Y-0.87 Z3.34 F1135.335
G1 X-0.96 Y0.98 Z3.34 F1135.335
G1 X-1.22 Y0.98 Z3.34 F1135.335
G1 X-3.15 Y-0.98 Z3.34 F1135.335
G1 X-3.4 Y-0.98 Z3.34 F1135.335
G1 X-4.89 Y0.44 Z3.34 F1135.335
G1 X-4.89 Y-0.44 Z3.34 F1135.335
G1 X-4.65 Y-1.31 Z3.34 F1135.335
G1 X-4.05 Y-1.56 Z3.34 F1135.335
G1 X-3.4 Y-1.21 Z3.34 F1135.335
G1 X-3.15 Y-1.21 Z3.34 F1135.335
G1 X-4.14 Y-2.18 Z3.34 F1135.335
G1 X-3.74 Y-2.62 Z3.34 F1135.335
G1 X-3.15 Y-3.05 Z3.34 F1135.335
G1 X0.44 Y-3.05 Z3.34 F1135.335
G1 X1.03 Y-2.62 Z3.34 F1135.335
G1 X1.44 Y-2.18 Z3.34 F1135.335
G1 X1.79 Y-1.56 Z3.34 F1135.335
M108 R30.0
M102
G1 X1.93 Y-1.31 Z3.34 F1135.335
M108 R2.251
M103
G1 X-0.4 Y-3.18 Z3.34 F1892.226
M108 R30.0
M101
G1 X-0.8 Y-3.49 Z3.34 F1892.226
M108 R2.251
G1 X-2.01 Y-3.49 Z3.34 F1135.335
M103
(</surroundingLoop>)
M108 R3.569
(</layer>)
(<layer> 3.66 )
(<surroundingLoop>)
(<boundaryPerimeter>)
(<boundaryPoint> X2.626 Y1.844 Z3.66 </boundaryPoint>)
(<boundaryPoint> X2.136 Y2.658 Z3.66 </boundaryPoint>)
(<boundaryPoint> X1.483 Y3.347 Z3.66 </boundaryPoint>)
(<boundaryPoint> X0.697 Y3.88 Z3.66 </boundaryPoint>)
(<boundaryPoint> X-0.185 Y4.232 Z3.66 </boundaryPoint>)
(<boundaryPoint> X-1.122 Y4.385 Z3.66 </boundaryPoint>)
(<boundaryPoint> X-2.071 Y4.334 Z3.66 </boundaryPoint>)
(<boundaryPoint> X-2.986 Y4.08 Z3.66 </boundaryPoint>)
(<boundaryPoint> X-3.825 Y3.635 Z3.66 </boundaryPoint>)
(<boundaryPoint> X-4.548 Y3.02 Z3.66 </boundaryPoint>)
(<boundaryPoint> X-5.123 Y2.264 Z3.66 </boundaryPoint>)
(<boundaryPoint> X-5.522 Y1.402 Z3.66 </boundaryPoint>)
(<boundaryPoint> X-5.726 Y0.475 Z3.66 </boundaryPoint>)
(<boundaryPoint> X-5.726 Y-0.475 Z3.66 </boundaryPoint>)
(<boundaryPoint> X-5.522 Y-1.402 Z3.66 </boundaryPoint>)
(<boundaryPoint> X-5.123 Y-2.264 Z3.66 </boundaryPoint>)
(<boundaryPoint> X-4.548 Y-3.02 Z3.66 </boundaryPoint>)
(<boundaryPoint> X-3.825 Y-3.635 Z3.66 </boundaryPoint>)
(<boundaryPoint> X-2.986 Y-4.08 Z3.66 </boundaryPoint>)
(<boundaryPoint> X-2.071 Y-4.334 Z3.66 </boundaryPoint>)
(<boundaryPoint> X-1.122 Y-4.385 Z3.66 </boundaryPoint>)
(<boundaryPoint> X-0.185 Y-4.232 Z3.66 </boundaryPoint>)
(<boundaryPoint> X0.697 Y-3.88 Z3.66 </boundaryPoint>)
(<boundaryPoint> X1.483 Y-3.347 Z3.66 </boundaryPoint>)
(<boundaryPoint> X2.136 Y-2.658 Z3.66 </boundaryPoint>)
(<boundaryPoint> X2.626 Y-1.844 Z3.66 </boundaryPoint>)
(<boundaryPoint> X2.929 Y-0.944 Z3.66 </boundaryPoint>)
(<boundaryPoint> X3.032 Y-0.0 Z3.66 </boundaryPoint>)
(<boundaryPoint> X2.929 Y0.944 Z3.66 </boundaryPoint>)
(<loop> outer )
M108 R2.179
G1 X-1.74 Y-3.76 Z3.66 F1831.691
M101
G1 X-1.15 Y-3.79 Z3.66 F1099.015
G1 X-0.34 Y-3.66 Z3.66 F1099.015
G1 X0.42 Y-3.36 Z3.66 F1099.015
G1 X1.1 Y-2.9 Z3.66 F1099.015
G1 X1.66 Y-2.3 Z3.66 F1099.015
G1 X2.09 Y-1.6 Z3.66 F1099.015
G1 X2.35 Y-0.82 Z3.66 F1099.015
G1 X2.44 Y0.0 Z3.66 F1099.015
G1 X2.35 Y0.82 Z3.66 F1099.015
G1 X2.09 Y1.6 Z3.66 F1099.015
G1 X1.66 Y2.3 Z3.66 F1099.015
G1 X1.1 Y2.9 Z3.66 F1099.015
G1 X0.42 Y3.36 Z3.66 F1099.015
G1 X-0.34 Y3.66 Z3.66 F1099.015
G1 X-1.15 Y3.79 Z3.66 F1099.015
G1 X-1.98 Y3.75 Z3.66 F1099.015
G1 X-2.77 Y3.53 Z3.66 F1099.015
G1 X-3.49 Y3.14 Z3.66 F1099.015
G1 X-4.12 Y2.61 Z3.66 F1099.015
G1 X-4.62 Y1.96 Z3.66 F1099.015
G1 X-4.96 Y1.21 Z3.66 F1099.015
G1 X-5.14 Y0.41 Z3.66 F1099.015
G1 X-5.14 Y-0.41 Z3.66 F1099.015
G1 X-4.96 Y-1.21 Z3.66 F1099.015
G1 X-4.62 Y-1.96 Z3.66 F1099.015
G1 X-4.12 Y-2.61 Z3.66 F1099.015
G1 X-3.49 Y-3.14 Z3.66 F1099.015
G1 X-2.77 Y-3.53 Z3.66 F1099.015
G1 X-1.98 Y-3.75 Z3.66 F1099.015
G1 X-1.74 Y-3.76 Z3.66 F1099.015
M103
(</loop>)
(<perimeter> outer )
G1 X-1.76 Y-4.15 Z3.66 F1831.691
M101
G1 X-1.13 Y-4.19 Z3.66 F1099.015
G1 X-0.24 Y-4.04 Z3.66 F1099.015
G1 X0.6 Y-3.71 Z3.66 F1099.015
G1 X1.36 Y-3.2 Z3.66 F1099.015
G1 X1.98 Y-2.54 Z3.66 F1099.015
G1 X2.45 Y-1.76 Z3.66 F1099.015
G1 X2.74 Y-0.9 Z3.66 F1099.015
G1 X2.83 Y-0.0 Z3.66 F1099.015
G1 X2.74 Y0.9 Z3.66 F1099.015
G1 X2.45 Y1.76 Z3.66 F1099.015
G1 X1.98 Y2.54 Z3.66 F1099.015
G1 X1.36 Y3.2 Z3.66 F1099.015
G1 X0.6 Y3.71 Z3.66 F1099.015
G1 X-0.24 Y4.04 Z3.66 F1099.015
G1 X-1.13 Y4.19 Z3.66 F1099.015
G1 X-2.04 Y4.14 Z3.66 F1099.015
G1 X-2.91 Y3.9 Z3.66 F1099.015
G1 X-3.71 Y3.47 Z3.66 F1099.015
G1 X-4.4 Y2.88 Z3.66 F1099.015
G1 X-4.95 Y2.16 Z3.66 F1099.015
G1 X-5.34 Y1.34 Z3.66 F1099.015
G1 X-5.53 Y0.45 Z3.66 F1099.015
G1 X-5.53 Y-0.45 Z3.66 F1099.015
G1 X-5.34 Y-1.34 Z3.66 F1099.015
G1 X-4.95 Y-2.16 Z3.66 F1099.015
G1 X-4.4 Y-2.88 Z3.66 F1099.015
G1 X-3.71 Y-3.47 Z3.66 F1099.015
G1 X-2.91 Y-3.9 Z3.66 F1099.015
G1 X-2.04 Y-4.14 Z3.66 F1099.015
G1 X-2.04 Y-4.14 Z3.66 F1099.015
M108 R30.0
M102
G1 X-1.76 Y-4.15 Z3.66 F1099.015
M108 R2.179
M103
(</perimeter>)
(</boundaryPerimeter>)
G1 X1.85 Y-0.36 Z3.66 F1831.691
M108 R30.0
M101
G1 X2.18 Y-0.01 Z3.66 F1831.691
M108 R2.179
G1 X1.75 Y1.67 Z3.66 F1099.015
G1 X1.31 Y2.3 Z3.66 F1099.015
G1 X0.87 Y2.74 Z3.66 F1099.015
G1 X0.44 Y3.04 Z3.66 F1099.015
G1 X0.0 Y3.25 Z3.66 F1099.015
G1 X-0.98 Y1.22 Z3.66 F1099.015
G1 X-0.98 Y0.96 Z3.66 F1099.015
G1 X1.75 Y-1.67 Z3.66 F1099.015
G1 X1.31 Y-2.3 Z3.66 F1099.015
G1 X0.87 Y-2.74 Z3.66 F1099.015
G1 X0.44 Y-3.04 Z3.66 F1099.015
G1 X-0.44 Y-3.42 Z3.66 F1099.015
G1 X-0.59 Y-3.01 Z3.66 F1099.015
G1 X-0.87 Y-3.49 Z3.66 F1099.015
G1 X-1.31 Y-3.53 Z3.66 F1099.015
G1 X-2.18 Y-3.43 Z3.66 F1099.015
G1 X-2.5 Y-2.89 Z3.66 F1099.015
G1 X-3.05 Y-3.09 Z3.66 F1099.015
G1 X-3.16 Y-0.96 Z3.66 F1099.015
G1 X-1.21 Y0.96 Z3.66 F1099.015
G1 X-1.21 Y1.22 Z3.66 F1099.015
G1 X-0.51 Y2.99 Z3.66 F1099.015
G1 X-0.87 Y3.49 Z3.66 F1099.015
G1 X-1.31 Y3.53 Z3.66 F1099.015
G1 X-2.18 Y3.43 Z3.66 F1099.015
G1 X-2.5 Y2.89 Z3.66 F1099.015
G1 X-3.05 Y3.09 Z3.66 F1099.015
G1 X-3.49 Y2.81 Z3.66 F1099.015
G1 X-3.93 Y2.44 Z3.66 F1099.015
G1 X-4.36 Y1.87 Z3.66 F1099.015
G1 X-3.39 Y-0.96 Z3.66 F1099.015
G1 X-3.39 Y-1.22 Z3.66 F1099.015
G1 X-4.36 Y-1.87 Z3.66 F1099.015
G1 X-3.93 Y-2.44 Z3.66 F1099.015
G1 X-3.7 Y-2.63 Z3.66 F1099.015
M108 R30.0
M102
G1 X-3.49 Y-2.81 Z3.66 F1099.015
M108 R2.179
M103
G1 X-4.54 Y-1.17 Z3.66 F1831.691
M108 R30.0
M101
G1 X-4.8 Y-0.76 Z3.66 F1831.691
M108 R2.179
G1 X-4.8 Y0.76 Z3.66 F1099.015
M103
(</surroundingLoop>)
M108 R3.569
(</layer>)
(<layer> 3.98 )
(<surroundingLoop>)
(<boundaryPerimeter>)
(<boundaryPoint> X2.612 Y1.838 Z3.98 </boundaryPoint>)
(<boundaryPoint> X2.124 Y2.649 Z3.98 </boundaryPoint>)
(<boundaryPoint> X1.473 Y3.336 Z3.98 </boundaryPoint>)
(<boundaryPoint> X0.69 Y3.867 Z3.98 </boundaryPoint>)
(<boundaryPoint> X-0.189 Y4.217 Z3.98 </boundaryPoint>)
(<boundaryPoint> X-1.123 Y4.37 Z3.98 </boundaryPoint>)
(<boundaryPoint> X-2.068 Y4.319 Z3.98 </boundaryPoint>)
(<boundaryPoint> X-2.98 Y4.066 Z3.98 </boundaryPoint>)
(<boundaryPoint> X-3.816 Y3.623 Z3.98 </boundaryPoint>)
(<boundaryPoint> X-4.538 Y3.01 Z3.98 </boundaryPoint>)
(<boundaryPoint> X-5.11 Y2.256 Z3.98 </boundaryPoint>)
(<boundaryPoint> X-5.508 Y1.398 Z3.98 </boundaryPoint>)
(<boundaryPoint> X-5.711 Y0.473 Z3.98 </boundaryPoint>)
(<boundaryPoint> X-5.711 Y-0.473 Z3.98 </boundaryPoint>)
(<boundaryPoint> X-5.508 Y-1.398 Z3.98 </boundaryPoint>)
(<boundaryPoint> X-5.11 Y-2.256 Z3.98 </boundaryPoint>)
(<boundaryPoint> X-4.538 Y-3.01 Z3.98 </boundaryPoint>)
(<boundaryPoint> X-3.816 Y-3.623 Z3.98 </boundaryPoint>)
(<boundaryPoint> X-2.98 Y-4.066 Z3.98 </boundaryPoint>)
(<boundaryPoint> X-2.068 Y-4.319 Z3.98 </boundaryPoint>)
(<boundaryPoint> X-1.123 Y-4.37 Z3.98 </boundaryPoint>)
(<boundaryPoint> X-0.189 Y-4.217 Z3.98 </boundaryPoint>)
(<boundaryPoint> X0.69 Y-3.867 Z3.98 </boundaryPoint>)
(<boundaryPoint> X1.473 Y-3.336 Z3.98 </boundaryPoint>)
(<boundaryPoint> X2.124 Y-2.649 Z3.98 </boundaryPoint>)
(<boundaryPoint> X2.612 Y-1.838 Z3.98 </boundaryPoint>)
(<boundaryPoint> X2.914 Y-0.941 Z3.98 </boundaryPoint>)
(<boundaryPoint> X3.017 Y-0.0 Z3.98 </boundaryPoint>)
(<boundaryPoint> X2.914 Y0.941 Z3.98 </boundaryPoint>)
(<loop> outer )
M108 R2.152
G1 X-5.02 Y0.87 Z3.98 F1808.573
M101
G1 X-5.04 Y0.81 Z3.98 F1085.144
G1 X-5.12 Y0.41 Z3.98 F1085.144
G1 X-5.12 Y-0.41 Z3.98 F1085.144
G1 X-4.95 Y-1.21 Z3.98 F1085.144
G1 X-4.6 Y-1.95 Z3.98 F1085.144
G1 X-4.11 Y-2.6 Z3.98 F1085.144
G1 X-3.48 Y-3.13 Z3.98 F1085.144
G1 X-2.76 Y-3.52 Z3.98 F1085.144
G1 X-1.97 Y-3.73 Z3.98 F1085.144
G1 X-1.16 Y-3.78 Z3.98 F1085.144
G1 X-0.35 Y-3.65 Z3.98 F1085.144
G1 X0.41 Y-3.34 Z3.98 F1085.144
G1 X1.09 Y-2.88 Z3.98 F1085.144
G1 X1.65 Y-2.29 Z3.98 F1085.144
G1 X2.07 Y-1.59 Z3.98 F1085.144
G1 X2.34 Y-0.81 Z3.98 F1085.144
G1 X2.42 Y0.0 Z3.98 F1085.144
G1 X2.34 Y0.81 Z3.98 F1085.144
G1 X2.07 Y1.59 Z3.98 F1085.144
G1 X1.65 Y2.29 Z3.98 F1085.144
G1 X1.09 Y2.88 Z3.98 F1085.144
G1 X0.41 Y3.34 Z3.98 F1085.144
G1 X-0.35 Y3.65 Z3.98 F1085.144
G1 X-1.16 Y3.78 Z3.98 F1085.144
G1 X-1.97 Y3.73 Z3.98 F1085.144
G1 X-2.76 Y3.52 Z3.98 F1085.144
G1 X-3.48 Y3.13 Z3.98 F1085.144
G1 X-4.11 Y2.6 Z3.98 F1085.144
G1 X-4.6 Y1.95 Z3.98 F1085.144
G1 X-4.95 Y1.21 Z3.98 F1085.144
G1 X-5.02 Y0.87 Z3.98 F1085.144
M103
(</loop>)
(<perimeter> outer )
G1 X-5.42 Y0.89 Z3.98 F1808.573
M101
G1 X-5.52 Y0.45 Z3.98 F1085.144
G1 X-5.52 Y-0.45 Z3.98 F1085.144
G1 X-5.32 Y-1.34 Z3.98 F1085.144
G1 X-4.94 Y-2.15 Z3.98 F1085.144
G1 X-4.39 Y-2.87 Z3.98 F1085.144
G1 X-3.71 Y-3.46 Z3.98 F1085.144
G1 X-2.91 Y-3.88 Z3.98 F1085.144
G1 X-2.04 Y-4.12 Z3.98 F1085.144
G1 X-1.13 Y-4.17 Z3.98 F1085.144
G1 X-0.24 Y-4.03 Z3.98 F1085.144
G1 X0.6 Y-3.69 Z3.98 F1085.144
G1 X1.35 Y-3.19 Z3.98 F1085.144
G1 X1.97 Y-2.53 Z3.98 F1085.144
G1 X2.43 Y-1.76 Z3.98 F1085.144
G1 X2.72 Y-0.9 Z3.98 F1085.144
G1 X2.82 Y0.0 Z3.98 F1085.144
G1 X2.72 Y0.9 Z3.98 F1085.144
G1 X2.43 Y1.76 Z3.98 F1085.144
G1 X1.97 Y2.53 Z3.98 F1085.144
G1 X1.35 Y3.19 Z3.98 F1085.144
G1 X0.6 Y3.69 Z3.98 F1085.144
G1 X-0.24 Y4.03 Z3.98 F1085.144
G1 X-1.13 Y4.17 Z3.98 F1085.144
G1 X-2.04 Y4.12 Z3.98 F1085.144
G1 X-2.91 Y3.88 Z3.98 F1085.144
G1 X-3.71 Y3.46 Z3.98 F1085.144
G1 X-4.39 Y2.87 Z3.98 F1085.144
G1 X-4.94 Y2.15 Z3.98 F1085.144
G1 X-5.32 Y1.34 Z3.98 F1085.144
G1 X-5.36 Y1.16 Z3.98 F1085.144
M108 R30.0
M102
G1 X-5.42 Y0.89 Z3.98 F1085.144
M108 R2.152
M103
(</perimeter>)
(</boundaryPerimeter>)
G1 X-1.4 Y3.25 Z3.98 F1808.573
M108 R30.0
M101
G1 X-0.98 Y3.49 Z3.98 F1808.573
M108 R2.152
G1 X-1.74 Y3.49 Z3.98 F1085.144
G1 X-3.09 Y3.05 Z3.98 F1085.144
G1 X-3.7 Y2.62 Z3.98 F1085.144
G1 X-4.11 Y2.18 Z3.98 F1085.144
G1 X-4.42 Y1.75 Z3.98 F1085.144
G1 X-4.62 Y1.31 Z3.98 F1085.144
G1 X-4.34 Y0.74 Z3.98 F1085.144
G1 X-1.22 Y1.21 Z3.98 F1085.144
G1 X-0.96 Y1.21 Z3.98 F1085.144
G1 X0.38 Y3.05 Z3.98 F1085.144
G1 X0.99 Y2.62 Z3.98 F1085.144
G1 X1.4 Y2.18 Z3.98 F1085.144
G1 X1.68 Y1.75 Z3.98 F1085.144
G1 X1.9 Y1.31 Z3.98 F1085.144
G1 X1.62 Y0.8 Z3.98 F1085.144
G1 X2.12 Y0.44 Z3.98 F1085.144
G1 X2.17 Y-0.0 Z3.98 F1085.144
G1 X2.05 Y-0.87 Z3.98 F1085.144
G1 X-0.96 Y0.98 Z3.98 F1085.144
G1 X-1.22 Y0.98 Z3.98 F1085.144
G1 X-3.15 Y-1.09 Z3.98 F1085.144
G1 X-3.4 Y-1.09 Z3.98 F1085.144
G1 X-4.43 Y-0.34 Z3.98 F1085.144
G1 X-4.85 Y0.44 Z3.98 F1085.144
G1 X-4.87 Y0.0 Z3.98 F1085.144
G1 X-4.76 Y-0.87 Z3.98 F1085.144
G1 X-4.62 Y-1.31 Z3.98 F1085.144
G1 X-4.42 Y-1.75 Z3.98 F1085.144
G1 X-4.11 Y-2.18 Z3.98 F1085.144
G1 X-3.7 Y-2.62 Z3.98 F1085.144
G1 X-3.09 Y-3.05 Z3.98 F1085.144
G1 X0.38 Y-3.05 Z3.98 F1085.144
G1 X0.99 Y-2.62 Z3.98 F1085.144
G1 X1.4 Y-2.18 Z3.98 F1085.144
G1 X1.54 Y-1.97 Z3.98 F1085.144
M108 R30.0
M102
G1 X1.68 Y-1.75 Z3.98 F1085.144
M108 R2.152
M103
G1 X-0.98 Y-3.49 Z3.98 F1808.573
M101
G1 X-1.74 Y-3.49 Z3.98 F1085.144
M103
(</surroundingLoop>)
M108 R3.569
(</layer>)
(<layer> 4.3 )
(<surroundingLoop>)
(<boundaryPerimeter>)
(<boundaryPoint> X2.599 Y1.831 Z4.3 </boundaryPoint>)
(<boundaryPoint> X2.112 Y2.64 Z4.3 </boundaryPoint>)
(<boundaryPoint> X1.464 Y3.324 Z4.3 </boundaryPoint>)
(<boundaryPoint> X0.683 Y3.854 Z4.3 </boundaryPoint>)
(<boundaryPoint> X-0.193 Y4.203 Z4.3 </boundaryPoint>)
(<boundaryPoint> X-1.124 Y4.355 Z4.3 </boundaryPoint>)
(<boundaryPoint> X-2.066 Y4.304 Z4.3 </boundaryPoint>)
(<boundaryPoint> X-2.974 Y4.052 Z4.3 </boundaryPoint>)
(<boundaryPoint> X-3.808 Y3.61 Z4.3 </boundaryPoint>)
(<boundaryPoint> X-4.527 Y3.0 Z4.3 </boundaryPoint>)
(<boundaryPoint> X-5.097 Y2.249 Z4.3 </boundaryPoint>)
(<boundaryPoint> X-5.493 Y1.393 Z4.3 </boundaryPoint>)
(<boundaryPoint> X-5.696 Y0.472 Z4.3 </boundaryPoint>)
(<boundaryPoint> X-5.696 Y-0.472 Z4.3 </boundaryPoint>)
(<boundaryPoint> X-5.493 Y-1.393 Z4.3 </boundaryPoint>)
(<boundaryPoint> X-5.097 Y-2.249 Z4.3 </boundaryPoint>)
(<boundaryPoint> X-4.527 Y-3.0 Z4.3 </boundaryPoint>)
(<boundaryPoint> X-3.808 Y-3.61 Z4.3 </boundaryPoint>)
(<boundaryPoint> X-2.974 Y-4.052 Z4.3 </boundaryPoint>)
(<boundaryPoint> X-2.066 Y-4.304 Z4.3 </boundaryPoint>)
(<boundaryPoint> X-1.124 Y-4.355 Z4.3 </boundaryPoint>)
(<boundaryPoint> X-0.193 Y-4.203 Z4.3 </boundaryPoint>)
(<boundaryPoint> X0.683 Y-3.854 Z4.3 </boundaryPoint>)
(<boundaryPoint> X1.464 Y-3.324 Z4.3 </boundaryPoint>)
(<boundaryPoint> X2.112 Y-2.64 Z4.3 </boundaryPoint>)
(<boundaryPoint> X2.599 Y-1.831 Z4.3 </boundaryPoint>)
(<boundaryPoint> X2.9 Y-0.938 Z4.3 </boundaryPoint>)
(<boundaryPoint> X3.002 Y0.0 Z4.3 </boundaryPoint>)
(<boundaryPoint> X2.9 Y0.938 Z4.3 </boundaryPoint>)
(<loop> outer )
M108 R2.151
G1 X-1.78 Y-3.51 Z4.01 F1808.306
M108 R30.0
M101
G1 X-2.12 Y-3.68 Z4.3 F1808.306
M108 R2.151
G1 X-1.97 Y-3.72 Z4.3 F1084.984
G1 X-1.76 Y-3.73 Z4.3 F1084.984
G1 X-1.16 Y-3.76 Z4.3 F1084.984
G1 X-0.35 Y-3.63 Z4.3 F1084.984
G1 X0.41 Y-3.33 Z4.3 F1084.984
G1 X1.08 Y-2.87 Z4.3 F1084.984
G1 X1.64 Y-2.28 Z4.3 F1084.984
G1 X2.06 Y-1.58 Z4.3 F1084.984
G1 X2.32 Y-0.81 Z4.3 F1084.984
G1 X2.41 Y0.0 Z4.3 F1084.984
G1 X2.32 Y0.81 Z4.3 F1084.984
G1 X2.06 Y1.58 Z4.3 F1084.984
G1 X1.64 Y2.28 Z4.3 F1084.984
G1 X1.08 Y2.87 Z4.3 F1084.984
G1 X0.41 Y3.33 Z4.3 F1084.984
G1 X-0.35 Y3.63 Z4.3 F1084.984
G1 X-1.16 Y3.76 Z4.3 F1084.984
G1 X-1.97 Y3.72 Z4.3 F1084.984
G1 X-2.76 Y3.5 Z4.3 F1084.984
G1 X-3.48 Y3.12 Z4.3 F1084.984
G1 X-4.1 Y2.59 Z4.3 F1084.984
G1 X-4.59 Y1.94 Z4.3 F1084.984
G1 X-4.93 Y1.2 Z4.3 F1084.984
G1 X-5.11 Y0.41 Z4.3 F1084.984
G1 X-5.11 Y-0.41 Z4.3 F1084.984
G1 X-4.93 Y-1.2 Z4.3 F1084.984
G1 X-4.59 Y-1.94 Z4.3 F1084.984
G1 X-4.1 Y-2.59 Z4.3 F1084.984
G1 X-3.48 Y-3.12 Z4.3 F1084.984
G1 X-2.76 Y-3.5 Z4.3 F1084.984
G1 X-2.12 Y-3.68 Z4.3 F1084.984
M103
(</loop>)
(<perimeter> outer )
G1 X-2.03 Y-4.11 Z4.3 F1808.306
M101
G1 X-1.78 Y-4.12 Z4.3 F1084.984
G1 X-1.14 Y-4.16 Z4.3 F1084.984
G1 X-0.25 Y-4.01 Z4.3 F1084.984
G1 X0.59 Y-3.68 Z4.3 F1084.984
G1 X1.34 Y-3.17 Z4.3 F1084.984
G1 X1.96 Y-2.52 Z4.3 F1084.984
G1 X2.42 Y-1.75 Z4.3 F1084.984
G1 X2.71 Y-0.9 Z4.3 F1084.984
G1 X2.8 Y-0.0 Z4.3 F1084.984
G1 X2.71 Y0.9 Z4.3 F1084.984
G1 X2.42 Y1.75 Z4.3 F1084.984
G1 X1.96 Y2.52 Z4.3 F1084.984
G1 X1.34 Y3.17 Z4.3 F1084.984
G1 X0.59 Y3.68 Z4.3 F1084.984
G1 X-0.25 Y4.01 Z4.3 F1084.984
G1 X-1.14 Y4.16 Z4.3 F1084.984
G1 X-2.03 Y4.11 Z4.3 F1084.984
G1 X-2.9 Y3.87 Z4.3 F1084.984
G1 X-3.7 Y3.45 Z4.3 F1084.984
G1 X-4.38 Y2.86 Z4.3 F1084.984
G1 X-4.93 Y2.15 Z4.3 F1084.984
G1 X-5.31 Y1.33 Z4.3 F1084.984
G1 X-5.5 Y0.45 Z4.3 F1084.984
G1 X-5.5 Y-0.45 Z4.3 F1084.984
G1 X-5.31 Y-1.33 Z4.3 F1084.984
G1 X-4.93 Y-2.15 Z4.3 F1084.984
G1 X-4.38 Y-2.86 Z4.3 F1084.984
G1 X-3.7 Y-3.45 Z4.3 F1084.984
G1 X-2.9 Y-3.87 Z4.3 F1084.984
G1 X-2.3 Y-4.04 Z4.3 F1084.984
M108 R30.0
M102
G1 X-2.03 Y-4.11 Z4.3 F1084.984
M108 R2.151
M103
(</perimeter>)
(</boundaryPerimeter>)
G1 X1.34 Y-1.88 Z4.3 F1808.306
M108 R30.0
M101
G1 X1.75 Y-1.61 Z4.3 F1808.306
M108 R2.151
G1 X1.75 Y1.61 Z4.3 F1084.984
G1 X1.31 Y2.26 Z4.3 F1084.984
G1 X0.87 Y2.71 Z4.3 F1084.984
G1 X0.44 Y3.0 Z4.3 F1084.984
G1 X-0.44 Y3.39 Z4.3 F1084.984
G1 X-1.31 Y3.5 Z4.3 F1084.984
G1 X-0.98 Y0.96 Z4.3 F1084.984
G1 X1.31 Y-2.26 Z4.3 F1084.984
G1 X0.87 Y-2.71 Z4.3 F1084.984
G1 X0.44 Y-3.0 Z4.3 F1084.984
G1 X-0.44 Y-3.39 Z4.3 F1084.984
G1 X-1.31 Y-3.5 Z4.3 F1084.984
G1 X-1.67 Y-3.05 Z4.3 F1084.984
G1 X-2.18 Y-3.4 Z4.3 F1084.984
G1 X-2.62 Y-3.27 Z4.3 F1084.984
G1 X-3.05 Y-3.05 Z4.3 F1084.984
G1 X-3.16 Y-0.96 Z4.3 F1084.984
G1 X-1.21 Y0.96 Z4.3 F1084.984
G1 X-1.21 Y1.22 Z4.3 F1084.984
G1 X-1.67 Y3.05 Z4.3 F1084.984
G1 X-2.18 Y3.4 Z4.3 F1084.984
G1 X-2.62 Y3.27 Z4.3 F1084.984
G1 X-3.49 Y2.77 Z4.3 F1084.984
G1 X-3.93 Y2.39 Z4.3 F1084.984
G1 X-4.36 Y1.82 Z4.3 F1084.984
G1 X-3.39 Y-0.96 Z4.3 F1084.984
G1 X-3.39 Y-1.22 Z4.3 F1084.984
G1 X-4.36 Y-1.82 Z4.3 F1084.984
G1 X-3.93 Y-2.39 Z4.3 F1084.984
G1 X-3.7 Y-2.59 Z4.3 F1084.984
M108 R30.0
M102
G1 X-3.49 Y-2.77 Z4.3 F1084.984
M108 R2.151
M103
G1 X-4.55 Y-1.03 Z4.3 F1808.306
M108 R30.0
M101
G1 X-4.8 Y-0.62 Z4.3 F1808.306
M108 R2.151
G1 X-4.8 Y0.62 Z4.3 F1084.984
M103
(</surroundingLoop>)
M108 R3.569
(</layer>)
(<layer> 4.62 )
(<surroundingLoop>)
(<boundaryPerimeter>)
(<boundaryPoint> X2.585 Y1.825 Z4.62 </boundaryPoint>)
(<boundaryPoint> X2.1 Y2.631 Z4.62 </boundaryPoint>)
(<boundaryPoint> X1.454 Y3.313 Z4.62 </boundaryPoint>)
(<boundaryPoint> X0.676 Y3.84 Z4.62 </boundaryPoint>)
(<boundaryPoint> X-0.197 Y4.188 Z4.62 </boundaryPoint>)
(<boundaryPoint> X-1.125 Y4.34 Z4.62 </boundaryPoint>)
(<boundaryPoint> X-2.063 Y4.29 Z4.62 </boundaryPoint>)
(<boundaryPoint> X-2.969 Y4.038 Z4.62 </boundaryPoint>)
(<boundaryPoint> X-3.799 Y3.598 Z4.62 </boundaryPoint>)
(<boundaryPoint> X-4.516 Y2.989 Z4.62 </boundaryPoint>)
(<boundaryPoint> X-5.085 Y2.241 Z4.62 </boundaryPoint>)
(<boundaryPoint> X-5.479 Y1.388 Z4.62 </boundaryPoint>)
(<boundaryPoint> X-5.681 Y0.47 Z4.62 </boundaryPoint>)
(<boundaryPoint> X-5.681 Y-0.47 Z4.62 </boundaryPoint>)
(<boundaryPoint> X-5.479 Y-1.388 Z4.62 </boundaryPoint>)
(<boundaryPoint> X-5.085 Y-2.241 Z4.62 </boundaryPoint>)
(<boundaryPoint> X-4.516 Y-2.989 Z4.62 </boundaryPoint>)
(<boundaryPoint> X-3.799 Y-3.598 Z4.62 </boundaryPoint>)
(<boundaryPoint> X-2.969 Y-4.038 Z4.62 </boundaryPoint>)
(<boundaryPoint> X-2.063 Y-4.29 Z4.62 </boundaryPoint>)
(<boundaryPoint> X-1.125 Y-4.34 Z4.62 </boundaryPoint>)
(<boundaryPoint> X-0.197 Y-4.188 Z4.62 </boundaryPoint>)
(<boundaryPoint> X0.676 Y-3.84 Z4.62 </boundaryPoint>)
(<boundaryPoint> X1.454 Y-3.313 Z4.62 </boundaryPoint>)
(<boundaryPoint> X2.1 Y-2.631 Z4.62 </boundaryPoint>)
(<boundaryPoint> X2.585 Y-1.825 Z4.62 </boundaryPoint>)
(<boundaryPoint> X2.885 Y-0.934 Z4.62 </boundaryPoint>)
(<boundaryPoint> X2.987 Y-0.0 Z4.62 </boundaryPoint>)
(<boundaryPoint> X2.885 Y0.934 Z4.62 </boundaryPoint>)
(<loop> outer )
M108 R2.153
G1 X-5.06 Y0.55 Z4.62 F1810.068
M101
G1 X-5.09 Y0.41 Z4.62 F1086.041
G1 X-5.09 Y-0.41 Z4.62 F1086.041
G1 X-4.92 Y-1.2 Z4.62 F1086.041
G1 X-4.58 Y-1.94 Z4.62 F1086.041
G1 X-4.09 Y-2.58 Z4.62 F1086.041
G1 X-3.47 Y-3.11 Z4.62 F1086.041
G1 X-2.75 Y-3.49 Z4.62 F1086.041
G1 X-1.97 Y-3.71 Z4.62 F1086.041
G1 X-1.16 Y-3.75 Z4.62 F1086.041
G1 X-0.36 Y-3.62 Z4.62 F1086.041
G1 X0.4 Y-3.32 Z4.62 F1086.041
G1 X1.07 Y-2.86 Z4.62 F1086.041
G1 X1.63 Y-2.27 Z4.62 F1086.041
G1 X2.05 Y-1.58 Z4.62 F1086.041
G1 X2.31 Y-0.81 Z4.62 F1086.041
G1 X2.39 Y0.0 Z4.62 F1086.041
G1 X2.31 Y0.81 Z4.62 F1086.041
G1 X2.05 Y1.58 Z4.62 F1086.041
G1 X1.63 Y2.27 Z4.62 F1086.041
G1 X1.07 Y2.86 Z4.62 F1086.041
G1 X0.4 Y3.32 Z4.62 F1086.041
G1 X-0.36 Y3.62 Z4.62 F1086.041
G1 X-1.16 Y3.75 Z4.62 F1086.041
G1 X-1.97 Y3.71 Z4.62 F1086.041
G1 X-2.75 Y3.49 Z4.62 F1086.041
G1 X-3.47 Y3.11 Z4.62 F1086.041
G1 X-4.09 Y2.58 Z4.62 F1086.041
G1 X-4.58 Y1.94 Z4.62 F1086.041
G1 X-4.92 Y1.2 Z4.62 F1086.041
G1 X-5.03 Y0.67 Z4.62 F1086.041
G1 X-5.06 Y0.55 Z4.62 F1086.041
M103
(</loop>)
(<perimeter> outer )
G1 X-5.42 Y0.75 Z4.62 F1810.068
M101
G1 X-5.49 Y0.45 Z4.62 F1086.041
G1 X-5.49 Y-0.45 Z4.62 F1086.041
G1 X-5.29 Y-1.33 Z4.62 F1086.041
G1 X-4.92 Y-2.14 Z4.62 F1086.041
G1 X-4.37 Y-2.85 Z4.62 F1086.041
G1 X-3.69 Y-3.43 Z4.62 F1086.041
G1 X-2.9 Y-3.85 Z4.62 F1086.041
G1 X-2.03 Y-4.1 Z4.62 F1086.041
G1 X-1.14 Y-4.14 Z4.62 F1086.041
G1 X-0.25 Y-4.0 Z4.62 F1086.041
G1 X0.58 Y-3.67 Z4.62 F1086.041
G1 X1.33 Y-3.16 Z4.62 F1086.041
G1 X1.94 Y-2.51 Z4.62 F1086.041
G1 X2.41 Y-1.74 Z4.62 F1086.041
G1 X2.69 Y-0.89 Z4.62 F1086.041
G1 X2.79 Y-0.0 Z4.62 F1086.041
G1 X2.69 Y0.89 Z4.62 F1086.041
G1 X2.41 Y1.74 Z4.62 F1086.041
G1 X1.94 Y2.51 Z4.62 F1086.041
G1 X1.33 Y3.16 Z4.62 F1086.041
G1 X0.58 Y3.67 Z4.62 F1086.041
G1 X-0.25 Y4.0 Z4.62 F1086.041
G1 X-1.14 Y4.14 Z4.62 F1086.041
G1 X-2.03 Y4.1 Z4.62 F1086.041
G1 X-2.9 Y3.85 Z4.62 F1086.041
G1 X-3.69 Y3.43 Z4.62 F1086.041
G1 X-4.37 Y2.85 Z4.62 F1086.041
G1 X-4.92 Y2.14 Z4.62 F1086.041
G1 X-5.29 Y1.33 Z4.62 F1086.041
G1 X-5.36 Y1.02 Z4.62 F1086.041
M108 R30.0
M102
G1 X-5.42 Y0.75 Z4.62 F1086.041
M108 R2.153
M103
(</perimeter>)
(</boundaryPerimeter>)
G1 X-1.57 Y3.23 Z4.62 F1810.068
M108 R30.0
M101
G1 X-1.17 Y3.49 Z4.62 F1810.068
M108 R2.153
G1 X-3.02 Y3.05 Z4.62 F1086.041
G1 X-3.65 Y2.62 Z4.62 F1086.041
G1 X-4.07 Y2.18 Z4.62 F1086.041
G1 X-3.99 Y1.56 Z4.62 F1086.041
G1 X-4.59 Y1.31 Z4.62 F1086.041
G1 X-4.73 Y0.87 Z4.62 F1086.041
G1 X-4.4 Y0.32 Z4.62 F1086.041
G1 X-1.22 Y1.21 Z4.62 F1086.041
G1 X-0.96 Y1.21 Z4.62 F1086.041
G1 X0.33 Y3.05 Z4.62 F1086.041
G1 X0.95 Y2.62 Z4.62 F1086.041
G1 X1.36 Y2.18 Z4.62 F1086.041
G1 X1.65 Y1.75 Z4.62 F1086.041
G1 X1.87 Y1.31 Z4.62 F1086.041
G1 X1.81 Y1.26 Z4.62 F1086.041
G1 X1.71 Y0.06 Z4.62 F1086.041
G1 X2.01 Y-0.87 Z4.62 F1086.041
G1 X-0.96 Y0.98 Z4.62 F1086.041
G1 X-1.22 Y0.98 Z4.62 F1086.041
G1 X-3.15 Y-0.98 Z4.62 F1086.041
G1 X-3.4 Y-0.98 Z4.62 F1086.041
G1 X-4.4 Y-0.34 Z4.62 F1086.041
G1 X-4.73 Y-0.87 Z4.62 F1086.041
G1 X-4.59 Y-1.31 Z4.62 F1086.041
G1 X-3.99 Y-1.56 Z4.62 F1086.041
G1 X-3.4 Y-1.21 Z4.62 F1086.041
G1 X-3.15 Y-1.21 Z4.62 F1086.041
G1 X-4.07 Y-2.18 Z4.62 F1086.041
G1 X-3.65 Y-2.62 Z4.62 F1086.041
G1 X-3.02 Y-3.05 Z4.62 F1086.041
G1 X0.33 Y-3.05 Z4.62 F1086.041
G1 X0.95 Y-2.62 Z4.62 F1086.041
G1 X1.36 Y-2.18 Z4.62 F1086.041
G1 X1.65 Y-1.75 Z4.62 F1086.041
G1 X1.75 Y-1.55 Z4.62 F1086.041
M108 R30.0
M102
G1 X1.87 Y-1.31 Z4.62 F1086.041
M108 R2.153
M103
G1 X-1.17 Y-3.49 Z4.62 F1810.068
M101
G1 X-1.19 Y-3.49 Z4.62 F1086.041
M103
(</surroundingLoop>)
M108 R3.569
(</layer>)
(<layer> 4.94 )
(<surroundingLoop>)
(<boundaryPerimeter>)
(<boundaryPoint> X2.571 Y1.819 Z4.94 </boundaryPoint>)
(<boundaryPoint> X2.088 Y2.621 Z4.94 </boundaryPoint>)
(<boundaryPoint> X1.444 Y3.302 Z4.94 </boundaryPoint>)
(<boundaryPoint> X0.669 Y3.827 Z4.94 </boundaryPoint>)
(<boundaryPoint> X-0.201 Y4.174 Z4.94 </boundaryPoint>)
(<boundaryPoint> X-1.125 Y4.325 Z4.94 </boundaryPoint>)
(<boundaryPoint> X-2.061 Y4.275 Z4.94 </boundaryPoint>)
(<boundaryPoint> X-2.963 Y4.024 Z4.94 </boundaryPoint>)
(<boundaryPoint> X-3.791 Y3.585 Z4.94 </boundaryPoint>)
(<boundaryPoint> X-4.505 Y2.979 Z4.94 </boundaryPoint>)
(<boundaryPoint> X-5.072 Y2.233 Z4.94 </boundaryPoint>)
(<boundaryPoint> X-5.465 Y1.383 Z4.94 </boundaryPoint>)
(<boundaryPoint> X-5.666 Y0.468 Z4.94 </boundaryPoint>)
(<boundaryPoint> X-5.666 Y-0.468 Z4.94 </boundaryPoint>)
(<boundaryPoint> X-5.465 Y-1.383 Z4.94 </boundaryPoint>)
(<boundaryPoint> X-5.072 Y-2.233 Z4.94 </boundaryPoint>)
(<boundaryPoint> X-4.505 Y-2.979 Z4.94 </boundaryPoint>)
(<boundaryPoint> X-3.791 Y-3.585 Z4.94 </boundaryPoint>)
(<boundaryPoint> X-2.963 Y-4.024 Z4.94 </boundaryPoint>)
(<boundaryPoint> X-2.061 Y-4.275 Z4.94 </boundaryPoint>)
(<boundaryPoint> X-1.125 Y-4.325 Z4.94 </boundaryPoint>)
(<boundaryPoint> X-0.201 Y-4.174 Z4.94 </boundaryPoint>)
(<boundaryPoint> X0.669 Y-3.827 Z4.94 </boundaryPoint>)
(<boundaryPoint> X1.444 Y-3.302 Z4.94 </boundaryPoint>)
(<boundaryPoint> X2.088 Y-2.621 Z4.94 </boundaryPoint>)
(<boundaryPoint> X2.571 Y-1.819 Z4.94 </boundaryPoint>)
(<boundaryPoint> X2.87 Y-0.931 Z4.94 </boundaryPoint>)
(<boundaryPoint> X2.972 Y-0.0 Z4.94 </boundaryPoint>)
(<boundaryPoint> X2.87 Y0.931 Z4.94 </boundaryPoint>)
(<loop> outer )
M108 R2.138
M108 R30.0
M101
G1 X-1.34 Y-3.72 Z4.94 F1580.081
M108 R2.138
G1 X-1.16 Y-3.73 Z4.94 F1078.459
G1 X-0.36 Y-3.6 Z4.94 F1078.459
G1 X0.39 Y-3.3 Z4.94 F1078.459
G1 X1.06 Y-2.85 Z4.94 F1078.459
G1 X1.62 Y-2.26 Z4.94 F1078.459
G1 X2.03 Y-1.57 Z4.94 F1078.459
G1 X2.29 Y-0.8 Z4.94 F1078.459
G1 X2.38 Y0.0 Z4.94 F1078.459
G1 X2.29 Y0.8 Z4.94 F1078.459
G1 X2.03 Y1.57 Z4.94 F1078.459
G1 X1.62 Y2.26 Z4.94 F1078.459
G1 X1.06 Y2.85 Z4.94 F1078.459
G1 X0.39 Y3.3 Z4.94 F1078.459
G1 X-0.36 Y3.6 Z4.94 F1078.459
G1 X-1.16 Y3.73 Z4.94 F1078.459
G1 X-1.97 Y3.69 Z4.94 F1078.459
G1 X-2.74 Y3.47 Z4.94 F1078.459
G1 X-3.46 Y3.09 Z4.94 F1078.459
G1 X-4.08 Y2.57 Z4.94 F1078.459
G1 X-4.56 Y1.93 Z4.94 F1078.459
G1 X-4.9 Y1.19 Z4.94 F1078.459
G1 X-5.08 Y0.4 Z4.94 F1078.459
G1 X-5.08 Y-0.4 Z4.94 F1078.459
G1 X-4.9 Y-1.19 Z4.94 F1078.459
G1 X-4.56 Y-1.93 Z4.94 F1078.459
G1 X-4.08 Y-2.57 Z4.94 F1078.459
G1 X-3.46 Y-3.09 Z4.94 F1078.459
G1 X-2.74 Y-3.47 Z4.94 F1078.459
G1 X-1.97 Y-3.69 Z4.94 F1078.459
G1 X-1.34 Y-3.72 Z4.94 F1078.459
M103
(</loop>)
(<perimeter> outer )
G1 X-1.36 Y-4.12 Z4.94 F1797.432
M101
G1 X-1.14 Y-4.13 Z4.94 F1078.459
G1 X-0.25 Y-3.98 Z4.94 F1078.459
G1 X0.58 Y-3.65 Z4.94 F1078.459
G1 X1.32 Y-3.15 Z4.94 F1078.459
G1 X1.93 Y-2.5 Z4.94 F1078.459
G1 X2.39 Y-1.74 Z4.94 F1078.459
G1 X2.68 Y-0.89 Z4.94 F1078.459
G1 X2.77 Y-0.0 Z4.94 F1078.459
G1 X2.68 Y0.89 Z4.94 F1078.459
G1 X2.39 Y1.74 Z4.94 F1078.459
G1 X1.93 Y2.5 Z4.94 F1078.459
G1 X1.32 Y3.15 Z4.94 F1078.459
G1 X0.58 Y3.65 Z4.94 F1078.459
G1 X-0.25 Y3.98 Z4.94 F1078.459
G1 X-1.14 Y4.13 Z4.94 F1078.459
G1 X-2.03 Y4.08 Z4.94 F1078.459
G1 X-2.89 Y3.84 Z4.94 F1078.459
G1 X-3.68 Y3.42 Z4.94 F1078.459
G1 X-4.36 Y2.84 Z4.94 F1078.459
G1 X-4.9 Y2.13 Z4.94 F1078.459
G1 X-5.28 Y1.32 Z4.94 F1078.459
G1 X-5.47 Y0.45 Z4.94 F1078.459
G1 X-5.47 Y-0.45 Z4.94 F1078.459
G1 X-5.28 Y-1.32 Z4.94 F1078.459
G1 X-4.9 Y-2.13 Z4.94 F1078.459
G1 X-4.36 Y-2.84 Z4.94 F1078.459
G1 X-3.68 Y-3.42 Z4.94 F1078.459
G1 X-2.89 Y-3.84 Z4.94 F1078.459
G1 X-2.03 Y-4.08 Z4.94 F1078.459
G1 X-1.63 Y-4.1 Z4.94 F1078.459
M108 R30.0
M102
G1 X-1.36 Y-4.12 Z4.94 F1078.459
M108 R2.138
M103
(</perimeter>)
(</boundaryPerimeter>)
G1 X1.38 Y-1.86 Z4.94 F1797.432
M108 R30.0
M101
G1 X1.75 Y-1.55 Z4.94 F1797.432
M108 R2.138
G1 X1.75 Y1.55 Z4.94 F1078.459
G1 X1.31 Y2.22 Z4.94 F1078.459
G1 X0.87 Y2.67 Z4.94 F1078.459
G1 X0.44 Y2.96 Z4.94 F1078.459
G1 X-0.44 Y3.36 Z4.94 F1078.459
G1 X-0.87 Y3.43 Z4.94 F1078.459
G1 X-0.98 Y0.96 Z4.94 F1078.459
G1 X1.31 Y-2.22 Z4.94 F1078.459
G1 X0.87 Y-2.67 Z4.94 F1078.459
G1 X-0.0 Y-3.19 Z4.94 F1078.459
G1 X-0.51 Y-2.93 Z4.94 F1078.459
G1 X-0.87 Y-3.43 Z4.94 F1078.459
G1 X-1.29 Y-3.03 Z4.94 F1078.459
G1 X-1.75 Y-3.45 Z4.94 F1078.459
G1 X-2.18 Y-3.37 Z4.94 F1078.459
G1 X-2.5 Y-2.82 Z4.94 F1078.459
G1 X-3.05 Y-3.02 Z4.94 F1078.459
G1 X-3.16 Y-0.96 Z4.94 F1078.459
G1 X-1.21 Y0.96 Z4.94 F1078.459
G1 X-1.29 Y3.03 Z4.94 F1078.459
G1 X-1.75 Y3.45 Z4.94 F1078.459
G1 X-2.18 Y3.37 Z4.94 F1078.459
G1 X-2.5 Y2.82 Z4.94 F1078.459
G1 X-3.05 Y3.02 Z4.94 F1078.459
G1 X-3.49 Y2.73 Z4.94 F1078.459
G1 X-3.93 Y2.34 Z4.94 F1078.459
G1 X-4.36 Y1.75 Z4.94 F1078.459
G1 X-3.39 Y-0.96 Z4.94 F1078.459
G1 X-3.39 Y-1.22 Z4.94 F1078.459
G1 X-4.36 Y-1.75 Z4.94 F1078.459
G1 X-3.93 Y-2.34 Z4.94 F1078.459
G1 X-3.69 Y-2.55 Z4.94 F1078.459
M108 R30.0
M102
G1 X-3.49 Y-2.73 Z4.94 F1078.459
M108 R2.138
M103
G1 X-4.8 Y-0.48 Z4.94 F1797.432
M101
G1 X-4.8 Y0.48 Z4.94 F1078.459
M103
(</surroundingLoop>)
M108 R3.569
(</layer>)
(<layer> 5.26 )
(<surroundingLoop>)
(<boundaryPerimeter>)
(<boundaryPoint> X2.558 Y1.813 Z5.26 </boundaryPoint>)
(<boundaryPoint> X2.077 Y2.612 Z5.26 </boundaryPoint>)
(<boundaryPoint> X1.435 Y3.29 Z5.26 </boundaryPoint>)
(<boundaryPoint> X0.662 Y3.814 Z5.26 </boundaryPoint>)
(<boundaryPoint> X-0.205 Y4.159 Z5.26 </boundaryPoint>)
(<boundaryPoint> X-1.126 Y4.31 Z5.26 </boundaryPoint>)
(<boundaryPoint> X-2.058 Y4.26 Z5.26 </boundaryPoint>)
(<boundaryPoint> X-2.958 Y4.01 Z5.26 </boundaryPoint>)
(<boundaryPoint> X-3.783 Y3.573 Z5.26 </boundaryPoint>)
(<boundaryPoint> X-4.494 Y2.969 Z5.26 </boundaryPoint>)
(<boundaryPoint> X-5.059 Y2.226 Z5.26 </boundaryPoint>)
(<boundaryPoint> X-5.451 Y1.378 Z5.26 </boundaryPoint>)
(<boundaryPoint> X-5.651 Y0.467 Z5.26 </boundaryPoint>)
(<boundaryPoint> X-5.651 Y-0.467 Z5.26 </boundaryPoint>)
(<boundaryPoint> X-5.451 Y-1.378 Z5.26 </boundaryPoint>)
(<boundaryPoint> X-5.059 Y-2.226 Z5.26 </boundaryPoint>)
(<boundaryPoint> X-4.494 Y-2.969 Z5.26 </boundaryPoint>)
(<boundaryPoint> X-3.783 Y-3.573 Z5.26 </boundaryPoint>)
(<boundaryPoint> X-2.958 Y-4.01 Z5.26 </boundaryPoint>)
(<boundaryPoint> X-2.058 Y-4.26 Z5.26 </boundaryPoint>)
(<boundaryPoint> X-1.126 Y-4.31 Z5.26 </boundaryPoint>)
(<boundaryPoint> X-0.205 Y-4.159 Z5.26 </boundaryPoint>)
(<boundaryPoint> X0.662 Y-3.814 Z5.26 </boundaryPoint>)
(<boundaryPoint> X1.435 Y-3.29 Z5.26 </boundaryPoint>)
(<boundaryPoint> X2.077 Y-2.612 Z5.26 </boundaryPoint>)
(<boundaryPoint> X2.558 Y-1.813 Z5.26 </boundaryPoint>)
(<boundaryPoint> X2.856 Y-0.928 Z5.26 </boundaryPoint>)
(<boundaryPoint> X2.957 Y0.0 Z5.26 </boundaryPoint>)
(<boundaryPoint> X2.856 Y0.928 Z5.26 </boundaryPoint>)
(<loop> outer )
M108 R30.0
M101
G1 X-5.06 Y0.1 Z5.26 F2098.57
M108 R3.569
G1 X-5.06 Y-0.4 Z5.26 F1800.0
G1 X-4.89 Y-1.19 Z5.26 F1800.0
G1 X-4.55 Y-1.92 Z5.26 F1800.0
G1 X-4.06 Y-2.56 Z5.26 F1800.0
G1 X-3.45 Y-3.08 Z5.26 F1800.0
G1 X-2.74 Y-3.46 Z5.26 F1800.0
G1 X-1.96 Y-3.68 Z5.26 F1800.0
G1 X-1.16 Y-3.72 Z5.26 F1800.0
G1 X-0.36 Y-3.59 Z5.26 F1800.0
G1 X0.38 Y-3.29 Z5.26 F1800.0
G1 X1.05 Y-2.84 Z5.26 F1800.0
G1 X1.61 Y-2.25 Z5.26 F1800.0
G1 X2.02 Y-1.56 Z5.26 F1800.0
G1 X2.28 Y-0.8 Z5.26 F1800.0
G1 X2.36 Y0.0 Z5.26 F1800.0
G1 X2.28 Y0.8 Z5.26 F1800.0
G1 X2.02 Y1.56 Z5.26 F1800.0
G1 X1.61 Y2.25 Z5.26 F1800.0
G1 X1.05 Y2.84 Z5.26 F1800.0
G1 X0.38 Y3.29 Z5.26 F1800.0
G1 X-0.36 Y3.59 Z5.26 F1800.0
G1 X-1.16 Y3.72 Z5.26 F1800.0
G1 X-1.96 Y3.68 Z5.26 F1800.0
G1 X-2.74 Y3.46 Z5.26 F1800.0
G1 X-3.45 Y3.08 Z5.26 F1800.0
G1 X-4.06 Y2.56 Z5.26 F1800.0
G1 X-4.55 Y1.92 Z5.26 F1800.0
G1 X-4.89 Y1.19 Z5.26 F1800.0
G1 X-5.06 Y0.4 Z5.26 F1800.0
G1 X-5.06 Y0.1 Z5.26 F1800.0
M103
(</loop>)
(<perimeter> outer )
G1 X-5.46 Y0.1 Z5.26 F3000.0
M101
G1 X-5.46 Y-0.45 Z5.26 F1800.0
G1 X-5.26 Y-1.32 Z5.26 F1800.0
G1 X-4.89 Y-2.12 Z5.26 F1800.0
G1 X-4.35 Y-2.83 Z5.26 F1800.0
G1 X-3.67 Y-3.41 Z5.26 F1800.0
G1 X-2.89 Y-3.83 Z5.26 F1800.0
G1 X-2.03 Y-4.07 Z5.26 F1800.0
G1 X-1.14 Y-4.11 Z5.26 F1800.0
G1 X-0.26 Y-3.97 Z5.26 F1800.0
G1 X0.57 Y-3.64 Z5.26 F1800.0
G1 X1.31 Y-3.14 Z5.26 F1800.0
G1 X1.92 Y-2.49 Z5.26 F1800.0
G1 X2.38 Y-1.73 Z5.26 F1800.0
G1 X2.66 Y-0.89 Z5.26 F1800.0
G1 X2.76 Y0.0 Z5.26 F1800.0
G1 X2.66 Y0.89 Z5.26 F1800.0
G1 X2.38 Y1.73 Z5.26 F1800.0
G1 X1.92 Y2.49 Z5.26 F1800.0
G1 X1.31 Y3.14 Z5.26 F1800.0
G1 X0.57 Y3.64 Z5.26 F1800.0
G1 X-0.26 Y3.97 Z5.26 F1800.0
G1 X-1.14 Y4.11 Z5.26 F1800.0
G1 X-2.03 Y4.07 Z5.26 F1800.0
G1 X-2.89 Y3.83 Z5.26 F1800.0
G1 X-3.67 Y3.41 Z5.26 F1800.0
G1 X-4.35 Y2.83 Z5.26 F1800.0
G1 X-4.89 Y2.12 Z5.26 F1800.0
G1 X-5.26 Y1.32 Z5.26 F1800.0
G1 X-5.43 Y0.55 Z5.26 F1800.0
M108 R30.0
M102
G1 X-5.46 Y0.45 Z5.26 F1800.0
G1 X-5.46 Y0.1 Z5.26 F1800.0
M108 R3.569
M103
(</perimeter>)
(</boundaryPerimeter>)
G1 X1.09 Y1.06 Z5.26 F3000.0
M108 R30.0
M101
G1 X1.88 Y1.18 Z5.26 F3000.0
M108 R3.569
G1 X-4.61 Y1.18 Z5.26 F1800.0
G1 X-4.72 Y0.79 Z5.26 F1800.0
G1 X2.01 Y0.79 Z5.26 F1800.0
G1 X2.07 Y0.39 Z5.26 F1800.0
G1 X-4.35 Y0.39 Z5.26 F1800.0
M108 R30.0
M102
G1 X-4.8 Y0.39 Z5.26 F1800.0
M108 R3.569
M103
G1 X-3.85 Y2.06 Z5.26 F3000.0
M108 R30.0
M101
G1 X-3.45 Y2.75 Z5.26 F3000.0
M108 R3.569
G1 X0.73 Y2.75 Z5.26 F1800.0
G1 X1.16 Y2.36 Z5.26 F1800.0
G1 X-3.9 Y2.36 Z5.26 F1800.0
G1 X-4.2 Y1.96 Z5.26 F1800.0
G1 X1.48 Y1.96 Z5.26 F1800.0
G1 X1.72 Y1.57 Z5.26 F1800.0
G1 X-3.98 Y1.57 Z5.26 F1800.0
M108 R30.0
M102
G1 X-4.43 Y1.57 Z5.26 F1800.0
M108 R3.569
M103
G1 X-0.69 Y2.88 Z5.26 F3000.0
M108 R30.0
M101
G1 X0.07 Y3.14 Z5.26 F3000.0
M108 R3.569
G1 X-2.34 Y3.14 Z5.26 F1800.0
M108 R30.0
M102
G1 X-2.79 Y3.14 Z5.26 F1800.0
M108 R3.569
M103
G1 X1.43 Y0.43 Z5.26 F3000.0
M108 R30.0
M101
G1 X2.11 Y-0.0 Z5.26 F3000.0
M108 R3.569
G1 X-4.81 Y0.0 Z5.26 F1800.0
G1 X-4.8 Y-0.39 Z5.26 F1800.0
G1 X2.07 Y-0.39 Z5.26 F1800.0
G1 X2.01 Y-0.79 Z5.26 F1800.0
G1 X-4.72 Y-0.79 Z5.26 F1800.0
G1 X-4.61 Y-1.18 Z5.26 F1800.0
G1 X1.88 Y-1.18 Z5.26 F1800.0
G1 X1.72 Y-1.57 Z5.26 F1800.0
G1 X-4.43 Y-1.57 Z5.26 F1800.0
G1 X-4.2 Y-1.96 Z5.26 F1800.0
G1 X1.48 Y-1.96 Z5.26 F1800.0
G1 X1.16 Y-2.36 Z5.26 F1800.0
G1 X-3.9 Y-2.36 Z5.26 F1800.0
G1 X-3.45 Y-2.75 Z5.26 F1800.0
G1 X0.73 Y-2.75 Z5.26 F1800.0
G1 X0.07 Y-3.14 Z5.26 F1800.0
G1 X-2.79 Y-3.14 Z5.26 F1800.0
M103
(</surroundingLoop>)
(</layer>)
(<layer> 5.58 )
(<surroundingLoop>)
(<boundaryPerimeter>)
(<boundaryPoint> X2.544 Y1.806 Z5.58 </boundaryPoint>)
(<boundaryPoint> X2.065 Y2.603 Z5.58 </boundaryPoint>)
(<boundaryPoint> X1.425 Y3.279 Z5.58 </boundaryPoint>)
(<boundaryPoint> X0.655 Y3.801 Z5.58 </boundaryPoint>)
(<boundaryPoint> X-0.209 Y4.145 Z5.58 </boundaryPoint>)
(<boundaryPoint> X-1.127 Y4.295 Z5.58 </boundaryPoint>)
(<boundaryPoint> X-2.056 Y4.245 Z5.58 </boundaryPoint>)
(<boundaryPoint> X-2.952 Y3.996 Z5.58 </boundaryPoint>)
(<boundaryPoint> X-3.774 Y3.56 Z5.58 </boundaryPoint>)
(<boundaryPoint> X-4.483 Y2.958 Z5.58 </boundaryPoint>)
(<boundaryPoint> X-5.046 Y2.218 Z5.58 </boundaryPoint>)
(<boundaryPoint> X-5.437 Y1.374 Z5.58 </boundaryPoint>)
(<boundaryPoint> X-5.637 Y0.465 Z5.58 </boundaryPoint>)
(<boundaryPoint> X-5.637 Y-0.465 Z5.58 </boundaryPoint>)
(<boundaryPoint> X-5.437 Y-1.374 Z5.58 </boundaryPoint>)
(<boundaryPoint> X-5.046 Y-2.218 Z5.58 </boundaryPoint>)
(<boundaryPoint> X-4.483 Y-2.958 Z5.58 </boundaryPoint>)
(<boundaryPoint> X-3.774 Y-3.56 Z5.58 </boundaryPoint>)
(<boundaryPoint> X-2.952 Y-3.996 Z5.58 </boundaryPoint>)
(<boundaryPoint> X-2.056 Y-4.245 Z5.58 </boundaryPoint>)
(<boundaryPoint> X-1.127 Y-4.295 Z5.58 </boundaryPoint>)
(<boundaryPoint> X-0.209 Y-4.145 Z5.58 </boundaryPoint>)
(<boundaryPoint> X0.655 Y-3.801 Z5.58 </boundaryPoint>)
(<boundaryPoint> X1.425 Y-3.279 Z5.58 </boundaryPoint>)
(<boundaryPoint> X2.065 Y-2.603 Z5.58 </boundaryPoint>)
(<boundaryPoint> X2.544 Y-1.806 Z5.58 </boundaryPoint>)
(<boundaryPoint> X2.841 Y-0.925 Z5.58 </boundaryPoint>)
(<boundaryPoint> X2.942 Y-0.0 Z5.58 </boundaryPoint>)
(<boundaryPoint> X2.841 Y0.925 Z5.58 </boundaryPoint>)
(<loop> outer )
G1 X-2.73 Y-3.45 Z5.58 F3000.0
M101
G1 X-1.96 Y-3.66 Z5.58 F1800.0
G1 X-1.16 Y-3.7 Z5.58 F1800.0
G1 X-0.37 Y-3.57 Z5.58 F1800.0
G1 X0.38 Y-3.28 Z5.58 F1800.0
G1 X1.04 Y-2.83 Z5.58 F1800.0
G1 X1.59 Y-2.24 Z5.58 F1800.0
G1 X2.01 Y-1.56 Z5.58 F1800.0
G1 X2.26 Y-0.8 Z5.58 F1800.0
G1 X2.35 Y0.0 Z5.58 F1800.0
G1 X2.26 Y0.8 Z5.58 F1800.0
G1 X2.01 Y1.56 Z5.58 F1800.0
G1 X1.59 Y2.24 Z5.58 F1800.0
G1 X1.04 Y2.83 Z5.58 F1800.0
G1 X0.38 Y3.28 Z5.58 F1800.0
G1 X-0.37 Y3.57 Z5.58 F1800.0
G1 X-1.16 Y3.7 Z5.58 F1800.0
G1 X-1.96 Y3.66 Z5.58 F1800.0
G1 X-2.73 Y3.45 Z5.58 F1800.0
G1 X-3.44 Y3.07 Z5.58 F1800.0
G1 X-4.05 Y2.55 Z5.58 F1800.0
G1 X-4.54 Y1.91 Z5.58 F1800.0
G1 X-4.88 Y1.19 Z5.58 F1800.0
G1 X-5.05 Y0.4 Z5.58 F1800.0
G1 X-5.05 Y-0.4 Z5.58 F1800.0
G1 X-4.88 Y-1.19 Z5.58 F1800.0
G1 X-4.54 Y-1.91 Z5.58 F1800.0
G1 X-4.05 Y-2.55 Z5.58 F1800.0
G1 X-3.44 Y-3.07 Z5.58 F1800.0
G1 X-2.73 Y-3.45 Z5.58 F1800.0
G1 X-2.73 Y-3.45 Z5.58 F1800.0
M103
(</loop>)
(<perimeter> outer )
G1 X-2.88 Y-3.81 Z5.58 F3000.0
M101
G1 X-2.02 Y-4.05 Z5.58 F1800.0
G1 X-1.14 Y-4.1 Z5.58 F1800.0
G1 X-0.26 Y-3.96 Z5.58 F1800.0
G1 X0.56 Y-3.63 Z5.58 F1800.0
G1 X1.3 Y-3.13 Z5.58 F1800.0
G1 X1.91 Y-2.48 Z5.58 F1800.0
G1 X2.37 Y-1.72 Z5.58 F1800.0
G1 X2.65 Y-0.88 Z5.58 F1800.0
G1 X2.74 Y-0.0 Z5.58 F1800.0
G1 X2.65 Y0.88 Z5.58 F1800.0
G1 X2.37 Y1.72 Z5.58 F1800.0
G1 X1.91 Y2.48 Z5.58 F1800.0
G1 X1.3 Y3.13 Z5.58 F1800.0
G1 X0.56 Y3.63 Z5.58 F1800.0
G1 X-0.26 Y3.96 Z5.58 F1800.0
G1 X-1.14 Y4.1 Z5.58 F1800.0
G1 X-2.02 Y4.05 Z5.58 F1800.0
G1 X-2.88 Y3.81 Z5.58 F1800.0
G1 X-3.66 Y3.4 Z5.58 F1800.0
G1 X-4.34 Y2.82 Z5.58 F1800.0
G1 X-4.88 Y2.12 Z5.58 F1800.0
G1 X-5.25 Y1.31 Z5.58 F1800.0
G1 X-5.44 Y0.44 Z5.58 F1800.0
G1 X-5.44 Y-0.44 Z5.58 F1800.0
G1 X-5.25 Y-1.31 Z5.58 F1800.0
G1 X-4.88 Y-2.12 Z5.58 F1800.0
G1 X-4.34 Y-2.82 Z5.58 F1800.0
G1 X-3.66 Y-3.4 Z5.58 F1800.0
G1 X-2.88 Y-3.81 Z5.58 F1800.0
M103
(</perimeter>)
(</boundaryPerimeter>)
G1 X-2.75 Y-3.15 Z5.58 F3000.0
M101
G1 X-2.75 Y3.15 Z5.58 F1800.0
M103
G1 X-2.36 Y3.29 Z5.58 F3000.0
M101
G1 X-2.36 Y-2.84 Z5.58 F1800.0
M108 R30.0
M102
G1 X-2.36 Y-3.29 Z5.58 F1800.0
M108 R3.569
M103
G1 X-4.31 Y0.05 Z5.58 F3000.0
M108 R30.0
M101
G1 X-4.71 Y0.74 Z5.58 F3000.0
M108 R3.569
G1 X-4.71 Y-0.29 Z5.58 F1800.0
M108 R30.0
M102
G1 X-4.71 Y-0.74 Z5.58 F1800.0
M108 R3.569
M103
G1 X-3.46 Y2.2 Z5.58 F3000.0
M108 R30.0
M101
G1 X-3.14 Y2.94 Z5.58 F3000.0
M108 R3.569
G1 X-3.14 Y-2.94 Z5.58 F1800.0
G1 X-3.53 Y-2.66 Z5.58 F1800.0
G1 X-3.53 Y2.66 Z5.58 F1800.0
G1 X-3.93 Y2.29 Z5.58 F1800.0
G1 X-3.93 Y-2.29 Z5.58 F1800.0
G1 X-4.32 Y-1.78 Z5.58 F1800.0
G1 X-4.32 Y1.33 Z5.58 F1800.0
M108 R30.0
M102
G1 X-4.32 Y1.78 Z5.58 F1800.0
M108 R3.569
M103
G1 X-2.26 Y3.01 Z5.58 F3000.0
M108 R30.0
M101
G1 X-1.57 Y3.43 Z5.58 F3000.0
M108 R3.569
G1 X-1.57 Y-3.43 Z5.58 F1800.0
G1 X-1.96 Y-3.39 Z5.58 F1800.0
G1 X-1.96 Y2.94 Z5.58 F1800.0
M108 R30.0
M102
G1 X-1.96 Y3.39 Z5.58 F1800.0
M108 R3.569
M103
G1 X-1.59 Y3.39 Z5.58 F3000.0
M108 R30.0
M101
G1 X-0.79 Y3.38 Z5.58 F3000.0
M108 R3.569
G1 X-0.79 Y-3.38 Z5.58 F1800.0
G1 X-1.18 Y-3.45 Z5.58 F1800.0
G1 X-1.18 Y3.0 Z5.58 F1800.0
M108 R30.0
M102
G1 X-1.18 Y3.45 Z5.58 F1800.0
M108 R3.569
M103
G1 X0.99 Y1.36 Z5.58 F3000.0
M108 R30.0
M101
G1 X1.57 Y0.8 Z5.58 F3000.0
M108 R3.569
G1 X1.57 Y-1.79 Z5.58 F1800.0
G1 X1.18 Y-2.31 Z5.58 F1800.0
G1 X1.18 Y2.31 Z5.58 F1800.0
G1 X0.79 Y2.69 Z5.58 F1800.0
G1 X0.79 Y-2.69 Z5.58 F1800.0
G1 X0.39 Y-2.96 Z5.58 F1800.0
G1 X0.39 Y2.96 Z5.58 F1800.0
G1 X0.0 Y3.15 Z5.58 F1800.0
G1 X-0.0 Y-3.15 Z5.58 F1800.0
G1 X-0.39 Y-3.31 Z5.58 F1800.0
G1 X-0.39 Y2.86 Z5.58 F1800.0
M108 R30.0
M102
G1 X-0.39 Y3.31 Z5.58 F1800.0
M108 R3.569
M103
G1 X1.57 Y-0.19 Z5.58 F3000.0
M108 R30.0
M101
G1 X1.96 Y-0.88 Z5.58 F3000.0
M108 R3.569
G1 X1.96 Y0.88 Z5.58 F1800.0
G1 X1.75 Y1.37 Z5.58 F1800.0
M108 R30.0
M102
G1 X1.57 Y1.79 Z5.58 F1800.0
M108 R3.569
M103
(</surroundingLoop>)
(</layer>)
(</extrusion>)
M104 S0
(<alteration>)
(**** Beginning of end.gcode ****)
(This file is for a MakerBot Thing-O-Matic)
(*** begin settings ****)
(**** end settings ****)
(**** begin move to cooling position ****)
G1 X0.0 F3300.0       (move to cooling position)
G1 X0.0 Y55.0 F3300.0 (move to cooling position)
G162 Z F1000          (home Z axis maximum and begin cooling)
(**** end move to cooling position ****)
(**** begin filament reversal ****)
M108 R1.98
M102 (Extruder on, reverse)
G04 P2000 (Wait t/1000 seconds)
M108 R1.98
M103 (Extruder off)
(**** end filament reversal ****)
M18 (Turn off steppers)
(**** begin eject ****)
(**** end eject ****)
(**** begin cool for safety ****)
M104 S0 T0 (set extruder temperature)
M109 S0 T0 (set heated-build-platform temperature)
(**** end cool for safety ****)
(**** end of end.gcode ****)
(</alteration>)
;M113 S0.0
