(** This GCode was generated by ReplicatorG 0034 **)
(*  using Skeinforge (35)  *)
(*  for a Single headed Thing-O-Matic  *)
(*  on 2012/04/06 22:24:47 (-0400) *)
(**** beginning of start.gcode ****)
(This file is for a MakerBot Thing-O-Matic)
(**** begin initialization commands ****)
G21 (set units to mm)
G90 (set positioning to absolute)
M108 R5.0 (set extruder speed)
M103 (Make sure extruder is off)
M104 S225 T0 (set extruder temperature)
M109 S100 T0 (set heated-build-platform temperature)
(**** end initialization commands ****)
(**** begin homing ****)
G162 Z F1000 (home Z axis maximum)
G92 Z10 (set Z to 0)
G1 Z0 (move z down 10)
G162 Z F150 (home Z axis maximum)
G161 X Y F2500 (home XY axes minimum)
M132 X Y Z A B (Recall stored home offsets for XYZAB axis)
(**** end homing ****)
(**** begin pre-wipe commands ****)
( Some people have had problems with the nozzle hitting )
( bolts or wipers during this pre-extrusion warmup.     )
( If this happens to you, you can change the values for )
( the X and Y positions in the following code.          )
( The goal is to have the toolhead wipe its initial     )
( extrusion near the edge of the platform, [anchor it]  )
( so as not to have it interfere with the print.        )
( This file can be found in:                            )
( replicatorg/skein_engines/skeinforge-##/skeinforge_application/ )
( prefs/<profile name [e.g. Thingomatic-ABP-Mk7]>/alterations )
G1 X25 Y-60 Z10 F3300.0 (move to waiting position)
M6 T0 (wait for toolhead parts, nozzle, HBP, etc., to reach temperature)
G0 X25 Y-57 (Position Nozzle)
G0 Z0.6     (Position Height)
M108 R4.0   (Set Extruder Speed)
M101        (Start Extruder)
G4 P1500    (Create Anchor)
(**** end pre-wipe commands ****)
(**** end of start.gcode ****)
(<creation> skeinforge </creation>)
(<version> 10.11.05 </version>)
(<extruderInitialization>)
(<craftTypeName> extrusion </craftTypeName>)
M105
(<bridgeWidthMultiplier> 1.0 </bridgeWidthMultiplier>)
(<decimalPlacesCarried> 3 </decimalPlacesCarried>)
(<layerThickness> 0.32 </layerThickness>)
(<threadSequenceString> loops perimeter infill </threadSequenceString>)
(<operatingFeedRatePerSecond> 30.0 </operatingFeedRatePerSecond>)
(<operatingFlowRate> 3.56914845556 </operatingFlowRate>)
(<orbitalFeedRatePerSecond> 15.0 </orbitalFeedRatePerSecond>)
(<travelFeedRatePerSecond> 50.0 </travelFeedRatePerSecond>)
(<perimeterWidth> 0.393 </perimeterWidth>)
(<profileName> ABS </profileName>)
(<procedureDone> carve,bottom </procedureDone>)
(<procedureDone> preface </procedureDone>)
(<procedureDone> inset </procedureDone>)
(<procedureDone> fill </procedureDone>)
(<procedureDone> speed </procedureDone>)
(<procedureDone> raft </procedureDone>)
(<procedureDone> jitter </procedureDone>)
(<procedureDone> comb </procedureDone>)
(<procedureDone> cool </procedureDone>)
(<procedureDone> outline </procedureDone>)
(<procedureDone> reversal </procedureDone>)
(<procedureDone> export </procedureDone>)
(</extruderInitialization>)
(<extrusion>)
;M113 S1.0
M108 R3.569
(<layer> 0.46 )
(<surroundingLoop>)
(<boundaryPerimeter>)
(<boundaryPoint> X42.814 Y-39.499 Z0.46 </boundaryPoint>)
(<boundaryPoint> X42.814 Y-37.72 Z0.46 </boundaryPoint>)
(<boundaryPoint> X44.289 Y-37.72 Z0.46 </boundaryPoint>)
(<boundaryPoint> X44.289 Y-3.632 Z0.46 </boundaryPoint>)
(<boundaryPoint> X25.01 Y-3.632 Z0.46 </boundaryPoint>)
(<boundaryPoint> X25.01 Y-20.22 Z0.46 </boundaryPoint>)
(<boundaryPoint> X8.422 Y-20.22 Z0.46 </boundaryPoint>)
(<boundaryPoint> X8.422 Y-37.72 Z0.46 </boundaryPoint>)
(<boundaryPoint> X8.703 Y-37.72 Z0.46 </boundaryPoint>)
(<boundaryPoint> X8.831 Y-37.743 Z0.46 </boundaryPoint>)
(<boundaryPoint> X8.726 Y-38.093 Z0.46 </boundaryPoint>)
(<boundaryPoint> X8.726 Y-39.499 Z0.46 </boundaryPoint>)
(<loop> inner )
M108 R2.141
G1 X6.62 Y2.0 Z0.46 F1080.0
M101
G1 X46.09 Y2.0 Z0.46 F1080.0
G1 X46.09 Y-41.3 Z0.46 F1080.0
G1 X6.62 Y-41.3 Z0.46 F1080.0
G1 X6.62 Y1.73 Z0.46 F1080.0
M108 R30.0
M102
G1 X6.62 Y2.0 Z0.46 F1080.0
M108 R2.141
M103
G1 X12.8 Y-22.36 Z0.46 F3000.0
M108 R30.0
M101
G1 X12.99 Y-23.13 Z0.46 F3000.0
M108 R2.141
G1 X25.6 Y-23.13 Z0.46 F1080.0
G1 X25.6 Y-35.78 Z0.46 F1080.0
G1 X12.9 Y-35.78 Z0.46 F1080.0
G1 X12.9 Y-23.31 Z0.46 F1080.0
M108 R30.0
M102
G1 X12.9 Y-23.13 Z0.46 F1080.0
G1 X12.99 Y-23.13 Z0.46 F1080.0
M108 R2.141
M103
(</loop>)
(<loop> inner )
G1 X15.03 Y-23.45 Z0.46 F3000.0
G1 X25.15 Y-23.58 Z0.46 F3000.0
G1 X25.29 Y-26.61 Z0.46 F3000.0
G1 X30.27 Y-28.12 Z0.46 F3000.0
M108 R30.0
M101
G1 X31.04 Y-28.35 Z0.46 F3000.0
M108 R2.141
G1 X31.58 Y-27.23 Z0.46 F1080.0
G1 X32.55 Y-26.45 Z0.46 F1080.0
G1 X33.76 Y-26.18 Z0.46 F1080.0
G1 X34.97 Y-26.45 Z0.46 F1080.0
G1 X35.94 Y-27.23 Z0.46 F1080.0
G1 X36.48 Y-28.35 Z0.46 F1080.0
G1 X36.48 Y-29.59 Z0.46 F1080.0
G1 X35.94 Y-30.71 Z0.46 F1080.0
G1 X34.97 Y-31.49 Z0.46 F1080.0
G1 X33.76 Y-31.76 Z0.46 F1080.0
G1 X32.55 Y-31.49 Z0.46 F1080.0
G1 X31.58 Y-30.71 Z0.46 F1080.0
G1 X31.04 Y-29.59 Z0.46 F1080.0
G1 X31.04 Y-28.62 Z0.46 F1080.0
M108 R30.0
M102
G1 X31.04 Y-28.35 Z0.46 F1080.0
M108 R2.141
M103
(</loop>)
(<loop> outer )
G1 X26.07 Y-21.46 Z0.46 F3000.0
M108 R30.0
M101
G1 X25.6 Y-20.81 Z0.46 F3000.0
M108 R2.141
G1 X9.01 Y-20.81 Z0.46 F1080.0
G1 X9.01 Y-36.51 Z0.46 F1080.0
G1 X9.08 Y-37.21 Z0.46 F1080.0
G1 X9.53 Y-37.32 Z0.46 F1080.0
G1 X9.32 Y-38.17 Z0.46 F1080.0
G1 X9.32 Y-38.91 Z0.46 F1080.0
G1 X42.23 Y-38.91 Z0.46 F1080.0
G1 X42.23 Y-37.13 Z0.46 F1080.0
G1 X43.7 Y-37.13 Z0.46 F1080.0
G1 X43.7 Y-4.22 Z0.46 F1080.0
G1 X25.6 Y-4.22 Z0.46 F1080.0
G1 X25.6 Y-20.81 Z0.46 F1080.0
M103
(</loop>)
(<perimeter> outer )
G1 X25.21 Y-20.42 Z0.46 F3000.0
M101
G1 X8.62 Y-20.42 Z0.46 F1080.0
G1 X8.62 Y-37.52 Z0.46 F1080.0
G1 X8.73 Y-37.52 Z0.46 F1080.0
G1 X9.07 Y-37.6 Z0.46 F1080.0
G1 X8.92 Y-38.12 Z0.46 F1080.0
G1 X8.92 Y-39.3 Z0.46 F1080.0
G1 X42.62 Y-39.3 Z0.46 F1080.0
G1 X42.62 Y-37.52 Z0.46 F1080.0
G1 X44.09 Y-37.52 Z0.46 F1080.0
G1 X44.09 Y-3.83 Z0.46 F1080.0
G1 X25.21 Y-3.83 Z0.46 F1080.0
G1 X25.21 Y-20.15 Z0.46 F1080.0
M108 R30.0
M102
G1 X25.21 Y-20.42 Z0.46 F1080.0
M108 R2.141
M103
(</perimeter>)
(</boundaryPerimeter>)
(<surroundingLoop>)
(<boundaryPerimeter>)
(<boundaryPoint> X13.489 Y-35.186 Z0.46 </boundaryPoint>)
(<boundaryPoint> X13.489 Y-23.72 Z0.46 </boundaryPoint>)
(<boundaryPoint> X25.01 Y-23.72 Z0.46 </boundaryPoint>)
(<boundaryPoint> X25.01 Y-35.186 Z0.46 </boundaryPoint>)
(<perimeter> inner )
G1 X25.21 Y-22.72 Z0.46 F3000.0
M108 R30.0
M101
G1 X25.21 Y-23.52 Z0.46 F3000.0
M108 R2.141
G1 X25.21 Y-35.38 Z0.46 F1080.0
G1 X13.29 Y-35.38 Z0.46 F1080.0
G1 X13.29 Y-23.52 Z0.46 F1080.0
G1 X24.94 Y-23.52 Z0.46 F1080.0
M108 R30.0
M102
G1 X25.21 Y-23.52 Z0.46 F1080.0
M108 R2.141
M103
(</perimeter>)
(</boundaryPerimeter>)
(</surroundingLoop>)
(<surroundingLoop>)
(<boundaryPerimeter>)
(<boundaryPoint> X33.76 Y-26.782 Z0.46 </boundaryPoint>)
(<boundaryPoint> X34.709 Y-26.999 Z0.46 </boundaryPoint>)
(<boundaryPoint> X35.47 Y-27.606 Z0.46 </boundaryPoint>)
(<boundaryPoint> X35.892 Y-28.483 Z0.46 </boundaryPoint>)
(<boundaryPoint> X35.892 Y-29.456 Z0.46 </boundaryPoint>)
(<boundaryPoint> X35.47 Y-30.333 Z0.46 </boundaryPoint>)
(<boundaryPoint> X34.709 Y-30.94 Z0.46 </boundaryPoint>)
(<boundaryPoint> X33.76 Y-31.157 Z0.46 </boundaryPoint>)
(<boundaryPoint> X32.811 Y-30.94 Z0.46 </boundaryPoint>)
(<boundaryPoint> X32.049 Y-30.333 Z0.46 </boundaryPoint>)
(<boundaryPoint> X31.627 Y-29.456 Z0.46 </boundaryPoint>)
(<boundaryPoint> X31.627 Y-28.483 Z0.46 </boundaryPoint>)
(<boundaryPoint> X32.049 Y-27.606 Z0.46 </boundaryPoint>)
(<boundaryPoint> X32.811 Y-26.999 Z0.46 </boundaryPoint>)
(<perimeter> inner )
G1 X31.2 Y-27.07 Z0.46 F3000.0
M108 R30.0
M101
G1 X31.89 Y-27.48 Z0.46 F3000.0
M108 R2.141
G1 X32.72 Y-26.82 Z0.46 F1080.0
G1 X33.76 Y-26.58 Z0.46 F1080.0
G1 X34.8 Y-26.82 Z0.46 F1080.0
G1 X35.63 Y-27.48 Z0.46 F1080.0
G1 X36.09 Y-28.44 Z0.46 F1080.0
G1 X36.09 Y-29.5 Z0.46 F1080.0
G1 X35.63 Y-30.46 Z0.46 F1080.0
G1 X34.8 Y-31.12 Z0.46 F1080.0
G1 X33.76 Y-31.36 Z0.46 F1080.0
G1 X32.72 Y-31.12 Z0.46 F1080.0
G1 X31.89 Y-30.46 Z0.46 F1080.0
G1 X31.43 Y-29.5 Z0.46 F1080.0
G1 X31.43 Y-28.44 Z0.46 F1080.0
G1 X31.77 Y-27.72 Z0.46 F1080.0
M108 R30.0
M102
G1 X31.89 Y-27.48 Z0.46 F1080.0
M108 R2.141
M103
(</perimeter>)
(</boundaryPerimeter>)
(</surroundingLoop>)
G1 X32.69 Y-26.47 Z0.46 F1800.0
M108 R30.0
M101
G1 X32.99 Y-26.09 Z0.46 F1800.0
M108 R2.141
G1 X32.99 Y-4.48 Z0.46 F1080.0
G1 X32.59 Y-4.48 Z0.46 F1080.0
G1 X32.59 Y-26.18 Z0.46 F1080.0
G1 X32.2 Y-26.41 Z0.46 F1080.0
G1 X32.2 Y-4.48 Z0.46 F1080.0
G1 X31.81 Y-4.48 Z0.46 F1080.0
G1 X31.81 Y-26.72 Z0.46 F1080.0
G1 X31.42 Y-27.03 Z0.46 F1080.0
G1 X31.42 Y-4.48 Z0.46 F1080.0
G1 X31.02 Y-4.48 Z0.46 F1080.0
G1 X31.02 Y-27.52 Z0.46 F1080.0
M108 R30.0
M102
G1 X31.02 Y-27.79 Z0.46 F1080.0
M108 R2.141
M103
G1 X31.02 Y-29.67 Z0.46 F1800.0
M108 R30.0
M101
G1 X31.02 Y-30.15 Z0.46 F1800.0
M108 R2.141
G1 X31.02 Y-38.65 Z0.46 F1080.0
G1 X31.42 Y-38.65 Z0.46 F1080.0
G1 X31.42 Y-30.91 Z0.46 F1080.0
G1 X31.81 Y-31.22 Z0.46 F1080.0
G1 X31.81 Y-38.65 Z0.46 F1080.0
G1 X32.2 Y-38.65 Z0.46 F1080.0
G1 X32.2 Y-31.53 Z0.46 F1080.0
M103
G1 X32.59 Y-31.76 Z0.46 F1800.0
M101
G1 X32.59 Y-38.65 Z0.46 F1080.0
G1 X32.99 Y-38.65 Z0.46 F1080.0
G1 X32.99 Y-31.85 Z0.46 F1080.0
M103
G1 X33.38 Y-31.94 Z0.46 F1800.0
M101
G1 X33.38 Y-38.65 Z0.46 F1080.0
G1 X33.77 Y-38.65 Z0.46 F1080.0
G1 X33.77 Y-32.02 Z0.46 F1080.0
M103
G1 X34.17 Y-31.93 Z0.46 F1800.0
M101
G1 X34.17 Y-38.65 Z0.46 F1080.0
G1 X34.56 Y-38.65 Z0.46 F1080.0
G1 X34.56 Y-31.84 Z0.46 F1080.0
M103
G1 X34.95 Y-31.75 Z0.46 F1800.0
M101
G1 X34.95 Y-38.65 Z0.46 F1080.0
G1 X35.34 Y-38.65 Z0.46 F1080.0
G1 X35.34 Y-31.52 Z0.46 F1080.0
G1 X35.74 Y-31.2 Z0.46 F1080.0
G1 X35.74 Y-38.65 Z0.46 F1080.0
G1 X36.13 Y-38.65 Z0.46 F1080.0
G1 X36.13 Y-30.89 Z0.46 F1080.0
M103
G1 X36.52 Y-30.1 Z0.46 F1800.0
M101
G1 X36.52 Y-38.38 Z0.46 F1080.0
M108 R30.0
M102
G1 X36.52 Y-38.65 Z0.46 F1080.0
M108 R2.141
M103
G1 X42.73 Y-37.0 Z0.46 F1800.0
M108 R30.0
M101
G1 X43.2 Y-36.88 Z0.46 F1800.0
M108 R2.141
G1 X43.2 Y-4.48 Z0.46 F1080.0
G1 X42.8 Y-4.48 Z0.46 F1080.0
G1 X42.8 Y-36.88 Z0.46 F1080.0
G1 X42.41 Y-36.88 Z0.46 F1080.0
G1 X42.41 Y-4.48 Z0.46 F1080.0
G1 X42.02 Y-4.48 Z0.46 F1080.0
G1 X42.02 Y-36.88 Z0.46 F1080.0
G1 X41.68 Y-38.39 Z0.46 F1080.0
M108 R30.0
M102
G1 X41.63 Y-38.65 Z0.46 F1080.0
M108 R2.141
M103
G1 X41.63 Y-37.31 Z0.46 F1800.0
M108 R30.0
M101
G1 X41.63 Y-36.83 Z0.46 F1800.0
M108 R2.141
G1 X41.63 Y-4.48 Z0.46 F1080.0
G1 X41.23 Y-4.48 Z0.46 F1080.0
G1 X41.23 Y-38.65 Z0.46 F1080.0
G1 X40.84 Y-38.65 Z0.46 F1080.0
G1 X40.84 Y-4.48 Z0.46 F1080.0
G1 X40.45 Y-4.48 Z0.46 F1080.0
G1 X40.45 Y-38.65 Z0.46 F1080.0
G1 X40.06 Y-38.65 Z0.46 F1080.0
G1 X40.06 Y-4.48 Z0.46 F1080.0
G1 X39.66 Y-4.48 Z0.46 F1080.0
G1 X39.66 Y-38.65 Z0.46 F1080.0
G1 X39.27 Y-38.65 Z0.46 F1080.0
G1 X39.27 Y-4.48 Z0.46 F1080.0
G1 X38.88 Y-4.48 Z0.46 F1080.0
G1 X38.88 Y-38.65 Z0.46 F1080.0
G1 X38.49 Y-38.65 Z0.46 F1080.0
G1 X38.49 Y-4.48 Z0.46 F1080.0
G1 X38.09 Y-4.48 Z0.46 F1080.0
G1 X38.09 Y-38.65 Z0.46 F1080.0
G1 X37.7 Y-38.65 Z0.46 F1080.0
G1 X37.7 Y-4.48 Z0.46 F1080.0
G1 X37.31 Y-4.48 Z0.46 F1080.0
G1 X37.31 Y-38.65 Z0.46 F1080.0
G1 X36.91 Y-38.65 Z0.46 F1080.0
G1 X36.91 Y-4.48 Z0.46 F1080.0
G1 X36.52 Y-4.48 Z0.46 F1080.0
G1 X36.52 Y-27.84 Z0.46 F1080.0
M103
G1 X36.13 Y-27.05 Z0.46 F1800.0
M101
G1 X36.13 Y-4.48 Z0.46 F1080.0
G1 X35.74 Y-4.48 Z0.46 F1080.0
G1 X35.74 Y-26.74 Z0.46 F1080.0
G1 X35.34 Y-26.42 Z0.46 F1080.0
G1 X35.34 Y-4.48 Z0.46 F1080.0
G1 X34.95 Y-4.48 Z0.46 F1080.0
G1 X34.95 Y-26.19 Z0.46 F1080.0
M103
G1 X34.56 Y-26.1 Z0.46 F1800.0
M101
G1 X34.56 Y-4.48 Z0.46 F1080.0
G1 X34.17 Y-4.48 Z0.46 F1080.0
G1 X34.17 Y-26.01 Z0.46 F1080.0
M103
G1 X33.77 Y-25.92 Z0.46 F1800.0
M101
G1 X33.77 Y-4.48 Z0.46 F1080.0
G1 X33.38 Y-4.48 Z0.46 F1080.0
G1 X33.38 Y-25.73 Z0.46 F1080.0
M108 R30.0
M102
G1 X33.38 Y-26.0 Z0.46 F1080.0
M108 R2.141
M103
G1 X25.93 Y-21.32 Z0.46 F1800.0
M108 R30.0
M101
G1 X25.53 Y-21.07 Z0.46 F1800.0
M108 R2.141
G1 X25.53 Y-22.88 Z0.46 F1080.0
M103
G1 X25.13 Y-22.88 Z0.46 F1800.0
M101
G1 X25.13 Y-21.07 Z0.46 F1080.0
G1 X24.74 Y-21.07 Z0.46 F1080.0
G1 X24.74 Y-22.88 Z0.46 F1080.0
M103
G1 X24.35 Y-22.88 Z0.46 F1800.0
M101
G1 X24.35 Y-21.07 Z0.46 F1080.0
G1 X23.96 Y-21.07 Z0.46 F1080.0
G1 X23.96 Y-22.88 Z0.46 F1080.0
M103
G1 X23.56 Y-22.88 Z0.46 F1800.0
M101
G1 X23.56 Y-21.07 Z0.46 F1080.0
G1 X23.17 Y-21.07 Z0.46 F1080.0
G1 X23.17 Y-22.88 Z0.46 F1080.0
M103
G1 X22.78 Y-22.88 Z0.46 F1800.0
M101
G1 X22.78 Y-21.07 Z0.46 F1080.0
G1 X22.38 Y-21.07 Z0.46 F1080.0
G1 X22.38 Y-22.88 Z0.46 F1080.0
M103
G1 X21.99 Y-22.88 Z0.46 F1800.0
M101
G1 X21.99 Y-21.07 Z0.46 F1080.0
G1 X21.6 Y-21.07 Z0.46 F1080.0
G1 X21.6 Y-22.88 Z0.46 F1080.0
M103
G1 X21.21 Y-22.88 Z0.46 F1800.0
M101
G1 X21.21 Y-21.07 Z0.46 F1080.0
G1 X20.81 Y-21.07 Z0.46 F1080.0
G1 X20.81 Y-22.88 Z0.46 F1080.0
M103
G1 X20.42 Y-22.88 Z0.46 F1800.0
M101
G1 X20.42 Y-21.07 Z0.46 F1080.0
G1 X20.03 Y-21.07 Z0.46 F1080.0
G1 X20.03 Y-22.88 Z0.46 F1080.0
M103
G1 X19.64 Y-22.88 Z0.46 F1800.0
M101
G1 X19.64 Y-21.07 Z0.46 F1080.0
G1 X19.24 Y-21.07 Z0.46 F1080.0
G1 X19.24 Y-22.88 Z0.46 F1080.0
M103
G1 X18.85 Y-22.88 Z0.46 F1800.0
M101
G1 X18.85 Y-21.07 Z0.46 F1080.0
G1 X18.46 Y-21.07 Z0.46 F1080.0
G1 X18.46 Y-22.88 Z0.46 F1080.0
M103
G1 X18.06 Y-22.88 Z0.46 F1800.0
M101
G1 X18.06 Y-21.07 Z0.46 F1080.0
G1 X17.67 Y-21.07 Z0.46 F1080.0
G1 X17.67 Y-22.88 Z0.46 F1080.0
M103
G1 X17.28 Y-22.88 Z0.46 F1800.0
M101
G1 X17.28 Y-21.07 Z0.46 F1080.0
G1 X16.89 Y-21.07 Z0.46 F1080.0
G1 X16.89 Y-22.88 Z0.46 F1080.0
M103
G1 X16.49 Y-22.88 Z0.46 F1800.0
M101
G1 X16.49 Y-21.07 Z0.46 F1080.0
G1 X16.1 Y-21.07 Z0.46 F1080.0
G1 X16.1 Y-22.88 Z0.46 F1080.0
M103
G1 X15.71 Y-22.88 Z0.46 F1800.0
M101
G1 X15.71 Y-21.07 Z0.46 F1080.0
G1 X15.32 Y-21.07 Z0.46 F1080.0
G1 X15.32 Y-22.88 Z0.46 F1080.0
M103
G1 X14.92 Y-22.88 Z0.46 F1800.0
M101
G1 X14.92 Y-21.07 Z0.46 F1080.0
G1 X14.53 Y-21.07 Z0.46 F1080.0
G1 X14.53 Y-22.88 Z0.46 F1080.0
M103
G1 X14.14 Y-22.88 Z0.46 F1800.0
M101
G1 X14.14 Y-21.07 Z0.46 F1080.0
G1 X13.74 Y-21.07 Z0.46 F1080.0
G1 X13.74 Y-22.88 Z0.46 F1080.0
M103
G1 X13.35 Y-22.88 Z0.46 F1800.0
M101
G1 X13.35 Y-21.07 Z0.46 F1080.0
G1 X12.96 Y-21.07 Z0.46 F1080.0
G1 X12.96 Y-22.61 Z0.46 F1080.0
M108 R30.0
M102
G1 X12.96 Y-22.88 Z0.46 F1080.0
M108 R2.141
M103
G1 X12.67 Y-21.53 Z0.46 F1800.0
M108 R30.0
M101
G1 X12.57 Y-21.07 Z0.46 F1800.0
M108 R2.141
G1 X12.57 Y-38.65 Z0.46 F1080.0
G1 X12.17 Y-38.65 Z0.46 F1080.0
G1 X12.17 Y-21.07 Z0.46 F1080.0
G1 X11.78 Y-21.07 Z0.46 F1080.0
G1 X11.78 Y-38.65 Z0.46 F1080.0
G1 X11.39 Y-38.65 Z0.46 F1080.0
G1 X11.39 Y-21.07 Z0.46 F1080.0
G1 X11.0 Y-21.07 Z0.46 F1080.0
G1 X11.0 Y-38.65 Z0.46 F1080.0
G1 X10.6 Y-38.65 Z0.46 F1080.0
G1 X10.6 Y-21.07 Z0.46 F1080.0
G1 X10.21 Y-21.07 Z0.46 F1080.0
G1 X10.21 Y-38.65 Z0.46 F1080.0
G1 X9.82 Y-38.65 Z0.46 F1080.0
G1 X9.82 Y-21.07 Z0.46 F1080.0
G1 X9.43 Y-21.07 Z0.46 F1080.0
G1 X9.43 Y-36.76 Z0.46 F1080.0
M108 R30.0
M102
G1 X9.43 Y-37.03 Z0.46 F1080.0
M108 R2.141
M103
G1 X12.5 Y-36.16 Z0.46 F1800.0
M108 R30.0
M101
G1 X12.96 Y-36.03 Z0.46 F1800.0
M108 R2.141
G1 X12.96 Y-38.65 Z0.46 F1080.0
G1 X13.35 Y-38.65 Z0.46 F1080.0
G1 X13.35 Y-36.03 Z0.46 F1080.0
G1 X13.74 Y-36.03 Z0.46 F1080.0
G1 X13.74 Y-38.65 Z0.46 F1080.0
G1 X14.14 Y-38.65 Z0.46 F1080.0
G1 X14.14 Y-36.03 Z0.46 F1080.0
G1 X14.53 Y-36.03 Z0.46 F1080.0
G1 X14.53 Y-38.65 Z0.46 F1080.0
G1 X14.92 Y-38.65 Z0.46 F1080.0
G1 X14.92 Y-36.03 Z0.46 F1080.0
G1 X15.32 Y-36.03 Z0.46 F1080.0
G1 X15.32 Y-38.65 Z0.46 F1080.0
G1 X15.71 Y-38.65 Z0.46 F1080.0
G1 X15.71 Y-36.03 Z0.46 F1080.0
G1 X16.1 Y-36.03 Z0.46 F1080.0
G1 X16.1 Y-38.65 Z0.46 F1080.0
G1 X16.49 Y-38.65 Z0.46 F1080.0
G1 X16.49 Y-36.03 Z0.46 F1080.0
G1 X16.89 Y-36.03 Z0.46 F1080.0
G1 X16.89 Y-38.65 Z0.46 F1080.0
G1 X17.28 Y-38.65 Z0.46 F1080.0
G1 X17.28 Y-36.03 Z0.46 F1080.0
G1 X17.67 Y-36.03 Z0.46 F1080.0
G1 X17.67 Y-38.65 Z0.46 F1080.0
G1 X18.06 Y-38.65 Z0.46 F1080.0
G1 X18.06 Y-36.03 Z0.46 F1080.0
G1 X18.46 Y-36.03 Z0.46 F1080.0
G1 X18.46 Y-38.65 Z0.46 F1080.0
G1 X18.85 Y-38.65 Z0.46 F1080.0
G1 X18.85 Y-36.03 Z0.46 F1080.0
G1 X19.24 Y-36.03 Z0.46 F1080.0
G1 X19.24 Y-38.65 Z0.46 F1080.0
G1 X19.64 Y-38.65 Z0.46 F1080.0
G1 X19.64 Y-36.03 Z0.46 F1080.0
G1 X20.03 Y-36.03 Z0.46 F1080.0
G1 X20.03 Y-38.65 Z0.46 F1080.0
G1 X20.42 Y-38.65 Z0.46 F1080.0
G1 X20.42 Y-36.03 Z0.46 F1080.0
G1 X20.81 Y-36.03 Z0.46 F1080.0
G1 X20.81 Y-38.65 Z0.46 F1080.0
G1 X21.21 Y-38.65 Z0.46 F1080.0
G1 X21.21 Y-36.03 Z0.46 F1080.0
G1 X21.6 Y-36.03 Z0.46 F1080.0
G1 X21.6 Y-38.65 Z0.46 F1080.0
G1 X21.99 Y-38.65 Z0.46 F1080.0
G1 X21.99 Y-36.03 Z0.46 F1080.0
G1 X22.38 Y-36.03 Z0.46 F1080.0
G1 X22.38 Y-38.65 Z0.46 F1080.0
G1 X22.78 Y-38.65 Z0.46 F1080.0
G1 X22.78 Y-36.03 Z0.46 F1080.0
G1 X23.17 Y-36.03 Z0.46 F1080.0
G1 X23.17 Y-38.65 Z0.46 F1080.0
G1 X23.56 Y-38.65 Z0.46 F1080.0
G1 X23.56 Y-36.03 Z0.46 F1080.0
G1 X23.96 Y-36.03 Z0.46 F1080.0
G1 X23.96 Y-38.65 Z0.46 F1080.0
G1 X24.35 Y-38.65 Z0.46 F1080.0
G1 X24.35 Y-36.03 Z0.46 F1080.0
G1 X24.74 Y-36.03 Z0.46 F1080.0
G1 X24.74 Y-38.65 Z0.46 F1080.0
G1 X25.13 Y-38.65 Z0.46 F1080.0
G1 X25.13 Y-36.03 Z0.46 F1080.0
G1 X25.53 Y-36.03 Z0.46 F1080.0
G1 X25.53 Y-38.38 Z0.46 F1080.0
M108 R30.0
M102
G1 X25.53 Y-38.65 Z0.46 F1080.0
M108 R2.141
M103
G1 X30.15 Y-38.65 Z0.46 F1800.0
M108 R30.0
M101
G1 X30.63 Y-38.65 Z0.46 F1800.0
M108 R2.141
G1 X30.63 Y-4.48 Z0.46 F1080.0
G1 X30.24 Y-4.48 Z0.46 F1080.0
G1 X30.24 Y-38.65 Z0.46 F1080.0
G1 X29.85 Y-38.65 Z0.46 F1080.0
G1 X29.85 Y-4.48 Z0.46 F1080.0
G1 X29.45 Y-4.48 Z0.46 F1080.0
G1 X29.45 Y-38.65 Z0.46 F1080.0
G1 X29.06 Y-38.65 Z0.46 F1080.0
G1 X29.06 Y-4.48 Z0.46 F1080.0
G1 X28.67 Y-4.48 Z0.46 F1080.0
G1 X28.67 Y-38.65 Z0.46 F1080.0
G1 X28.27 Y-38.65 Z0.46 F1080.0
G1 X28.27 Y-4.48 Z0.46 F1080.0
G1 X27.88 Y-4.48 Z0.46 F1080.0
G1 X27.88 Y-38.65 Z0.46 F1080.0
G1 X27.49 Y-38.65 Z0.46 F1080.0
G1 X27.49 Y-4.48 Z0.46 F1080.0
G1 X27.1 Y-4.48 Z0.46 F1080.0
G1 X27.1 Y-38.65 Z0.46 F1080.0
G1 X26.7 Y-38.65 Z0.46 F1080.0
G1 X26.7 Y-4.48 Z0.46 F1080.0
G1 X26.31 Y-4.48 Z0.46 F1080.0
G1 X26.31 Y-38.65 Z0.46 F1080.0
G1 X25.92 Y-38.65 Z0.46 F1080.0
G1 X25.92 Y-4.75 Z0.46 F1080.0
M108 R30.0
M102
G1 X25.92 Y-4.48 Z0.46 F1080.0
M108 R2.141
M103
(</surroundingLoop>)
(</layer>)
(<layer> 0.78 )
(<surroundingLoop>)
(<boundaryPerimeter>)
(<boundaryPoint> X42.814 Y-39.413 Z0.78 </boundaryPoint>)
(<boundaryPoint> X42.814 Y-37.72 Z0.78 </boundaryPoint>)
(<boundaryPoint> X44.203 Y-37.72 Z0.78 </boundaryPoint>)
(<boundaryPoint> X44.203 Y-3.632 Z0.78 </boundaryPoint>)
(<boundaryPoint> X25.01 Y-3.632 Z0.78 </boundaryPoint>)
(<boundaryPoint> X25.01 Y-20.22 Z0.78 </boundaryPoint>)
(<boundaryPoint> X8.422 Y-20.22 Z0.78 </boundaryPoint>)
(<boundaryPoint> X8.422 Y-37.72 Z0.78 </boundaryPoint>)
(<boundaryPoint> X8.808 Y-37.725 Z0.78 </boundaryPoint>)
(<boundaryPoint> X8.726 Y-38.088 Z0.78 </boundaryPoint>)
(<boundaryPoint> X8.726 Y-39.413 Z0.78 </boundaryPoint>)
(<boundaryPoint> X9.28 Y-39.413 Z0.78 </boundaryPoint>)
(<loop> inner )
M108 R3.569
G1 X25.42 Y-22.33 Z0.77 F3000.0
M108 R30.0
M101
G1 X25.39 Y-23.13 Z0.78 F3000.0
M108 R3.569
G1 X25.6 Y-23.13 Z0.78 F1800.0
G1 X25.6 Y-35.78 Z0.78 F1800.0
G1 X12.9 Y-35.78 Z0.78 F1800.0
G1 X12.9 Y-23.13 Z0.78 F1800.0
G1 X24.94 Y-23.13 Z0.78 F1800.0
M108 R30.0
M102
G1 X25.39 Y-23.13 Z0.78 F1800.0
M108 R3.569
M103
(</loop>)
(<loop> inner )
G1 X30.91 Y-26.79 Z0.78 F3000.0
M108 R30.0
M101
G1 X31.58 Y-27.23 Z0.78 F3000.0
M108 R3.569
G1 X32.55 Y-26.45 Z0.78 F1800.0
G1 X33.76 Y-26.18 Z0.78 F1800.0
G1 X34.97 Y-26.45 Z0.78 F1800.0
G1 X35.94 Y-27.23 Z0.78 F1800.0
G1 X36.48 Y-28.35 Z0.78 F1800.0
G1 X36.48 Y-29.59 Z0.78 F1800.0
G1 X35.94 Y-30.71 Z0.78 F1800.0
G1 X34.97 Y-31.49 Z0.78 F1800.0
G1 X33.76 Y-31.76 Z0.78 F1800.0
G1 X32.55 Y-31.49 Z0.78 F1800.0
G1 X31.58 Y-30.71 Z0.78 F1800.0
G1 X31.04 Y-29.59 Z0.78 F1800.0
G1 X31.04 Y-28.35 Z0.78 F1800.0
G1 X31.38 Y-27.64 Z0.78 F1800.0
M108 R30.0
M102
G1 X31.58 Y-27.23 Z0.78 F1800.0
M108 R3.569
M103
(</loop>)
(<loop> outer )
G1 X26.14 Y-21.4 Z0.78 F3000.0
M108 R30.0
M101
G1 X25.6 Y-20.81 Z0.78 F3000.0
M108 R3.569
G1 X9.01 Y-20.81 Z0.78 F1800.0
G1 X9.01 Y-37.18 Z0.78 F1800.0
G1 X9.44 Y-37.24 Z0.78 F1800.0
G1 X9.32 Y-38.14 Z0.78 F1800.0
G1 X9.32 Y-38.82 Z0.78 F1800.0
G1 X42.23 Y-38.82 Z0.78 F1800.0
G1 X42.23 Y-37.13 Z0.78 F1800.0
G1 X43.61 Y-37.13 Z0.78 F1800.0
G1 X43.61 Y-4.22 Z0.78 F1800.0
G1 X25.6 Y-4.22 Z0.78 F1800.0
G1 X25.6 Y-20.81 Z0.78 F1800.0
M103
(</loop>)
(<perimeter> outer )
G1 X25.21 Y-20.42 Z0.78 F3000.0
M101
G1 X8.62 Y-20.42 Z0.78 F1800.0
G1 X8.62 Y-37.52 Z0.78 F1800.0
G1 X8.97 Y-37.52 Z0.78 F1800.0
G1 X9.21 Y-37.72 Z0.78 F1800.0
G1 X8.99 Y-37.92 Z0.78 F1800.0
G1 X8.97 Y-37.92 Z0.78 F1800.0
G1 X8.92 Y-38.11 Z0.78 F1800.0
G1 X8.92 Y-39.22 Z0.78 F1800.0
G1 X42.62 Y-39.22 Z0.78 F1800.0
G1 X42.62 Y-37.52 Z0.78 F1800.0
G1 X44.01 Y-37.52 Z0.78 F1800.0
G1 X44.01 Y-3.83 Z0.78 F1800.0
G1 X25.21 Y-3.83 Z0.78 F1800.0
G1 X25.21 Y-19.97 Z0.78 F1800.0
M108 R30.0
M102
G1 X25.21 Y-20.42 Z0.78 F1800.0
M108 R3.569
M103
(</perimeter>)
(</boundaryPerimeter>)
(<surroundingLoop>)
(<boundaryPerimeter>)
(<boundaryPoint> X13.489 Y-35.186 Z0.78 </boundaryPoint>)
(<boundaryPoint> X13.489 Y-23.72 Z0.78 </boundaryPoint>)
(<boundaryPoint> X25.01 Y-23.72 Z0.78 </boundaryPoint>)
(<boundaryPoint> X25.01 Y-35.186 Z0.78 </boundaryPoint>)
(<perimeter> inner )
G1 X25.21 Y-22.72 Z0.78 F3000.0
M108 R30.0
M101
G1 X25.21 Y-23.52 Z0.78 F3000.0
M108 R3.569
G1 X25.21 Y-35.38 Z0.78 F1800.0
G1 X13.29 Y-35.38 Z0.78 F1800.0
G1 X13.29 Y-23.52 Z0.78 F1800.0
G1 X24.76 Y-23.52 Z0.78 F1800.0
M108 R30.0
M102
G1 X25.21 Y-23.52 Z0.78 F1800.0
M108 R3.569
M103
(</perimeter>)
(</boundaryPerimeter>)
(</surroundingLoop>)
(<surroundingLoop>)
(<boundaryPerimeter>)
(<boundaryPoint> X33.76 Y-26.782 Z0.78 </boundaryPoint>)
(<boundaryPoint> X34.709 Y-26.999 Z0.78 </boundaryPoint>)
(<boundaryPoint> X35.47 Y-27.606 Z0.78 </boundaryPoint>)
(<boundaryPoint> X35.892 Y-28.483 Z0.78 </boundaryPoint>)
(<boundaryPoint> X35.892 Y-29.456 Z0.78 </boundaryPoint>)
(<boundaryPoint> X35.47 Y-30.333 Z0.78 </boundaryPoint>)
(<boundaryPoint> X34.709 Y-30.94 Z0.78 </boundaryPoint>)
(<boundaryPoint> X33.76 Y-31.157 Z0.78 </boundaryPoint>)
(<boundaryPoint> X32.811 Y-30.94 Z0.78 </boundaryPoint>)
(<boundaryPoint> X32.049 Y-30.333 Z0.78 </boundaryPoint>)
(<boundaryPoint> X31.627 Y-29.456 Z0.78 </boundaryPoint>)
(<boundaryPoint> X31.627 Y-28.483 Z0.78 </boundaryPoint>)
(<boundaryPoint> X32.049 Y-27.606 Z0.78 </boundaryPoint>)
(<boundaryPoint> X32.811 Y-26.999 Z0.78 </boundaryPoint>)
(<perimeter> inner )
G1 X31.2 Y-27.07 Z0.78 F3000.0
M108 R30.0
M101
G1 X31.89 Y-27.48 Z0.78 F3000.0
M108 R3.569
G1 X32.72 Y-26.82 Z0.78 F1800.0
G1 X33.76 Y-26.58 Z0.78 F1800.0
G1 X34.8 Y-26.82 Z0.78 F1800.0
G1 X35.63 Y-27.48 Z0.78 F1800.0
G1 X36.09 Y-28.44 Z0.78 F1800.0
G1 X36.09 Y-29.5 Z0.78 F1800.0
G1 X35.63 Y-30.46 Z0.78 F1800.0
G1 X34.8 Y-31.12 Z0.78 F1800.0
G1 X33.76 Y-31.36 Z0.78 F1800.0
G1 X32.72 Y-31.12 Z0.78 F1800.0
G1 X31.89 Y-30.46 Z0.78 F1800.0
G1 X31.43 Y-29.5 Z0.78 F1800.0
G1 X31.43 Y-28.44 Z0.78 F1800.0
G1 X31.7 Y-27.89 Z0.78 F1800.0
M108 R30.0
M102
G1 X31.89 Y-27.48 Z0.78 F1800.0
M108 R3.569
M103
(</perimeter>)
(</boundaryPerimeter>)
(</surroundingLoop>)
G1 X32.04 Y-27.06 Z0.78 F3000.0
M108 R30.0
M101
G1 X32.32 Y-26.31 Z0.78 F3000.0
M108 R3.569
G1 X25.86 Y-26.31 Z0.78 F1800.0
G1 X25.86 Y-26.7 Z0.78 F1800.0
G1 X31.83 Y-26.7 Z0.78 F1800.0
G1 X31.36 Y-27.1 Z0.78 F1800.0
G1 X25.86 Y-27.1 Z0.78 F1800.0
G1 X25.86 Y-27.49 Z0.78 F1800.0
G1 X31.17 Y-27.49 Z0.78 F1800.0
M103
G1 X30.98 Y-27.88 Z0.78 F3000.0
M101
G1 X25.86 Y-27.88 Z0.78 F1800.0
G1 X25.86 Y-28.27 Z0.78 F1800.0
G1 X30.79 Y-28.27 Z0.78 F1800.0
G1 X30.78 Y-28.67 Z0.78 F1800.0
G1 X25.86 Y-28.67 Z0.78 F1800.0
G1 X25.86 Y-29.06 Z0.78 F1800.0
G1 X30.78 Y-29.06 Z0.78 F1800.0
G1 X30.78 Y-29.45 Z0.78 F1800.0
G1 X25.86 Y-29.45 Z0.78 F1800.0
G1 X25.86 Y-29.85 Z0.78 F1800.0
G1 X30.88 Y-29.85 Z0.78 F1800.0
G1 X31.07 Y-30.24 Z0.78 F1800.0
G1 X25.86 Y-30.24 Z0.78 F1800.0
G1 X25.86 Y-30.63 Z0.78 F1800.0
G1 X31.26 Y-30.63 Z0.78 F1800.0
G1 X31.56 Y-31.02 Z0.78 F1800.0
G1 X25.86 Y-31.02 Z0.78 F1800.0
G1 X25.86 Y-31.42 Z0.78 F1800.0
G1 X32.05 Y-31.42 Z0.78 F1800.0
M103
G1 X32.82 Y-31.81 Z0.78 F3000.0
M101
G1 X26.31 Y-31.81 Z0.78 F1800.0
M108 R30.0
M102
G1 X25.86 Y-31.81 Z0.78 F1800.0
M108 R3.569
M103
G1 X25.86 Y-23.97 Z0.78 F3000.0
M108 R30.0
M101
G1 X25.86 Y-23.17 Z0.78 F3000.0
M108 R3.569
G1 X43.36 Y-23.17 Z0.78 F1800.0
G1 X43.36 Y-23.56 Z0.78 F1800.0
G1 X25.86 Y-23.56 Z0.78 F1800.0
G1 X25.86 Y-23.96 Z0.78 F1800.0
G1 X43.36 Y-23.96 Z0.78 F1800.0
G1 X43.36 Y-24.35 Z0.78 F1800.0
G1 X25.86 Y-24.35 Z0.78 F1800.0
G1 X25.86 Y-24.74 Z0.78 F1800.0
G1 X43.36 Y-24.74 Z0.78 F1800.0
G1 X43.36 Y-25.13 Z0.78 F1800.0
G1 X25.86 Y-25.13 Z0.78 F1800.0
G1 X25.86 Y-25.53 Z0.78 F1800.0
G1 X43.36 Y-25.53 Z0.78 F1800.0
G1 X43.36 Y-25.92 Z0.78 F1800.0
G1 X26.31 Y-25.92 Z0.78 F1800.0
M108 R30.0
M102
G1 X25.86 Y-25.92 Z0.78 F1800.0
M108 R3.569
M103
G1 X34.9 Y-26.64 Z0.78 F3000.0
M108 R30.0
M101
G1 X35.69 Y-26.7 Z0.78 F3000.0
M108 R3.569
G1 X43.36 Y-26.7 Z0.78 F1800.0
G1 X43.36 Y-26.31 Z0.78 F1800.0
G1 X35.65 Y-26.31 Z0.78 F1800.0
M108 R30.0
M102
G1 X35.2 Y-26.31 Z0.78 F1800.0
M108 R3.569
M103
G1 X36.34 Y-29.1 Z0.78 F3000.0
M108 R30.0
M101
G1 X36.64 Y-29.85 Z0.78 F3000.0
M108 R3.569
G1 X43.36 Y-29.85 Z0.78 F1800.0
G1 X43.36 Y-29.45 Z0.78 F1800.0
G1 X36.74 Y-29.45 Z0.78 F1800.0
G1 X36.74 Y-29.06 Z0.78 F1800.0
G1 X43.36 Y-29.06 Z0.78 F1800.0
G1 X43.36 Y-28.67 Z0.78 F1800.0
G1 X36.74 Y-28.67 Z0.78 F1800.0
G1 X36.73 Y-28.27 Z0.78 F1800.0
G1 X43.36 Y-28.27 Z0.78 F1800.0
G1 X43.36 Y-27.88 Z0.78 F1800.0
G1 X36.54 Y-27.88 Z0.78 F1800.0
G1 X36.35 Y-27.49 Z0.78 F1800.0
G1 X43.36 Y-27.49 Z0.78 F1800.0
G1 X43.36 Y-27.1 Z0.78 F1800.0
G1 X36.61 Y-27.1 Z0.78 F1800.0
M108 R30.0
M102
G1 X36.16 Y-27.1 Z0.78 F1800.0
M108 R3.569
M103
G1 X36.15 Y-29.52 Z0.78 F3000.0
G1 X35.74 Y-30.66 Z0.78 F3000.0
M108 R30.0
M101
G1 X35.47 Y-31.42 Z0.78 F3000.0
M108 R3.569
G1 X43.36 Y-31.42 Z0.78 F1800.0
G1 X43.36 Y-31.02 Z0.78 F1800.0
G1 X35.96 Y-31.02 Z0.78 F1800.0
G1 X36.26 Y-30.63 Z0.78 F1800.0
G1 X43.36 Y-30.63 Z0.78 F1800.0
G1 X43.36 Y-30.24 Z0.78 F1800.0
G1 X36.9 Y-30.24 Z0.78 F1800.0
M108 R30.0
M102
G1 X36.45 Y-30.24 Z0.78 F1800.0
M108 R3.569
M103
G1 X42.73 Y-35.24 Z0.78 F3000.0
M108 R30.0
M101
G1 X43.36 Y-35.74 Z0.78 F3000.0
M108 R3.569
G1 X25.86 Y-35.74 Z0.78 F1800.0
G1 X25.86 Y-35.34 Z0.78 F1800.0
G1 X43.36 Y-35.34 Z0.78 F1800.0
G1 X43.36 Y-34.95 Z0.78 F1800.0
G1 X25.86 Y-34.95 Z0.78 F1800.0
G1 X25.86 Y-34.56 Z0.78 F1800.0
G1 X43.36 Y-34.56 Z0.78 F1800.0
G1 X43.36 Y-34.17 Z0.78 F1800.0
G1 X25.86 Y-34.17 Z0.78 F1800.0
G1 X25.86 Y-33.77 Z0.78 F1800.0
G1 X43.36 Y-33.77 Z0.78 F1800.0
G1 X43.36 Y-33.38 Z0.78 F1800.0
G1 X25.86 Y-33.38 Z0.78 F1800.0
G1 X25.86 Y-32.99 Z0.78 F1800.0
G1 X43.36 Y-32.99 Z0.78 F1800.0
G1 X43.36 Y-32.59 Z0.78 F1800.0
G1 X25.86 Y-32.59 Z0.78 F1800.0
G1 X25.86 Y-32.2 Z0.78 F1800.0
G1 X43.36 Y-32.2 Z0.78 F1800.0
G1 X43.36 Y-31.81 Z0.78 F1800.0
G1 X35.15 Y-31.81 Z0.78 F1800.0
M108 R30.0
M102
G1 X34.7 Y-31.81 Z0.78 F1800.0
M108 R3.569
M103
G1 X25.29 Y-33.45 Z0.78 F3000.0
G1 X25.15 Y-35.32 Z0.78 F3000.0
G1 X14.81 Y-35.46 Z0.78 F3000.0
G1 X10.06 Y-36.03 Z0.78 F3000.0
M108 R30.0
M101
G1 X9.27 Y-36.13 Z0.78 F3000.0
M108 R3.569
G1 X43.36 Y-36.13 Z0.78 F1800.0
G1 X43.36 Y-36.52 Z0.78 F1800.0
G1 X9.27 Y-36.52 Z0.78 F1800.0
G1 X9.27 Y-36.91 Z0.78 F1800.0
G1 X41.97 Y-36.91 Z0.78 F1800.0
G1 X41.97 Y-37.31 Z0.78 F1800.0
G1 X9.69 Y-37.31 Z0.78 F1800.0
G1 X9.63 Y-37.7 Z0.78 F1800.0
G1 X41.97 Y-37.7 Z0.78 F1800.0
G1 X41.97 Y-38.09 Z0.78 F1800.0
G1 X9.58 Y-38.09 Z0.78 F1800.0
G1 X9.57 Y-38.49 Z0.78 F1800.0
G1 X41.52 Y-38.49 Z0.78 F1800.0
M108 R30.0
M102
G1 X41.97 Y-38.49 Z0.78 F1800.0
M108 R3.569
M103
G1 X43.33 Y-5.51 Z0.78 F3000.0
M108 R30.0
M101
G1 X43.36 Y-4.71 Z0.78 F3000.0
M108 R3.569
G1 X25.86 Y-4.71 Z0.78 F1800.0
G1 X25.86 Y-5.11 Z0.78 F1800.0
G1 X43.36 Y-5.11 Z0.78 F1800.0
G1 X43.36 Y-5.5 Z0.78 F1800.0
G1 X25.86 Y-5.5 Z0.78 F1800.0
G1 X25.86 Y-5.89 Z0.78 F1800.0
G1 X43.36 Y-5.89 Z0.78 F1800.0
G1 X43.36 Y-6.28 Z0.78 F1800.0
G1 X25.86 Y-6.28 Z0.78 F1800.0
G1 X25.86 Y-6.68 Z0.78 F1800.0
G1 X43.36 Y-6.68 Z0.78 F1800.0
G1 X43.36 Y-7.07 Z0.78 F1800.0
G1 X25.86 Y-7.07 Z0.78 F1800.0
G1 X25.86 Y-7.46 Z0.78 F1800.0
G1 X43.36 Y-7.46 Z0.78 F1800.0
G1 X43.36 Y-7.85 Z0.78 F1800.0
G1 X25.86 Y-7.85 Z0.78 F1800.0
G1 X25.86 Y-8.25 Z0.78 F1800.0
G1 X43.36 Y-8.25 Z0.78 F1800.0
G1 X43.36 Y-8.64 Z0.78 F1800.0
G1 X25.86 Y-8.64 Z0.78 F1800.0
G1 X25.86 Y-9.03 Z0.78 F1800.0
G1 X43.36 Y-9.03 Z0.78 F1800.0
G1 X43.36 Y-9.43 Z0.78 F1800.0
G1 X25.86 Y-9.43 Z0.78 F1800.0
G1 X25.86 Y-9.82 Z0.78 F1800.0
G1 X43.36 Y-9.82 Z0.78 F1800.0
G1 X43.36 Y-10.21 Z0.78 F1800.0
G1 X25.86 Y-10.21 Z0.78 F1800.0
G1 X25.86 Y-10.6 Z0.78 F1800.0
G1 X43.36 Y-10.6 Z0.78 F1800.0
G1 X43.36 Y-11.0 Z0.78 F1800.0
G1 X25.86 Y-11.0 Z0.78 F1800.0
G1 X25.86 Y-11.39 Z0.78 F1800.0
G1 X43.36 Y-11.39 Z0.78 F1800.0
G1 X43.36 Y-11.78 Z0.78 F1800.0
G1 X25.86 Y-11.78 Z0.78 F1800.0
G1 X25.86 Y-12.17 Z0.78 F1800.0
G1 X43.36 Y-12.17 Z0.78 F1800.0
G1 X43.36 Y-12.57 Z0.78 F1800.0
G1 X25.86 Y-12.57 Z0.78 F1800.0
G1 X25.86 Y-12.96 Z0.78 F1800.0
G1 X43.36 Y-12.96 Z0.78 F1800.0
G1 X43.36 Y-13.35 Z0.78 F1800.0
G1 X25.86 Y-13.35 Z0.78 F1800.0
G1 X25.86 Y-13.74 Z0.78 F1800.0
G1 X43.36 Y-13.74 Z0.78 F1800.0
G1 X43.36 Y-14.14 Z0.78 F1800.0
G1 X25.86 Y-14.14 Z0.78 F1800.0
G1 X25.86 Y-14.53 Z0.78 F1800.0
G1 X43.36 Y-14.53 Z0.78 F1800.0
G1 X43.36 Y-14.92 Z0.78 F1800.0
G1 X25.86 Y-14.92 Z0.78 F1800.0
G1 X25.86 Y-15.32 Z0.78 F1800.0
G1 X43.36 Y-15.32 Z0.78 F1800.0
G1 X43.36 Y-15.71 Z0.78 F1800.0
G1 X25.86 Y-15.71 Z0.78 F1800.0
G1 X25.86 Y-16.1 Z0.78 F1800.0
G1 X43.36 Y-16.1 Z0.78 F1800.0
G1 X43.36 Y-16.49 Z0.78 F1800.0
G1 X25.86 Y-16.49 Z0.78 F1800.0
G1 X25.86 Y-16.89 Z0.78 F1800.0
G1 X43.36 Y-16.89 Z0.78 F1800.0
G1 X43.36 Y-17.28 Z0.78 F1800.0
G1 X25.86 Y-17.28 Z0.78 F1800.0
G1 X25.86 Y-17.67 Z0.78 F1800.0
G1 X43.36 Y-17.67 Z0.78 F1800.0
G1 X43.36 Y-18.06 Z0.78 F1800.0
G1 X25.86 Y-18.06 Z0.78 F1800.0
G1 X25.86 Y-18.46 Z0.78 F1800.0
G1 X43.36 Y-18.46 Z0.78 F1800.0
G1 X43.36 Y-18.85 Z0.78 F1800.0
G1 X25.86 Y-18.85 Z0.78 F1800.0
G1 X25.86 Y-19.24 Z0.78 F1800.0
G1 X43.36 Y-19.24 Z0.78 F1800.0
G1 X43.36 Y-19.64 Z0.78 F1800.0
G1 X25.86 Y-19.64 Z0.78 F1800.0
G1 X25.86 Y-20.03 Z0.78 F1800.0
G1 X43.36 Y-20.03 Z0.78 F1800.0
G1 X43.36 Y-20.42 Z0.78 F1800.0
G1 X25.86 Y-20.42 Z0.78 F1800.0
G1 X25.86 Y-20.81 Z0.78 F1800.0
G1 X43.36 Y-20.81 Z0.78 F1800.0
G1 X43.36 Y-21.21 Z0.78 F1800.0
G1 X9.27 Y-21.21 Z0.78 F1800.0
G1 X9.27 Y-21.6 Z0.78 F1800.0
G1 X43.36 Y-21.6 Z0.78 F1800.0
G1 X43.36 Y-21.99 Z0.78 F1800.0
G1 X9.27 Y-21.99 Z0.78 F1800.0
G1 X9.27 Y-22.38 Z0.78 F1800.0
G1 X43.36 Y-22.38 Z0.78 F1800.0
G1 X43.36 Y-22.78 Z0.78 F1800.0
G1 X9.27 Y-22.78 Z0.78 F1800.0
G1 X9.27 Y-23.17 Z0.78 F1800.0
G1 X12.64 Y-23.17 Z0.78 F1800.0
G1 X12.64 Y-23.56 Z0.78 F1800.0
G1 X9.27 Y-23.56 Z0.78 F1800.0
G1 X9.27 Y-23.96 Z0.78 F1800.0
G1 X12.64 Y-23.96 Z0.78 F1800.0
G1 X12.64 Y-24.35 Z0.78 F1800.0
G1 X9.27 Y-24.35 Z0.78 F1800.0
G1 X9.27 Y-24.74 Z0.78 F1800.0
G1 X12.64 Y-24.74 Z0.78 F1800.0
G1 X12.64 Y-25.13 Z0.78 F1800.0
G1 X9.27 Y-25.13 Z0.78 F1800.0
G1 X9.27 Y-25.53 Z0.78 F1800.0
G1 X12.64 Y-25.53 Z0.78 F1800.0
G1 X12.64 Y-25.92 Z0.78 F1800.0
G1 X9.27 Y-25.92 Z0.78 F1800.0
G1 X9.27 Y-26.31 Z0.78 F1800.0
G1 X12.64 Y-26.31 Z0.78 F1800.0
G1 X12.64 Y-26.7 Z0.78 F1800.0
G1 X9.27 Y-26.7 Z0.78 F1800.0
G1 X9.27 Y-27.1 Z0.78 F1800.0
G1 X12.64 Y-27.1 Z0.78 F1800.0
G1 X12.64 Y-27.49 Z0.78 F1800.0
G1 X9.27 Y-27.49 Z0.78 F1800.0
G1 X9.27 Y-27.88 Z0.78 F1800.0
G1 X12.64 Y-27.88 Z0.78 F1800.0
G1 X12.64 Y-28.27 Z0.78 F1800.0
G1 X9.27 Y-28.27 Z0.78 F1800.0
G1 X9.27 Y-28.67 Z0.78 F1800.0
G1 X12.64 Y-28.67 Z0.78 F1800.0
G1 X12.64 Y-29.06 Z0.78 F1800.0
G1 X9.27 Y-29.06 Z0.78 F1800.0
G1 X9.27 Y-29.45 Z0.78 F1800.0
G1 X12.64 Y-29.45 Z0.78 F1800.0
G1 X12.64 Y-29.85 Z0.78 F1800.0
G1 X9.27 Y-29.85 Z0.78 F1800.0
G1 X9.27 Y-30.24 Z0.78 F1800.0
G1 X12.64 Y-30.24 Z0.78 F1800.0
G1 X12.64 Y-30.63 Z0.78 F1800.0
G1 X9.27 Y-30.63 Z0.78 F1800.0
G1 X9.27 Y-31.02 Z0.78 F1800.0
G1 X12.64 Y-31.02 Z0.78 F1800.0
G1 X12.64 Y-31.42 Z0.78 F1800.0
G1 X9.27 Y-31.42 Z0.78 F1800.0
G1 X9.27 Y-31.81 Z0.78 F1800.0
G1 X12.64 Y-31.81 Z0.78 F1800.0
G1 X12.64 Y-32.2 Z0.78 F1800.0
G1 X9.27 Y-32.2 Z0.78 F1800.0
G1 X9.27 Y-32.59 Z0.78 F1800.0
G1 X12.64 Y-32.59 Z0.78 F1800.0
G1 X12.64 Y-32.99 Z0.78 F1800.0
G1 X9.27 Y-32.99 Z0.78 F1800.0
G1 X9.27 Y-33.38 Z0.78 F1800.0
G1 X12.64 Y-33.38 Z0.78 F1800.0
G1 X12.64 Y-33.77 Z0.78 F1800.0
G1 X9.27 Y-33.77 Z0.78 F1800.0
G1 X9.27 Y-34.17 Z0.78 F1800.0
G1 X12.64 Y-34.17 Z0.78 F1800.0
G1 X12.64 Y-34.56 Z0.78 F1800.0
G1 X9.27 Y-34.56 Z0.78 F1800.0
G1 X9.27 Y-34.95 Z0.78 F1800.0
G1 X12.64 Y-34.95 Z0.78 F1800.0
G1 X12.64 Y-35.34 Z0.78 F1800.0
G1 X9.27 Y-35.34 Z0.78 F1800.0
G1 X9.27 Y-35.74 Z0.78 F1800.0
G1 X12.64 Y-35.74 Z0.78 F1800.0
M103
(</surroundingLoop>)
(</layer>)
(<operatingLayerEnd> </operatingLayerEnd>)
(<layer> 1.1 )
(<surroundingLoop>)
(<boundaryPerimeter>)
(<boundaryPoint> X42.814 Y-39.327 Z1.1 </boundaryPoint>)
(<boundaryPoint> X42.814 Y-37.72 Z1.1 </boundaryPoint>)
(<boundaryPoint> X44.118 Y-37.72 Z1.1 </boundaryPoint>)
(<boundaryPoint> X44.118 Y-3.632 Z1.1 </boundaryPoint>)
(<boundaryPoint> X25.01 Y-3.632 Z1.1 </boundaryPoint>)
(<boundaryPoint> X25.01 Y-20.22 Z1.1 </boundaryPoint>)
(<boundaryPoint> X8.422 Y-20.22 Z1.1 </boundaryPoint>)
(<boundaryPoint> X8.422 Y-37.72 Z1.1 </boundaryPoint>)
(<boundaryPoint> X9.118 Y-37.72 Z1.1 </boundaryPoint>)
(<boundaryPoint> X9.151 Y-37.738 Z1.1 </boundaryPoint>)
(<boundaryPoint> X9.151 Y-37.702 Z1.1 </boundaryPoint>)
(<boundaryPoint> X8.779 Y-37.72 Z1.1 </boundaryPoint>)
(<boundaryPoint> X8.726 Y-38.077 Z1.1 </boundaryPoint>)
(<boundaryPoint> X8.726 Y-39.327 Z1.1 </boundaryPoint>)
(<loop> inner )
G1 X12.9 Y-35.5 Z1.1 F3000.0
M101
G1 X12.9 Y-23.13 Z1.1 F1800.0
G1 X25.6 Y-23.13 Z1.1 F1800.0
G1 X25.6 Y-35.78 Z1.1 F1800.0
G1 X13.07 Y-35.78 Z1.1 F1800.0
M108 R30.0
M102
G1 X12.9 Y-35.78 Z1.1 F1800.0
G1 X12.9 Y-35.5 Z1.1 F1800.0
M108 R3.569
M103
(</loop>)
(<loop> inner )
G1 X13.21 Y-34.85 Z1.1 F3000.0
G1 X13.35 Y-23.58 Z1.1 F3000.0
G1 X23.54 Y-23.45 Z1.1 F3000.0
G1 X25.61 Y-21.38 Z1.1 F3000.0
M108 R30.0
M101
G1 X26.17 Y-20.81 Z1.1 F3000.0
M108 R3.569
G1 X26.17 Y-5.58 Z1.1 F1800.0
G1 X41.35 Y-5.58 Z1.1 F1800.0
G1 X41.35 Y-20.81 Z1.1 F1800.0
G1 X26.62 Y-20.81 Z1.1 F1800.0
M108 R30.0
M102
G1 X26.17 Y-20.81 Z1.1 F1800.0
M108 R3.569
M103
(</loop>)
(<loop> inner )
G1 X26.17 Y-22.33 Z1.1 F3000.0
M108 R30.0
M101
G1 X26.17 Y-23.13 Z1.1 F3000.0
M108 R3.569
G1 X41.35 Y-23.13 Z1.1 F1800.0
G1 X41.35 Y-35.78 Z1.1 F1800.0
G1 X26.17 Y-35.78 Z1.1 F1800.0
G1 X26.17 Y-23.58 Z1.1 F1800.0
M108 R30.0
M102
G1 X26.17 Y-23.13 Z1.1 F1800.0
M108 R3.569
M103
(</loop>)
(<loop> outer )
G1 X25.79 Y-21.59 Z1.1 F3000.0
M108 R30.0
M101
G1 X25.6 Y-20.81 Z1.1 F3000.0
M108 R3.569
G1 X9.01 Y-20.81 Z1.1 F1800.0
G1 X9.01 Y-37.13 Z1.1 F1800.0
G1 X9.65 Y-37.14 Z1.1 F1800.0
G1 X9.65 Y-38.16 Z1.1 F1800.0
G1 X9.37 Y-38.29 Z1.1 F1800.0
G1 X9.32 Y-38.34 Z1.1 F1800.0
G1 X9.32 Y-38.74 Z1.1 F1800.0
G1 X42.23 Y-38.74 Z1.1 F1800.0
G1 X42.23 Y-37.13 Z1.1 F1800.0
G1 X43.53 Y-37.13 Z1.1 F1800.0
G1 X43.53 Y-4.22 Z1.1 F1800.0
G1 X25.6 Y-4.22 Z1.1 F1800.0
G1 X25.6 Y-20.81 Z1.1 F1800.0
M103
(</loop>)
(<perimeter> outer )
G1 X25.21 Y-20.42 Z1.1 F3000.0
M101
G1 X8.62 Y-20.42 Z1.1 F1800.0
G1 X8.62 Y-37.52 Z1.1 F1800.0
G1 X9.17 Y-37.52 Z1.1 F1800.0
G1 X9.35 Y-37.62 Z1.1 F1800.0
G1 X9.35 Y-37.82 Z1.1 F1800.0
G1 X9.17 Y-37.92 Z1.1 F1800.0
G1 X8.95 Y-37.92 Z1.1 F1800.0
G1 X8.92 Y-38.09 Z1.1 F1800.0
G1 X8.92 Y-39.13 Z1.1 F1800.0
G1 X42.62 Y-39.13 Z1.1 F1800.0
G1 X42.62 Y-37.52 Z1.1 F1800.0
G1 X43.92 Y-37.52 Z1.1 F1800.0
G1 X43.92 Y-3.83 Z1.1 F1800.0
G1 X25.21 Y-3.83 Z1.1 F1800.0
G1 X25.21 Y-19.97 Z1.1 F1800.0
M108 R30.0
M102
G1 X25.21 Y-20.42 Z1.1 F1800.0
M108 R3.569
M103
(</perimeter>)
(</boundaryPerimeter>)
(<surroundingLoop>)
(<boundaryPerimeter>)
(<boundaryPoint> X26.76 Y-20.22 Z1.1 </boundaryPoint>)
(<boundaryPoint> X26.76 Y-6.165 Z1.1 </boundaryPoint>)
(<boundaryPoint> X40.76 Y-6.165 Z1.1 </boundaryPoint>)
(<boundaryPoint> X40.76 Y-20.22 Z1.1 </boundaryPoint>)
(<perimeter> inner )
G1 X25.76 Y-20.42 Z1.1 F3000.0
M108 R30.0
M101
G1 X26.56 Y-20.42 Z1.1 F3000.0
M108 R3.569
G1 X26.56 Y-5.97 Z1.1 F1800.0
G1 X40.96 Y-5.97 Z1.1 F1800.0
G1 X40.96 Y-20.42 Z1.1 F1800.0
G1 X27.01 Y-20.42 Z1.1 F1800.0
M108 R30.0
M102
G1 X26.56 Y-20.42 Z1.1 F1800.0
M108 R3.569
M103
(</perimeter>)
(</boundaryPerimeter>)
(</surroundingLoop>)
(<surroundingLoop>)
(<boundaryPerimeter>)
(<boundaryPoint> X40.76 Y-23.72 Z1.1 </boundaryPoint>)
(<boundaryPoint> X40.76 Y-35.186 Z1.1 </boundaryPoint>)
(<boundaryPoint> X26.76 Y-35.186 Z1.1 </boundaryPoint>)
(<boundaryPoint> X26.76 Y-23.72 Z1.1 </boundaryPoint>)
(<perimeter> inner )
G1 X26.56 Y-22.72 Z1.1 F3000.0
M108 R30.0
M101
G1 X26.56 Y-23.52 Z1.1 F3000.0
M108 R3.569
G1 X40.96 Y-23.52 Z1.1 F1800.0
G1 X40.96 Y-35.38 Z1.1 F1800.0
G1 X26.56 Y-35.38 Z1.1 F1800.0
G1 X26.56 Y-23.97 Z1.1 F1800.0
M108 R30.0
M102
G1 X26.56 Y-23.52 Z1.1 F1800.0
M108 R3.569
M103
(</perimeter>)
(</boundaryPerimeter>)
(</surroundingLoop>)
(<surroundingLoop>)
(<boundaryPerimeter>)
(<boundaryPoint> X13.489 Y-35.186 Z1.1 </boundaryPoint>)
(<boundaryPoint> X13.489 Y-23.72 Z1.1 </boundaryPoint>)
(<boundaryPoint> X25.01 Y-23.72 Z1.1 </boundaryPoint>)
(<boundaryPoint> X25.01 Y-35.186 Z1.1 </boundaryPoint>)
(<perimeter> inner )
G1 X26.01 Y-23.52 Z1.1 F3000.0
M108 R30.0
M101
G1 X25.21 Y-23.52 Z1.1 F3000.0
M108 R3.569
G1 X25.21 Y-35.38 Z1.1 F1800.0
G1 X13.29 Y-35.38 Z1.1 F1800.0
G1 X13.29 Y-23.52 Z1.1 F1800.0
G1 X24.76 Y-23.52 Z1.1 F1800.0
M108 R30.0
M102
G1 X25.21 Y-23.52 Z1.1 F1800.0
M108 R3.569
M103
(</perimeter>)
(</boundaryPerimeter>)
(</surroundingLoop>)
G1 X25.27 Y-21.86 Z1.1 F3000.0
M108 R30.0
M101
G1 X25.31 Y-21.07 Z1.1 F3000.0
M108 R3.569
G1 X27.49 Y-21.07 Z1.1 F1800.0
G1 X27.49 Y-22.44 Z1.1 F1800.0
G1 X27.05 Y-22.88 Z1.1 F1800.0
G1 X26.62 Y-22.44 Z1.1 F1800.0
G1 X26.18 Y-22.88 Z1.1 F1800.0
G1 X25.74 Y-22.88 Z1.1 F1800.0
G1 X25.31 Y-22.44 Z1.1 F1800.0
G1 X24.87 Y-22.44 Z1.1 F1800.0
G1 X24.87 Y-21.07 Z1.1 F1800.0
G1 X23.13 Y-21.07 Z1.1 F1800.0
G1 X24.0 Y-22.44 Z1.1 F1800.0
G1 X23.56 Y-22.88 Z1.1 F1800.0
G1 X22.69 Y-22.44 Z1.1 F1800.0
G1 X22.69 Y-21.07 Z1.1 F1800.0
G1 X20.94 Y-21.07 Z1.1 F1800.0
G1 X21.82 Y-22.44 Z1.1 F1800.0
G1 X21.38 Y-22.88 Z1.1 F1800.0
G1 X20.82 Y-22.57 Z1.1 F1800.0
G1 X20.07 Y-22.44 Z1.1 F1800.0
G1 X20.07 Y-21.5 Z1.1 F1800.0
G1 X20.51 Y-21.07 Z1.1 F1800.0
G1 X18.76 Y-21.07 Z1.1 F1800.0
G1 X19.64 Y-22.44 Z1.1 F1800.0
G1 X19.2 Y-22.88 Z1.1 F1800.0
G1 X18.76 Y-22.44 Z1.1 F1800.0
G1 X18.33 Y-22.44 Z1.1 F1800.0
G1 X18.33 Y-21.5 Z1.1 F1800.0
G1 X17.89 Y-21.07 Z1.1 F1800.0
G1 X16.58 Y-21.07 Z1.1 F1800.0
G1 X17.45 Y-22.44 Z1.1 F1800.0
G1 X17.02 Y-22.88 Z1.1 F1800.0
G1 X16.14 Y-22.44 Z1.1 F1800.0
G1 X16.14 Y-21.07 Z1.1 F1800.0
G1 X14.4 Y-21.07 Z1.1 F1800.0
G1 X15.27 Y-22.44 Z1.1 F1800.0
G1 X14.84 Y-22.88 Z1.1 F1800.0
G1 X13.96 Y-22.44 Z1.1 F1800.0
G1 X13.96 Y-21.07 Z1.1 F1800.0
G1 X11.78 Y-21.07 Z1.1 F1800.0
G1 X13.09 Y-22.44 Z1.1 F1800.0
G1 X12.65 Y-22.88 Z1.1 F1800.0
G1 X10.91 Y-21.07 Z1.1 F1800.0
G1 X10.04 Y-21.07 Z1.1 F1800.0
G1 X9.93 Y-36.13 Z1.1 F1800.0
G1 X11.88 Y-38.05 Z1.1 F1800.0
G1 X11.88 Y-38.31 Z1.1 F1800.0
G1 X11.78 Y-38.48 Z1.1 F1800.0
G1 X10.03 Y-38.48 Z1.1 F1800.0
M108 R30.0
M102
G1 X9.6 Y-38.48 Z1.1 F1800.0
G1 X9.6 Y-38.47 Z1.1 F1800.0
M108 R3.569
M103
G1 X9.6 Y-37.69 Z1.1 F3000.0
M108 R30.0
M101
G1 X9.6 Y-36.89 Z1.1 F3000.0
M108 R3.569
G1 X9.7 Y-36.13 Z1.1 F1800.0
G1 X9.6 Y-21.52 Z1.1 F1800.0
M108 R30.0
M102
G1 X9.6 Y-21.07 Z1.1 F1800.0
M108 R3.569
M103
G1 X13.21 Y-33.19 Z1.1 F3000.0
G1 X13.35 Y-35.32 Z1.1 F3000.0
G1 X13.96 Y-35.43 Z1.1 F3000.0
M108 R30.0
M101
G1 X14.13 Y-35.46 Z1.1 F3000.0
G1 X14.4 Y-36.03 Z1.1 F3000.0
M108 R3.569
G1 X12.65 Y-36.03 Z1.1 F1800.0
G1 X12.11 Y-38.05 Z1.1 F1800.0
G1 X12.11 Y-38.31 Z1.1 F1800.0
G1 X12.22 Y-38.48 Z1.1 F1800.0
G1 X16.14 Y-38.48 Z1.1 F1800.0
G1 X16.25 Y-38.31 Z1.1 F1800.0
G1 X16.25 Y-38.05 Z1.1 F1800.0
G1 X14.84 Y-36.03 Z1.1 F1800.0
G1 X18.33 Y-36.03 Z1.1 F1800.0
G1 X16.48 Y-38.05 Z1.1 F1800.0
G1 X16.48 Y-38.31 Z1.1 F1800.0
G1 X16.58 Y-38.48 Z1.1 F1800.0
G1 X20.51 Y-38.48 Z1.1 F1800.0
G1 X20.61 Y-38.31 Z1.1 F1800.0
G1 X20.61 Y-38.05 Z1.1 F1800.0
G1 X18.76 Y-36.03 Z1.1 F1800.0
G1 X22.69 Y-36.03 Z1.1 F1800.0
G1 X20.84 Y-38.05 Z1.1 F1800.0
G1 X20.84 Y-38.31 Z1.1 F1800.0
G1 X20.94 Y-38.48 Z1.1 F1800.0
G1 X24.87 Y-38.48 Z1.1 F1800.0
G1 X24.97 Y-38.31 Z1.1 F1800.0
G1 X24.97 Y-38.05 Z1.1 F1800.0
G1 X23.13 Y-36.03 Z1.1 F1800.0
G1 X27.05 Y-36.03 Z1.1 F1800.0
G1 X25.2 Y-38.05 Z1.1 F1800.0
G1 X25.2 Y-38.31 Z1.1 F1800.0
G1 X25.31 Y-38.48 Z1.1 F1800.0
G1 X29.23 Y-38.48 Z1.1 F1800.0
G1 X29.34 Y-38.31 Z1.1 F1800.0
G1 X29.34 Y-38.05 Z1.1 F1800.0
G1 X27.49 Y-36.03 Z1.1 F1800.0
G1 X31.42 Y-36.03 Z1.1 F1800.0
G1 X29.57 Y-38.05 Z1.1 F1800.0
G1 X29.57 Y-38.31 Z1.1 F1800.0
G1 X29.67 Y-38.48 Z1.1 F1800.0
G1 X33.6 Y-38.48 Z1.1 F1800.0
G1 X33.7 Y-38.31 Z1.1 F1800.0
G1 X33.7 Y-38.05 Z1.1 F1800.0
G1 X31.85 Y-36.03 Z1.1 F1800.0
G1 X35.78 Y-36.03 Z1.1 F1800.0
G1 X33.93 Y-38.05 Z1.1 F1800.0
G1 X33.93 Y-38.31 Z1.1 F1800.0
G1 X34.03 Y-38.48 Z1.1 F1800.0
G1 X37.96 Y-38.48 Z1.1 F1800.0
G1 X38.06 Y-38.31 Z1.1 F1800.0
G1 X38.06 Y-38.05 Z1.1 F1800.0
G1 X36.22 Y-36.03 Z1.1 F1800.0
G1 X40.14 Y-36.03 Z1.1 F1800.0
G1 X38.29 Y-38.05 Z1.1 F1800.0
G1 X38.29 Y-38.31 Z1.1 F1800.0
G1 X38.4 Y-38.48 Z1.1 F1800.0
G1 X41.89 Y-38.48 Z1.1 F1800.0
G1 X41.45 Y-36.03 Z1.1 F1800.0
G1 X41.03 Y-36.03 Z1.1 F1800.0
M108 R30.0
M102
G1 X40.58 Y-36.03 Z1.1 F1800.0
M108 R3.569
M103
G1 X41.6 Y-36.53 Z1.1 F3000.0
M108 R30.0
M101
G1 X42.32 Y-36.88 Z1.1 F3000.0
M108 R3.569
G1 X43.2 Y-36.88 Z1.1 F1800.0
G1 X43.2 Y-4.48 Z1.1 F1800.0
G1 X41.02 Y-4.48 Z1.1 F1800.0
G1 X41.02 Y-5.32 Z1.1 F1800.0
G1 X40.58 Y-4.91 Z1.1 F1800.0
G1 X40.14 Y-5.32 Z1.1 F1800.0
G1 X40.14 Y-4.48 Z1.1 F1800.0
G1 X38.83 Y-4.48 Z1.1 F1800.0
G1 X38.83 Y-5.32 Z1.1 F1800.0
G1 X38.4 Y-4.91 Z1.1 F1800.0
G1 X37.96 Y-5.32 Z1.1 F1800.0
G1 X37.96 Y-4.48 Z1.1 F1800.0
G1 X36.65 Y-4.48 Z1.1 F1800.0
G1 X36.65 Y-5.32 Z1.1 F1800.0
G1 X36.22 Y-4.88 Z1.1 F1800.0
G1 X36.22 Y-4.48 Z1.1 F1800.0
G1 X34.47 Y-4.48 Z1.1 F1800.0
G1 X34.47 Y-5.32 Z1.1 F1800.0
G1 X34.03 Y-4.88 Z1.1 F1800.0
G1 X34.03 Y-4.48 Z1.1 F1800.0
G1 X32.29 Y-4.48 Z1.1 F1800.0
G1 X32.29 Y-5.32 Z1.1 F1800.0
G1 X31.85 Y-4.91 Z1.1 F1800.0
G1 X31.42 Y-5.32 Z1.1 F1800.0
G1 X31.42 Y-4.48 Z1.1 F1800.0
G1 X30.11 Y-4.48 Z1.1 F1800.0
G1 X30.11 Y-5.32 Z1.1 F1800.0
G1 X29.67 Y-4.91 Z1.1 F1800.0
G1 X29.23 Y-5.32 Z1.1 F1800.0
G1 X29.23 Y-4.48 Z1.1 F1800.0
G1 X27.93 Y-4.48 Z1.1 F1800.0
G1 X27.93 Y-5.32 Z1.1 F1800.0
G1 X27.49 Y-4.91 Z1.1 F1800.0
G1 X27.05 Y-5.32 Z1.1 F1800.0
G1 X27.05 Y-4.48 Z1.1 F1800.0
G1 X26.18 Y-4.48 Z1.1 F1800.0
G1 X26.18 Y-4.87 Z1.1 F1800.0
M108 R30.0
M102
G1 X26.18 Y-5.32 Z1.1 F1800.0
M108 R3.569
M103
G1 X26.89 Y-5.89 Z1.1 F3000.0
G1 X26.62 Y-6.03 Z1.1 F3000.0
G1 X26.62 Y-20.36 Z1.1 F3000.0
G1 X38.77 Y-20.5 Z1.1 F3000.0
G1 X40.47 Y-22.29 Z1.1 F3000.0
M108 R30.0
M101
G1 X41.02 Y-22.88 Z1.1 F3000.0
M108 R3.569
G1 X41.45 Y-22.44 Z1.1 F1800.0
G1 X41.45 Y-21.07 Z1.1 F1800.0
G1 X38.4 Y-21.07 Z1.1 F1800.0
G1 X39.27 Y-22.44 Z1.1 F1800.0
G1 X38.83 Y-22.88 Z1.1 F1800.0
G1 X38.4 Y-22.44 Z1.1 F1800.0
G1 X37.96 Y-22.44 Z1.1 F1800.0
G1 X37.96 Y-21.5 Z1.1 F1800.0
G1 X37.53 Y-21.07 Z1.1 F1800.0
G1 X36.22 Y-21.07 Z1.1 F1800.0
G1 X37.09 Y-22.44 Z1.1 F1800.0
G1 X36.65 Y-22.88 Z1.1 F1800.0
G1 X35.78 Y-22.44 Z1.1 F1800.0
G1 X35.78 Y-21.07 Z1.1 F1800.0
G1 X34.03 Y-21.07 Z1.1 F1800.0
G1 X34.91 Y-22.44 Z1.1 F1800.0
G1 X34.47 Y-22.88 Z1.1 F1800.0
G1 X33.6 Y-22.44 Z1.1 F1800.0
G1 X33.6 Y-21.07 Z1.1 F1800.0
G1 X31.85 Y-21.07 Z1.1 F1800.0
G1 X32.73 Y-22.44 Z1.1 F1800.0
G1 X32.29 Y-22.88 Z1.1 F1800.0
G1 X31.72 Y-22.57 Z1.1 F1800.0
G1 X30.98 Y-22.44 Z1.1 F1800.0
G1 X30.98 Y-21.5 Z1.1 F1800.0
G1 X31.42 Y-21.07 Z1.1 F1800.0
G1 X29.67 Y-21.07 Z1.1 F1800.0
G1 X30.54 Y-22.44 Z1.1 F1800.0
G1 X30.11 Y-22.88 Z1.1 F1800.0
G1 X29.67 Y-22.44 Z1.1 F1800.0
G1 X29.23 Y-22.44 Z1.1 F1800.0
G1 X29.23 Y-21.07 Z1.1 F1800.0
G1 X27.93 Y-21.07 Z1.1 F1800.0
G1 X27.93 Y-22.88 Z1.1 F1800.0
M103
(</surroundingLoop>)
(</layer>)
(<layer> 1.42 )
(<surroundingLoop>)
(<boundaryPerimeter>)
(<boundaryPoint> X42.814 Y-39.089 Z1.42 </boundaryPoint>)
(<boundaryPoint> X42.814 Y-37.72 Z1.42 </boundaryPoint>)
(<boundaryPoint> X43.879 Y-37.72 Z1.42 </boundaryPoint>)
(<boundaryPoint> X43.879 Y-3.632 Z1.42 </boundaryPoint>)
(<boundaryPoint> X25.01 Y-3.632 Z1.42 </boundaryPoint>)
(<boundaryPoint> X25.01 Y-20.22 Z1.42 </boundaryPoint>)
(<boundaryPoint> X8.422 Y-20.22 Z1.42 </boundaryPoint>)
(<boundaryPoint> X8.422 Y-37.72 Z1.42 </boundaryPoint>)
(<boundaryPoint> X9.438 Y-37.72 Z1.42 </boundaryPoint>)
(<boundaryPoint> X9.471 Y-37.738 Z1.42 </boundaryPoint>)
(<boundaryPoint> X9.471 Y-37.702 Z1.42 </boundaryPoint>)
(<boundaryPoint> X8.779 Y-37.72 Z1.42 </boundaryPoint>)
(<boundaryPoint> X8.726 Y-38.077 Z1.42 </boundaryPoint>)
(<boundaryPoint> X8.726 Y-39.089 Z1.42 </boundaryPoint>)
(<loop> inner )
G1 X27.9 Y-23.13 Z1.42 F3000.0
M101
G1 X27.93 Y-23.13 Z1.42 F1800.0
G1 X41.35 Y-23.13 Z1.42 F1800.0
G1 X41.35 Y-35.78 Z1.42 F1800.0
G1 X26.17 Y-35.78 Z1.42 F1800.0
G1 X26.17 Y-23.13 Z1.42 F1800.0
G1 X27.45 Y-23.13 Z1.42 F1800.0
M108 R30.0
M102
G1 X27.9 Y-23.13 Z1.42 F1800.0
M108 R3.569
M103
(</loop>)
(<loop> inner )
G1 X27.92 Y-21.61 Z1.42 F3000.0
M108 R30.0
M101
G1 X27.93 Y-20.81 Z1.42 F3000.0
M108 R3.569
G1 X26.17 Y-20.81 Z1.42 F1800.0
G1 X26.17 Y-5.58 Z1.42 F1800.0
G1 X41.35 Y-5.58 Z1.42 F1800.0
G1 X41.35 Y-20.81 Z1.42 F1800.0
G1 X28.38 Y-20.81 Z1.42 F1800.0
M108 R30.0
M102
G1 X27.93 Y-20.81 Z1.42 F1800.0
M108 R3.569
M103
(</loop>)
(<loop> inner )
G1 X26.17 Y-22.57 Z1.42 F3000.0
M108 R30.0
M101
G1 X25.6 Y-23.13 Z1.42 F3000.0
M108 R3.569
G1 X25.6 Y-35.78 Z1.42 F1800.0
G1 X12.9 Y-35.78 Z1.42 F1800.0
G1 X12.9 Y-23.13 Z1.42 F1800.0
G1 X25.15 Y-23.13 Z1.42 F1800.0
M108 R30.0
M102
G1 X25.6 Y-23.13 Z1.42 F1800.0
M108 R3.569
M103
(</loop>)
(<loop> outer )
G1 X25.6 Y-21.61 Z1.42 F3000.0
M108 R30.0
M101
G1 X25.6 Y-20.81 Z1.42 F3000.0
M108 R3.569
G1 X9.01 Y-20.81 Z1.42 F1800.0
G1 X9.01 Y-37.13 Z1.42 F1800.0
G1 X9.97 Y-37.14 Z1.42 F1800.0
G1 X9.97 Y-37.85 Z1.42 F1800.0
G1 X10.19 Y-38.5 Z1.42 F1800.0
G1 X42.23 Y-38.5 Z1.42 F1800.0
G1 X42.23 Y-37.13 Z1.42 F1800.0
G1 X43.29 Y-37.13 Z1.42 F1800.0
G1 X43.29 Y-4.22 Z1.42 F1800.0
G1 X25.6 Y-4.22 Z1.42 F1800.0
G1 X25.6 Y-20.81 Z1.42 F1800.0
M103
(</loop>)
(<perimeter> outer )
G1 X25.21 Y-20.42 Z1.42 F3000.0
M101
G1 X8.62 Y-20.42 Z1.42 F1800.0
G1 X8.62 Y-37.52 Z1.42 F1800.0
G1 X9.49 Y-37.52 Z1.42 F1800.0
G1 X9.67 Y-37.62 Z1.42 F1800.0
G1 X9.67 Y-37.82 Z1.42 F1800.0
G1 X9.49 Y-37.92 Z1.42 F1800.0
G1 X8.95 Y-37.92 Z1.42 F1800.0
G1 X8.92 Y-38.09 Z1.42 F1800.0
G1 X8.92 Y-38.89 Z1.42 F1800.0
G1 X42.62 Y-38.89 Z1.42 F1800.0
G1 X42.62 Y-37.52 Z1.42 F1800.0
G1 X43.68 Y-37.52 Z1.42 F1800.0
G1 X43.68 Y-3.83 Z1.42 F1800.0
G1 X25.21 Y-3.83 Z1.42 F1800.0
G1 X25.21 Y-19.97 Z1.42 F1800.0
M108 R30.0
M102
G1 X25.21 Y-20.42 Z1.42 F1800.0
M108 R3.569
M103
(</perimeter>)
(</boundaryPerimeter>)
(<surroundingLoop>)
(<boundaryPerimeter>)
(<boundaryPoint> X26.76 Y-20.22 Z1.42 </boundaryPoint>)
(<boundaryPoint> X26.76 Y-6.165 Z1.42 </boundaryPoint>)
(<boundaryPoint> X40.76 Y-6.165 Z1.42 </boundaryPoint>)
(<boundaryPoint> X40.76 Y-20.22 Z1.42 </boundaryPoint>)
(<perimeter> inner )
G1 X25.76 Y-20.42 Z1.42 F3000.0
M108 R30.0
M101
G1 X26.56 Y-20.42 Z1.42 F3000.0
M108 R3.569
G1 X26.56 Y-5.97 Z1.42 F1800.0
G1 X40.96 Y-5.97 Z1.42 F1800.0
G1 X40.96 Y-20.42 Z1.42 F1800.0
G1 X27.01 Y-20.42 Z1.42 F1800.0
M108 R30.0
M102
G1 X26.56 Y-20.42 Z1.42 F1800.0
M108 R3.569
M103
(</perimeter>)
(</boundaryPerimeter>)
(</surroundingLoop>)
(<surroundingLoop>)
(<boundaryPerimeter>)
(<boundaryPoint> X40.76 Y-23.72 Z1.42 </boundaryPoint>)
(<boundaryPoint> X40.76 Y-35.186 Z1.42 </boundaryPoint>)
(<boundaryPoint> X26.76 Y-35.186 Z1.42 </boundaryPoint>)
(<boundaryPoint> X26.76 Y-23.72 Z1.42 </boundaryPoint>)
(<perimeter> inner )
G1 X26.56 Y-22.72 Z1.42 F3000.0
M108 R30.0
M101
G1 X26.56 Y-23.52 Z1.42 F3000.0
M108 R3.569
G1 X40.96 Y-23.52 Z1.42 F1800.0
G1 X40.96 Y-35.38 Z1.42 F1800.0
G1 X26.56 Y-35.38 Z1.42 F1800.0
G1 X26.56 Y-23.97 Z1.42 F1800.0
M108 R30.0
M102
G1 X26.56 Y-23.52 Z1.42 F1800.0
M108 R3.569
M103
(</perimeter>)
(</boundaryPerimeter>)
(</surroundingLoop>)
(<surroundingLoop>)
(<boundaryPerimeter>)
(<boundaryPoint> X13.489 Y-35.186 Z1.42 </boundaryPoint>)
(<boundaryPoint> X13.489 Y-23.72 Z1.42 </boundaryPoint>)
(<boundaryPoint> X25.01 Y-23.72 Z1.42 </boundaryPoint>)
(<boundaryPoint> X25.01 Y-35.186 Z1.42 </boundaryPoint>)
(<perimeter> inner )
G1 X26.01 Y-23.52 Z1.42 F3000.0
M108 R30.0
M101
G1 X25.21 Y-23.52 Z1.42 F3000.0
M108 R3.569
G1 X25.21 Y-35.38 Z1.42 F1800.0
G1 X13.29 Y-35.38 Z1.42 F1800.0
G1 X13.29 Y-23.52 Z1.42 F1800.0
G1 X25.21 Y-23.52 Z1.42 F1800.0
M103
(</perimeter>)
(</boundaryPerimeter>)
(</surroundingLoop>)
G1 X25.86 Y-23.13 Z1.42 F3000.0
M101
G1 X25.92 Y-23.13 Z1.42 F1800.0
G1 X25.92 Y-23.56 Z1.42 F1800.0
G1 X25.86 Y-23.56 Z1.42 F1800.0
G1 X25.86 Y-24.0 Z1.42 F1800.0
G1 X25.92 Y-24.0 Z1.42 F1800.0
G1 X25.92 Y-24.44 Z1.42 F1800.0
G1 X25.86 Y-24.44 Z1.42 F1800.0
G1 X25.86 Y-24.87 Z1.42 F1800.0
G1 X25.92 Y-24.87 Z1.42 F1800.0
G1 X25.92 Y-25.31 Z1.42 F1800.0
G1 X25.86 Y-25.31 Z1.42 F1800.0
G1 X25.86 Y-25.74 Z1.42 F1800.0
G1 X25.92 Y-25.74 Z1.42 F1800.0
G1 X25.92 Y-26.18 Z1.42 F1800.0
G1 X25.86 Y-26.18 Z1.42 F1800.0
G1 X25.86 Y-26.62 Z1.42 F1800.0
G1 X25.92 Y-26.62 Z1.42 F1800.0
G1 X25.92 Y-27.05 Z1.42 F1800.0
G1 X25.86 Y-27.05 Z1.42 F1800.0
G1 X25.86 Y-27.49 Z1.42 F1800.0
G1 X25.92 Y-27.49 Z1.42 F1800.0
G1 X25.92 Y-27.93 Z1.42 F1800.0
G1 X25.86 Y-27.93 Z1.42 F1800.0
G1 X25.86 Y-28.36 Z1.42 F1800.0
G1 X25.92 Y-28.36 Z1.42 F1800.0
G1 X25.92 Y-28.8 Z1.42 F1800.0
G1 X25.86 Y-28.8 Z1.42 F1800.0
G1 X25.86 Y-29.23 Z1.42 F1800.0
G1 X25.92 Y-29.23 Z1.42 F1800.0
G1 X25.92 Y-29.67 Z1.42 F1800.0
G1 X25.86 Y-29.67 Z1.42 F1800.0
G1 X25.86 Y-30.11 Z1.42 F1800.0
G1 X25.92 Y-30.11 Z1.42 F1800.0
G1 X25.92 Y-30.54 Z1.42 F1800.0
G1 X25.86 Y-30.54 Z1.42 F1800.0
G1 X25.86 Y-30.98 Z1.42 F1800.0
G1 X25.92 Y-30.98 Z1.42 F1800.0
G1 X25.92 Y-31.42 Z1.42 F1800.0
G1 X25.86 Y-31.42 Z1.42 F1800.0
G1 X25.86 Y-31.85 Z1.42 F1800.0
G1 X25.92 Y-31.85 Z1.42 F1800.0
G1 X25.92 Y-32.29 Z1.42 F1800.0
G1 X25.86 Y-32.29 Z1.42 F1800.0
G1 X25.86 Y-32.73 Z1.42 F1800.0
G1 X25.92 Y-32.73 Z1.42 F1800.0
G1 X25.92 Y-33.16 Z1.42 F1800.0
G1 X25.86 Y-33.16 Z1.42 F1800.0
G1 X25.86 Y-33.6 Z1.42 F1800.0
G1 X25.92 Y-33.6 Z1.42 F1800.0
G1 X25.92 Y-34.03 Z1.42 F1800.0
G1 X25.86 Y-34.03 Z1.42 F1800.0
G1 X25.86 Y-34.47 Z1.42 F1800.0
G1 X25.92 Y-34.47 Z1.42 F1800.0
G1 X25.92 Y-34.91 Z1.42 F1800.0
G1 X25.86 Y-34.91 Z1.42 F1800.0
G1 X25.86 Y-35.34 Z1.42 F1800.0
G1 X25.92 Y-35.34 Z1.42 F1800.0
G1 X25.92 Y-35.39 Z1.42 F1800.0
M108 R30.0
M102
G1 X25.92 Y-35.78 Z1.42 F1800.0
G1 X25.86 Y-35.78 Z1.42 F1800.0
M108 R3.569
M103
G1 X13.44 Y-35.37 Z1.42 F3000.0
M108 R30.0
M101
G1 X12.64 Y-35.34 Z1.42 F3000.0
M108 R3.569
G1 X12.64 Y-33.6 Z1.42 F1800.0
G1 X9.27 Y-33.6 Z1.42 F1800.0
G1 X9.27 Y-36.22 Z1.42 F1800.0
G1 X12.64 Y-35.78 Z1.42 F1800.0
G1 X12.7 Y-36.21 Z1.42 F1800.0
G1 X43.03 Y-36.22 Z1.42 F1800.0
M103
G1 X43.03 Y-36.65 Z1.42 F3000.0
M101
G1 X9.72 Y-36.65 Z1.42 F1800.0
M108 R30.0
M102
G1 X9.27 Y-36.65 Z1.42 F1800.0
M108 R3.569
M103
G1 X9.63 Y-36.99 Z1.42 F3000.0
M108 R30.0
M101
G1 X10.22 Y-37.53 Z1.42 F3000.0
M108 R3.569
G1 X10.22 Y-37.09 Z1.42 F1800.0
G1 X41.97 Y-37.09 Z1.42 F1800.0
G1 X41.97 Y-37.96 Z1.42 F1800.0
G1 X10.73 Y-37.96 Z1.42 F1800.0
M108 R30.0
M102
G1 X10.28 Y-37.96 Z1.42 F1800.0
M108 R3.569
M103
G1 X9.43 Y-33.94 Z1.42 F3000.0
M108 R30.0
M101
G1 X9.27 Y-33.16 Z1.42 F3000.0
M108 R3.569
G1 X9.27 Y-31.85 Z1.42 F1800.0
G1 X9.69 Y-31.75 Z1.42 F1800.0
G1 X9.95 Y-31.75 Z1.42 F1800.0
G1 X12.64 Y-33.16 Z1.42 F1800.0
G1 X12.64 Y-29.23 Z1.42 F1800.0
G1 X9.95 Y-31.52 Z1.42 F1800.0
G1 X9.69 Y-31.52 Z1.42 F1800.0
G1 X9.27 Y-31.42 Z1.42 F1800.0
G1 X9.27 Y-27.49 Z1.42 F1800.0
G1 X9.69 Y-27.39 Z1.42 F1800.0
G1 X9.95 Y-27.39 Z1.42 F1800.0
G1 X12.64 Y-28.8 Z1.42 F1800.0
G1 X12.64 Y-24.87 Z1.42 F1800.0
G1 X9.95 Y-27.16 Z1.42 F1800.0
G1 X9.69 Y-27.16 Z1.42 F1800.0
G1 X9.27 Y-27.05 Z1.42 F1800.0
G1 X9.27 Y-23.13 Z1.42 F1800.0
G1 X12.64 Y-23.13 Z1.42 F1800.0
G1 X12.64 Y-23.99 Z1.42 F1800.0
M108 R30.0
M102
G1 X12.64 Y-24.44 Z1.42 F1800.0
M108 R3.569
M103
G1 X9.98 Y-23.06 Z1.42 F3000.0
M108 R30.0
M101
G1 X9.27 Y-22.69 Z1.42 F3000.0
M108 R3.569
G1 X43.03 Y-22.69 Z1.42 F1800.0
M103
G1 X43.03 Y-23.13 Z1.42 F3000.0
M101
G1 X41.61 Y-23.13 Z1.42 F1800.0
M103
G1 X41.61 Y-23.56 Z1.42 F3000.0
M101
G1 X43.03 Y-23.56 Z1.42 F1800.0
M103
G1 X43.03 Y-24.0 Z1.42 F3000.0
M101
G1 X41.61 Y-24.0 Z1.42 F1800.0
G1 X42.04 Y-24.44 Z1.42 F1800.0
G1 X42.04 Y-24.87 Z1.42 F1800.0
G1 X42.6 Y-24.87 Z1.42 F1800.0
G1 X43.03 Y-25.31 Z1.42 F1800.0
G1 X42.6 Y-25.74 Z1.42 F1800.0
G1 X43.03 Y-26.18 Z1.42 F1800.0
G1 X41.61 Y-26.18 Z1.42 F1800.0
M103
G1 X41.61 Y-26.62 Z1.42 F3000.0
M101
G1 X43.03 Y-26.62 Z1.42 F1800.0
M103
G1 X43.03 Y-27.05 Z1.42 F3000.0
M101
G1 X41.61 Y-27.05 Z1.42 F1800.0
M103
G1 X41.61 Y-27.49 Z1.42 F3000.0
M101
G1 X43.03 Y-27.49 Z1.42 F1800.0
M103
G1 X43.03 Y-27.93 Z1.42 F3000.0
M101
G1 X41.61 Y-27.93 Z1.42 F1800.0
M103
G1 X41.61 Y-28.36 Z1.42 F3000.0
M101
G1 X43.03 Y-28.36 Z1.42 F1800.0
G1 X42.6 Y-29.23 Z1.42 F1800.0
G1 X42.04 Y-29.23 Z1.42 F1800.0
G1 X41.61 Y-29.67 Z1.42 F1800.0
G1 X42.04 Y-30.11 Z1.42 F1800.0
G1 X41.61 Y-30.54 Z1.42 F1800.0
G1 X43.03 Y-30.54 Z1.42 F1800.0
M103
G1 X43.03 Y-30.98 Z1.42 F3000.0
M101
G1 X41.61 Y-30.98 Z1.42 F1800.0
M103
G1 X41.61 Y-31.42 Z1.42 F3000.0
M101
G1 X43.03 Y-31.42 Z1.42 F1800.0
M103
G1 X43.03 Y-31.85 Z1.42 F3000.0
M101
G1 X41.61 Y-31.85 Z1.42 F1800.0
M103
G1 X41.61 Y-32.29 Z1.42 F3000.0
M101
G1 X43.03 Y-32.29 Z1.42 F1800.0
M103
G1 X43.03 Y-32.73 Z1.42 F3000.0
M101
G1 X41.61 Y-32.73 Z1.42 F1800.0
G1 X42.04 Y-33.16 Z1.42 F1800.0
G1 X42.04 Y-33.6 Z1.42 F1800.0
G1 X42.6 Y-34.03 Z1.42 F1800.0
G1 X43.03 Y-34.47 Z1.42 F1800.0
G1 X41.61 Y-34.47 Z1.42 F1800.0
M103
G1 X41.61 Y-34.91 Z1.42 F3000.0
M101
G1 X43.03 Y-34.91 Z1.42 F1800.0
M103
G1 X43.03 Y-35.34 Z1.42 F3000.0
M101
G1 X41.61 Y-35.34 Z1.42 F1800.0
M103
G1 X41.61 Y-35.78 Z1.42 F3000.0
M101
G1 X42.58 Y-35.78 Z1.42 F1800.0
M108 R30.0
M102
G1 X43.03 Y-35.78 Z1.42 F1800.0
M108 R3.569
M103
G1 X43.03 Y-23.05 Z1.42 F3000.0
M108 R30.0
M101
G1 X43.03 Y-22.25 Z1.42 F3000.0
M108 R3.569
G1 X9.27 Y-22.25 Z1.42 F1800.0
G1 X9.27 Y-21.82 Z1.42 F1800.0
G1 X43.03 Y-21.82 Z1.42 F1800.0
M103
G1 X43.03 Y-21.38 Z1.42 F3000.0
M101
G1 X9.72 Y-21.38 Z1.42 F1800.0
M108 R30.0
M102
G1 X9.27 Y-21.38 Z1.42 F1800.0
M108 R3.569
M103
G1 X25.06 Y-20.97 Z1.42 F3000.0
M108 R30.0
M101
G1 X25.86 Y-20.94 Z1.42 F3000.0
M108 R3.569
G1 X25.92 Y-20.94 Z1.42 F1800.0
G1 X25.92 Y-20.51 Z1.42 F1800.0
G1 X25.86 Y-20.51 Z1.42 F1800.0
G1 X25.86 Y-20.07 Z1.42 F1800.0
G1 X25.92 Y-20.07 Z1.42 F1800.0
G1 X25.92 Y-19.64 Z1.42 F1800.0
G1 X25.86 Y-19.64 Z1.42 F1800.0
G1 X25.86 Y-19.2 Z1.42 F1800.0
G1 X25.92 Y-19.2 Z1.42 F1800.0
G1 X25.92 Y-18.76 Z1.42 F1800.0
G1 X25.86 Y-18.76 Z1.42 F1800.0
G1 X25.86 Y-18.33 Z1.42 F1800.0
G1 X25.92 Y-18.33 Z1.42 F1800.0
G1 X25.92 Y-17.89 Z1.42 F1800.0
G1 X25.86 Y-17.89 Z1.42 F1800.0
G1 X25.86 Y-17.45 Z1.42 F1800.0
G1 X25.92 Y-17.45 Z1.42 F1800.0
G1 X25.92 Y-17.02 Z1.42 F1800.0
G1 X25.86 Y-17.02 Z1.42 F1800.0
G1 X25.86 Y-16.58 Z1.42 F1800.0
G1 X25.92 Y-16.58 Z1.42 F1800.0
G1 X25.92 Y-16.14 Z1.42 F1800.0
G1 X25.86 Y-16.14 Z1.42 F1800.0
G1 X25.86 Y-15.71 Z1.42 F1800.0
G1 X25.92 Y-15.71 Z1.42 F1800.0
G1 X25.92 Y-15.27 Z1.42 F1800.0
G1 X25.86 Y-15.27 Z1.42 F1800.0
G1 X25.86 Y-14.84 Z1.42 F1800.0
G1 X25.92 Y-14.84 Z1.42 F1800.0
G1 X25.92 Y-14.4 Z1.42 F1800.0
G1 X25.86 Y-14.4 Z1.42 F1800.0
G1 X25.86 Y-13.96 Z1.42 F1800.0
G1 X25.92 Y-13.96 Z1.42 F1800.0
G1 X25.92 Y-13.53 Z1.42 F1800.0
G1 X25.86 Y-13.53 Z1.42 F1800.0
G1 X25.86 Y-13.09 Z1.42 F1800.0
G1 X25.92 Y-13.09 Z1.42 F1800.0
G1 X25.92 Y-12.65 Z1.42 F1800.0
G1 X25.86 Y-12.65 Z1.42 F1800.0
G1 X25.86 Y-12.22 Z1.42 F1800.0
G1 X25.92 Y-12.22 Z1.42 F1800.0
G1 X25.92 Y-11.78 Z1.42 F1800.0
G1 X25.86 Y-11.78 Z1.42 F1800.0
G1 X25.86 Y-11.35 Z1.42 F1800.0
G1 X25.92 Y-11.35 Z1.42 F1800.0
G1 X25.92 Y-10.91 Z1.42 F1800.0
G1 X25.86 Y-10.91 Z1.42 F1800.0
G1 X25.86 Y-10.47 Z1.42 F1800.0
G1 X25.92 Y-10.47 Z1.42 F1800.0
G1 X25.92 Y-10.04 Z1.42 F1800.0
G1 X25.86 Y-10.04 Z1.42 F1800.0
G1 X25.86 Y-9.6 Z1.42 F1800.0
G1 X25.92 Y-9.6 Z1.42 F1800.0
G1 X25.92 Y-9.16 Z1.42 F1800.0
G1 X25.86 Y-9.16 Z1.42 F1800.0
G1 X25.86 Y-8.73 Z1.42 F1800.0
G1 X25.92 Y-8.73 Z1.42 F1800.0
G1 X25.92 Y-8.29 Z1.42 F1800.0
G1 X25.86 Y-8.29 Z1.42 F1800.0
G1 X25.86 Y-7.85 Z1.42 F1800.0
G1 X25.92 Y-7.85 Z1.42 F1800.0
G1 X25.92 Y-7.42 Z1.42 F1800.0
G1 X25.86 Y-7.42 Z1.42 F1800.0
G1 X25.86 Y-6.98 Z1.42 F1800.0
G1 X25.92 Y-6.98 Z1.42 F1800.0
G1 X25.92 Y-6.55 Z1.42 F1800.0
G1 X25.86 Y-6.55 Z1.42 F1800.0
G1 X25.86 Y-6.11 Z1.42 F1800.0
G1 X25.92 Y-6.11 Z1.42 F1800.0
G1 X25.92 Y-5.67 Z1.42 F1800.0
G1 X25.86 Y-5.67 Z1.42 F1800.0
G1 X25.86 Y-4.8 Z1.42 F1800.0
G1 X43.03 Y-4.8 Z1.42 F1800.0
G1 X41.61 Y-6.11 Z1.42 F1800.0
G1 X42.58 Y-6.11 Z1.42 F1800.0
M108 R30.0
M102
G1 X43.03 Y-6.11 Z1.42 F1800.0
M108 R3.569
M103
G1 X42.37 Y-6.31 Z1.42 F3000.0
M108 R30.0
M101
G1 X41.61 Y-6.55 Z1.42 F3000.0
M108 R3.569
G1 X43.03 Y-6.55 Z1.42 F1800.0
M103
G1 X43.03 Y-6.98 Z1.42 F3000.0
M101
G1 X41.61 Y-6.98 Z1.42 F1800.0
M103
G1 X41.61 Y-7.42 Z1.42 F3000.0
M101
G1 X42.58 Y-7.42 Z1.42 F1800.0
M108 R30.0
M102
G1 X43.03 Y-7.42 Z1.42 F1800.0
M108 R3.569
M103
G1 X43.03 Y-9.24 Z1.42 F3000.0
M108 R30.0
M101
G1 X43.03 Y-10.04 Z1.42 F3000.0
M108 R3.569
G1 X41.61 Y-10.04 Z1.42 F1800.0
G1 X42.04 Y-9.6 Z1.42 F1800.0
G1 X42.6 Y-9.16 Z1.42 F1800.0
G1 X43.03 Y-8.73 Z1.42 F1800.0
G1 X41.61 Y-8.73 Z1.42 F1800.0
G1 X43.03 Y-7.85 Z1.42 F1800.0
G1 X42.06 Y-7.85 Z1.42 F1800.0
M108 R30.0
M102
G1 X41.61 Y-7.85 Z1.42 F1800.0
M108 R3.569
M103
G1 X41.61 Y-9.67 Z1.42 F3000.0
M108 R30.0
M101
G1 X41.61 Y-10.47 Z1.42 F3000.0
M108 R3.569
G1 X43.03 Y-10.47 Z1.42 F1800.0
M103
G1 X43.03 Y-10.91 Z1.42 F3000.0
M101
G1 X41.61 Y-10.91 Z1.42 F1800.0
M103
G1 X41.61 Y-11.35 Z1.42 F3000.0
M101
G1 X42.58 Y-11.35 Z1.42 F1800.0
M108 R30.0
M102
G1 X43.03 Y-11.35 Z1.42 F1800.0
M108 R3.569
M103
G1 X43.03 Y-13.6 Z1.42 F3000.0
M108 R30.0
M101
G1 X43.03 Y-14.4 Z1.42 F3000.0
M108 R3.569
G1 X41.61 Y-14.4 Z1.42 F1800.0
G1 X42.04 Y-13.96 Z1.42 F1800.0
G1 X42.6 Y-13.53 Z1.42 F1800.0
G1 X43.03 Y-13.09 Z1.42 F1800.0
G1 X41.61 Y-13.09 Z1.42 F1800.0
G1 X42.04 Y-12.65 Z1.42 F1800.0
G1 X42.6 Y-12.22 Z1.42 F1800.0
G1 X43.03 Y-11.78 Z1.42 F1800.0
G1 X42.06 Y-11.78 Z1.42 F1800.0
M108 R30.0
M102
G1 X41.61 Y-11.78 Z1.42 F1800.0
M108 R3.569
M103
G1 X41.61 Y-14.04 Z1.42 F3000.0
M108 R30.0
M101
G1 X41.61 Y-14.84 Z1.42 F3000.0
M108 R3.569
G1 X43.03 Y-14.84 Z1.42 F1800.0
M103
G1 X43.03 Y-15.27 Z1.42 F3000.0
M101
G1 X41.61 Y-15.27 Z1.42 F1800.0
M103
G1 X41.61 Y-15.71 Z1.42 F3000.0
M101
G1 X43.03 Y-15.71 Z1.42 F1800.0
M103
G1 X43.03 Y-16.14 Z1.42 F3000.0
M101
G1 X41.61 Y-16.14 Z1.42 F1800.0
M103
G1 X41.61 Y-16.58 Z1.42 F3000.0
M101
G1 X43.03 Y-16.58 Z1.42 F1800.0
M103
G1 X43.03 Y-17.02 Z1.42 F3000.0
M101
G1 X41.61 Y-17.02 Z1.42 F1800.0
M103
G1 X41.61 Y-17.45 Z1.42 F3000.0
M101
G1 X43.03 Y-17.45 Z1.42 F1800.0
M103
G1 X43.03 Y-17.89 Z1.42 F3000.0
M101
G1 X41.61 Y-17.89 Z1.42 F1800.0
M103
G1 X41.61 Y-18.33 Z1.42 F3000.0
M101
G1 X43.03 Y-18.33 Z1.42 F1800.0
M103
G1 X43.03 Y-18.76 Z1.42 F3000.0
M101
G1 X41.61 Y-18.76 Z1.42 F1800.0
M103
G1 X41.61 Y-19.2 Z1.42 F3000.0
M101
G1 X43.03 Y-19.2 Z1.42 F1800.0
M103
G1 X43.03 Y-19.64 Z1.42 F3000.0
M101
G1 X41.61 Y-19.64 Z1.42 F1800.0
M103
G1 X41.61 Y-20.07 Z1.42 F3000.0
M101
G1 X43.03 Y-20.07 Z1.42 F1800.0
M103
G1 X43.03 Y-20.51 Z1.42 F3000.0
M101
G1 X41.61 Y-20.51 Z1.42 F1800.0
M103
G1 X41.61 Y-20.94 Z1.42 F3000.0
M101
G1 X42.58 Y-20.94 Z1.42 F1800.0
M108 R30.0
M102
G1 X43.03 Y-20.94 Z1.42 F1800.0
M108 R3.569
M103
(</surroundingLoop>)
(</layer>)
(<layer> 1.74 )
(<surroundingLoop>)
(<boundaryPerimeter>)
(<boundaryPoint> X42.814 Y-38.769 Z1.74 </boundaryPoint>)
(<boundaryPoint> X42.814 Y-37.72 Z1.74 </boundaryPoint>)
(<boundaryPoint> X43.559 Y-37.72 Z1.74 </boundaryPoint>)
(<boundaryPoint> X43.559 Y-3.632 Z1.74 </boundaryPoint>)
(<boundaryPoint> X25.01 Y-3.632 Z1.74 </boundaryPoint>)
(<boundaryPoint> X25.01 Y-20.22 Z1.74 </boundaryPoint>)
(<boundaryPoint> X8.422 Y-20.22 Z1.74 </boundaryPoint>)
(<boundaryPoint> X8.422 Y-37.72 Z1.74 </boundaryPoint>)
(<boundaryPoint> X9.758 Y-37.72 Z1.74 </boundaryPoint>)
(<boundaryPoint> X9.791 Y-37.738 Z1.74 </boundaryPoint>)
(<boundaryPoint> X9.791 Y-37.702 Z1.74 </boundaryPoint>)
(<boundaryPoint> X8.779 Y-37.72 Z1.74 </boundaryPoint>)
(<boundaryPoint> X8.726 Y-38.077 Z1.74 </boundaryPoint>)
(<boundaryPoint> X8.726 Y-38.769 Z1.74 </boundaryPoint>)
(<loop> inner )
G1 X42.11 Y-20.69 Z1.6 F3000.0
M108 R30.0
M101
G1 X41.35 Y-20.49 Z1.74 F3000.0
M108 R3.569
G1 X41.35 Y-20.81 Z1.74 F1800.0
G1 X26.17 Y-20.81 Z1.74 F1800.0
G1 X26.17 Y-5.58 Z1.74 F1800.0
G1 X41.35 Y-5.58 Z1.74 F1800.0
G1 X41.35 Y-20.04 Z1.74 F1800.0
M108 R30.0
M102
G1 X41.35 Y-20.49 Z1.74 F1800.0
M108 R3.569
M103
(</loop>)
(<loop> inner )
G1 X41.35 Y-22.33 Z1.74 F3000.0
M108 R30.0
M101
G1 X41.35 Y-23.13 Z1.74 F3000.0
M108 R3.569
G1 X41.35 Y-35.78 Z1.74 F1800.0
G1 X26.17 Y-35.78 Z1.74 F1800.0
G1 X26.17 Y-23.13 Z1.74 F1800.0
G1 X40.9 Y-23.13 Z1.74 F1800.0
M108 R30.0
M102
G1 X41.35 Y-23.13 Z1.74 F1800.0
M108 R3.569
M103
(</loop>)
(<loop> inner )
G1 X26.4 Y-23.13 Z1.74 F3000.0
M108 R30.0
M101
G1 X25.6 Y-23.13 Z1.74 F3000.0
M108 R3.569
G1 X25.6 Y-35.78 Z1.74 F1800.0
G1 X12.9 Y-35.78 Z1.74 F1800.0
G1 X12.9 Y-23.13 Z1.74 F1800.0
G1 X25.15 Y-23.13 Z1.74 F1800.0
M108 R30.0
M102
G1 X25.6 Y-23.13 Z1.74 F1800.0
M108 R3.569
M103
(</loop>)
(<loop> outer )
G1 X25.6 Y-21.61 Z1.74 F3000.0
M108 R30.0
M101
G1 X25.6 Y-20.81 Z1.74 F3000.0
M108 R3.569
G1 X9.01 Y-20.81 Z1.74 F1800.0
G1 X9.01 Y-37.13 Z1.74 F1800.0
G1 X10.29 Y-37.14 Z1.74 F1800.0
G1 X10.29 Y-38.18 Z1.74 F1800.0
G1 X42.23 Y-38.18 Z1.74 F1800.0
G1 X42.23 Y-37.13 Z1.74 F1800.0
G1 X42.97 Y-37.13 Z1.74 F1800.0
G1 X42.97 Y-4.22 Z1.74 F1800.0
G1 X25.6 Y-4.22 Z1.74 F1800.0
G1 X25.6 Y-20.81 Z1.74 F1800.0
M103
(</loop>)
(<perimeter> outer )
G1 X25.21 Y-20.42 Z1.74 F3000.0
M101
G1 X8.62 Y-20.42 Z1.74 F1800.0
G1 X8.62 Y-37.52 Z1.74 F1800.0
G1 X9.81 Y-37.52 Z1.74 F1800.0
G1 X9.99 Y-37.62 Z1.74 F1800.0
G1 X9.99 Y-37.82 Z1.74 F1800.0
G1 X9.81 Y-37.92 Z1.74 F1800.0
G1 X8.95 Y-37.92 Z1.74 F1800.0
G1 X8.92 Y-38.09 Z1.74 F1800.0
G1 X8.92 Y-38.57 Z1.74 F1800.0
G1 X42.62 Y-38.57 Z1.74 F1800.0
G1 X42.62 Y-37.52 Z1.74 F1800.0
G1 X43.36 Y-37.52 Z1.74 F1800.0
G1 X43.36 Y-3.83 Z1.74 F1800.0
G1 X25.21 Y-3.83 Z1.74 F1800.0
G1 X25.21 Y-19.97 Z1.74 F1800.0
M108 R30.0
M102
G1 X25.21 Y-20.42 Z1.74 F1800.0
M108 R3.569
M103
(</perimeter>)
(</boundaryPerimeter>)
(<surroundingLoop>)
(<boundaryPerimeter>)
(<boundaryPoint> X26.76 Y-20.22 Z1.74 </boundaryPoint>)
(<boundaryPoint> X26.76 Y-6.165 Z1.74 </boundaryPoint>)
(<boundaryPoint> X40.76 Y-6.165 Z1.74 </boundaryPoint>)
(<boundaryPoint> X40.76 Y-20.22 Z1.74 </boundaryPoint>)
(<perimeter> inner )
G1 X25.76 Y-20.42 Z1.74 F3000.0
M108 R30.0
M101
G1 X26.56 Y-20.42 Z1.74 F3000.0
M108 R3.569
G1 X26.56 Y-5.97 Z1.74 F1800.0
G1 X40.96 Y-5.97 Z1.74 F1800.0
G1 X40.96 Y-20.42 Z1.74 F1800.0
G1 X27.01 Y-20.42 Z1.74 F1800.0
M108 R30.0
M102
G1 X26.56 Y-20.42 Z1.74 F1800.0
M108 R3.569
M103
(</perimeter>)
(</boundaryPerimeter>)
(</surroundingLoop>)
(<surroundingLoop>)
(<boundaryPerimeter>)
(<boundaryPoint> X40.76 Y-23.72 Z1.74 </boundaryPoint>)
(<boundaryPoint> X40.76 Y-35.186 Z1.74 </boundaryPoint>)
(<boundaryPoint> X26.76 Y-35.186 Z1.74 </boundaryPoint>)
(<boundaryPoint> X26.76 Y-23.72 Z1.74 </boundaryPoint>)
(<perimeter> inner )
G1 X26.56 Y-22.72 Z1.74 F3000.0
M108 R30.0
M101
G1 X26.56 Y-23.52 Z1.74 F3000.0
M108 R3.569
G1 X40.96 Y-23.52 Z1.74 F1800.0
G1 X40.96 Y-35.38 Z1.74 F1800.0
G1 X26.56 Y-35.38 Z1.74 F1800.0
G1 X26.56 Y-23.97 Z1.74 F1800.0
M108 R30.0
M102
G1 X26.56 Y-23.52 Z1.74 F1800.0
M108 R3.569
M103
(</perimeter>)
(</boundaryPerimeter>)
(</surroundingLoop>)
(<surroundingLoop>)
(<boundaryPerimeter>)
(<boundaryPoint> X13.489 Y-35.186 Z1.74 </boundaryPoint>)
(<boundaryPoint> X13.489 Y-23.72 Z1.74 </boundaryPoint>)
(<boundaryPoint> X25.01 Y-23.72 Z1.74 </boundaryPoint>)
(<boundaryPoint> X25.01 Y-35.186 Z1.74 </boundaryPoint>)
(<perimeter> inner )
G1 X26.01 Y-23.52 Z1.74 F3000.0
M108 R30.0
M101
G1 X25.21 Y-23.52 Z1.74 F3000.0
M108 R3.569
G1 X25.21 Y-35.38 Z1.74 F1800.0
G1 X13.29 Y-35.38 Z1.74 F1800.0
G1 X13.29 Y-23.52 Z1.74 F1800.0
G1 X24.76 Y-23.52 Z1.74 F1800.0
M108 R30.0
M102
G1 X25.21 Y-23.52 Z1.74 F1800.0
M108 R3.569
M103
(</perimeter>)
(</boundaryPerimeter>)
(</surroundingLoop>)
G1 X15.2 Y-22.92 Z1.74 F3000.0
M108 R30.0
M101
G1 X14.4 Y-22.88 Z1.74 F3000.0
M108 R3.569
G1 X13.96 Y-22.44 Z1.74 F1800.0
G1 X13.53 Y-21.07 Z1.74 F1800.0
G1 X17.02 Y-21.07 Z1.74 F1800.0
G1 X15.71 Y-22.44 Z1.74 F1800.0
G1 X16.58 Y-22.88 Z1.74 F1800.0
G1 X17.02 Y-22.44 Z1.74 F1800.0
G1 X17.45 Y-21.07 Z1.74 F1800.0
G1 X19.2 Y-21.07 Z1.74 F1800.0
G1 X17.89 Y-22.44 Z1.74 F1800.0
G1 X18.33 Y-22.44 Z1.74 F1800.0
G1 X18.76 Y-22.88 Z1.74 F1800.0
G1 X19.2 Y-22.44 Z1.74 F1800.0
G1 X19.64 Y-21.07 Z1.74 F1800.0
G1 X21.38 Y-21.07 Z1.74 F1800.0
G1 X20.07 Y-22.44 Z1.74 F1800.0
G1 X20.51 Y-22.44 Z1.74 F1800.0
G1 X20.94 Y-22.88 Z1.74 F1800.0
G1 X21.38 Y-22.44 Z1.74 F1800.0
G1 X21.82 Y-21.07 Z1.74 F1800.0
G1 X23.56 Y-21.07 Z1.74 F1800.0
G1 X22.25 Y-22.44 Z1.74 F1800.0
G1 X23.13 Y-22.88 Z1.74 F1800.0
G1 X23.56 Y-22.44 Z1.74 F1800.0
G1 X24.0 Y-21.07 Z1.74 F1800.0
G1 X25.74 Y-21.07 Z1.74 F1800.0
G1 X24.44 Y-22.44 Z1.74 F1800.0
G1 X25.31 Y-22.88 Z1.74 F1800.0
G1 X25.74 Y-22.44 Z1.74 F1800.0
G1 X26.18 Y-21.07 Z1.74 F1800.0
G1 X27.93 Y-21.07 Z1.74 F1800.0
G1 X26.62 Y-22.44 Z1.74 F1800.0
G1 X27.49 Y-22.88 Z1.74 F1800.0
G1 X27.93 Y-22.44 Z1.74 F1800.0
G1 X28.36 Y-21.07 Z1.74 F1800.0
G1 X30.11 Y-21.07 Z1.74 F1800.0
G1 X28.8 Y-22.44 Z1.74 F1800.0
G1 X29.23 Y-22.44 Z1.74 F1800.0
G1 X29.67 Y-22.88 Z1.74 F1800.0
G1 X30.11 Y-22.44 Z1.74 F1800.0
G1 X30.54 Y-21.07 Z1.74 F1800.0
G1 X32.29 Y-21.07 Z1.74 F1800.0
G1 X30.98 Y-22.44 Z1.74 F1800.0
G1 X31.42 Y-22.44 Z1.74 F1800.0
G1 X31.85 Y-22.88 Z1.74 F1800.0
G1 X32.29 Y-22.44 Z1.74 F1800.0
G1 X32.73 Y-21.07 Z1.74 F1800.0
G1 X34.47 Y-21.07 Z1.74 F1800.0
G1 X33.16 Y-22.44 Z1.74 F1800.0
G1 X34.03 Y-22.88 Z1.74 F1800.0
G1 X34.47 Y-22.44 Z1.74 F1800.0
G1 X34.91 Y-21.07 Z1.74 F1800.0
G1 X36.65 Y-21.07 Z1.74 F1800.0
G1 X35.34 Y-22.44 Z1.74 F1800.0
G1 X36.22 Y-22.88 Z1.74 F1800.0
G1 X36.65 Y-22.44 Z1.74 F1800.0
G1 X37.09 Y-21.07 Z1.74 F1800.0
G1 X38.83 Y-21.07 Z1.74 F1800.0
G1 X37.53 Y-22.44 Z1.74 F1800.0
G1 X37.96 Y-22.44 Z1.74 F1800.0
G1 X38.4 Y-22.88 Z1.74 F1800.0
G1 X38.83 Y-22.44 Z1.74 F1800.0
G1 X39.27 Y-21.07 Z1.74 F1800.0
G1 X41.45 Y-21.07 Z1.74 F1800.0
G1 X41.02 Y-22.44 Z1.74 F1800.0
G1 X40.9 Y-22.56 Z1.74 F1800.0
M108 R30.0
M102
G1 X40.58 Y-22.88 Z1.74 F1800.0
M108 R3.569
M103
G1 X40.68 Y-23.45 Z1.74 F3000.0
G1 X40.9 Y-23.58 Z1.74 F3000.0
G1 X41.04 Y-24.33 Z1.74 F3000.0
G1 X42.24 Y-36.08 Z1.74 F3000.0
M108 R30.0
M101
G1 X42.32 Y-36.88 Z1.74 F3000.0
M108 R3.569
G1 X42.32 Y-4.48 Z1.74 F1800.0
G1 X41.89 Y-4.48 Z1.74 F1800.0
G1 X41.89 Y-37.92 Z1.74 F1800.0
M103
G1 X41.45 Y-37.92 Z1.74 F3000.0
M101
G1 X41.45 Y-36.03 Z1.74 F1800.0
G1 X41.02 Y-36.03 Z1.74 F1800.0
G1 X41.02 Y-37.92 Z1.74 F1800.0
M103
G1 X40.58 Y-37.92 Z1.74 F3000.0
M101
G1 X40.58 Y-36.03 Z1.74 F1800.0
G1 X40.14 Y-36.03 Z1.74 F1800.0
G1 X40.14 Y-37.92 Z1.74 F1800.0
M103
G1 X39.71 Y-37.92 Z1.74 F3000.0
M101
G1 X39.71 Y-36.03 Z1.74 F1800.0
G1 X38.83 Y-36.03 Z1.74 F1800.0
G1 X38.83 Y-37.49 Z1.74 F1800.0
G1 X39.27 Y-37.92 Z1.74 F1800.0
M103
G1 X38.4 Y-37.92 Z1.74 F3000.0
M101
G1 X38.4 Y-36.03 Z1.74 F1800.0
G1 X37.09 Y-36.03 Z1.74 F1800.0
G1 X37.09 Y-37.92 Z1.74 F1800.0
M103
G1 X36.65 Y-37.92 Z1.74 F3000.0
M101
G1 X36.65 Y-36.03 Z1.74 F1800.0
G1 X36.22 Y-36.03 Z1.74 F1800.0
G1 X36.22 Y-37.92 Z1.74 F1800.0
M103
G1 X35.78 Y-37.92 Z1.74 F3000.0
M101
G1 X35.78 Y-36.03 Z1.74 F1800.0
G1 X34.91 Y-36.03 Z1.74 F1800.0
G1 X35.34 Y-37.92 Z1.74 F1800.0
G1 X34.91 Y-37.49 Z1.74 F1800.0
G1 X34.47 Y-36.03 Z1.74 F1800.0
G1 X33.6 Y-36.03 Z1.74 F1800.0
G1 X34.47 Y-37.49 Z1.74 F1800.0
G1 X34.03 Y-37.92 Z1.74 F1800.0
G1 X33.6 Y-37.49 Z1.74 F1800.0
G1 X33.16 Y-36.47 Z1.74 F1800.0
G1 X32.73 Y-36.03 Z1.74 F1800.0
G1 X32.73 Y-37.92 Z1.74 F1800.0
M103
G1 X32.29 Y-37.92 Z1.74 F3000.0
M101
G1 X32.29 Y-36.03 Z1.74 F1800.0
G1 X31.85 Y-36.03 Z1.74 F1800.0
G1 X31.85 Y-37.92 Z1.74 F1800.0
M103
G1 X31.42 Y-37.92 Z1.74 F3000.0
M101
G1 X31.42 Y-36.03 Z1.74 F1800.0
G1 X29.67 Y-36.03 Z1.74 F1800.0
G1 X29.67 Y-37.92 Z1.74 F1800.0
M103
G1 X28.8 Y-37.92 Z1.74 F3000.0
M101
G1 X29.23 Y-37.49 Z1.74 F1800.0
G1 X29.23 Y-36.03 Z1.74 F1800.0
G1 X28.36 Y-36.03 Z1.74 F1800.0
G1 X28.36 Y-37.92 Z1.74 F1800.0
M103
G1 X27.93 Y-37.92 Z1.74 F3000.0
M101
G1 X27.93 Y-36.03 Z1.74 F1800.0
G1 X27.49 Y-36.03 Z1.74 F1800.0
G1 X27.49 Y-37.92 Z1.74 F1800.0
M103
G1 X27.05 Y-37.92 Z1.74 F3000.0
M101
G1 X27.05 Y-36.03 Z1.74 F1800.0
G1 X26.62 Y-36.03 Z1.74 F1800.0
G1 X26.62 Y-37.92 Z1.74 F1800.0
M103
G1 X26.18 Y-37.92 Z1.74 F3000.0
M101
G1 X26.18 Y-36.03 Z1.74 F1800.0
G1 X25.74 Y-36.03 Z1.74 F1800.0
G1 X25.74 Y-37.92 Z1.74 F1800.0
M103
G1 X25.31 Y-37.92 Z1.74 F3000.0
M101
G1 X25.31 Y-36.03 Z1.74 F1800.0
G1 X24.87 Y-36.03 Z1.74 F1800.0
G1 X24.87 Y-37.92 Z1.74 F1800.0
M103
G1 X24.44 Y-37.92 Z1.74 F3000.0
M101
G1 X24.44 Y-36.03 Z1.74 F1800.0
G1 X24.0 Y-36.03 Z1.74 F1800.0
G1 X24.0 Y-37.92 Z1.74 F1800.0
M103
G1 X23.56 Y-37.92 Z1.74 F3000.0
M101
G1 X23.56 Y-36.03 Z1.74 F1800.0
G1 X23.13 Y-36.03 Z1.74 F1800.0
G1 X23.13 Y-37.92 Z1.74 F1800.0
M103
G1 X22.69 Y-37.92 Z1.74 F3000.0
M101
G1 X22.69 Y-36.03 Z1.74 F1800.0
G1 X22.25 Y-36.03 Z1.74 F1800.0
G1 X22.25 Y-37.92 Z1.74 F1800.0
M103
G1 X21.82 Y-37.92 Z1.74 F3000.0
M101
G1 X21.82 Y-36.03 Z1.74 F1800.0
G1 X21.38 Y-36.03 Z1.74 F1800.0
G1 X21.38 Y-37.92 Z1.74 F1800.0
M103
G1 X20.94 Y-37.92 Z1.74 F3000.0
M101
G1 X20.94 Y-36.03 Z1.74 F1800.0
G1 X20.51 Y-36.03 Z1.74 F1800.0
G1 X20.51 Y-37.92 Z1.74 F1800.0
M103
G1 X20.07 Y-37.92 Z1.74 F3000.0
M101
G1 X20.07 Y-36.03 Z1.74 F1800.0
G1 X19.64 Y-36.03 Z1.74 F1800.0
G1 X19.64 Y-37.92 Z1.74 F1800.0
M103
G1 X19.2 Y-37.92 Z1.74 F3000.0
M101
G1 X19.2 Y-36.03 Z1.74 F1800.0
G1 X18.33 Y-36.03 Z1.74 F1800.0
G1 X18.76 Y-37.92 Z1.74 F1800.0
G1 X17.89 Y-37.49 Z1.74 F1800.0
G1 X17.89 Y-36.03 Z1.74 F1800.0
G1 X16.58 Y-36.03 Z1.74 F1800.0
G1 X16.58 Y-37.92 Z1.74 F1800.0
M103
G1 X16.14 Y-37.92 Z1.74 F3000.0
M101
G1 X16.14 Y-36.03 Z1.74 F1800.0
G1 X15.71 Y-36.03 Z1.74 F1800.0
G1 X15.71 Y-37.92 Z1.74 F1800.0
M103
G1 X15.27 Y-37.92 Z1.74 F3000.0
M101
G1 X15.27 Y-36.03 Z1.74 F1800.0
G1 X14.84 Y-36.03 Z1.74 F1800.0
G1 X14.84 Y-37.92 Z1.74 F1800.0
M103
G1 X14.4 Y-37.92 Z1.74 F3000.0
M101
G1 X14.4 Y-36.03 Z1.74 F1800.0
G1 X12.65 Y-36.03 Z1.74 F1800.0
G1 X12.65 Y-37.92 Z1.74 F1800.0
M103
G1 X12.22 Y-37.92 Z1.74 F3000.0
M101
G1 X12.65 Y-21.07 Z1.74 F1800.0
G1 X11.78 Y-21.07 Z1.74 F1800.0
G1 X11.78 Y-37.92 Z1.74 F1800.0
M103
G1 X11.35 Y-37.92 Z1.74 F3000.0
M101
G1 X11.35 Y-21.07 Z1.74 F1800.0
G1 X10.91 Y-21.07 Z1.74 F1800.0
G1 X10.91 Y-37.47 Z1.74 F1800.0
M108 R30.0
M102
G1 X10.91 Y-37.92 Z1.74 F1800.0
M108 R3.569
M103
G1 X10.78 Y-37.63 Z1.74 F3000.0
M108 R30.0
M101
G1 X10.47 Y-36.89 Z1.74 F3000.0
M108 R3.569
G1 X10.04 Y-36.89 Z1.74 F1800.0
G1 X9.93 Y-36.13 Z1.74 F1800.0
G1 X9.93 Y-22.78 Z1.74 F1800.0
G1 X10.47 Y-21.07 Z1.74 F1800.0
G1 X9.6 Y-21.07 Z1.74 F1800.0
G1 X9.7 Y-36.13 Z1.74 F1800.0
G1 X9.66 Y-36.44 Z1.74 F1800.0
M108 R30.0
M102
G1 X9.6 Y-36.88 Z1.74 F1800.0
M108 R3.569
M103
G1 X13.21 Y-32.92 Z1.74 F3000.0
G1 X13.35 Y-23.58 Z1.74 F3000.0
G1 X22.52 Y-23.45 Z1.74 F3000.0
G1 X26.49 Y-19.4 Z1.74 F3000.0
G1 X26.62 Y-6.03 Z1.74 F3000.0
G1 X39.75 Y-5.89 Z1.74 F3000.0
G1 X39.92 Y-5.77 Z1.74 F3000.0
M108 R30.0
M101
G1 X40.58 Y-5.32 Z1.74 F3000.0
M108 R3.569
G1 X41.02 Y-4.88 Z1.74 F1800.0
G1 X41.02 Y-4.48 Z1.74 F1800.0
G1 X39.71 Y-4.48 Z1.74 F1800.0
G1 X39.71 Y-4.88 Z1.74 F1800.0
G1 X39.27 Y-5.32 Z1.74 F1800.0
G1 X39.27 Y-4.48 Z1.74 F1800.0
G1 X38.4 Y-4.48 Z1.74 F1800.0
G1 X38.4 Y-5.32 Z1.74 F1800.0
G1 X37.96 Y-4.88 Z1.74 F1800.0
G1 X37.96 Y-4.48 Z1.74 F1800.0
G1 X36.22 Y-4.48 Z1.74 F1800.0
G1 X36.22 Y-5.32 Z1.74 F1800.0
G1 X35.78 Y-4.91 Z1.74 F1800.0
G1 X35.34 Y-5.32 Z1.74 F1800.0
G1 X35.34 Y-4.48 Z1.74 F1800.0
G1 X34.03 Y-4.48 Z1.74 F1800.0
G1 X34.03 Y-5.32 Z1.74 F1800.0
G1 X33.6 Y-4.91 Z1.74 F1800.0
G1 X33.16 Y-5.32 Z1.74 F1800.0
G1 X33.16 Y-4.48 Z1.74 F1800.0
G1 X31.85 Y-4.48 Z1.74 F1800.0
G1 X31.85 Y-5.32 Z1.74 F1800.0
G1 X31.42 Y-4.91 Z1.74 F1800.0
G1 X30.98 Y-5.32 Z1.74 F1800.0
G1 X30.98 Y-4.48 Z1.74 F1800.0
G1 X29.67 Y-4.48 Z1.74 F1800.0
G1 X29.67 Y-5.32 Z1.74 F1800.0
G1 X29.23 Y-4.88 Z1.74 F1800.0
G1 X29.23 Y-4.48 Z1.74 F1800.0
G1 X27.49 Y-4.48 Z1.74 F1800.0
G1 X27.49 Y-5.32 Z1.74 F1800.0
G1 X26.62 Y-4.48 Z1.74 F1800.0
G1 X26.18 Y-4.48 Z1.74 F1800.0
G1 X26.18 Y-5.32 Z1.74 F1800.0
M103
(</surroundingLoop>)
(</layer>)
(<layer> 2.06 )
(<surroundingLoop>)
(<boundaryPerimeter>)
(<boundaryPoint> X42.742 Y-34.341 Z2.06 </boundaryPoint>)
(<boundaryPoint> X43.239 Y-34.341 Z2.06 </boundaryPoint>)
(<boundaryPoint> X43.239 Y-32.314 Z2.06 </boundaryPoint>)
(<boundaryPoint> X42.742 Y-32.314 Z2.06 </boundaryPoint>)
(<boundaryPoint> X42.742 Y-30.287 Z2.06 </boundaryPoint>)
(<boundaryPoint> X43.239 Y-30.287 Z2.06 </boundaryPoint>)
(<boundaryPoint> X43.239 Y-28.26 Z2.06 </boundaryPoint>)
(<boundaryPoint> X42.742 Y-28.26 Z2.06 </boundaryPoint>)
(<boundaryPoint> X42.742 Y-26.233 Z2.06 </boundaryPoint>)
(<boundaryPoint> X43.239 Y-26.233 Z2.06 </boundaryPoint>)
(<boundaryPoint> X43.239 Y-24.206 Z2.06 </boundaryPoint>)
(<boundaryPoint> X42.742 Y-24.206 Z2.06 </boundaryPoint>)
(<boundaryPoint> X42.742 Y-14.071 Z2.06 </boundaryPoint>)
(<boundaryPoint> X43.239 Y-14.071 Z2.06 </boundaryPoint>)
(<boundaryPoint> X43.239 Y-12.044 Z2.06 </boundaryPoint>)
(<boundaryPoint> X42.742 Y-12.044 Z2.06 </boundaryPoint>)
(<boundaryPoint> X42.742 Y-10.017 Z2.06 </boundaryPoint>)
(<boundaryPoint> X43.239 Y-10.017 Z2.06 </boundaryPoint>)
(<boundaryPoint> X43.239 Y-7.99 Z2.06 </boundaryPoint>)
(<boundaryPoint> X42.742 Y-7.99 Z2.06 </boundaryPoint>)
(<boundaryPoint> X42.742 Y-5.963 Z2.06 </boundaryPoint>)
(<boundaryPoint> X43.239 Y-5.963 Z2.06 </boundaryPoint>)
(<boundaryPoint> X43.239 Y-3.936 Z2.06 </boundaryPoint>)
(<boundaryPoint> X42.887 Y-3.936 Z2.06 </boundaryPoint>)
(<boundaryPoint> X42.639 Y-3.632 Z2.06 </boundaryPoint>)
(<boundaryPoint> X25.01 Y-3.632 Z2.06 </boundaryPoint>)
(<boundaryPoint> X25.01 Y-20.22 Z2.06 </boundaryPoint>)
(<boundaryPoint> X8.422 Y-20.22 Z2.06 </boundaryPoint>)
(<boundaryPoint> X8.422 Y-37.72 Z2.06 </boundaryPoint>)
(<boundaryPoint> X8.726 Y-37.72 Z2.06 </boundaryPoint>)
(<boundaryPoint> X8.726 Y-38.448 Z2.06 </boundaryPoint>)
(<boundaryPoint> X10.753 Y-38.448 Z2.06 </boundaryPoint>)
(<boundaryPoint> X10.753 Y-37.952 Z2.06 </boundaryPoint>)
(<boundaryPoint> X12.78 Y-37.952 Z2.06 </boundaryPoint>)
(<boundaryPoint> X12.78 Y-38.448 Z2.06 </boundaryPoint>)
(<boundaryPoint> X14.807 Y-38.448 Z2.06 </boundaryPoint>)
(<boundaryPoint> X14.807 Y-37.952 Z2.06 </boundaryPoint>)
(<boundaryPoint> X16.834 Y-37.952 Z2.06 </boundaryPoint>)
(<boundaryPoint> X16.834 Y-38.448 Z2.06 </boundaryPoint>)
(<boundaryPoint> X18.861 Y-38.448 Z2.06 </boundaryPoint>)
(<boundaryPoint> X18.861 Y-37.952 Z2.06 </boundaryPoint>)
(<boundaryPoint> X28.996 Y-37.952 Z2.06 </boundaryPoint>)
(<boundaryPoint> X28.996 Y-38.448 Z2.06 </boundaryPoint>)
(<boundaryPoint> X31.023 Y-38.448 Z2.06 </boundaryPoint>)
(<boundaryPoint> X31.023 Y-37.952 Z2.06 </boundaryPoint>)
(<boundaryPoint> X33.05 Y-37.952 Z2.06 </boundaryPoint>)
(<boundaryPoint> X33.05 Y-38.448 Z2.06 </boundaryPoint>)
(<boundaryPoint> X35.077 Y-38.448 Z2.06 </boundaryPoint>)
(<boundaryPoint> X35.077 Y-37.952 Z2.06 </boundaryPoint>)
(<boundaryPoint> X37.104 Y-37.952 Z2.06 </boundaryPoint>)
(<boundaryPoint> X37.104 Y-38.448 Z2.06 </boundaryPoint>)
(<boundaryPoint> X39.131 Y-38.448 Z2.06 </boundaryPoint>)
(<boundaryPoint> X39.131 Y-37.952 Z2.06 </boundaryPoint>)
(<boundaryPoint> X42.457 Y-37.952 Z2.06 </boundaryPoint>)
(<boundaryPoint> X42.742 Y-37.72 Z2.06 </boundaryPoint>)
(<loop> inner )
G1 X26.34 Y-5.58 Z2.06 F3000.0
M101
G1 X41.35 Y-5.58 Z2.06 F1800.0
G1 X41.35 Y-20.81 Z2.06 F1800.0
G1 X26.17 Y-20.81 Z2.06 F1800.0
G1 X26.17 Y-5.86 Z2.06 F1800.0
M108 R30.0
M102
G1 X26.17 Y-5.58 Z2.06 F1800.0
G1 X26.34 Y-5.58 Z2.06 F1800.0
M108 R3.569
M103
(</loop>)
(<loop> inner )
G1 X26.18 Y-22.33 Z2.06 F3000.0
M108 R30.0
M101
G1 X26.17 Y-23.13 Z2.06 F3000.0
M108 R3.569
G1 X41.35 Y-23.13 Z2.06 F1800.0
G1 X41.35 Y-35.78 Z2.06 F1800.0
G1 X26.17 Y-35.78 Z2.06 F1800.0
G1 X26.17 Y-23.13 Z2.06 F1800.0
M103
(</loop>)
(<loop> inner )
G1 X25.6 Y-23.13 Z2.06 F3000.0
M101
G1 X25.6 Y-35.78 Z2.06 F1800.0
G1 X12.9 Y-35.78 Z2.06 F1800.0
G1 X12.9 Y-23.13 Z2.06 F1800.0
G1 X25.15 Y-23.13 Z2.06 F1800.0
M108 R30.0
M102
G1 X25.6 Y-23.13 Z2.06 F1800.0
M108 R3.569
M103
(</loop>)
(<loop> outer )
G1 X25.6 Y-21.61 Z2.06 F3000.0
M108 R30.0
M101
G1 X25.6 Y-20.81 Z2.06 F3000.0
M108 R3.569
G1 X9.01 Y-20.81 Z2.06 F1800.0
G1 X9.01 Y-36.48 Z2.06 F1800.0
G1 X9.27 Y-37.3 Z2.06 F1800.0
G1 X9.78 Y-37.77 Z2.06 F1800.0
G1 X10.45 Y-37.36 Z2.06 F1800.0
G1 X13.09 Y-37.36 Z2.06 F1800.0
G1 X13.79 Y-37.79 Z2.06 F1800.0
G1 X14.5 Y-37.36 Z2.06 F1800.0
G1 X17.14 Y-37.36 Z2.06 F1800.0
G1 X17.85 Y-37.79 Z2.06 F1800.0
G1 X18.55 Y-37.36 Z2.06 F1800.0
G1 X29.3 Y-37.36 Z2.06 F1800.0
G1 X30.01 Y-37.79 Z2.06 F1800.0
G1 X30.72 Y-37.36 Z2.06 F1800.0
G1 X33.36 Y-37.36 Z2.06 F1800.0
G1 X34.06 Y-37.79 Z2.06 F1800.0
G1 X34.77 Y-37.36 Z2.06 F1800.0
G1 X37.41 Y-37.36 Z2.06 F1800.0
G1 X38.12 Y-37.79 Z2.06 F1800.0
G1 X38.82 Y-37.36 Z2.06 F1800.0
G1 X42.15 Y-37.36 Z2.06 F1800.0
G1 X42.15 Y-34.03 Z2.06 F1800.0
G1 X42.58 Y-33.33 Z2.06 F1800.0
G1 X42.15 Y-32.62 Z2.06 F1800.0
G1 X42.15 Y-29.98 Z2.06 F1800.0
G1 X42.58 Y-29.27 Z2.06 F1800.0
G1 X42.15 Y-28.57 Z2.06 F1800.0
G1 X42.15 Y-25.93 Z2.06 F1800.0
G1 X42.58 Y-25.22 Z2.06 F1800.0
G1 X42.15 Y-24.51 Z2.06 F1800.0
G1 X42.15 Y-13.76 Z2.06 F1800.0
G1 X42.58 Y-13.06 Z2.06 F1800.0
G1 X42.15 Y-12.35 Z2.06 F1800.0
G1 X42.15 Y-9.71 Z2.06 F1800.0
G1 X42.58 Y-9.0 Z2.06 F1800.0
G1 X42.15 Y-8.3 Z2.06 F1800.0
G1 X42.15 Y-5.66 Z2.06 F1800.0
G1 X42.62 Y-4.9 Z2.06 F1800.0
G1 X42.44 Y-4.32 Z2.06 F1800.0
G1 X42.36 Y-4.22 Z2.06 F1800.0
G1 X25.6 Y-4.22 Z2.06 F1800.0
G1 X25.6 Y-20.81 Z2.06 F1800.0
M103
(</loop>)
(<perimeter> outer )
G1 X25.21 Y-20.42 Z2.06 F3000.0
M101
G1 X8.62 Y-20.42 Z2.06 F1800.0
G1 X8.62 Y-37.52 Z2.06 F1800.0
G1 X8.92 Y-37.52 Z2.06 F1800.0
G1 X8.92 Y-38.25 Z2.06 F1800.0
G1 X10.56 Y-38.25 Z2.06 F1800.0
G1 X10.56 Y-37.76 Z2.06 F1800.0
G1 X12.98 Y-37.76 Z2.06 F1800.0
G1 X12.98 Y-38.25 Z2.06 F1800.0
G1 X14.61 Y-38.25 Z2.06 F1800.0
G1 X14.61 Y-37.76 Z2.06 F1800.0
G1 X17.03 Y-37.76 Z2.06 F1800.0
G1 X17.03 Y-38.25 Z2.06 F1800.0
G1 X18.67 Y-38.25 Z2.06 F1800.0
G1 X18.67 Y-37.76 Z2.06 F1800.0
G1 X29.19 Y-37.76 Z2.06 F1800.0
G1 X29.19 Y-38.25 Z2.06 F1800.0
G1 X30.83 Y-38.25 Z2.06 F1800.0
G1 X30.83 Y-37.76 Z2.06 F1800.0
G1 X33.25 Y-37.76 Z2.06 F1800.0
G1 X33.25 Y-38.25 Z2.06 F1800.0
G1 X34.88 Y-38.25 Z2.06 F1800.0
G1 X34.88 Y-37.76 Z2.06 F1800.0
G1 X37.3 Y-37.76 Z2.06 F1800.0
G1 X37.3 Y-38.25 Z2.06 F1800.0
G1 X38.94 Y-38.25 Z2.06 F1800.0
G1 X38.94 Y-37.76 Z2.06 F1800.0
G1 X42.39 Y-37.76 Z2.06 F1800.0
G1 X42.55 Y-37.63 Z2.06 F1800.0
G1 X42.55 Y-34.15 Z2.06 F1800.0
G1 X43.04 Y-34.15 Z2.06 F1800.0
G1 X43.04 Y-32.51 Z2.06 F1800.0
G1 X42.55 Y-32.51 Z2.06 F1800.0
G1 X42.55 Y-30.09 Z2.06 F1800.0
G1 X43.04 Y-30.09 Z2.06 F1800.0
G1 X43.04 Y-28.46 Z2.06 F1800.0
G1 X42.55 Y-28.46 Z2.06 F1800.0
G1 X42.55 Y-26.04 Z2.06 F1800.0
G1 X43.04 Y-26.04 Z2.06 F1800.0
G1 X43.04 Y-24.4 Z2.06 F1800.0
G1 X42.55 Y-24.4 Z2.06 F1800.0
G1 X42.55 Y-13.88 Z2.06 F1800.0
G1 X43.04 Y-13.88 Z2.06 F1800.0
G1 X43.04 Y-12.24 Z2.06 F1800.0
G1 X42.55 Y-12.24 Z2.06 F1800.0
G1 X42.55 Y-9.82 Z2.06 F1800.0
G1 X43.04 Y-9.82 Z2.06 F1800.0
G1 X43.04 Y-8.19 Z2.06 F1800.0
G1 X42.55 Y-8.19 Z2.06 F1800.0
G1 X42.55 Y-5.77 Z2.06 F1800.0
G1 X43.04 Y-5.77 Z2.06 F1800.0
G1 X43.04 Y-4.13 Z2.06 F1800.0
G1 X42.79 Y-4.13 Z2.06 F1800.0
G1 X42.55 Y-3.83 Z2.06 F1800.0
G1 X25.21 Y-3.83 Z2.06 F1800.0
G1 X25.21 Y-19.97 Z2.06 F1800.0
M108 R30.0
M102
G1 X25.21 Y-20.42 Z2.06 F1800.0
M108 R3.569
M103
(</perimeter>)
(</boundaryPerimeter>)
(<surroundingLoop>)
(<boundaryPerimeter>)
(<boundaryPoint> X26.76 Y-20.22 Z2.06 </boundaryPoint>)
(<boundaryPoint> X26.76 Y-6.165 Z2.06 </boundaryPoint>)
(<boundaryPoint> X40.76 Y-6.165 Z2.06 </boundaryPoint>)
(<boundaryPoint> X40.76 Y-20.22 Z2.06 </boundaryPoint>)
(<perimeter> inner )
G1 X25.76 Y-20.42 Z2.06 F3000.0
M108 R30.0
M101
G1 X26.56 Y-20.42 Z2.06 F3000.0
M108 R3.569
G1 X26.56 Y-5.97 Z2.06 F1800.0
G1 X40.96 Y-5.97 Z2.06 F1800.0
G1 X40.96 Y-20.42 Z2.06 F1800.0
G1 X27.01 Y-20.42 Z2.06 F1800.0
M108 R30.0
M102
G1 X26.56 Y-20.42 Z2.06 F1800.0
M108 R3.569
M103
(</perimeter>)
(</boundaryPerimeter>)
(</surroundingLoop>)
(<surroundingLoop>)
(<boundaryPerimeter>)
(<boundaryPoint> X40.76 Y-23.72 Z2.06 </boundaryPoint>)
(<boundaryPoint> X40.76 Y-35.186 Z2.06 </boundaryPoint>)
(<boundaryPoint> X26.76 Y-35.186 Z2.06 </boundaryPoint>)
(<boundaryPoint> X26.76 Y-23.72 Z2.06 </boundaryPoint>)
(<perimeter> inner )
G1 X26.56 Y-22.72 Z2.06 F3000.0
M108 R30.0
M101
G1 X26.56 Y-23.52 Z2.06 F3000.0
M108 R3.569
G1 X40.96 Y-23.52 Z2.06 F1800.0
G1 X40.96 Y-35.38 Z2.06 F1800.0
G1 X26.56 Y-35.38 Z2.06 F1800.0
G1 X26.56 Y-23.97 Z2.06 F1800.0
M108 R30.0
M102
G1 X26.56 Y-23.52 Z2.06 F1800.0
M108 R3.569
M103
(</perimeter>)
(</boundaryPerimeter>)
(</surroundingLoop>)
(<surroundingLoop>)
(<boundaryPerimeter>)
(<boundaryPoint> X13.489 Y-35.186 Z2.06 </boundaryPoint>)
(<boundaryPoint> X13.489 Y-23.72 Z2.06 </boundaryPoint>)
(<boundaryPoint> X25.01 Y-23.72 Z2.06 </boundaryPoint>)
(<boundaryPoint> X25.01 Y-35.186 Z2.06 </boundaryPoint>)
(<perimeter> inner )
G1 X26.01 Y-23.52 Z2.06 F3000.0
M108 R30.0
M101
G1 X25.21 Y-23.52 Z2.06 F3000.0
M108 R3.569
G1 X25.21 Y-35.38 Z2.06 F1800.0
G1 X13.29 Y-35.38 Z2.06 F1800.0
G1 X13.29 Y-23.52 Z2.06 F1800.0
G1 X25.21 Y-23.52 Z2.06 F1800.0
M103
(</perimeter>)
(</boundaryPerimeter>)
(</surroundingLoop>)
G1 X25.86 Y-23.13 Z2.06 F3000.0
M101
G1 X25.92 Y-23.13 Z2.06 F1800.0
G1 X25.92 Y-23.56 Z2.06 F1800.0
G1 X25.86 Y-23.56 Z2.06 F1800.0
G1 X25.86 Y-24.0 Z2.06 F1800.0
G1 X25.92 Y-24.0 Z2.06 F1800.0
G1 X25.92 Y-24.44 Z2.06 F1800.0
G1 X25.86 Y-24.44 Z2.06 F1800.0
G1 X25.86 Y-24.87 Z2.06 F1800.0
G1 X25.92 Y-24.87 Z2.06 F1800.0
G1 X25.92 Y-25.31 Z2.06 F1800.0
G1 X25.86 Y-25.31 Z2.06 F1800.0
G1 X25.86 Y-25.74 Z2.06 F1800.0
G1 X25.92 Y-25.74 Z2.06 F1800.0
G1 X25.92 Y-26.18 Z2.06 F1800.0
G1 X25.86 Y-26.18 Z2.06 F1800.0
G1 X25.86 Y-26.62 Z2.06 F1800.0
G1 X25.92 Y-26.62 Z2.06 F1800.0
G1 X25.92 Y-27.05 Z2.06 F1800.0
G1 X25.86 Y-27.05 Z2.06 F1800.0
G1 X25.86 Y-27.49 Z2.06 F1800.0
G1 X25.92 Y-27.49 Z2.06 F1800.0
G1 X25.92 Y-27.93 Z2.06 F1800.0
G1 X25.86 Y-27.93 Z2.06 F1800.0
G1 X25.86 Y-28.36 Z2.06 F1800.0
G1 X25.92 Y-28.36 Z2.06 F1800.0
G1 X25.92 Y-28.8 Z2.06 F1800.0
G1 X25.86 Y-28.8 Z2.06 F1800.0
G1 X25.86 Y-29.23 Z2.06 F1800.0
G1 X25.92 Y-29.23 Z2.06 F1800.0
G1 X25.92 Y-29.67 Z2.06 F1800.0
G1 X25.86 Y-29.67 Z2.06 F1800.0
G1 X25.86 Y-30.11 Z2.06 F1800.0
G1 X25.92 Y-30.11 Z2.06 F1800.0
G1 X25.92 Y-30.54 Z2.06 F1800.0
G1 X25.86 Y-30.54 Z2.06 F1800.0
G1 X25.86 Y-30.98 Z2.06 F1800.0
G1 X25.92 Y-30.98 Z2.06 F1800.0
G1 X25.92 Y-31.42 Z2.06 F1800.0
G1 X25.86 Y-31.42 Z2.06 F1800.0
G1 X25.86 Y-31.85 Z2.06 F1800.0
G1 X25.92 Y-31.85 Z2.06 F1800.0
G1 X25.92 Y-32.29 Z2.06 F1800.0
G1 X25.86 Y-32.29 Z2.06 F1800.0
G1 X25.86 Y-32.73 Z2.06 F1800.0
G1 X25.92 Y-32.73 Z2.06 F1800.0
G1 X25.92 Y-33.16 Z2.06 F1800.0
G1 X25.86 Y-33.16 Z2.06 F1800.0
G1 X25.86 Y-33.6 Z2.06 F1800.0
G1 X25.92 Y-33.6 Z2.06 F1800.0
G1 X25.92 Y-34.03 Z2.06 F1800.0
G1 X25.86 Y-34.03 Z2.06 F1800.0
G1 X25.86 Y-34.47 Z2.06 F1800.0
G1 X25.92 Y-34.47 Z2.06 F1800.0
G1 X25.92 Y-34.91 Z2.06 F1800.0
G1 X25.86 Y-34.91 Z2.06 F1800.0
G1 X25.86 Y-35.34 Z2.06 F1800.0
G1 X25.92 Y-35.34 Z2.06 F1800.0
G1 X25.92 Y-35.39 Z2.06 F1800.0
M108 R30.0
M102
G1 X25.92 Y-35.78 Z2.06 F1800.0
G1 X25.86 Y-35.78 Z2.06 F1800.0
M108 R3.569
M103
G1 X22.86 Y-35.46 Z2.06 F3000.0
G1 X13.35 Y-35.32 Z2.06 F3000.0
G1 X13.23 Y-33.53 Z2.06 F3000.0
M108 R30.0
M101
G1 X13.21 Y-33.33 Z2.06 F3000.0
G1 X12.64 Y-33.16 Z2.06 F3000.0
M108 R3.569
G1 X12.64 Y-35.78 Z2.06 F1800.0
G1 X9.69 Y-35.88 Z2.06 F1800.0
G1 X9.27 Y-35.78 Z2.06 F1800.0
G1 X9.27 Y-31.85 Z2.06 F1800.0
G1 X9.69 Y-31.75 Z2.06 F1800.0
G1 X9.95 Y-31.75 Z2.06 F1800.0
G1 X12.64 Y-32.73 Z2.06 F1800.0
G1 X12.64 Y-29.23 Z2.06 F1800.0
G1 X9.95 Y-31.52 Z2.06 F1800.0
G1 X9.69 Y-31.52 Z2.06 F1800.0
G1 X9.27 Y-31.42 Z2.06 F1800.0
G1 X9.27 Y-27.49 Z2.06 F1800.0
G1 X9.69 Y-27.39 Z2.06 F1800.0
G1 X9.95 Y-27.39 Z2.06 F1800.0
G1 X12.64 Y-28.8 Z2.06 F1800.0
G1 X12.64 Y-24.87 Z2.06 F1800.0
G1 X9.95 Y-27.16 Z2.06 F1800.0
G1 X9.69 Y-27.16 Z2.06 F1800.0
G1 X9.27 Y-27.05 Z2.06 F1800.0
G1 X9.27 Y-23.13 Z2.06 F1800.0
G1 X9.69 Y-23.02 Z2.06 F1800.0
G1 X12.64 Y-23.13 Z2.06 F1800.0
G1 X12.64 Y-23.99 Z2.06 F1800.0
M108 R30.0
M102
G1 X12.64 Y-24.44 Z2.06 F1800.0
M108 R3.569
M103
G1 X9.86 Y-21.92 Z2.06 F3000.0
M108 R30.0
M101
G1 X9.27 Y-21.38 Z2.06 F3000.0
M108 R3.569
G1 X9.27 Y-22.69 Z2.06 F1800.0
G1 X9.69 Y-22.79 Z2.06 F1800.0
G1 X41.9 Y-22.25 Z2.06 F1800.0
G1 X41.9 Y-20.94 Z2.06 F1800.0
G1 X41.61 Y-20.94 Z2.06 F1800.0
G1 X41.9 Y-20.51 Z2.06 F1800.0
G1 X41.61 Y-20.51 Z2.06 F1800.0
G1 X41.9 Y-20.07 Z2.06 F1800.0
G1 X41.61 Y-20.07 Z2.06 F1800.0
G1 X41.9 Y-19.64 Z2.06 F1800.0
G1 X41.61 Y-19.64 Z2.06 F1800.0
G1 X41.9 Y-19.2 Z2.06 F1800.0
G1 X41.61 Y-19.2 Z2.06 F1800.0
G1 X41.9 Y-18.76 Z2.06 F1800.0
G1 X41.61 Y-18.76 Z2.06 F1800.0
G1 X41.9 Y-18.33 Z2.06 F1800.0
G1 X41.61 Y-18.33 Z2.06 F1800.0
G1 X41.9 Y-17.89 Z2.06 F1800.0
G1 X41.61 Y-17.89 Z2.06 F1800.0
G1 X41.9 Y-17.45 Z2.06 F1800.0
G1 X41.61 Y-17.45 Z2.06 F1800.0
G1 X41.9 Y-17.02 Z2.06 F1800.0
G1 X41.61 Y-17.02 Z2.06 F1800.0
G1 X41.9 Y-16.58 Z2.06 F1800.0
G1 X41.61 Y-16.58 Z2.06 F1800.0
G1 X41.9 Y-16.14 Z2.06 F1800.0
G1 X41.61 Y-16.14 Z2.06 F1800.0
G1 X41.9 Y-15.71 Z2.06 F1800.0
G1 X41.61 Y-15.71 Z2.06 F1800.0
G1 X41.9 Y-15.27 Z2.06 F1800.0
G1 X41.61 Y-15.27 Z2.06 F1800.0
G1 X41.9 Y-14.84 Z2.06 F1800.0
G1 X41.61 Y-14.84 Z2.06 F1800.0
G1 X41.9 Y-14.4 Z2.06 F1800.0
G1 X41.61 Y-14.4 Z2.06 F1800.0
G1 X41.9 Y-13.96 Z2.06 F1800.0
G1 X41.61 Y-13.96 Z2.06 F1800.0
G1 X42.0 Y-13.53 Z2.06 F1800.0
G1 X41.61 Y-13.53 Z2.06 F1800.0
G1 X42.26 Y-13.09 Z2.06 F1800.0
G1 X41.61 Y-13.09 Z2.06 F1800.0
G1 X42.04 Y-12.65 Z2.06 F1800.0
G1 X41.61 Y-12.65 Z2.06 F1800.0
G1 X41.9 Y-12.22 Z2.06 F1800.0
G1 X41.61 Y-12.22 Z2.06 F1800.0
G1 X41.9 Y-11.78 Z2.06 F1800.0
G1 X41.61 Y-11.78 Z2.06 F1800.0
G1 X41.9 Y-11.35 Z2.06 F1800.0
G1 X41.61 Y-11.35 Z2.06 F1800.0
G1 X41.9 Y-10.91 Z2.06 F1800.0
G1 X41.61 Y-10.91 Z2.06 F1800.0
G1 X41.9 Y-10.47 Z2.06 F1800.0
G1 X41.61 Y-10.47 Z2.06 F1800.0
G1 X41.9 Y-10.04 Z2.06 F1800.0
G1 X41.61 Y-10.04 Z2.06 F1800.0
G1 X41.92 Y-9.6 Z2.06 F1800.0
G1 X41.61 Y-9.6 Z2.06 F1800.0
G1 X42.19 Y-9.16 Z2.06 F1800.0
G1 X41.61 Y-9.16 Z2.06 F1800.0
G1 X42.12 Y-8.73 Z2.06 F1800.0
G1 X41.61 Y-8.73 Z2.06 F1800.0
G1 X41.9 Y-8.29 Z2.06 F1800.0
G1 X41.61 Y-8.29 Z2.06 F1800.0
G1 X41.9 Y-7.85 Z2.06 F1800.0
G1 X41.61 Y-7.85 Z2.06 F1800.0
G1 X41.9 Y-7.42 Z2.06 F1800.0
G1 X41.61 Y-7.42 Z2.06 F1800.0
G1 X41.9 Y-6.98 Z2.06 F1800.0
G1 X41.61 Y-6.98 Z2.06 F1800.0
G1 X41.9 Y-6.55 Z2.06 F1800.0
G1 X41.61 Y-6.55 Z2.06 F1800.0
G1 X41.9 Y-6.11 Z2.06 F1800.0
G1 X41.61 Y-6.11 Z2.06 F1800.0
G1 X41.81 Y-5.8 Z2.06 F1800.0
M108 R30.0
M102
G1 X41.9 Y-5.67 Z2.06 F1800.0
G1 X41.61 Y-5.67 Z2.06 F1800.0
M108 R3.569
M103
G1 X41.81 Y-5.42 Z2.06 F3000.0
M108 R30.0
M101
G1 X42.32 Y-4.8 Z2.06 F3000.0
M108 R3.569
G1 X42.11 Y-5.24 Z2.06 F1800.0
G1 X25.86 Y-4.8 Z2.06 F1800.0
G1 X25.86 Y-5.67 Z2.06 F1800.0
G1 X25.92 Y-5.67 Z2.06 F1800.0
G1 X25.92 Y-6.11 Z2.06 F1800.0
G1 X25.86 Y-6.11 Z2.06 F1800.0
G1 X25.86 Y-6.55 Z2.06 F1800.0
G1 X25.92 Y-6.55 Z2.06 F1800.0
G1 X25.92 Y-6.98 Z2.06 F1800.0
G1 X25.86 Y-6.98 Z2.06 F1800.0
G1 X25.86 Y-7.42 Z2.06 F1800.0
G1 X25.92 Y-7.42 Z2.06 F1800.0
G1 X25.92 Y-7.85 Z2.06 F1800.0
G1 X25.86 Y-7.85 Z2.06 F1800.0
G1 X25.86 Y-8.29 Z2.06 F1800.0
G1 X25.92 Y-8.29 Z2.06 F1800.0
G1 X25.92 Y-8.73 Z2.06 F1800.0
G1 X25.86 Y-8.73 Z2.06 F1800.0
G1 X25.86 Y-9.16 Z2.06 F1800.0
G1 X25.92 Y-9.16 Z2.06 F1800.0
G1 X25.92 Y-9.6 Z2.06 F1800.0
G1 X25.86 Y-9.6 Z2.06 F1800.0
G1 X25.86 Y-10.04 Z2.06 F1800.0
G1 X25.92 Y-10.04 Z2.06 F1800.0
G1 X25.92 Y-10.47 Z2.06 F1800.0
G1 X25.86 Y-10.47 Z2.06 F1800.0
G1 X25.86 Y-10.91 Z2.06 F1800.0
G1 X25.92 Y-10.91 Z2.06 F1800.0
G1 X25.92 Y-11.35 Z2.06 F1800.0
G1 X25.86 Y-11.35 Z2.06 F1800.0
G1 X25.86 Y-11.78 Z2.06 F1800.0
G1 X25.92 Y-11.78 Z2.06 F1800.0
G1 X25.92 Y-12.22 Z2.06 F1800.0
G1 X25.86 Y-12.22 Z2.06 F1800.0
G1 X25.86 Y-12.65 Z2.06 F1800.0
G1 X25.92 Y-12.65 Z2.06 F1800.0
G1 X25.92 Y-13.09 Z2.06 F1800.0
G1 X25.86 Y-13.09 Z2.06 F1800.0
G1 X25.86 Y-13.53 Z2.06 F1800.0
G1 X25.92 Y-13.53 Z2.06 F1800.0
G1 X25.92 Y-13.96 Z2.06 F1800.0
G1 X25.86 Y-13.96 Z2.06 F1800.0
G1 X25.86 Y-14.4 Z2.06 F1800.0
G1 X25.92 Y-14.4 Z2.06 F1800.0
G1 X25.92 Y-14.84 Z2.06 F1800.0
G1 X25.86 Y-14.84 Z2.06 F1800.0
G1 X25.86 Y-15.27 Z2.06 F1800.0
G1 X25.92 Y-15.27 Z2.06 F1800.0
G1 X25.92 Y-15.71 Z2.06 F1800.0
G1 X25.86 Y-15.71 Z2.06 F1800.0
G1 X25.86 Y-16.14 Z2.06 F1800.0
G1 X25.92 Y-16.14 Z2.06 F1800.0
G1 X25.92 Y-16.58 Z2.06 F1800.0
G1 X25.86 Y-16.58 Z2.06 F1800.0
G1 X25.86 Y-17.02 Z2.06 F1800.0
G1 X25.92 Y-17.02 Z2.06 F1800.0
G1 X25.92 Y-17.45 Z2.06 F1800.0
G1 X25.86 Y-17.45 Z2.06 F1800.0
G1 X25.86 Y-17.89 Z2.06 F1800.0
G1 X25.92 Y-17.89 Z2.06 F1800.0
G1 X25.92 Y-18.33 Z2.06 F1800.0
G1 X25.86 Y-18.33 Z2.06 F1800.0
G1 X25.86 Y-18.76 Z2.06 F1800.0
G1 X25.92 Y-18.76 Z2.06 F1800.0
G1 X25.92 Y-19.2 Z2.06 F1800.0
G1 X25.86 Y-19.2 Z2.06 F1800.0
G1 X25.86 Y-19.64 Z2.06 F1800.0
G1 X25.92 Y-19.64 Z2.06 F1800.0
G1 X25.92 Y-20.07 Z2.06 F1800.0
G1 X25.86 Y-20.07 Z2.06 F1800.0
G1 X25.86 Y-20.51 Z2.06 F1800.0
G1 X25.92 Y-20.51 Z2.06 F1800.0
G1 X25.92 Y-20.55 Z2.06 F1800.0
M108 R30.0
M102
G1 X25.92 Y-20.94 Z2.06 F1800.0
G1 X25.86 Y-20.94 Z2.06 F1800.0
M108 R3.569
M103
G1 X41.1 Y-22.6 Z2.06 F3000.0
M108 R30.0
M101
G1 X41.9 Y-22.69 Z2.06 F3000.0
M108 R3.569
G1 X41.61 Y-23.13 Z2.06 F1800.0
G1 X41.9 Y-23.13 Z2.06 F1800.0
G1 X41.9 Y-23.56 Z2.06 F1800.0
G1 X41.61 Y-23.56 Z2.06 F1800.0
G1 X41.9 Y-24.0 Z2.06 F1800.0
G1 X41.61 Y-24.0 Z2.06 F1800.0
G1 X41.9 Y-24.44 Z2.06 F1800.0
G1 X41.61 Y-24.44 Z2.06 F1800.0
G1 X42.07 Y-24.87 Z2.06 F1800.0
G1 X41.61 Y-24.87 Z2.06 F1800.0
G1 X42.23 Y-25.31 Z2.06 F1800.0
G1 X41.61 Y-25.31 Z2.06 F1800.0
G1 X41.97 Y-25.74 Z2.06 F1800.0
G1 X41.61 Y-25.74 Z2.06 F1800.0
G1 X41.9 Y-26.18 Z2.06 F1800.0
G1 X41.61 Y-26.18 Z2.06 F1800.0
G1 X41.9 Y-26.62 Z2.06 F1800.0
G1 X41.61 Y-26.62 Z2.06 F1800.0
G1 X41.9 Y-27.05 Z2.06 F1800.0
G1 X41.61 Y-27.05 Z2.06 F1800.0
G1 X41.9 Y-27.49 Z2.06 F1800.0
G1 X41.61 Y-27.49 Z2.06 F1800.0
G1 X41.9 Y-27.93 Z2.06 F1800.0
G1 X41.61 Y-27.93 Z2.06 F1800.0
G1 X41.9 Y-28.36 Z2.06 F1800.0
G1 X41.61 Y-28.36 Z2.06 F1800.0
G1 X42.0 Y-28.8 Z2.06 F1800.0
G1 X41.61 Y-28.8 Z2.06 F1800.0
G1 X42.26 Y-29.23 Z2.06 F1800.0
G1 X41.61 Y-29.23 Z2.06 F1800.0
G1 X42.04 Y-29.67 Z2.06 F1800.0
G1 X41.61 Y-29.67 Z2.06 F1800.0
G1 X41.9 Y-30.11 Z2.06 F1800.0
G1 X41.61 Y-30.11 Z2.06 F1800.0
G1 X41.9 Y-30.54 Z2.06 F1800.0
G1 X41.61 Y-30.54 Z2.06 F1800.0
G1 X41.9 Y-30.98 Z2.06 F1800.0
G1 X41.61 Y-30.98 Z2.06 F1800.0
G1 X41.9 Y-31.42 Z2.06 F1800.0
G1 X41.61 Y-31.42 Z2.06 F1800.0
G1 X41.9 Y-31.85 Z2.06 F1800.0
G1 X41.61 Y-31.85 Z2.06 F1800.0
G1 X41.9 Y-32.29 Z2.06 F1800.0
G1 X41.61 Y-32.29 Z2.06 F1800.0
G1 X41.92 Y-32.73 Z2.06 F1800.0
G1 X41.61 Y-32.73 Z2.06 F1800.0
G1 X42.18 Y-33.16 Z2.06 F1800.0
G1 X41.61 Y-33.16 Z2.06 F1800.0
G1 X42.12 Y-33.6 Z2.06 F1800.0
G1 X41.61 Y-33.6 Z2.06 F1800.0
G1 X41.9 Y-34.03 Z2.06 F1800.0
G1 X41.61 Y-34.03 Z2.06 F1800.0
G1 X41.9 Y-34.47 Z2.06 F1800.0
G1 X41.61 Y-34.47 Z2.06 F1800.0
G1 X41.9 Y-34.91 Z2.06 F1800.0
G1 X41.61 Y-34.91 Z2.06 F1800.0
G1 X41.9 Y-35.34 Z2.06 F1800.0
G1 X41.61 Y-35.34 Z2.06 F1800.0
G1 X41.9 Y-35.78 Z2.06 F1800.0
G1 X41.61 Y-35.78 Z2.06 F1800.0
G1 X41.9 Y-36.22 Z2.06 F1800.0
G1 X41.9 Y-37.09 Z2.06 F1800.0
G1 X9.69 Y-36.11 Z2.06 F1800.0
G1 X9.27 Y-36.22 Z2.06 F1800.0
G1 X9.33 Y-36.65 Z2.06 F1800.0
G1 X9.34 Y-36.66 Z2.06 F1800.0
M108 R30.0
M102
G1 X9.47 Y-37.09 Z2.06 F1800.0
M108 R3.569
M103
(</surroundingLoop>)
(</layer>)
(<layer> 2.38 )
(<surroundingLoop>)
(<boundaryPerimeter>)
(<boundaryPoint> X43.239 Y-5.963 Z2.38 </boundaryPoint>)
(<boundaryPoint> X43.239 Y-3.936 Z2.38 </boundaryPoint>)
(<boundaryPoint> X42.51 Y-3.936 Z2.38 </boundaryPoint>)
(<boundaryPoint> X42.51 Y-3.632 Z2.38 </boundaryPoint>)
(<boundaryPoint> X25.01 Y-3.632 Z2.38 </boundaryPoint>)
(<boundaryPoint> X25.01 Y-20.22 Z2.38 </boundaryPoint>)
(<boundaryPoint> X8.422 Y-20.22 Z2.38 </boundaryPoint>)
(<boundaryPoint> X8.422 Y-37.72 Z2.38 </boundaryPoint>)
(<boundaryPoint> X8.726 Y-37.72 Z2.38 </boundaryPoint>)
(<boundaryPoint> X8.726 Y-38.448 Z2.38 </boundaryPoint>)
(<boundaryPoint> X10.753 Y-38.448 Z2.38 </boundaryPoint>)
(<boundaryPoint> X10.753 Y-37.841 Z2.38 </boundaryPoint>)
(<boundaryPoint> X12.78 Y-37.841 Z2.38 </boundaryPoint>)
(<boundaryPoint> X12.78 Y-38.448 Z2.38 </boundaryPoint>)
(<boundaryPoint> X14.807 Y-38.448 Z2.38 </boundaryPoint>)
(<boundaryPoint> X14.807 Y-37.841 Z2.38 </boundaryPoint>)
(<boundaryPoint> X16.834 Y-37.841 Z2.38 </boundaryPoint>)
(<boundaryPoint> X16.834 Y-38.448 Z2.38 </boundaryPoint>)
(<boundaryPoint> X18.861 Y-38.448 Z2.38 </boundaryPoint>)
(<boundaryPoint> X18.861 Y-37.72 Z2.38 </boundaryPoint>)
(<boundaryPoint> X28.996 Y-37.72 Z2.38 </boundaryPoint>)
(<boundaryPoint> X28.996 Y-38.448 Z2.38 </boundaryPoint>)
(<boundaryPoint> X31.023 Y-38.448 Z2.38 </boundaryPoint>)
(<boundaryPoint> X31.023 Y-37.841 Z2.38 </boundaryPoint>)
(<boundaryPoint> X33.05 Y-37.841 Z2.38 </boundaryPoint>)
(<boundaryPoint> X33.05 Y-38.448 Z2.38 </boundaryPoint>)
(<boundaryPoint> X35.077 Y-38.448 Z2.38 </boundaryPoint>)
(<boundaryPoint> X35.077 Y-37.841 Z2.38 </boundaryPoint>)
(<boundaryPoint> X37.104 Y-37.841 Z2.38 </boundaryPoint>)
(<boundaryPoint> X37.104 Y-38.448 Z2.38 </boundaryPoint>)
(<boundaryPoint> X39.131 Y-38.448 Z2.38 </boundaryPoint>)
(<boundaryPoint> X39.131 Y-37.72 Z2.38 </boundaryPoint>)
(<boundaryPoint> X42.51 Y-37.72 Z2.38 </boundaryPoint>)
(<boundaryPoint> X42.51 Y-34.341 Z2.38 </boundaryPoint>)
(<boundaryPoint> X43.239 Y-34.341 Z2.38 </boundaryPoint>)
(<boundaryPoint> X43.239 Y-32.314 Z2.38 </boundaryPoint>)
(<boundaryPoint> X42.631 Y-32.314 Z2.38 </boundaryPoint>)
(<boundaryPoint> X42.631 Y-30.287 Z2.38 </boundaryPoint>)
(<boundaryPoint> X43.239 Y-30.287 Z2.38 </boundaryPoint>)
(<boundaryPoint> X43.239 Y-28.26 Z2.38 </boundaryPoint>)
(<boundaryPoint> X42.631 Y-28.26 Z2.38 </boundaryPoint>)
(<boundaryPoint> X42.631 Y-26.233 Z2.38 </boundaryPoint>)
(<boundaryPoint> X43.239 Y-26.233 Z2.38 </boundaryPoint>)
(<boundaryPoint> X43.239 Y-24.206 Z2.38 </boundaryPoint>)
(<boundaryPoint> X42.51 Y-24.206 Z2.38 </boundaryPoint>)
(<boundaryPoint> X42.51 Y-14.071 Z2.38 </boundaryPoint>)
(<boundaryPoint> X43.239 Y-14.071 Z2.38 </boundaryPoint>)
(<boundaryPoint> X43.239 Y-12.044 Z2.38 </boundaryPoint>)
(<boundaryPoint> X42.631 Y-12.044 Z2.38 </boundaryPoint>)
(<boundaryPoint> X42.631 Y-10.017 Z2.38 </boundaryPoint>)
(<boundaryPoint> X43.239 Y-10.017 Z2.38 </boundaryPoint>)
(<boundaryPoint> X43.239 Y-7.99 Z2.38 </boundaryPoint>)
(<boundaryPoint> X42.631 Y-7.99 Z2.38 </boundaryPoint>)
(<boundaryPoint> X42.631 Y-5.963 Z2.38 </boundaryPoint>)
(<loop> inner )
G1 X13.21 Y-33.2 Z2.38 F3000.0
G1 X13.35 Y-23.58 Z2.38 F3000.0
G1 X23.3 Y-23.45 Z2.38 F3000.0
G1 X25.71 Y-21.34 Z2.38 F3000.0
M108 R30.0
M101
G1 X26.31 Y-20.81 Z2.38 F3000.0
M108 R3.569
G1 X26.17 Y-20.81 Z2.38 F1800.0
G1 X26.17 Y-5.58 Z2.38 F1800.0
G1 X41.35 Y-5.58 Z2.38 F1800.0
G1 X41.35 Y-20.81 Z2.38 F1800.0
G1 X26.76 Y-20.81 Z2.38 F1800.0
M108 R30.0
M102
G1 X26.31 Y-20.81 Z2.38 F1800.0
M108 R3.569
M103
(</loop>)
(<loop> inner )
G1 X26.22 Y-22.33 Z2.38 F3000.0
M108 R30.0
M101
G1 X26.17 Y-23.13 Z2.38 F3000.0
M108 R3.569
G1 X41.35 Y-23.13 Z2.38 F1800.0
G1 X41.35 Y-35.78 Z2.38 F1800.0
G1 X26.17 Y-35.78 Z2.38 F1800.0
G1 X26.17 Y-23.13 Z2.38 F1800.0
M103
(</loop>)
(<loop> inner )
G1 X25.6 Y-23.13 Z2.38 F3000.0
M101
G1 X25.6 Y-35.78 Z2.38 F1800.0
G1 X12.9 Y-35.78 Z2.38 F1800.0
G1 X12.9 Y-23.13 Z2.38 F1800.0
G1 X25.15 Y-23.13 Z2.38 F1800.0
M108 R30.0
M102
G1 X25.6 Y-23.13 Z2.38 F1800.0
M108 R3.569
M103
(</loop>)
(<loop> outer )
G1 X25.6 Y-21.61 Z2.38 F3000.0
M108 R30.0
M101
G1 X25.6 Y-20.81 Z2.38 F3000.0
M108 R3.569
G1 X9.01 Y-20.81 Z2.38 F1800.0
G1 X9.01 Y-36.48 Z2.38 F1800.0
G1 X9.27 Y-37.3 Z2.38 F1800.0
G1 X9.76 Y-37.74 Z2.38 F1800.0
G1 X10.43 Y-37.25 Z2.38 F1800.0
G1 X13.11 Y-37.25 Z2.38 F1800.0
G1 X13.79 Y-37.76 Z2.38 F1800.0
G1 X14.48 Y-37.25 Z2.38 F1800.0
G1 X17.16 Y-37.25 Z2.38 F1800.0
G1 X17.83 Y-37.74 Z2.38 F1800.0
G1 X18.52 Y-37.13 Z2.38 F1800.0
G1 X29.34 Y-37.13 Z2.38 F1800.0
G1 X30.03 Y-37.74 Z2.38 F1800.0
G1 X30.7 Y-37.25 Z2.38 F1800.0
G1 X33.38 Y-37.25 Z2.38 F1800.0
G1 X34.06 Y-37.76 Z2.38 F1800.0
G1 X34.75 Y-37.25 Z2.38 F1800.0
G1 X37.43 Y-37.25 Z2.38 F1800.0
G1 X38.1 Y-37.74 Z2.38 F1800.0
G1 X38.78 Y-37.13 Z2.38 F1800.0
G1 X41.92 Y-37.13 Z2.38 F1800.0
G1 X41.92 Y-33.99 Z2.38 F1800.0
G1 X42.54 Y-33.31 Z2.38 F1800.0
G1 X42.04 Y-32.64 Z2.38 F1800.0
G1 X42.04 Y-29.96 Z2.38 F1800.0
G1 X42.55 Y-29.27 Z2.38 F1800.0
G1 X42.04 Y-28.59 Z2.38 F1800.0
G1 X42.04 Y-25.91 Z2.38 F1800.0
G1 X42.54 Y-25.24 Z2.38 F1800.0
G1 X41.92 Y-24.55 Z2.38 F1800.0
G1 X41.92 Y-13.73 Z2.38 F1800.0
G1 X42.54 Y-13.04 Z2.38 F1800.0
G1 X42.04 Y-12.37 Z2.38 F1800.0
G1 X42.04 Y-9.69 Z2.38 F1800.0
G1 X42.55 Y-9.0 Z2.38 F1800.0
G1 X42.04 Y-8.32 Z2.38 F1800.0
G1 X42.04 Y-5.64 Z2.38 F1800.0
G1 X42.54 Y-4.97 Z2.38 F1800.0
G1 X42.09 Y-4.48 Z2.38 F1800.0
G1 X41.27 Y-4.22 Z2.38 F1800.0
G1 X25.6 Y-4.22 Z2.38 F1800.0
G1 X25.6 Y-20.81 Z2.38 F1800.0
M103
(</loop>)
(<perimeter> outer )
G1 X25.21 Y-20.42 Z2.38 F3000.0
M101
G1 X8.62 Y-20.42 Z2.38 F1800.0
G1 X8.62 Y-37.52 Z2.38 F1800.0
G1 X8.92 Y-37.52 Z2.38 F1800.0
G1 X8.92 Y-38.25 Z2.38 F1800.0
G1 X10.56 Y-38.25 Z2.38 F1800.0
G1 X10.56 Y-37.65 Z2.38 F1800.0
G1 X12.98 Y-37.65 Z2.38 F1800.0
G1 X12.98 Y-38.25 Z2.38 F1800.0
G1 X14.61 Y-38.25 Z2.38 F1800.0
G1 X14.61 Y-37.65 Z2.38 F1800.0
G1 X17.03 Y-37.65 Z2.38 F1800.0
G1 X17.03 Y-38.25 Z2.38 F1800.0
G1 X18.67 Y-38.25 Z2.38 F1800.0
G1 X18.67 Y-37.52 Z2.38 F1800.0
G1 X29.19 Y-37.52 Z2.38 F1800.0
G1 X29.19 Y-38.25 Z2.38 F1800.0
G1 X30.83 Y-38.25 Z2.38 F1800.0
G1 X30.83 Y-37.65 Z2.38 F1800.0
G1 X33.25 Y-37.65 Z2.38 F1800.0
G1 X33.25 Y-38.25 Z2.38 F1800.0
G1 X34.88 Y-38.25 Z2.38 F1800.0
G1 X34.88 Y-37.65 Z2.38 F1800.0
G1 X37.3 Y-37.65 Z2.38 F1800.0
G1 X37.3 Y-38.25 Z2.38 F1800.0
G1 X38.94 Y-38.25 Z2.38 F1800.0
G1 X38.94 Y-37.52 Z2.38 F1800.0
G1 X42.31 Y-37.52 Z2.38 F1800.0
G1 X42.31 Y-34.15 Z2.38 F1800.0
G1 X43.04 Y-34.15 Z2.38 F1800.0
G1 X43.04 Y-32.51 Z2.38 F1800.0
G1 X42.44 Y-32.51 Z2.38 F1800.0
G1 X42.44 Y-30.09 Z2.38 F1800.0
G1 X43.04 Y-30.09 Z2.38 F1800.0
G1 X43.04 Y-28.46 Z2.38 F1800.0
G1 X42.44 Y-28.46 Z2.38 F1800.0
G1 X42.44 Y-26.04 Z2.38 F1800.0
G1 X43.04 Y-26.04 Z2.38 F1800.0
G1 X43.04 Y-24.4 Z2.38 F1800.0
G1 X42.31 Y-24.4 Z2.38 F1800.0
G1 X42.31 Y-13.88 Z2.38 F1800.0
G1 X43.04 Y-13.88 Z2.38 F1800.0
G1 X43.04 Y-12.24 Z2.38 F1800.0
G1 X42.44 Y-12.24 Z2.38 F1800.0
G1 X42.44 Y-9.82 Z2.38 F1800.0
G1 X43.04 Y-9.82 Z2.38 F1800.0
G1 X43.04 Y-8.19 Z2.38 F1800.0
G1 X42.44 Y-8.19 Z2.38 F1800.0
G1 X42.44 Y-5.77 Z2.38 F1800.0
G1 X43.04 Y-5.77 Z2.38 F1800.0
G1 X43.04 Y-4.13 Z2.38 F1800.0
G1 X42.31 Y-4.13 Z2.38 F1800.0
G1 X42.31 Y-3.83 Z2.38 F1800.0
G1 X25.21 Y-3.83 Z2.38 F1800.0
G1 X25.21 Y-19.97 Z2.38 F1800.0
M108 R30.0
M102
G1 X25.21 Y-20.42 Z2.38 F1800.0
M108 R3.569
M103
(</perimeter>)
(</boundaryPerimeter>)
(<surroundingLoop>)
(<boundaryPerimeter>)
(<boundaryPoint> X26.76 Y-20.22 Z2.38 </boundaryPoint>)
(<boundaryPoint> X26.76 Y-6.165 Z2.38 </boundaryPoint>)
(<boundaryPoint> X40.76 Y-6.165 Z2.38 </boundaryPoint>)
(<boundaryPoint> X40.76 Y-20.22 Z2.38 </boundaryPoint>)
(<perimeter> inner )
G1 X25.76 Y-20.42 Z2.38 F3000.0
M108 R30.0
M101
G1 X26.56 Y-20.42 Z2.38 F3000.0
M108 R3.569
G1 X26.56 Y-5.97 Z2.38 F1800.0
G1 X40.96 Y-5.97 Z2.38 F1800.0
G1 X40.96 Y-20.42 Z2.38 F1800.0
G1 X27.01 Y-20.42 Z2.38 F1800.0
M108 R30.0
M102
G1 X26.56 Y-20.42 Z2.38 F1800.0
M108 R3.569
M103
(</perimeter>)
