(** This GCode was generated by ReplicatorG 0034 **)
(*  using Skeinforge (35)  *)
(*  for a Single headed Thing-O-Matic  *)
(*  on 2012/04/06 23:14:07 (-0400) *)
(**** beginning of start.gcode ****)
(This file is for a MakerBot Thing-O-Matic)
(**** begin initialization commands ****)
G21 (set units to mm)
G90 (set positioning to absolute)
M108 R5.0 (set extruder speed)
M103 (Make sure extruder is off)
M104 S225 T0 (set extruder temperature)
M109 S120 T0 (set heated-build-platform temperature)
(**** end initialization commands ****)
(**** begin homing ****)
G162 Z F1000 (home Z axis maximum)
G92 Z10 (set Z to 0)
G1 Z0 (move z down 10)
G162 Z F150 (home Z axis maximum)
G161 X Y F2500 (home XY axes minimum)
M132 X Y Z A B (Recall stored home offsets for XYZAB axis)
(**** end homing ****)
(**** begin pre-wipe commands ****)
( Some people have had problems with the nozzle hitting )
( bolts or wipers during this pre-extrusion warmup.     )
( If this happens to you, you can change the values for )
( the X and Y positions in the following code.          )
( The goal is to have the toolhead wipe its initial     )
( extrusion near the edge of the platform, [anchor it]  )
( so as not to have it interfere with the print.        )
( This file can be found in:                            )
( replicatorg/skein_engines/skeinforge-##/skeinforge_application/ )
( prefs/<profile name [e.g. Thingomatic-ABP-Mk7]>/alterations )
G1 X25 Y-60 Z10 F3300.0 (move to waiting position)
M6 T0 (wait for toolhead parts, nozzle, HBP, etc., to reach temperature)
G0 X25 Y-57 (Position Nozzle)
G0 Z0.6     (Position Height)
M108 R4.0   (Set Extruder Speed)
M101        (Start Extruder)
G4 P1500    (Create Anchor)
(**** end pre-wipe commands ****)
(**** end of start.gcode ****)
(<creation> skeinforge </creation>)
(<version> 10.11.05 </version>)
(<extruderInitialization>)
(<craftTypeName> extrusion </craftTypeName>)
M105
(<bridgeWidthMultiplier> 1.0 </bridgeWidthMultiplier>)
(<decimalPlacesCarried> 3 </decimalPlacesCarried>)
(<layerThickness> 0.32 </layerThickness>)
(<threadSequenceString> loops perimeter infill </threadSequenceString>)
(<operatingFeedRatePerSecond> 30.0 </operatingFeedRatePerSecond>)
(<operatingFlowRate> 3.56914845556 </operatingFlowRate>)
(<orbitalFeedRatePerSecond> 15.0 </orbitalFeedRatePerSecond>)
(<travelFeedRatePerSecond> 50.0 </travelFeedRatePerSecond>)
(<perimeterWidth> 0.393 </perimeterWidth>)
(<profileName> ABS </profileName>)
(<procedureDone> carve,bottom </procedureDone>)
(<procedureDone> preface </procedureDone>)
(<procedureDone> inset </procedureDone>)
(<procedureDone> fill </procedureDone>)
(<procedureDone> speed </procedureDone>)
(<procedureDone> raft </procedureDone>)
(<procedureDone> jitter </procedureDone>)
(<procedureDone> comb </procedureDone>)
(<procedureDone> cool </procedureDone>)
(<procedureDone> outline </procedureDone>)
(<procedureDone> reversal </procedureDone>)
(<procedureDone> export </procedureDone>)
(</extruderInitialization>)
(<extrusion>)
;M113 S1.0
M108 R3.569
(<layer> 0.46 )
(<surroundingLoop>)
(<boundaryPerimeter>)
(<boundaryPoint> X45.858 Y-6.144 Z0.46 </boundaryPoint>)
(<boundaryPoint> X26.579 Y-6.144 Z0.46 </boundaryPoint>)
(<boundaryPoint> X26.579 Y-22.732 Z0.46 </boundaryPoint>)
(<boundaryPoint> X9.991 Y-22.732 Z0.46 </boundaryPoint>)
(<boundaryPoint> X9.991 Y-40.232 Z0.46 </boundaryPoint>)
(<boundaryPoint> X10.272 Y-40.232 Z0.46 </boundaryPoint>)
(<boundaryPoint> X10.4 Y-40.255 Z0.46 </boundaryPoint>)
(<boundaryPoint> X10.295 Y-40.605 Z0.46 </boundaryPoint>)
(<boundaryPoint> X10.295 Y-42.011 Z0.46 </boundaryPoint>)
(<boundaryPoint> X44.383 Y-42.011 Z0.46 </boundaryPoint>)
(<boundaryPoint> X44.383 Y-40.232 Z0.46 </boundaryPoint>)
(<boundaryPoint> X45.858 Y-40.232 Z0.46 </boundaryPoint>)
(<loop> inner )
M108 R2.141
G1 X8.19 Y2.0 Z0.46 F1080.0
M101
G1 X47.66 Y2.0 Z0.46 F1080.0
G1 X47.66 Y-43.82 Z0.46 F1080.0
G1 X8.19 Y-43.82 Z0.46 F1080.0
G1 X8.19 Y1.73 Z0.46 F1080.0
M108 R30.0
M102
G1 X8.19 Y2.0 Z0.46 F1080.0
M108 R2.141
M103
G1 X14.38 Y-24.86 Z0.46 F3000.0
M108 R30.0
M101
G1 X14.56 Y-25.64 Z0.46 F3000.0
M108 R2.141
G1 X27.17 Y-25.64 Z0.46 F1080.0
G1 X27.17 Y-38.29 Z0.46 F1080.0
G1 X14.47 Y-38.29 Z0.46 F1080.0
G1 X14.47 Y-25.82 Z0.46 F1080.0
M108 R30.0
M102
G1 X14.47 Y-25.64 Z0.46 F1080.0
G1 X14.56 Y-25.64 Z0.46 F1080.0
M108 R2.141
M103
(</loop>)
(<loop> inner )
G1 X16.6 Y-25.96 Z0.46 F3000.0
G1 X26.72 Y-26.09 Z0.46 F3000.0
G1 X26.85 Y-29.12 Z0.46 F3000.0
G1 X31.84 Y-30.63 Z0.46 F3000.0
M108 R30.0
M101
G1 X32.61 Y-30.86 Z0.46 F3000.0
M108 R2.141
G1 X33.15 Y-29.74 Z0.46 F1080.0
G1 X34.12 Y-28.97 Z0.46 F1080.0
G1 X35.33 Y-28.69 Z0.46 F1080.0
G1 X36.54 Y-28.97 Z0.46 F1080.0
G1 X37.51 Y-29.74 Z0.46 F1080.0
G1 X38.05 Y-30.86 Z0.46 F1080.0
G1 X38.05 Y-32.1 Z0.46 F1080.0
G1 X37.51 Y-33.22 Z0.46 F1080.0
G1 X36.54 Y-34.0 Z0.46 F1080.0
G1 X35.33 Y-34.27 Z0.46 F1080.0
G1 X34.12 Y-34.0 Z0.46 F1080.0
G1 X33.15 Y-33.22 Z0.46 F1080.0
G1 X32.61 Y-32.1 Z0.46 F1080.0
G1 X32.61 Y-31.13 Z0.46 F1080.0
M108 R30.0
M102
G1 X32.61 Y-30.86 Z0.46 F1080.0
M108 R2.141
M103
(</loop>)
(<loop> outer )
G1 X27.64 Y-23.97 Z0.46 F3000.0
M108 R30.0
M101
G1 X27.17 Y-23.32 Z0.46 F3000.0
M108 R2.141
G1 X10.58 Y-23.32 Z0.46 F1080.0
G1 X10.58 Y-39.03 Z0.46 F1080.0
G1 X10.65 Y-39.72 Z0.46 F1080.0
G1 X11.1 Y-39.83 Z0.46 F1080.0
G1 X10.88 Y-40.68 Z0.46 F1080.0
G1 X10.88 Y-41.42 Z0.46 F1080.0
G1 X43.79 Y-41.42 Z0.46 F1080.0
G1 X43.79 Y-39.64 Z0.46 F1080.0
G1 X45.27 Y-39.64 Z0.46 F1080.0
G1 X45.27 Y-6.73 Z0.46 F1080.0
G1 X27.17 Y-6.73 Z0.46 F1080.0
G1 X27.17 Y-23.32 Z0.46 F1080.0
M103
(</loop>)
(<perimeter> outer )
G1 X26.78 Y-22.93 Z0.46 F3000.0
M101
G1 X10.19 Y-22.93 Z0.46 F1080.0
G1 X10.19 Y-40.04 Z0.46 F1080.0
G1 X10.3 Y-40.04 Z0.46 F1080.0
G1 X10.63 Y-40.12 Z0.46 F1080.0
G1 X10.49 Y-40.63 Z0.46 F1080.0
G1 X10.49 Y-41.82 Z0.46 F1080.0
G1 X44.19 Y-41.82 Z0.46 F1080.0
G1 X44.19 Y-40.04 Z0.46 F1080.0
G1 X45.66 Y-40.04 Z0.46 F1080.0
G1 X45.66 Y-6.34 Z0.46 F1080.0
G1 X26.78 Y-6.34 Z0.46 F1080.0
G1 X26.78 Y-22.66 Z0.46 F1080.0
M108 R30.0
M102
G1 X26.78 Y-22.93 Z0.46 F1080.0
M108 R2.141
M103
(</perimeter>)
(</boundaryPerimeter>)
(<surroundingLoop>)
(<boundaryPerimeter>)
(<boundaryPoint> X15.059 Y-37.698 Z0.46 </boundaryPoint>)
(<boundaryPoint> X15.059 Y-26.232 Z0.46 </boundaryPoint>)
(<boundaryPoint> X26.579 Y-26.232 Z0.46 </boundaryPoint>)
(<boundaryPoint> X26.579 Y-37.698 Z0.46 </boundaryPoint>)
(<perimeter> inner )
G1 X26.78 Y-25.24 Z0.46 F3000.0
M108 R30.0
M101
G1 X26.78 Y-26.04 Z0.46 F3000.0
M108 R2.141
G1 X26.78 Y-37.9 Z0.46 F1080.0
G1 X14.86 Y-37.9 Z0.46 F1080.0
G1 X14.86 Y-26.04 Z0.46 F1080.0
G1 X26.51 Y-26.04 Z0.46 F1080.0
M108 R30.0
M102
G1 X26.78 Y-26.04 Z0.46 F1080.0
M108 R2.141
M103
(</perimeter>)
(</boundaryPerimeter>)
(</surroundingLoop>)
(<surroundingLoop>)
(<boundaryPerimeter>)
(<boundaryPoint> X33.196 Y-30.995 Z0.46 </boundaryPoint>)
(<boundaryPoint> X33.619 Y-30.118 Z0.46 </boundaryPoint>)
(<boundaryPoint> X34.38 Y-29.511 Z0.46 </boundaryPoint>)
(<boundaryPoint> X35.329 Y-29.294 Z0.46 </boundaryPoint>)
(<boundaryPoint> X36.278 Y-29.511 Z0.46 </boundaryPoint>)
(<boundaryPoint> X37.039 Y-30.118 Z0.46 </boundaryPoint>)
(<boundaryPoint> X37.462 Y-30.995 Z0.46 </boundaryPoint>)
(<boundaryPoint> X37.462 Y-31.969 Z0.46 </boundaryPoint>)
(<boundaryPoint> X37.039 Y-32.846 Z0.46 </boundaryPoint>)
(<boundaryPoint> X36.278 Y-33.453 Z0.46 </boundaryPoint>)
(<boundaryPoint> X35.329 Y-33.669 Z0.46 </boundaryPoint>)
(<boundaryPoint> X34.38 Y-33.453 Z0.46 </boundaryPoint>)
(<boundaryPoint> X33.619 Y-32.846 Z0.46 </boundaryPoint>)
(<boundaryPoint> X33.196 Y-31.969 Z0.46 </boundaryPoint>)
(<perimeter> inner )
G1 X32.77 Y-29.59 Z0.46 F3000.0
M108 R30.0
M101
G1 X33.46 Y-29.99 Z0.46 F3000.0
M108 R2.141
G1 X34.29 Y-29.33 Z0.46 F1080.0
G1 X35.33 Y-29.09 Z0.46 F1080.0
G1 X36.37 Y-29.33 Z0.46 F1080.0
G1 X37.2 Y-29.99 Z0.46 F1080.0
G1 X37.66 Y-30.95 Z0.46 F1080.0
G1 X37.66 Y-32.01 Z0.46 F1080.0
G1 X37.2 Y-32.97 Z0.46 F1080.0
G1 X36.37 Y-33.64 Z0.46 F1080.0
G1 X35.33 Y-33.87 Z0.46 F1080.0
G1 X34.29 Y-33.64 Z0.46 F1080.0
G1 X33.46 Y-32.97 Z0.46 F1080.0
G1 X33.0 Y-32.01 Z0.46 F1080.0
G1 X33.0 Y-30.95 Z0.46 F1080.0
G1 X33.34 Y-30.24 Z0.46 F1080.0
M108 R30.0
M102
G1 X33.46 Y-29.99 Z0.46 F1080.0
M108 R2.141
M103
(</perimeter>)
(</boundaryPerimeter>)
(</surroundingLoop>)
G1 X33.64 Y-29.38 Z0.46 F1800.0
M108 R30.0
M101
G1 X33.77 Y-28.92 Z0.46 F1800.0
M108 R2.141
G1 X33.77 Y-6.99 Z0.46 F1080.0
G1 X33.38 Y-6.99 Z0.46 F1080.0
G1 X33.38 Y-29.23 Z0.46 F1080.0
G1 X32.99 Y-29.54 Z0.46 F1080.0
G1 X32.99 Y-6.99 Z0.46 F1080.0
G1 X32.59 Y-6.99 Z0.46 F1080.0
G1 X32.59 Y-30.03 Z0.46 F1080.0
M108 R30.0
M102
G1 X32.59 Y-30.3 Z0.46 F1080.0
M108 R2.141
M103
G1 X34.2 Y-28.92 Z0.46 F1800.0
M108 R30.0
M101
G1 X34.56 Y-28.6 Z0.46 F1800.0
M108 R2.141
G1 X34.56 Y-6.99 Z0.46 F1080.0
G1 X34.17 Y-6.99 Z0.46 F1080.0
G1 X34.17 Y-28.42 Z0.46 F1080.0
M108 R30.0
M102
G1 X34.17 Y-28.69 Z0.46 F1080.0
M108 R2.141
M103
G1 X34.88 Y-28.54 Z0.46 F1800.0
M108 R30.0
M101
G1 X35.34 Y-28.43 Z0.46 F1800.0
M108 R2.141
G1 X35.34 Y-6.99 Z0.46 F1080.0
G1 X34.95 Y-6.99 Z0.46 F1080.0
G1 X34.95 Y-28.24 Z0.46 F1080.0
M108 R30.0
M102
G1 X34.95 Y-28.51 Z0.46 F1080.0
M108 R2.141
M103
G1 X35.65 Y-28.57 Z0.46 F1800.0
M108 R30.0
M101
G1 X36.13 Y-28.61 Z0.46 F1800.0
M108 R2.141
G1 X36.13 Y-6.99 Z0.46 F1080.0
G1 X35.74 Y-6.99 Z0.46 F1080.0
G1 X35.74 Y-28.25 Z0.46 F1080.0
M108 R30.0
M102
G1 X35.74 Y-28.52 Z0.46 F1080.0
M108 R2.141
M103
G1 X37.28 Y-29.34 Z0.46 F1800.0
M108 R30.0
M101
G1 X37.7 Y-29.56 Z0.46 F1800.0
M108 R2.141
G1 X37.7 Y-6.99 Z0.46 F1080.0
G1 X37.31 Y-6.99 Z0.46 F1080.0
G1 X37.31 Y-29.25 Z0.46 F1080.0
G1 X36.91 Y-28.94 Z0.46 F1080.0
G1 X36.91 Y-6.99 Z0.46 F1080.0
G1 X36.52 Y-6.99 Z0.46 F1080.0
G1 X36.52 Y-28.43 Z0.46 F1080.0
M108 R30.0
M102
G1 X36.52 Y-28.7 Z0.46 F1080.0
M108 R2.141
M103
G1 X37.72 Y-30.94 Z0.46 F3000.0
G1 X38.45 Y-40.69 Z0.46 F1800.0
M108 R30.0
M101
G1 X38.49 Y-41.17 Z0.46 F1800.0
M108 R2.141
G1 X38.49 Y-6.99 Z0.46 F1080.0
G1 X38.09 Y-6.99 Z0.46 F1080.0
G1 X38.09 Y-30.09 Z0.46 F1080.0
M108 R30.0
M102
G1 X38.09 Y-30.36 Z0.46 F1080.0
M108 R2.141
M103
G1 X37.6 Y-32.32 Z0.46 F3000.0
G1 X36.75 Y-33.84 Z0.46 F1800.0
M108 R30.0
M101
G1 X36.52 Y-34.26 Z0.46 F1800.0
M108 R2.141
G1 X36.52 Y-41.17 Z0.46 F1080.0
M103
G1 X36.91 Y-41.17 Z0.46 F1800.0
M101
G1 X36.91 Y-34.03 Z0.46 F1080.0
G1 X37.31 Y-33.71 Z0.46 F1080.0
G1 X37.31 Y-41.17 Z0.46 F1080.0
M103
G1 X37.7 Y-41.17 Z0.46 F1800.0
M101
G1 X37.7 Y-33.4 Z0.46 F1080.0
G1 X38.09 Y-32.61 Z0.46 F1080.0
G1 X38.09 Y-40.9 Z0.46 F1080.0
M108 R30.0
M102
G1 X38.09 Y-41.17 Z0.46 F1080.0
M108 R2.141
M103
G1 X38.79 Y-41.17 Z0.46 F1800.0
M108 R30.0
M101
G1 X39.27 Y-41.17 Z0.46 F1800.0
M108 R2.141
G1 X39.27 Y-6.99 Z0.46 F1080.0
G1 X38.88 Y-6.99 Z0.46 F1080.0
G1 X38.88 Y-40.9 Z0.46 F1080.0
M108 R30.0
M102
G1 X38.88 Y-41.17 Z0.46 F1080.0
M108 R2.141
M103
G1 X39.58 Y-41.17 Z0.46 F1800.0
M108 R30.0
M101
G1 X40.06 Y-41.17 Z0.46 F1800.0
M108 R2.141
G1 X40.06 Y-6.99 Z0.46 F1080.0
G1 X39.66 Y-6.99 Z0.46 F1080.0
G1 X39.66 Y-40.9 Z0.46 F1080.0
M108 R30.0
M102
G1 X39.66 Y-41.17 Z0.46 F1080.0
M108 R2.141
M103
G1 X40.36 Y-41.17 Z0.46 F1800.0
M108 R30.0
M101
G1 X40.84 Y-41.17 Z0.46 F1800.0
M108 R2.141
G1 X40.84 Y-6.99 Z0.46 F1080.0
G1 X40.45 Y-6.99 Z0.46 F1080.0
G1 X40.45 Y-40.9 Z0.46 F1080.0
M108 R30.0
M102
G1 X40.45 Y-41.17 Z0.46 F1080.0
M108 R2.141
M103
G1 X41.15 Y-41.17 Z0.46 F1800.0
M108 R30.0
M101
G1 X41.63 Y-41.17 Z0.46 F1800.0
M108 R2.141
G1 X41.63 Y-6.99 Z0.46 F1080.0
G1 X41.23 Y-6.99 Z0.46 F1080.0
G1 X41.23 Y-40.9 Z0.46 F1080.0
M108 R30.0
M102
G1 X41.23 Y-41.17 Z0.46 F1080.0
M108 R2.141
M103
G1 X41.93 Y-41.17 Z0.46 F1800.0
M108 R30.0
M101
G1 X42.41 Y-41.17 Z0.46 F1800.0
M108 R2.141
G1 X42.41 Y-6.99 Z0.46 F1080.0
G1 X42.02 Y-6.99 Z0.46 F1080.0
G1 X42.02 Y-40.9 Z0.46 F1080.0
M108 R30.0
M102
G1 X42.02 Y-41.17 Z0.46 F1080.0
M108 R2.141
M103
G1 X42.94 Y-39.75 Z0.46 F1800.0
M108 R30.0
M101
G1 X43.2 Y-39.35 Z0.46 F1800.0
M108 R2.141
G1 X43.2 Y-6.99 Z0.46 F1080.0
G1 X42.8 Y-6.99 Z0.46 F1080.0
G1 X42.8 Y-40.9 Z0.46 F1080.0
M108 R30.0
M102
G1 X42.8 Y-41.17 Z0.46 F1080.0
M108 R2.141
M103
G1 X43.72 Y-39.79 Z0.46 F1800.0
M108 R30.0
M101
G1 X43.98 Y-39.39 Z0.46 F1800.0
M108 R2.141
G1 X43.98 Y-6.99 Z0.46 F1080.0
G1 X43.59 Y-6.99 Z0.46 F1080.0
G1 X43.59 Y-39.39 Z0.46 F1080.0
G1 X43.26 Y-40.9 Z0.46 F1080.0
M108 R30.0
M102
G1 X43.2 Y-41.17 Z0.46 F1080.0
M108 R2.141
M103
G1 X44.45 Y-39.75 Z0.46 F1800.0
M108 R30.0
M101
G1 X44.77 Y-39.39 Z0.46 F1800.0
M108 R2.141
G1 X44.77 Y-6.99 Z0.46 F1080.0
G1 X44.38 Y-6.99 Z0.46 F1080.0
G1 X44.38 Y-39.12 Z0.46 F1080.0
M108 R30.0
M102
G1 X44.38 Y-39.39 Z0.46 F1080.0
M108 R2.141
M103
G1 X36.6 Y-41.07 Z0.46 F1800.0
M108 R30.0
M101
G1 X36.13 Y-41.17 Z0.46 F1800.0
M108 R2.141
G1 X36.13 Y-34.62 Z0.46 F1080.0
M108 R30.0
M102
G1 X36.13 Y-34.35 Z0.46 F1080.0
M108 R2.141
M103
G1 X35.43 Y-34.41 Z0.46 F1800.0
M108 R30.0
M101
G1 X34.95 Y-34.45 Z0.46 F1800.0
M108 R2.141
G1 X34.95 Y-41.17 Z0.46 F1080.0
M103
G1 X35.34 Y-41.17 Z0.46 F1800.0
M101
G1 X35.34 Y-34.53 Z0.46 F1080.0
G1 X35.74 Y-34.44 Z0.46 F1080.0
G1 X35.74 Y-40.9 Z0.46 F1080.0
M108 R30.0
M102
G1 X35.74 Y-41.17 Z0.46 F1080.0
M108 R2.141
M103
G1 X35.04 Y-41.17 Z0.46 F1800.0
M108 R30.0
M101
G1 X34.56 Y-41.17 Z0.46 F1800.0
M108 R2.141
G1 X34.56 Y-34.36 Z0.46 F1080.0
M103
G1 X34.17 Y-34.27 Z0.46 F1800.0
M101
G1 X34.17 Y-41.17 Z0.46 F1080.0
M103
G1 X33.77 Y-41.17 Z0.46 F1800.0
M101
G1 X33.77 Y-34.32 Z0.46 F1080.0
M108 R30.0
M102
G1 X33.77 Y-34.05 Z0.46 F1080.0
M108 R2.141
M103
G1 X32.91 Y-33.03 Z0.46 F1800.0
M108 R30.0
M101
G1 X32.59 Y-32.67 Z0.46 F1800.0
M108 R2.141
G1 X32.59 Y-41.17 Z0.46 F1080.0
M103
G1 X32.99 Y-41.17 Z0.46 F1800.0
M101
G1 X32.99 Y-33.42 Z0.46 F1080.0
G1 X33.38 Y-33.74 Z0.46 F1080.0
G1 X33.38 Y-40.9 Z0.46 F1080.0
M108 R30.0
M102
G1 X33.38 Y-41.17 Z0.46 F1080.0
M108 R2.141
M103
G1 X32.68 Y-41.17 Z0.46 F1800.0
M108 R30.0
M101
G1 X32.2 Y-41.17 Z0.46 F1800.0
M108 R2.141
G1 X32.2 Y-6.99 Z0.46 F1080.0
G1 X31.81 Y-6.99 Z0.46 F1080.0
G1 X31.81 Y-41.17 Z0.46 F1080.0
M103
G1 X31.42 Y-41.17 Z0.46 F1800.0
M101
G1 X31.42 Y-6.99 Z0.46 F1080.0
G1 X31.02 Y-6.99 Z0.46 F1080.0
G1 X31.02 Y-41.17 Z0.46 F1080.0
M103
G1 X30.63 Y-41.17 Z0.46 F1800.0
M101
G1 X30.63 Y-6.99 Z0.46 F1080.0
G1 X30.24 Y-6.99 Z0.46 F1080.0
G1 X30.24 Y-41.17 Z0.46 F1080.0
M103
G1 X29.85 Y-41.17 Z0.46 F1800.0
M101
G1 X29.85 Y-6.99 Z0.46 F1080.0
G1 X29.45 Y-6.99 Z0.46 F1080.0
G1 X29.45 Y-41.17 Z0.46 F1080.0
M103
G1 X29.06 Y-41.17 Z0.46 F1800.0
M101
G1 X29.06 Y-6.99 Z0.46 F1080.0
G1 X28.67 Y-6.99 Z0.46 F1080.0
G1 X28.67 Y-41.17 Z0.46 F1080.0
M103
G1 X28.27 Y-41.17 Z0.46 F1800.0
M101
G1 X28.27 Y-6.99 Z0.46 F1080.0
G1 X27.88 Y-6.99 Z0.46 F1080.0
G1 X27.88 Y-41.17 Z0.46 F1080.0
M103
G1 X27.49 Y-41.17 Z0.46 F1800.0
M101
G1 X27.49 Y-7.26 Z0.46 F1080.0
M108 R30.0
M102
G1 X27.49 Y-6.99 Z0.46 F1080.0
M108 R2.141
M103
G1 X27.11 Y-23.1 Z0.46 F1800.0
M108 R30.0
M101
G1 X27.1 Y-23.58 Z0.46 F1800.0
M108 R2.141
G1 X27.1 Y-25.39 Z0.46 F1080.0
G1 X26.7 Y-25.39 Z0.46 F1080.0
G1 X26.7 Y-23.58 Z0.46 F1080.0
G1 X26.31 Y-23.58 Z0.46 F1080.0
G1 X26.31 Y-25.39 Z0.46 F1080.0
G1 X25.92 Y-25.39 Z0.46 F1080.0
G1 X25.92 Y-23.58 Z0.46 F1080.0
G1 X25.53 Y-23.58 Z0.46 F1080.0
G1 X25.53 Y-25.39 Z0.46 F1080.0
G1 X25.13 Y-25.39 Z0.46 F1080.0
G1 X25.13 Y-23.58 Z0.46 F1080.0
G1 X24.74 Y-23.58 Z0.46 F1080.0
G1 X24.74 Y-25.39 Z0.46 F1080.0
G1 X24.35 Y-25.39 Z0.46 F1080.0
G1 X24.35 Y-23.58 Z0.46 F1080.0
G1 X23.96 Y-23.58 Z0.46 F1080.0
G1 X23.96 Y-25.39 Z0.46 F1080.0
G1 X23.56 Y-25.39 Z0.46 F1080.0
G1 X23.56 Y-23.58 Z0.46 F1080.0
G1 X23.17 Y-23.58 Z0.46 F1080.0
G1 X23.17 Y-25.39 Z0.46 F1080.0
G1 X22.78 Y-25.39 Z0.46 F1080.0
G1 X22.78 Y-23.58 Z0.46 F1080.0
G1 X22.38 Y-23.58 Z0.46 F1080.0
G1 X22.38 Y-25.39 Z0.46 F1080.0
G1 X21.99 Y-25.39 Z0.46 F1080.0
G1 X21.99 Y-23.58 Z0.46 F1080.0
G1 X21.6 Y-23.58 Z0.46 F1080.0
G1 X21.6 Y-25.39 Z0.46 F1080.0
G1 X21.21 Y-25.39 Z0.46 F1080.0
G1 X21.21 Y-23.58 Z0.46 F1080.0
G1 X20.81 Y-23.58 Z0.46 F1080.0
G1 X20.81 Y-25.39 Z0.46 F1080.0
G1 X20.42 Y-25.39 Z0.46 F1080.0
G1 X20.42 Y-23.58 Z0.46 F1080.0
G1 X20.03 Y-23.58 Z0.46 F1080.0
G1 X20.03 Y-25.39 Z0.46 F1080.0
G1 X19.64 Y-25.39 Z0.46 F1080.0
G1 X19.64 Y-23.58 Z0.46 F1080.0
G1 X19.24 Y-23.58 Z0.46 F1080.0
G1 X19.24 Y-25.39 Z0.46 F1080.0
G1 X18.85 Y-25.39 Z0.46 F1080.0
G1 X18.85 Y-23.58 Z0.46 F1080.0
G1 X18.46 Y-23.58 Z0.46 F1080.0
G1 X18.46 Y-25.39 Z0.46 F1080.0
G1 X18.06 Y-25.39 Z0.46 F1080.0
G1 X18.06 Y-23.58 Z0.46 F1080.0
G1 X17.67 Y-23.58 Z0.46 F1080.0
G1 X17.67 Y-25.39 Z0.46 F1080.0
G1 X17.28 Y-25.39 Z0.46 F1080.0
G1 X17.28 Y-23.58 Z0.46 F1080.0
G1 X16.89 Y-23.58 Z0.46 F1080.0
G1 X16.89 Y-25.39 Z0.46 F1080.0
G1 X16.49 Y-25.39 Z0.46 F1080.0
G1 X16.49 Y-23.58 Z0.46 F1080.0
G1 X16.1 Y-23.58 Z0.46 F1080.0
G1 X16.1 Y-25.39 Z0.46 F1080.0
G1 X15.71 Y-25.39 Z0.46 F1080.0
G1 X15.71 Y-23.58 Z0.46 F1080.0
G1 X15.32 Y-23.58 Z0.46 F1080.0
G1 X15.32 Y-25.39 Z0.46 F1080.0
G1 X14.92 Y-25.39 Z0.46 F1080.0
G1 X14.92 Y-23.58 Z0.46 F1080.0
G1 X14.53 Y-23.58 Z0.46 F1080.0
G1 X14.53 Y-25.12 Z0.46 F1080.0
M108 R30.0
M102
G1 X14.53 Y-25.39 Z0.46 F1080.0
M108 R2.141
M103
G1 X14.24 Y-24.05 Z0.46 F1800.0
M108 R30.0
M101
G1 X14.14 Y-23.58 Z0.46 F1800.0
M108 R2.141
G1 X14.14 Y-41.17 Z0.46 F1080.0
M103
G1 X13.74 Y-41.17 Z0.46 F1800.0
M101
G1 X13.74 Y-23.58 Z0.46 F1080.0
G1 X13.35 Y-23.58 Z0.46 F1080.0
G1 X13.35 Y-41.17 Z0.46 F1080.0
M103
G1 X12.96 Y-41.17 Z0.46 F1800.0
M101
G1 X12.96 Y-23.58 Z0.46 F1080.0
G1 X12.57 Y-23.58 Z0.46 F1080.0
G1 X12.57 Y-41.17 Z0.46 F1080.0
M103
G1 X12.17 Y-41.17 Z0.46 F1800.0
M101
G1 X12.17 Y-23.58 Z0.46 F1080.0
G1 X11.78 Y-23.58 Z0.46 F1080.0
G1 X11.78 Y-41.17 Z0.46 F1080.0
M103
G1 X11.39 Y-41.17 Z0.46 F1800.0
M101
G1 X11.39 Y-23.58 Z0.46 F1080.0
G1 X11.0 Y-23.58 Z0.46 F1080.0
G1 X11.0 Y-39.27 Z0.46 F1080.0
M108 R30.0
M102
G1 X11.0 Y-39.54 Z0.46 F1080.0
M108 R2.141
M103
G1 X14.07 Y-38.67 Z0.46 F1800.0
M108 R30.0
M101
G1 X14.53 Y-38.54 Z0.46 F1800.0
M108 R2.141
G1 X14.53 Y-41.17 Z0.46 F1080.0
M103
G1 X14.92 Y-41.17 Z0.46 F1800.0
M101
G1 X14.92 Y-38.54 Z0.46 F1080.0
G1 X15.32 Y-38.54 Z0.46 F1080.0
G1 X15.32 Y-41.17 Z0.46 F1080.0
M103
G1 X15.71 Y-41.17 Z0.46 F1800.0
M101
G1 X15.71 Y-38.54 Z0.46 F1080.0
G1 X16.1 Y-38.54 Z0.46 F1080.0
G1 X16.1 Y-41.17 Z0.46 F1080.0
M103
G1 X16.49 Y-41.17 Z0.46 F1800.0
M101
G1 X16.49 Y-38.54 Z0.46 F1080.0
G1 X16.89 Y-38.54 Z0.46 F1080.0
G1 X16.89 Y-41.17 Z0.46 F1080.0
M103
G1 X17.28 Y-41.17 Z0.46 F1800.0
M101
G1 X17.28 Y-38.54 Z0.46 F1080.0
G1 X17.67 Y-38.54 Z0.46 F1080.0
G1 X17.67 Y-41.17 Z0.46 F1080.0
M103
G1 X18.06 Y-41.17 Z0.46 F1800.0
M101
G1 X18.06 Y-38.54 Z0.46 F1080.0
G1 X18.46 Y-38.54 Z0.46 F1080.0
G1 X18.46 Y-41.17 Z0.46 F1080.0
M103
G1 X18.85 Y-41.17 Z0.46 F1800.0
M101
G1 X18.85 Y-38.54 Z0.46 F1080.0
G1 X19.24 Y-38.54 Z0.46 F1080.0
G1 X19.24 Y-41.17 Z0.46 F1080.0
M103
G1 X19.64 Y-41.17 Z0.46 F1800.0
M101
G1 X19.64 Y-38.54 Z0.46 F1080.0
G1 X20.03 Y-38.54 Z0.46 F1080.0
G1 X20.03 Y-41.17 Z0.46 F1080.0
M103
G1 X20.42 Y-41.17 Z0.46 F1800.0
M101
G1 X20.42 Y-38.54 Z0.46 F1080.0
G1 X20.81 Y-38.54 Z0.46 F1080.0
G1 X20.81 Y-41.17 Z0.46 F1080.0
M103
G1 X21.21 Y-41.17 Z0.46 F1800.0
M101
G1 X21.21 Y-38.54 Z0.46 F1080.0
G1 X21.6 Y-38.54 Z0.46 F1080.0
G1 X21.6 Y-41.17 Z0.46 F1080.0
M103
G1 X21.99 Y-41.17 Z0.46 F1800.0
M101
G1 X21.99 Y-38.54 Z0.46 F1080.0
G1 X22.38 Y-38.54 Z0.46 F1080.0
G1 X22.38 Y-41.17 Z0.46 F1080.0
M103
G1 X22.78 Y-41.17 Z0.46 F1800.0
M101
G1 X22.78 Y-38.54 Z0.46 F1080.0
G1 X23.17 Y-38.54 Z0.46 F1080.0
G1 X23.17 Y-41.17 Z0.46 F1080.0
M103
G1 X23.56 Y-41.17 Z0.46 F1800.0
M101
G1 X23.56 Y-38.54 Z0.46 F1080.0
G1 X23.96 Y-38.54 Z0.46 F1080.0
G1 X23.96 Y-41.17 Z0.46 F1080.0
M103
G1 X24.35 Y-41.17 Z0.46 F1800.0
M101
G1 X24.35 Y-38.54 Z0.46 F1080.0
G1 X24.74 Y-38.54 Z0.46 F1080.0
G1 X24.74 Y-41.17 Z0.46 F1080.0
M103
G1 X25.13 Y-41.17 Z0.46 F1800.0
M101
G1 X25.13 Y-38.54 Z0.46 F1080.0
G1 X25.53 Y-38.54 Z0.46 F1080.0
G1 X25.53 Y-41.17 Z0.46 F1080.0
M103
G1 X25.92 Y-41.17 Z0.46 F1800.0
M101
G1 X25.92 Y-38.54 Z0.46 F1080.0
G1 X26.31 Y-38.54 Z0.46 F1080.0
G1 X26.31 Y-41.17 Z0.46 F1080.0
M103
G1 X26.7 Y-41.17 Z0.46 F1800.0
M101
G1 X26.7 Y-38.54 Z0.46 F1080.0
G1 X27.1 Y-38.54 Z0.46 F1080.0
G1 X27.1 Y-40.9 Z0.46 F1080.0
M108 R30.0
M102
G1 X27.1 Y-41.17 Z0.46 F1080.0
M108 R2.141
M103
(</surroundingLoop>)
(</layer>)
(<layer> 0.78 )
(<surroundingLoop>)
(<boundaryPerimeter>)
(<boundaryPoint> X45.773 Y-6.144 Z0.78 </boundaryPoint>)
(<boundaryPoint> X26.579 Y-6.144 Z0.78 </boundaryPoint>)
(<boundaryPoint> X26.579 Y-22.732 Z0.78 </boundaryPoint>)
(<boundaryPoint> X9.991 Y-22.732 Z0.78 </boundaryPoint>)
(<boundaryPoint> X9.991 Y-40.232 Z0.78 </boundaryPoint>)
(<boundaryPoint> X10.377 Y-40.237 Z0.78 </boundaryPoint>)
(<boundaryPoint> X10.295 Y-40.6 Z0.78 </boundaryPoint>)
(<boundaryPoint> X10.295 Y-41.925 Z0.78 </boundaryPoint>)
(<boundaryPoint> X44.383 Y-41.925 Z0.78 </boundaryPoint>)
(<boundaryPoint> X44.383 Y-40.232 Z0.78 </boundaryPoint>)
(<boundaryPoint> X45.773 Y-40.232 Z0.78 </boundaryPoint>)
(<loop> inner )
M108 R3.569
G1 X27.15 Y-38.88 Z0.7 F3000.0
M108 R30.0
M101
G1 X27.17 Y-38.08 Z0.78 F3000.0
M108 R3.569
G1 X27.17 Y-38.29 Z0.78 F1800.0
G1 X14.47 Y-38.29 Z0.78 F1800.0
G1 X14.47 Y-25.64 Z0.78 F1800.0
G1 X27.17 Y-25.64 Z0.78 F1800.0
G1 X27.17 Y-37.63 Z0.78 F1800.0
M108 R30.0
M102
G1 X27.17 Y-38.08 Z0.78 F1800.0
M108 R3.569
M103
(</loop>)
(<loop> inner )
G1 X32.53 Y-33.73 Z0.78 F3000.0
M108 R30.0
M101
G1 X33.15 Y-33.22 Z0.78 F3000.0
M108 R3.569
G1 X32.61 Y-32.1 Z0.78 F1800.0
G1 X32.61 Y-30.86 Z0.78 F1800.0
G1 X33.15 Y-29.74 Z0.78 F1800.0
G1 X34.12 Y-28.97 Z0.78 F1800.0
G1 X35.33 Y-28.69 Z0.78 F1800.0
G1 X36.54 Y-28.97 Z0.78 F1800.0
G1 X37.51 Y-29.74 Z0.78 F1800.0
G1 X38.05 Y-30.86 Z0.78 F1800.0
G1 X38.05 Y-32.1 Z0.78 F1800.0
G1 X37.51 Y-33.22 Z0.78 F1800.0
G1 X36.54 Y-34.0 Z0.78 F1800.0
G1 X35.33 Y-34.27 Z0.78 F1800.0
G1 X34.12 Y-34.0 Z0.78 F1800.0
G1 X33.5 Y-33.5 Z0.78 F1800.0
M108 R30.0
M102
G1 X33.15 Y-33.22 Z0.78 F1800.0
M108 R3.569
M103
(</loop>)
(<loop> outer )
G1 X33.15 Y-40.54 Z0.78 F3000.0
M108 R30.0
M101
G1 X33.15 Y-41.34 Z0.78 F3000.0
M108 R3.569
G1 X43.79 Y-41.34 Z0.78 F1800.0
G1 X43.79 Y-39.64 Z0.78 F1800.0
G1 X45.18 Y-39.64 Z0.78 F1800.0
G1 X45.18 Y-6.73 Z0.78 F1800.0
G1 X27.17 Y-6.73 Z0.78 F1800.0
G1 X27.17 Y-23.32 Z0.78 F1800.0
G1 X10.58 Y-23.32 Z0.78 F1800.0
G1 X10.58 Y-39.69 Z0.78 F1800.0
G1 X11.01 Y-39.75 Z0.78 F1800.0
G1 X10.88 Y-40.65 Z0.78 F1800.0
G1 X10.88 Y-41.34 Z0.78 F1800.0
G1 X33.15 Y-41.34 Z0.78 F1800.0
M103
(</loop>)
(<perimeter> outer )
G1 X33.15 Y-41.73 Z0.78 F3000.0
M101
G1 X44.19 Y-41.73 Z0.78 F1800.0
G1 X44.19 Y-40.04 Z0.78 F1800.0
G1 X45.58 Y-40.04 Z0.78 F1800.0
G1 X45.58 Y-6.34 Z0.78 F1800.0
G1 X26.78 Y-6.34 Z0.78 F1800.0
G1 X26.78 Y-22.93 Z0.78 F1800.0
G1 X10.19 Y-22.93 Z0.78 F1800.0
G1 X10.19 Y-40.04 Z0.78 F1800.0
G1 X10.54 Y-40.04 Z0.78 F1800.0
G1 X10.78 Y-40.23 Z0.78 F1800.0
G1 X10.56 Y-40.43 Z0.78 F1800.0
G1 X10.54 Y-40.43 Z0.78 F1800.0
G1 X10.49 Y-40.62 Z0.78 F1800.0
G1 X10.49 Y-41.73 Z0.78 F1800.0
G1 X32.7 Y-41.73 Z0.78 F1800.0
M108 R30.0
M102
G1 X33.15 Y-41.73 Z0.78 F1800.0
M108 R3.569
M103
(</perimeter>)
(</boundaryPerimeter>)
(<surroundingLoop>)
(<boundaryPerimeter>)
(<boundaryPoint> X15.059 Y-37.698 Z0.78 </boundaryPoint>)
(<boundaryPoint> X15.059 Y-26.232 Z0.78 </boundaryPoint>)
(<boundaryPoint> X26.579 Y-26.232 Z0.78 </boundaryPoint>)
(<boundaryPoint> X26.579 Y-37.698 Z0.78 </boundaryPoint>)
(<perimeter> inner )
G1 X27.46 Y-38.31 Z0.78 F3000.0
M108 R30.0
M101
G1 X26.78 Y-37.9 Z0.78 F3000.0
M108 R3.569
G1 X14.86 Y-37.9 Z0.78 F1800.0
G1 X14.86 Y-26.04 Z0.78 F1800.0
G1 X26.78 Y-26.04 Z0.78 F1800.0
G1 X26.78 Y-37.45 Z0.78 F1800.0
M108 R30.0
M102
G1 X26.78 Y-37.9 Z0.78 F1800.0
M108 R3.569
M103
(</perimeter>)
(</boundaryPerimeter>)
(</surroundingLoop>)
(<surroundingLoop>)
(<boundaryPerimeter>)
(<boundaryPoint> X33.196 Y-30.995 Z0.78 </boundaryPoint>)
(<boundaryPoint> X33.619 Y-30.118 Z0.78 </boundaryPoint>)
(<boundaryPoint> X34.38 Y-29.511 Z0.78 </boundaryPoint>)
(<boundaryPoint> X35.329 Y-29.294 Z0.78 </boundaryPoint>)
(<boundaryPoint> X36.278 Y-29.511 Z0.78 </boundaryPoint>)
(<boundaryPoint> X37.039 Y-30.118 Z0.78 </boundaryPoint>)
(<boundaryPoint> X37.462 Y-30.995 Z0.78 </boundaryPoint>)
(<boundaryPoint> X37.462 Y-31.969 Z0.78 </boundaryPoint>)
(<boundaryPoint> X37.039 Y-32.846 Z0.78 </boundaryPoint>)
(<boundaryPoint> X36.278 Y-33.453 Z0.78 </boundaryPoint>)
(<boundaryPoint> X35.329 Y-33.669 Z0.78 </boundaryPoint>)
(<boundaryPoint> X34.38 Y-33.453 Z0.78 </boundaryPoint>)
(<boundaryPoint> X33.619 Y-32.846 Z0.78 </boundaryPoint>)
(<boundaryPoint> X33.196 Y-31.969 Z0.78 </boundaryPoint>)
(<perimeter> inner )
G1 X32.82 Y-33.45 Z0.78 F3000.0
M108 R30.0
M101
G1 X33.46 Y-32.97 Z0.78 F3000.0
M108 R3.569
G1 X33.0 Y-32.01 Z0.78 F1800.0
G1 X33.0 Y-30.95 Z0.78 F1800.0
G1 X33.46 Y-29.99 Z0.78 F1800.0
G1 X34.29 Y-29.33 Z0.78 F1800.0
G1 X35.33 Y-29.09 Z0.78 F1800.0
G1 X36.37 Y-29.33 Z0.78 F1800.0
G1 X37.2 Y-29.99 Z0.78 F1800.0
G1 X37.66 Y-30.95 Z0.78 F1800.0
G1 X37.66 Y-32.01 Z0.78 F1800.0
G1 X37.2 Y-32.97 Z0.78 F1800.0
G1 X36.37 Y-33.64 Z0.78 F1800.0
G1 X35.33 Y-33.87 Z0.78 F1800.0
G1 X34.29 Y-33.64 Z0.78 F1800.0
G1 X33.46 Y-32.97 Z0.78 F1800.0
M103
(</perimeter>)
(</boundaryPerimeter>)
(</surroundingLoop>)
G1 X32.75 Y-32.99 Z0.78 F3000.0
M101
G1 X27.42 Y-32.99 Z0.78 F1800.0
G1 X27.42 Y-33.38 Z0.78 F1800.0
G1 X32.94 Y-33.38 Z0.78 F1800.0
G1 X33.43 Y-33.77 Z0.78 F1800.0
G1 X27.42 Y-33.77 Z0.78 F1800.0
G1 X27.42 Y-34.17 Z0.78 F1800.0
G1 X33.47 Y-34.17 Z0.78 F1800.0
M108 R30.0
M102
G1 X33.92 Y-34.17 Z0.78 F1800.0
M108 R3.569
M103
G1 X32.94 Y-32.03 Z0.78 F3000.0
G1 X32.94 Y-30.94 Z0.78 F3000.0
G1 X33.33 Y-29.82 Z0.78 F3000.0
M108 R30.0
M101
G1 X33.59 Y-29.06 Z0.78 F3000.0
M108 R3.569
G1 X27.42 Y-29.06 Z0.78 F1800.0
G1 X27.42 Y-29.45 Z0.78 F1800.0
G1 X33.1 Y-29.45 Z0.78 F1800.0
G1 X32.81 Y-29.85 Z0.78 F1800.0
G1 X27.42 Y-29.85 Z0.78 F1800.0
G1 X27.42 Y-30.24 Z0.78 F1800.0
G1 X32.62 Y-30.24 Z0.78 F1800.0
G1 X32.43 Y-30.63 Z0.78 F1800.0
G1 X27.42 Y-30.63 Z0.78 F1800.0
G1 X27.42 Y-31.02 Z0.78 F1800.0
G1 X32.35 Y-31.02 Z0.78 F1800.0
G1 X32.35 Y-31.42 Z0.78 F1800.0
G1 X27.42 Y-31.42 Z0.78 F1800.0
G1 X27.42 Y-31.81 Z0.78 F1800.0
G1 X32.35 Y-31.81 Z0.78 F1800.0
G1 X32.37 Y-32.2 Z0.78 F1800.0
G1 X27.42 Y-32.2 Z0.78 F1800.0
G1 X27.42 Y-32.59 Z0.78 F1800.0
G1 X32.11 Y-32.59 Z0.78 F1800.0
M108 R30.0
M102
G1 X32.56 Y-32.59 Z0.78 F1800.0
M108 R3.569
M103
G1 X27.89 Y-26.17 Z0.78 F3000.0
M108 R30.0
M101
G1 X27.42 Y-25.53 Z0.78 F3000.0
M108 R3.569
G1 X44.93 Y-25.53 Z0.78 F1800.0
G1 X44.93 Y-25.92 Z0.78 F1800.0
G1 X27.42 Y-25.92 Z0.78 F1800.0
G1 X27.42 Y-26.31 Z0.78 F1800.0
G1 X44.93 Y-26.31 Z0.78 F1800.0
G1 X44.93 Y-26.7 Z0.78 F1800.0
G1 X27.42 Y-26.7 Z0.78 F1800.0
G1 X27.42 Y-27.1 Z0.78 F1800.0
G1 X44.93 Y-27.1 Z0.78 F1800.0
G1 X44.93 Y-27.49 Z0.78 F1800.0
G1 X27.42 Y-27.49 Z0.78 F1800.0
G1 X27.42 Y-27.88 Z0.78 F1800.0
G1 X44.93 Y-27.88 Z0.78 F1800.0
G1 X44.93 Y-28.27 Z0.78 F1800.0
G1 X27.42 Y-28.27 Z0.78 F1800.0
G1 X27.42 Y-28.67 Z0.78 F1800.0
G1 X33.83 Y-28.67 Z0.78 F1800.0
M108 R30.0
M102
G1 X34.28 Y-28.67 Z0.78 F1800.0
M108 R3.569
M103
G1 X35.58 Y-28.67 Z0.78 F3000.0
M108 R30.0
M101
G1 X36.38 Y-28.67 Z0.78 F3000.0
M108 R3.569
G1 X44.48 Y-28.67 Z0.78 F1800.0
M108 R30.0
M102
G1 X44.93 Y-28.67 Z0.78 F1800.0
M108 R3.569
M103
G1 X44.93 Y-25.93 Z0.78 F3000.0
M108 R30.0
M101
G1 X44.93 Y-25.13 Z0.78 F3000.0
M108 R3.569
G1 X10.84 Y-25.13 Z0.78 F1800.0
G1 X10.84 Y-24.74 Z0.78 F1800.0
G1 X44.93 Y-24.74 Z0.78 F1800.0
G1 X44.93 Y-24.35 Z0.78 F1800.0
G1 X10.84 Y-24.35 Z0.78 F1800.0
G1 X10.84 Y-23.96 Z0.78 F1800.0
G1 X44.48 Y-23.96 Z0.78 F1800.0
M108 R30.0
M102
G1 X44.93 Y-23.96 Z0.78 F1800.0
M108 R3.569
M103
G1 X38.2 Y-28.97 Z0.78 F3000.0
M108 R30.0
M101
G1 X37.56 Y-29.45 Z0.78 F3000.0
M108 R3.569
G1 X44.93 Y-29.45 Z0.78 F1800.0
G1 X44.93 Y-29.06 Z0.78 F1800.0
G1 X37.52 Y-29.06 Z0.78 F1800.0
M108 R30.0
M102
G1 X37.07 Y-29.06 Z0.78 F1800.0
M108 R3.569
M103
G1 X37.53 Y-29.62 Z0.78 F3000.0
M108 R30.0
M101
G1 X38.03 Y-30.24 Z0.78 F3000.0
M108 R3.569
G1 X44.93 Y-30.24 Z0.78 F1800.0
G1 X44.93 Y-29.85 Z0.78 F1800.0
G1 X38.3 Y-29.85 Z0.78 F1800.0
M108 R30.0
M102
G1 X37.85 Y-29.85 Z0.78 F1800.0
M108 R3.569
M103
G1 X37.72 Y-32.03 Z0.78 F3000.0
G1 X37.07 Y-33.44 Z0.78 F3000.0
M108 R30.0
M101
G1 X36.74 Y-34.17 Z0.78 F3000.0
M108 R3.569
G1 X44.93 Y-34.17 Z0.78 F1800.0
G1 X44.93 Y-33.77 Z0.78 F1800.0
G1 X37.23 Y-33.77 Z0.78 F1800.0
G1 X37.72 Y-33.38 Z0.78 F1800.0
G1 X44.93 Y-33.38 Z0.78 F1800.0
G1 X44.93 Y-32.99 Z0.78 F1800.0
G1 X37.91 Y-32.99 Z0.78 F1800.0
G1 X38.1 Y-32.59 Z0.78 F1800.0
G1 X44.93 Y-32.59 Z0.78 F1800.0
G1 X44.93 Y-32.2 Z0.78 F1800.0
G1 X38.29 Y-32.2 Z0.78 F1800.0
G1 X38.31 Y-31.81 Z0.78 F1800.0
G1 X44.93 Y-31.81 Z0.78 F1800.0
G1 X44.93 Y-31.42 Z0.78 F1800.0
G1 X38.31 Y-31.42 Z0.78 F1800.0
G1 X38.31 Y-31.02 Z0.78 F1800.0
G1 X44.93 Y-31.02 Z0.78 F1800.0
G1 X44.93 Y-30.63 Z0.78 F1800.0
G1 X38.67 Y-30.63 Z0.78 F1800.0
M108 R30.0
M102
G1 X38.22 Y-30.63 Z0.78 F1800.0
M108 R3.569
M103
G1 X44.24 Y-34.15 Z0.78 F3000.0
M108 R30.0
M101
G1 X44.93 Y-34.56 Z0.78 F3000.0
M108 R3.569
G1 X27.42 Y-34.56 Z0.78 F1800.0
G1 X27.42 Y-34.95 Z0.78 F1800.0
G1 X44.93 Y-34.95 Z0.78 F1800.0
G1 X44.93 Y-35.34 Z0.78 F1800.0
G1 X27.42 Y-35.34 Z0.78 F1800.0
G1 X27.42 Y-35.74 Z0.78 F1800.0
G1 X44.93 Y-35.74 Z0.78 F1800.0
G1 X44.93 Y-36.13 Z0.78 F1800.0
G1 X27.42 Y-36.13 Z0.78 F1800.0
G1 X27.42 Y-36.52 Z0.78 F1800.0
G1 X44.93 Y-36.52 Z0.78 F1800.0
G1 X44.93 Y-36.91 Z0.78 F1800.0
G1 X27.42 Y-36.91 Z0.78 F1800.0
G1 X27.42 Y-37.31 Z0.78 F1800.0
G1 X44.93 Y-37.31 Z0.78 F1800.0
G1 X44.93 Y-37.7 Z0.78 F1800.0
G1 X27.42 Y-37.7 Z0.78 F1800.0
G1 X27.42 Y-38.09 Z0.78 F1800.0
G1 X44.93 Y-38.09 Z0.78 F1800.0
G1 X44.93 Y-38.49 Z0.78 F1800.0
G1 X10.84 Y-38.49 Z0.78 F1800.0
G1 X10.84 Y-38.09 Z0.78 F1800.0
G1 X14.21 Y-38.09 Z0.78 F1800.0
G1 X14.21 Y-37.7 Z0.78 F1800.0
G1 X10.84 Y-37.7 Z0.78 F1800.0
G1 X10.84 Y-37.31 Z0.78 F1800.0
G1 X14.21 Y-37.31 Z0.78 F1800.0
G1 X14.21 Y-36.91 Z0.78 F1800.0
G1 X10.84 Y-36.91 Z0.78 F1800.0
G1 X10.84 Y-36.52 Z0.78 F1800.0
G1 X14.21 Y-36.52 Z0.78 F1800.0
G1 X14.21 Y-36.13 Z0.78 F1800.0
G1 X10.84 Y-36.13 Z0.78 F1800.0
G1 X10.84 Y-35.74 Z0.78 F1800.0
G1 X14.21 Y-35.74 Z0.78 F1800.0
G1 X14.21 Y-35.34 Z0.78 F1800.0
G1 X10.84 Y-35.34 Z0.78 F1800.0
G1 X10.84 Y-34.95 Z0.78 F1800.0
G1 X14.21 Y-34.95 Z0.78 F1800.0
G1 X14.21 Y-34.56 Z0.78 F1800.0
G1 X10.84 Y-34.56 Z0.78 F1800.0
G1 X10.84 Y-34.17 Z0.78 F1800.0
G1 X14.21 Y-34.17 Z0.78 F1800.0
G1 X14.21 Y-33.77 Z0.78 F1800.0
G1 X10.84 Y-33.77 Z0.78 F1800.0
G1 X10.84 Y-33.38 Z0.78 F1800.0
G1 X14.21 Y-33.38 Z0.78 F1800.0
G1 X14.21 Y-32.99 Z0.78 F1800.0
G1 X10.84 Y-32.99 Z0.78 F1800.0
G1 X10.84 Y-32.59 Z0.78 F1800.0
G1 X14.21 Y-32.59 Z0.78 F1800.0
G1 X14.21 Y-32.2 Z0.78 F1800.0
G1 X10.84 Y-32.2 Z0.78 F1800.0
G1 X10.84 Y-31.81 Z0.78 F1800.0
G1 X14.21 Y-31.81 Z0.78 F1800.0
G1 X14.21 Y-31.42 Z0.78 F1800.0
G1 X10.84 Y-31.42 Z0.78 F1800.0
G1 X10.84 Y-31.02 Z0.78 F1800.0
G1 X14.21 Y-31.02 Z0.78 F1800.0
G1 X14.21 Y-30.63 Z0.78 F1800.0
G1 X10.84 Y-30.63 Z0.78 F1800.0
G1 X10.84 Y-30.24 Z0.78 F1800.0
G1 X14.21 Y-30.24 Z0.78 F1800.0
G1 X14.21 Y-29.85 Z0.78 F1800.0
G1 X10.84 Y-29.85 Z0.78 F1800.0
G1 X10.84 Y-29.45 Z0.78 F1800.0
G1 X14.21 Y-29.45 Z0.78 F1800.0
G1 X14.21 Y-29.06 Z0.78 F1800.0
G1 X10.84 Y-29.06 Z0.78 F1800.0
G1 X10.84 Y-28.67 Z0.78 F1800.0
G1 X14.21 Y-28.67 Z0.78 F1800.0
G1 X14.21 Y-28.27 Z0.78 F1800.0
G1 X10.84 Y-28.27 Z0.78 F1800.0
G1 X10.84 Y-27.88 Z0.78 F1800.0
G1 X14.21 Y-27.88 Z0.78 F1800.0
G1 X14.21 Y-27.49 Z0.78 F1800.0
G1 X10.84 Y-27.49 Z0.78 F1800.0
G1 X10.84 Y-27.1 Z0.78 F1800.0
G1 X14.21 Y-27.1 Z0.78 F1800.0
G1 X14.21 Y-26.7 Z0.78 F1800.0
G1 X10.84 Y-26.7 Z0.78 F1800.0
G1 X10.84 Y-26.31 Z0.78 F1800.0
G1 X14.21 Y-26.31 Z0.78 F1800.0
G1 X14.21 Y-25.92 Z0.78 F1800.0
G1 X10.84 Y-25.92 Z0.78 F1800.0
G1 X10.84 Y-25.53 Z0.78 F1800.0
G1 X13.76 Y-25.53 Z0.78 F1800.0
M108 R30.0
M102
G1 X14.21 Y-25.53 Z0.78 F1800.0
M108 R3.569
M103
G1 X18.86 Y-23.01 Z0.78 F3000.0
G1 X26.72 Y-22.87 Z0.78 F3000.0
G1 X26.85 Y-18.1 Z0.78 F3000.0
G1 X44.25 Y-7.49 Z0.78 F3000.0
M108 R30.0
M101
G1 X44.93 Y-7.07 Z0.78 F3000.0
M108 R3.569
G1 X27.42 Y-7.07 Z0.78 F1800.0
G1 X27.42 Y-7.46 Z0.78 F1800.0
G1 X44.93 Y-7.46 Z0.78 F1800.0
G1 X44.93 Y-7.85 Z0.78 F1800.0
G1 X27.42 Y-7.85 Z0.78 F1800.0
G1 X27.42 Y-8.25 Z0.78 F1800.0
G1 X44.93 Y-8.25 Z0.78 F1800.0
G1 X44.93 Y-8.64 Z0.78 F1800.0
G1 X27.42 Y-8.64 Z0.78 F1800.0
G1 X27.42 Y-9.03 Z0.78 F1800.0
G1 X44.93 Y-9.03 Z0.78 F1800.0
G1 X44.93 Y-9.43 Z0.78 F1800.0
G1 X27.42 Y-9.43 Z0.78 F1800.0
G1 X27.42 Y-9.82 Z0.78 F1800.0
G1 X44.93 Y-9.82 Z0.78 F1800.0
G1 X44.93 Y-10.21 Z0.78 F1800.0
G1 X27.42 Y-10.21 Z0.78 F1800.0
G1 X27.42 Y-10.6 Z0.78 F1800.0
G1 X44.93 Y-10.6 Z0.78 F1800.0
G1 X44.93 Y-11.0 Z0.78 F1800.0
G1 X27.42 Y-11.0 Z0.78 F1800.0
G1 X27.42 Y-11.39 Z0.78 F1800.0
G1 X44.93 Y-11.39 Z0.78 F1800.0
G1 X44.93 Y-11.78 Z0.78 F1800.0
G1 X27.42 Y-11.78 Z0.78 F1800.0
G1 X27.42 Y-12.17 Z0.78 F1800.0
G1 X44.93 Y-12.17 Z0.78 F1800.0
G1 X44.93 Y-12.57 Z0.78 F1800.0
G1 X27.42 Y-12.57 Z0.78 F1800.0
G1 X27.42 Y-12.96 Z0.78 F1800.0
G1 X44.93 Y-12.96 Z0.78 F1800.0
G1 X44.93 Y-13.35 Z0.78 F1800.0
G1 X27.42 Y-13.35 Z0.78 F1800.0
G1 X27.42 Y-13.74 Z0.78 F1800.0
G1 X44.93 Y-13.74 Z0.78 F1800.0
G1 X44.93 Y-14.14 Z0.78 F1800.0
G1 X27.42 Y-14.14 Z0.78 F1800.0
G1 X27.42 Y-14.53 Z0.78 F1800.0
G1 X44.93 Y-14.53 Z0.78 F1800.0
G1 X44.93 Y-14.92 Z0.78 F1800.0
G1 X27.42 Y-14.92 Z0.78 F1800.0
G1 X27.42 Y-15.32 Z0.78 F1800.0
G1 X44.93 Y-15.32 Z0.78 F1800.0
G1 X44.93 Y-15.71 Z0.78 F1800.0
G1 X27.42 Y-15.71 Z0.78 F1800.0
G1 X27.42 Y-16.1 Z0.78 F1800.0
G1 X44.93 Y-16.1 Z0.78 F1800.0
G1 X44.93 Y-16.49 Z0.78 F1800.0
G1 X27.42 Y-16.49 Z0.78 F1800.0
G1 X27.42 Y-16.89 Z0.78 F1800.0
G1 X44.93 Y-16.89 Z0.78 F1800.0
G1 X44.93 Y-17.28 Z0.78 F1800.0
G1 X27.42 Y-17.28 Z0.78 F1800.0
G1 X27.42 Y-17.67 Z0.78 F1800.0
G1 X44.93 Y-17.67 Z0.78 F1800.0
G1 X44.93 Y-18.06 Z0.78 F1800.0
G1 X27.42 Y-18.06 Z0.78 F1800.0
G1 X27.42 Y-18.46 Z0.78 F1800.0
G1 X44.93 Y-18.46 Z0.78 F1800.0
G1 X44.93 Y-18.85 Z0.78 F1800.0
G1 X27.42 Y-18.85 Z0.78 F1800.0
G1 X27.42 Y-19.24 Z0.78 F1800.0
G1 X44.93 Y-19.24 Z0.78 F1800.0
G1 X44.93 Y-19.64 Z0.78 F1800.0
G1 X27.42 Y-19.64 Z0.78 F1800.0
G1 X27.42 Y-20.03 Z0.78 F1800.0
G1 X44.93 Y-20.03 Z0.78 F1800.0
G1 X44.93 Y-20.42 Z0.78 F1800.0
G1 X27.42 Y-20.42 Z0.78 F1800.0
G1 X27.42 Y-20.81 Z0.78 F1800.0
G1 X44.93 Y-20.81 Z0.78 F1800.0
G1 X44.93 Y-21.21 Z0.78 F1800.0
G1 X27.42 Y-21.21 Z0.78 F1800.0
G1 X27.42 Y-21.6 Z0.78 F1800.0
G1 X44.93 Y-21.6 Z0.78 F1800.0
G1 X44.93 Y-21.99 Z0.78 F1800.0
G1 X27.42 Y-21.99 Z0.78 F1800.0
G1 X27.42 Y-22.38 Z0.78 F1800.0
G1 X44.93 Y-22.38 Z0.78 F1800.0
G1 X44.93 Y-22.78 Z0.78 F1800.0
G1 X27.42 Y-22.78 Z0.78 F1800.0
G1 X27.42 Y-23.17 Z0.78 F1800.0
G1 X44.93 Y-23.17 Z0.78 F1800.0
G1 X44.93 Y-23.56 Z0.78 F1800.0
G1 X27.87 Y-23.56 Z0.78 F1800.0
M108 R30.0
M102
G1 X27.42 Y-23.56 Z0.78 F1800.0
M108 R3.569
M103
G1 X24.53 Y-25.96 Z0.78 F3000.0
G1 X14.92 Y-26.09 Z0.78 F3000.0
G1 X14.78 Y-34.98 Z0.78 F3000.0
G1 X11.41 Y-38.32 Z0.78 F3000.0
M108 R30.0
M101
G1 X10.84 Y-38.88 Z0.78 F3000.0
M108 R3.569
G1 X44.93 Y-38.88 Z0.78 F1800.0
G1 X44.93 Y-39.27 Z0.78 F1800.0
G1 X10.84 Y-39.27 Z0.78 F1800.0
G1 X11.28 Y-39.66 Z0.78 F1800.0
G1 X43.54 Y-39.66 Z0.78 F1800.0
G1 X43.54 Y-40.06 Z0.78 F1800.0
G1 X11.22 Y-40.06 Z0.78 F1800.0
M103
G1 X11.17 Y-40.45 Z0.78 F3000.0
M101
G1 X43.54 Y-40.45 Z0.78 F1800.0
G1 X43.54 Y-40.84 Z0.78 F1800.0
G1 X11.59 Y-40.84 Z0.78 F1800.0
M108 R30.0
M102
G1 X11.14 Y-40.84 Z0.78 F1800.0
M108 R3.569
M103
(</surroundingLoop>)
(</layer>)
(<operatingLayerEnd> </operatingLayerEnd>)
(<layer> 1.1 )
(<surroundingLoop>)
(<boundaryPerimeter>)
(<boundaryPoint> X45.687 Y-6.144 Z1.1 </boundaryPoint>)
(<boundaryPoint> X26.579 Y-6.144 Z1.1 </boundaryPoint>)
(<boundaryPoint> X26.579 Y-22.732 Z1.1 </boundaryPoint>)
(<boundaryPoint> X9.991 Y-22.732 Z1.1 </boundaryPoint>)
(<boundaryPoint> X9.991 Y-40.232 Z1.1 </boundaryPoint>)
(<boundaryPoint> X10.687 Y-40.232 Z1.1 </boundaryPoint>)
(<boundaryPoint> X10.72 Y-40.25 Z1.1 </boundaryPoint>)
(<boundaryPoint> X10.72 Y-40.214 Z1.1 </boundaryPoint>)
(<boundaryPoint> X10.348 Y-40.232 Z1.1 </boundaryPoint>)
(<boundaryPoint> X10.295 Y-40.589 Z1.1 </boundaryPoint>)
(<boundaryPoint> X10.295 Y-41.84 Z1.1 </boundaryPoint>)
(<boundaryPoint> X44.383 Y-41.84 Z1.1 </boundaryPoint>)
(<boundaryPoint> X44.383 Y-40.232 Z1.1 </boundaryPoint>)
(<boundaryPoint> X45.687 Y-40.232 Z1.1 </boundaryPoint>)
(<loop> inner )
G1 X14.78 Y-36.64 Z1.1 F3000.0
G1 X14.92 Y-26.09 Z1.1 F3000.0
G1 X24.77 Y-25.96 Z1.1 F3000.0
G1 X27.17 Y-23.6 Z1.1 F3000.0
M108 R30.0
M101
G1 X27.74 Y-23.04 Z1.1 F3000.0
M108 R3.569
G1 X27.74 Y-8.09 Z1.1 F1800.0
G1 X42.92 Y-8.09 Z1.1 F1800.0
G1 X42.92 Y-23.32 Z1.1 F1800.0
G1 X27.91 Y-23.32 Z1.1 F1800.0
M108 R30.0
M102
G1 X27.74 Y-23.32 Z1.1 F1800.0
G1 X27.74 Y-23.04 Z1.1 F1800.0
M108 R3.569
M103
(</loop>)
(<loop> inner )
G1 X27.74 Y-24.84 Z1.1 F3000.0
M108 R30.0
M101
G1 X27.74 Y-25.64 Z1.1 F3000.0
M108 R3.569
G1 X42.92 Y-25.64 Z1.1 F1800.0
G1 X42.92 Y-38.29 Z1.1 F1800.0
G1 X27.74 Y-38.29 Z1.1 F1800.0
G1 X27.74 Y-25.64 Z1.1 F1800.0
M103
(</loop>)
(<loop> inner )
G1 X27.17 Y-25.64 Z1.1 F3000.0
M101
G1 X27.17 Y-38.29 Z1.1 F1800.0
G1 X14.47 Y-38.29 Z1.1 F1800.0
G1 X14.47 Y-25.64 Z1.1 F1800.0
G1 X26.72 Y-25.64 Z1.1 F1800.0
M108 R30.0
M102
G1 X27.17 Y-25.64 Z1.1 F1800.0
M108 R3.569
M103
(</loop>)
(<loop> outer )
G1 X27.17 Y-24.12 Z1.1 F3000.0
M108 R30.0
M101
G1 X27.17 Y-23.32 Z1.1 F3000.0
M108 R3.569
G1 X10.58 Y-23.32 Z1.1 F1800.0
G1 X10.58 Y-39.65 Z1.1 F1800.0
G1 X11.22 Y-39.65 Z1.1 F1800.0
G1 X11.22 Y-40.67 Z1.1 F1800.0
G1 X10.88 Y-40.85 Z1.1 F1800.0
G1 X10.88 Y-41.25 Z1.1 F1800.0
G1 X43.79 Y-41.25 Z1.1 F1800.0
G1 X43.79 Y-39.64 Z1.1 F1800.0
G1 X45.1 Y-39.64 Z1.1 F1800.0
G1 X45.1 Y-6.73 Z1.1 F1800.0
G1 X27.17 Y-6.73 Z1.1 F1800.0
G1 X27.17 Y-23.32 Z1.1 F1800.0
M103
(</loop>)
(<perimeter> outer )
G1 X26.78 Y-22.93 Z1.1 F3000.0
M101
G1 X10.19 Y-22.93 Z1.1 F1800.0
G1 X10.19 Y-40.04 Z1.1 F1800.0
G1 X10.74 Y-40.04 Z1.1 F1800.0
G1 X10.92 Y-40.13 Z1.1 F1800.0
G1 X10.92 Y-40.33 Z1.1 F1800.0
G1 X10.74 Y-40.43 Z1.1 F1800.0
G1 X10.52 Y-40.43 Z1.1 F1800.0
G1 X10.49 Y-41.64 Z1.1 F1800.0
G1 X44.19 Y-41.64 Z1.1 F1800.0
G1 X44.19 Y-40.04 Z1.1 F1800.0
G1 X45.49 Y-40.04 Z1.1 F1800.0
G1 X45.49 Y-6.34 Z1.1 F1800.0
G1 X26.78 Y-6.34 Z1.1 F1800.0
G1 X26.78 Y-22.48 Z1.1 F1800.0
M108 R30.0
M102
G1 X26.78 Y-22.93 Z1.1 F1800.0
M108 R3.569
M103
(</perimeter>)
(</boundaryPerimeter>)
(<surroundingLoop>)
(<boundaryPerimeter>)
(<boundaryPoint> X28.329 Y-22.732 Z1.1 </boundaryPoint>)
(<boundaryPoint> X28.329 Y-8.678 Z1.1 </boundaryPoint>)
(<boundaryPoint> X42.329 Y-8.678 Z1.1 </boundaryPoint>)
(<boundaryPoint> X42.329 Y-22.732 Z1.1 </boundaryPoint>)
(<perimeter> inner )
G1 X27.33 Y-22.93 Z1.1 F3000.0
M108 R30.0
M101
G1 X28.13 Y-22.93 Z1.1 F3000.0
M108 R3.569
G1 X28.13 Y-8.48 Z1.1 F1800.0
G1 X42.53 Y-8.48 Z1.1 F1800.0
G1 X42.53 Y-22.93 Z1.1 F1800.0
G1 X28.58 Y-22.93 Z1.1 F1800.0
M108 R30.0
M102
G1 X28.13 Y-22.93 Z1.1 F1800.0
M108 R3.569
M103
(</perimeter>)
(</boundaryPerimeter>)
(</surroundingLoop>)
(<surroundingLoop>)
(<boundaryPerimeter>)
(<boundaryPoint> X42.329 Y-26.232 Z1.1 </boundaryPoint>)
(<boundaryPoint> X42.329 Y-37.698 Z1.1 </boundaryPoint>)
(<boundaryPoint> X28.329 Y-37.698 Z1.1 </boundaryPoint>)
(<boundaryPoint> X28.329 Y-26.232 Z1.1 </boundaryPoint>)
(<perimeter> inner )
G1 X28.13 Y-25.24 Z1.1 F3000.0
M108 R30.0
M101
G1 X28.13 Y-26.04 Z1.1 F3000.0
M108 R3.569
G1 X42.53 Y-26.04 Z1.1 F1800.0
G1 X42.53 Y-37.9 Z1.1 F1800.0
G1 X28.13 Y-37.9 Z1.1 F1800.0
G1 X28.13 Y-26.49 Z1.1 F1800.0
M108 R30.0
M102
G1 X28.13 Y-26.04 Z1.1 F1800.0
M108 R3.569
M103
(</perimeter>)
(</boundaryPerimeter>)
(</surroundingLoop>)
(<surroundingLoop>)
(<boundaryPerimeter>)
(<boundaryPoint> X15.059 Y-37.698 Z1.1 </boundaryPoint>)
(<boundaryPoint> X15.059 Y-26.232 Z1.1 </boundaryPoint>)
(<boundaryPoint> X26.579 Y-26.232 Z1.1 </boundaryPoint>)
(<boundaryPoint> X26.579 Y-37.698 Z1.1 </boundaryPoint>)
(<perimeter> inner )
G1 X27.58 Y-26.04 Z1.1 F3000.0
M108 R30.0
M101
G1 X26.78 Y-26.04 Z1.1 F3000.0
M108 R3.569
G1 X26.78 Y-37.9 Z1.1 F1800.0
G1 X14.86 Y-37.9 Z1.1 F1800.0
G1 X14.86 Y-26.04 Z1.1 F1800.0
G1 X26.33 Y-26.04 Z1.1 F1800.0
M108 R30.0
M102
G1 X26.78 Y-26.04 Z1.1 F1800.0
M108 R3.569
M103
(</perimeter>)
(</boundaryPerimeter>)
(</surroundingLoop>)
G1 X26.96 Y-24.37 Z1.1 F3000.0
M108 R30.0
M101
G1 X27.05 Y-23.58 Z1.1 F3000.0
M108 R3.569
G1 X29.23 Y-23.58 Z1.1 F1800.0
G1 X29.34 Y-25.22 Z1.1 F1800.0
G1 X29.23 Y-25.39 Z1.1 F1800.0
G1 X24.87 Y-25.39 Z1.1 F1800.0
G1 X25.09 Y-25.22 Z1.1 F1800.0
G1 X25.09 Y-24.96 Z1.1 F1800.0
G1 X26.62 Y-23.58 Z1.1 F1800.0
G1 X22.69 Y-23.58 Z1.1 F1800.0
G1 X24.44 Y-25.39 Z1.1 F1800.0
G1 X20.51 Y-25.39 Z1.1 F1800.0
G1 X20.73 Y-25.22 Z1.1 F1800.0
G1 X20.73 Y-24.96 Z1.1 F1800.0
G1 X22.25 Y-23.58 Z1.1 F1800.0
G1 X18.33 Y-23.58 Z1.1 F1800.0
G1 X20.07 Y-25.39 Z1.1 F1800.0
G1 X16.14 Y-25.39 Z1.1 F1800.0
G1 X16.36 Y-25.22 Z1.1 F1800.0
G1 X16.36 Y-24.96 Z1.1 F1800.0
G1 X17.89 Y-23.58 Z1.1 F1800.0
G1 X14.4 Y-23.58 Z1.1 F1800.0
G1 X15.71 Y-25.39 Z1.1 F1800.0
G1 X14.4 Y-25.39 Z1.1 F1800.0
G1 X13.96 Y-23.58 Z1.1 F1800.0
G1 X11.78 Y-23.58 Z1.1 F1800.0
G1 X12.11 Y-24.96 Z1.1 F1800.0
G1 X12.11 Y-38.31 Z1.1 F1800.0
G1 X14.07 Y-40.23 Z1.1 F1800.0
G1 X14.07 Y-40.49 Z1.1 F1800.0
G1 X13.53 Y-41.0 Z1.1 F1800.0
G1 X11.69 Y-41.0 Z1.1 F1800.0
M108 R30.0
M102
G1 X11.35 Y-41.0 Z1.1 F1800.0
G1 X11.35 Y-40.89 Z1.1 F1800.0
M108 R3.569
M103
G1 X11.13 Y-40.16 Z1.1 F3000.0
M108 R30.0
M101
G1 X10.91 Y-39.39 Z1.1 F3000.0
M108 R3.569
G1 X11.35 Y-38.96 Z1.1 F1800.0
G1 X11.88 Y-38.31 Z1.1 F1800.0
G1 X11.88 Y-24.96 Z1.1 F1800.0
G1 X11.35 Y-23.59 Z1.1 F1800.0
M108 R30.0
M102
G1 X11.35 Y-23.58 Z1.1 F1800.0
G1 X10.91 Y-23.58 Z1.1 F1800.0
M108 R3.569
M103
G1 X14.78 Y-35.44 Z1.1 F3000.0
G1 X14.92 Y-37.84 Z1.1 F3000.0
G1 X15.69 Y-37.95 Z1.1 F3000.0
M108 R30.0
M101
G1 X15.85 Y-37.97 Z1.1 F3000.0
G1 X16.14 Y-38.54 Z1.1 F3000.0
M108 R3.569
G1 X14.4 Y-38.54 Z1.1 F1800.0
G1 X14.3 Y-40.49 Z1.1 F1800.0
G1 X13.96 Y-41.0 Z1.1 F1800.0
G1 X18.33 Y-41.0 Z1.1 F1800.0
G1 X18.43 Y-40.49 Z1.1 F1800.0
G1 X18.43 Y-40.23 Z1.1 F1800.0
G1 X16.58 Y-38.54 Z1.1 F1800.0
G1 X20.51 Y-38.54 Z1.1 F1800.0
G1 X18.66 Y-40.23 Z1.1 F1800.0
G1 X18.66 Y-40.49 Z1.1 F1800.0
G1 X18.76 Y-41.0 Z1.1 F1800.0
G1 X22.69 Y-41.0 Z1.1 F1800.0
G1 X22.79 Y-40.49 Z1.1 F1800.0
G1 X22.79 Y-40.23 Z1.1 F1800.0
G1 X20.94 Y-38.54 Z1.1 F1800.0
G1 X24.87 Y-38.54 Z1.1 F1800.0
G1 X23.02 Y-40.23 Z1.1 F1800.0
G1 X23.02 Y-40.49 Z1.1 F1800.0
G1 X23.13 Y-41.0 Z1.1 F1800.0
G1 X27.05 Y-41.0 Z1.1 F1800.0
G1 X27.16 Y-40.49 Z1.1 F1800.0
G1 X27.16 Y-40.23 Z1.1 F1800.0
G1 X25.31 Y-38.54 Z1.1 F1800.0
G1 X29.23 Y-38.54 Z1.1 F1800.0
G1 X27.39 Y-40.23 Z1.1 F1800.0
G1 X27.39 Y-40.49 Z1.1 F1800.0
G1 X27.49 Y-41.0 Z1.1 F1800.0
G1 X31.42 Y-41.0 Z1.1 F1800.0
G1 X31.52 Y-40.49 Z1.1 F1800.0
G1 X31.52 Y-40.23 Z1.1 F1800.0
G1 X29.67 Y-38.54 Z1.1 F1800.0
G1 X33.6 Y-38.54 Z1.1 F1800.0
G1 X31.75 Y-40.23 Z1.1 F1800.0
G1 X31.75 Y-40.49 Z1.1 F1800.0
G1 X31.85 Y-41.0 Z1.1 F1800.0
G1 X35.78 Y-41.0 Z1.1 F1800.0
G1 X35.88 Y-40.49 Z1.1 F1800.0
G1 X35.88 Y-40.23 Z1.1 F1800.0
G1 X34.03 Y-38.54 Z1.1 F1800.0
G1 X37.96 Y-38.54 Z1.1 F1800.0
G1 X36.11 Y-40.23 Z1.1 F1800.0
G1 X36.11 Y-40.49 Z1.1 F1800.0
G1 X36.22 Y-41.0 Z1.1 F1800.0
G1 X40.14 Y-41.0 Z1.1 F1800.0
G1 X40.25 Y-40.49 Z1.1 F1800.0
G1 X40.25 Y-40.23 Z1.1 F1800.0
G1 X38.4 Y-38.54 Z1.1 F1800.0
G1 X41.89 Y-38.54 Z1.1 F1800.0
G1 X40.48 Y-40.23 Z1.1 F1800.0
G1 X40.48 Y-40.49 Z1.1 F1800.0
G1 X40.58 Y-41.0 Z1.1 F1800.0
G1 X43.2 Y-41.0 Z1.1 F1800.0
G1 X42.76 Y-38.56 Z1.1 F1800.0
M108 R30.0
M102
G1 X42.76 Y-38.54 Z1.1 F1800.0
G1 X42.32 Y-38.54 Z1.1 F1800.0
M108 R3.569
M103
G1 X43.76 Y-39.1 Z1.1 F3000.0
M108 R30.0
M101
G1 X44.51 Y-39.39 Z1.1 F3000.0
M108 R3.569
G1 X44.51 Y-6.99 Z1.1 F1800.0
G1 X41.89 Y-6.99 Z1.1 F1800.0
G1 X42.76 Y-7.83 Z1.1 F1800.0
G1 X40.58 Y-7.83 Z1.1 F1800.0
G1 X41.45 Y-6.99 Z1.1 F1800.0
G1 X40.14 Y-6.99 Z1.1 F1800.0
G1 X40.14 Y-7.83 Z1.1 F1800.0
G1 X39.27 Y-7.83 Z1.1 F1800.0
G1 X39.71 Y-6.99 Z1.1 F1800.0
G1 X37.96 Y-6.99 Z1.1 F1800.0
G1 X38.83 Y-7.83 Z1.1 F1800.0
G1 X36.22 Y-7.83 Z1.1 F1800.0
G1 X37.09 Y-6.99 Z1.1 F1800.0
G1 X35.78 Y-6.99 Z1.1 F1800.0
G1 X35.78 Y-7.83 Z1.1 F1800.0
G1 X34.91 Y-7.83 Z1.1 F1800.0
G1 X35.34 Y-6.99 Z1.1 F1800.0
G1 X33.6 Y-6.99 Z1.1 F1800.0
G1 X34.47 Y-7.83 Z1.1 F1800.0
G1 X33.16 Y-7.83 Z1.1 F1800.0
G1 X33.16 Y-6.99 Z1.1 F1800.0
G1 X32.73 Y-6.99 Z1.1 F1800.0
G1 X32.73 Y-7.83 Z1.1 F1800.0
G1 X31.42 Y-7.83 Z1.1 F1800.0
G1 X32.29 Y-6.99 Z1.1 F1800.0
G1 X29.67 Y-6.99 Z1.1 F1800.0
G1 X30.54 Y-7.83 Z1.1 F1800.0
G1 X27.49 Y-7.83 Z1.1 F1800.0
G1 X27.49 Y-6.99 Z1.1 F1800.0
G1 X28.78 Y-6.99 Z1.1 F1800.0
M108 R30.0
M102
G1 X29.23 Y-6.99 Z1.1 F1800.0
M108 R3.569
M103
G1 X30.48 Y-8.4 Z1.1 F3000.0
G1 X42.47 Y-8.54 Z1.1 F3000.0
G1 X42.47 Y-22.87 Z1.1 F3000.0
G1 X40.81 Y-23.01 Z1.1 F3000.0
G1 X42.25 Y-24.77 Z1.1 F3000.0
M108 R30.0
M101
G1 X42.76 Y-25.39 Z1.1 F3000.0
M108 R3.569
G1 X42.32 Y-25.39 Z1.1 F1800.0
G1 X42.54 Y-25.22 Z1.1 F1800.0
G1 X42.76 Y-23.58 Z1.1 F1800.0
G1 X40.14 Y-23.58 Z1.1 F1800.0
G1 X41.89 Y-25.39 Z1.1 F1800.0
G1 X37.96 Y-25.39 Z1.1 F1800.0
G1 X38.18 Y-25.22 Z1.1 F1800.0
G1 X38.18 Y-24.96 Z1.1 F1800.0
G1 X39.71 Y-23.58 Z1.1 F1800.0
G1 X35.78 Y-23.58 Z1.1 F1800.0
G1 X37.53 Y-25.39 Z1.1 F1800.0
G1 X33.6 Y-25.39 Z1.1 F1800.0
G1 X33.82 Y-25.22 Z1.1 F1800.0
G1 X33.82 Y-24.96 Z1.1 F1800.0
G1 X35.34 Y-23.58 Z1.1 F1800.0
G1 X31.85 Y-23.58 Z1.1 F1800.0
G1 X33.16 Y-25.39 Z1.1 F1800.0
G1 X29.67 Y-25.39 Z1.1 F1800.0
G1 X29.57 Y-25.22 Z1.1 F1800.0
G1 X29.67 Y-23.58 Z1.1 F1800.0
G1 X31.42 Y-23.58 Z1.1 F1800.0
M103
(</surroundingLoop>)
(</layer>)
(<layer> 1.42 )
(<surroundingLoop>)
(<boundaryPerimeter>)
(<boundaryPoint> X26.579 Y-6.144 Z1.42 </boundaryPoint>)
(<boundaryPoint> X26.579 Y-22.732 Z1.42 </boundaryPoint>)
(<boundaryPoint> X9.991 Y-22.732 Z1.42 </boundaryPoint>)
(<boundaryPoint> X9.991 Y-40.232 Z1.42 </boundaryPoint>)
(<boundaryPoint> X11.007 Y-40.232 Z1.42 </boundaryPoint>)
(<boundaryPoint> X11.04 Y-40.25 Z1.42 </boundaryPoint>)
(<boundaryPoint> X11.04 Y-40.214 Z1.42 </boundaryPoint>)
(<boundaryPoint> X10.348 Y-40.232 Z1.42 </boundaryPoint>)
(<boundaryPoint> X10.295 Y-40.589 Z1.42 </boundaryPoint>)
(<boundaryPoint> X10.295 Y-41.601 Z1.42 </boundaryPoint>)
(<boundaryPoint> X44.383 Y-41.601 Z1.42 </boundaryPoint>)
(<boundaryPoint> X44.383 Y-40.232 Z1.42 </boundaryPoint>)
(<boundaryPoint> X45.448 Y-40.232 Z1.42 </boundaryPoint>)
(<boundaryPoint> X45.448 Y-6.144 Z1.42 </boundaryPoint>)
(<loop> inner )
G1 X31.44 Y-23.32 Z1.42 F3000.0
M101
G1 X31.42 Y-23.32 Z1.42 F1800.0
G1 X27.74 Y-23.32 Z1.42 F1800.0
G1 X27.74 Y-8.09 Z1.42 F1800.0
G1 X42.92 Y-8.09 Z1.42 F1800.0
G1 X42.92 Y-23.32 Z1.42 F1800.0
G1 X31.89 Y-23.32 Z1.42 F1800.0
M108 R30.0
M102
G1 X31.44 Y-23.32 Z1.42 F1800.0
M108 R3.569
M103
(</loop>)
(<loop> inner )
G1 X31.42 Y-24.84 Z1.42 F3000.0
M108 R30.0
M101
G1 X31.42 Y-25.64 Z1.42 F3000.0
M108 R3.569
G1 X42.92 Y-25.64 Z1.42 F1800.0
G1 X42.92 Y-38.29 Z1.42 F1800.0
G1 X27.74 Y-38.29 Z1.42 F1800.0
G1 X27.74 Y-25.64 Z1.42 F1800.0
G1 X30.97 Y-25.64 Z1.42 F1800.0
M108 R30.0
M102
G1 X31.42 Y-25.64 Z1.42 F1800.0
M108 R3.569
M103
(</loop>)
(<loop> inner )
G1 X27.97 Y-25.64 Z1.42 F3000.0
M108 R30.0
M101
G1 X27.17 Y-25.64 Z1.42 F3000.0
M108 R3.569
G1 X27.17 Y-38.29 Z1.42 F1800.0
G1 X14.47 Y-38.29 Z1.42 F1800.0
G1 X14.47 Y-25.64 Z1.42 F1800.0
G1 X26.72 Y-25.64 Z1.42 F1800.0
M108 R30.0
M102
G1 X27.17 Y-25.64 Z1.42 F1800.0
M108 R3.569
M103
(</loop>)
(<loop> outer )
G1 X27.17 Y-24.12 Z1.42 F3000.0
M108 R30.0
M101
G1 X27.17 Y-23.32 Z1.42 F3000.0
M108 R3.569
G1 X10.58 Y-23.32 Z1.42 F1800.0
G1 X10.58 Y-39.65 Z1.42 F1800.0
G1 X11.54 Y-39.65 Z1.42 F1800.0
G1 X11.54 Y-40.36 Z1.42 F1800.0
G1 X11.76 Y-41.01 Z1.42 F1800.0
G1 X43.79 Y-41.01 Z1.42 F1800.0
G1 X43.79 Y-39.64 Z1.42 F1800.0
G1 X44.86 Y-39.64 Z1.42 F1800.0
G1 X44.86 Y-6.73 Z1.42 F1800.0
G1 X27.17 Y-6.73 Z1.42 F1800.0
G1 X27.17 Y-23.32 Z1.42 F1800.0
M103
(</loop>)
(<perimeter> outer )
G1 X26.78 Y-22.93 Z1.42 F3000.0
M101
G1 X10.19 Y-22.93 Z1.42 F1800.0
G1 X10.19 Y-40.04 Z1.42 F1800.0
G1 X11.06 Y-40.04 Z1.42 F1800.0
G1 X11.24 Y-40.13 Z1.42 F1800.0
G1 X11.24 Y-40.33 Z1.42 F1800.0
G1 X11.06 Y-40.43 Z1.42 F1800.0
G1 X10.52 Y-40.43 Z1.42 F1800.0
G1 X10.49 Y-40.6 Z1.42 F1800.0
G1 X10.49 Y-41.41 Z1.42 F1800.0
G1 X44.19 Y-41.41 Z1.42 F1800.0
G1 X44.19 Y-40.04 Z1.42 F1800.0
G1 X45.25 Y-40.04 Z1.42 F1800.0
G1 X45.25 Y-6.34 Z1.42 F1800.0
G1 X26.78 Y-6.34 Z1.42 F1800.0
G1 X26.78 Y-22.48 Z1.42 F1800.0
M108 R30.0
M102
G1 X26.78 Y-22.93 Z1.42 F1800.0
M108 R3.569
M103
(</perimeter>)
(</boundaryPerimeter>)
(<surroundingLoop>)
(<boundaryPerimeter>)
(<boundaryPoint> X28.329 Y-22.732 Z1.42 </boundaryPoint>)
(<boundaryPoint> X28.329 Y-8.678 Z1.42 </boundaryPoint>)
(<boundaryPoint> X42.329 Y-8.678 Z1.42 </boundaryPoint>)
(<boundaryPoint> X42.329 Y-22.732 Z1.42 </boundaryPoint>)
(<perimeter> inner )
G1 X27.33 Y-22.93 Z1.42 F3000.0
M108 R30.0
M101
G1 X28.13 Y-22.93 Z1.42 F3000.0
M108 R3.569
G1 X28.13 Y-8.48 Z1.42 F1800.0
G1 X42.53 Y-8.48 Z1.42 F1800.0
G1 X42.53 Y-22.93 Z1.42 F1800.0
G1 X28.58 Y-22.93 Z1.42 F1800.0
M108 R30.0
M102
G1 X28.13 Y-22.93 Z1.42 F1800.0
M108 R3.569
M103
(</perimeter>)
(</boundaryPerimeter>)
(</surroundingLoop>)
(<surroundingLoop>)
(<boundaryPerimeter>)
(<boundaryPoint> X42.329 Y-26.232 Z1.42 </boundaryPoint>)
(<boundaryPoint> X42.329 Y-37.698 Z1.42 </boundaryPoint>)
(<boundaryPoint> X28.329 Y-37.698 Z1.42 </boundaryPoint>)
(<boundaryPoint> X28.329 Y-26.232 Z1.42 </boundaryPoint>)
(<perimeter> inner )
G1 X28.13 Y-25.24 Z1.42 F3000.0
M108 R30.0
M101
G1 X28.13 Y-26.04 Z1.42 F3000.0
M108 R3.569
G1 X42.53 Y-26.04 Z1.42 F1800.0
G1 X42.53 Y-37.9 Z1.42 F1800.0
G1 X28.13 Y-37.9 Z1.42 F1800.0
G1 X28.13 Y-26.49 Z1.42 F1800.0
M108 R30.0
M102
G1 X28.13 Y-26.04 Z1.42 F1800.0
M108 R3.569
M103
(</perimeter>)
(</boundaryPerimeter>)
(</surroundingLoop>)
(<surroundingLoop>)
(<boundaryPerimeter>)
(<boundaryPoint> X15.059 Y-37.698 Z1.42 </boundaryPoint>)
(<boundaryPoint> X15.059 Y-26.232 Z1.42 </boundaryPoint>)
(<boundaryPoint> X26.579 Y-26.232 Z1.42 </boundaryPoint>)
(<boundaryPoint> X26.579 Y-37.698 Z1.42 </boundaryPoint>)
(<perimeter> inner )
G1 X27.58 Y-26.04 Z1.42 F3000.0
M108 R30.0
M101
G1 X26.78 Y-26.04 Z1.42 F3000.0
M108 R3.569
G1 X26.78 Y-37.9 Z1.42 F1800.0
G1 X14.86 Y-37.9 Z1.42 F1800.0
G1 X14.86 Y-26.04 Z1.42 F1800.0
G1 X26.78 Y-26.04 Z1.42 F1800.0
M103
(</perimeter>)
(</boundaryPerimeter>)
(</surroundingLoop>)
G1 X27.48 Y-25.74 Z1.42 F3000.0
M101
G1 X27.42 Y-25.74 Z1.42 F1800.0
G1 X27.42 Y-26.18 Z1.42 F1800.0
G1 X27.48 Y-26.18 Z1.42 F1800.0
G1 X27.48 Y-26.62 Z1.42 F1800.0
G1 X27.42 Y-26.62 Z1.42 F1800.0
G1 X27.42 Y-27.05 Z1.42 F1800.0
G1 X27.48 Y-27.05 Z1.42 F1800.0
G1 X27.48 Y-27.49 Z1.42 F1800.0
G1 X27.42 Y-27.49 Z1.42 F1800.0
G1 X27.42 Y-27.93 Z1.42 F1800.0
G1 X27.48 Y-27.93 Z1.42 F1800.0
G1 X27.48 Y-28.36 Z1.42 F1800.0
G1 X27.42 Y-28.36 Z1.42 F1800.0
G1 X27.42 Y-28.8 Z1.42 F1800.0
G1 X27.48 Y-28.8 Z1.42 F1800.0
G1 X27.48 Y-29.23 Z1.42 F1800.0
G1 X27.42 Y-29.23 Z1.42 F1800.0
G1 X27.42 Y-29.67 Z1.42 F1800.0
G1 X27.48 Y-29.67 Z1.42 F1800.0
G1 X27.48 Y-30.11 Z1.42 F1800.0
G1 X27.42 Y-30.11 Z1.42 F1800.0
G1 X27.42 Y-30.54 Z1.42 F1800.0
G1 X27.48 Y-30.54 Z1.42 F1800.0
G1 X27.48 Y-30.98 Z1.42 F1800.0
G1 X27.42 Y-30.98 Z1.42 F1800.0
G1 X27.42 Y-31.42 Z1.42 F1800.0
G1 X27.48 Y-31.42 Z1.42 F1800.0
G1 X27.48 Y-31.85 Z1.42 F1800.0
G1 X27.42 Y-31.85 Z1.42 F1800.0
G1 X27.42 Y-32.29 Z1.42 F1800.0
G1 X27.48 Y-32.29 Z1.42 F1800.0
G1 X27.48 Y-32.73 Z1.42 F1800.0
G1 X27.42 Y-32.73 Z1.42 F1800.0
G1 X27.42 Y-33.16 Z1.42 F1800.0
G1 X27.48 Y-33.16 Z1.42 F1800.0
G1 X27.48 Y-33.6 Z1.42 F1800.0
G1 X27.42 Y-33.6 Z1.42 F1800.0
G1 X27.42 Y-34.03 Z1.42 F1800.0
G1 X27.48 Y-34.03 Z1.42 F1800.0
G1 X27.48 Y-34.47 Z1.42 F1800.0
G1 X27.42 Y-34.47 Z1.42 F1800.0
G1 X27.42 Y-34.91 Z1.42 F1800.0
G1 X27.48 Y-34.91 Z1.42 F1800.0
G1 X27.48 Y-35.34 Z1.42 F1800.0
G1 X27.42 Y-35.34 Z1.42 F1800.0
G1 X27.42 Y-35.78 Z1.42 F1800.0
G1 X27.48 Y-35.78 Z1.42 F1800.0
G1 X27.48 Y-36.22 Z1.42 F1800.0
G1 X27.42 Y-36.22 Z1.42 F1800.0
G1 X27.42 Y-36.65 Z1.42 F1800.0
G1 X27.48 Y-36.65 Z1.42 F1800.0
G1 X27.48 Y-37.09 Z1.42 F1800.0
G1 X27.42 Y-37.09 Z1.42 F1800.0
G1 X27.42 Y-37.53 Z1.42 F1800.0
G1 X27.48 Y-37.53 Z1.42 F1800.0
G1 X27.48 Y-37.96 Z1.42 F1800.0
G1 X27.42 Y-37.96 Z1.42 F1800.0
G1 X27.42 Y-38.01 Z1.42 F1800.0
M108 R30.0
M102
G1 X27.42 Y-38.4 Z1.42 F1800.0
G1 X27.48 Y-38.4 Z1.42 F1800.0
M108 R3.569
M103
G1 X23.23 Y-37.97 Z1.42 F3000.0
G1 X14.92 Y-37.84 Z1.42 F3000.0
G1 X14.8 Y-36.57 Z1.42 F3000.0
M108 R30.0
M101
G1 X14.78 Y-36.35 Z1.42 F3000.0
G1 X14.21 Y-36.22 Z1.42 F3000.0
M108 R3.569
G1 X14.21 Y-37.96 Z1.42 F1800.0
G1 X11.87 Y-38.18 Z1.42 F1800.0
G1 X10.84 Y-36.22 Z1.42 F1800.0
G1 X10.84 Y-38.83 Z1.42 F1800.0
G1 X14.21 Y-38.4 Z1.42 F1800.0
G1 X14.27 Y-38.83 Z1.42 F1800.0
G1 X44.6 Y-38.83 Z1.42 F1800.0
M103
G1 X44.6 Y-39.27 Z1.42 F3000.0
M101
G1 X11.29 Y-39.27 Z1.42 F1800.0
M108 R30.0
M102
G1 X10.84 Y-39.27 Z1.42 F1800.0
M108 R3.569
M103
G1 X11.06 Y-39.37 Z1.42 F3000.0
M108 R30.0
M101
G1 X11.79 Y-39.71 Z1.42 F3000.0
M108 R3.569
G1 X11.79 Y-40.14 Z1.42 F1800.0
G1 X40.49 Y-40.25 Z1.42 F1800.0
G1 X43.54 Y-39.71 Z1.42 F1800.0
G1 X43.54 Y-40.58 Z1.42 F1800.0
G1 X12.33 Y-40.58 Z1.42 F1800.0
M108 R30.0
M102
G1 X11.88 Y-40.58 Z1.42 F1800.0
M108 R3.569
M103
G1 X11.01 Y-36.56 Z1.42 F3000.0
M108 R30.0
M101
G1 X10.84 Y-35.78 Z1.42 F3000.0
M108 R3.569
G1 X10.84 Y-34.03 Z1.42 F1800.0
G1 X12.13 Y-33.93 Z1.42 F1800.0
G1 X14.21 Y-35.78 Z1.42 F1800.0
G1 X14.21 Y-31.85 Z1.42 F1800.0
G1 X12.13 Y-33.7 Z1.42 F1800.0
G1 X10.84 Y-33.6 Z1.42 F1800.0
G1 X10.84 Y-29.67 Z1.42 F1800.0
G1 X12.13 Y-29.57 Z1.42 F1800.0
G1 X14.21 Y-31.42 Z1.42 F1800.0
G1 X14.21 Y-27.49 Z1.42 F1800.0
G1 X12.13 Y-29.34 Z1.42 F1800.0
G1 X10.84 Y-29.23 Z1.42 F1800.0
G1 X10.84 Y-25.74 Z1.42 F1800.0
G1 X14.21 Y-25.74 Z1.42 F1800.0
G1 X14.21 Y-26.6 Z1.42 F1800.0
M108 R30.0
M102
G1 X14.21 Y-27.05 Z1.42 F1800.0
M108 R3.569
M103
G1 X11.55 Y-25.67 Z1.42 F3000.0
M108 R30.0
M101
G1 X10.84 Y-25.31 Z1.42 F3000.0
M108 R3.569
G1 X44.15 Y-25.31 Z1.42 F1800.0
M108 R30.0
M102
G1 X44.6 Y-25.31 Z1.42 F1800.0
M108 R3.569
M103
G1 X43.94 Y-25.51 Z1.42 F3000.0
M108 R30.0
M101
G1 X43.17 Y-25.74 Z1.42 F3000.0
M108 R3.569
G1 X44.6 Y-25.74 Z1.42 F1800.0
M103
G1 X44.6 Y-26.18 Z1.42 F3000.0
M101
G1 X43.17 Y-26.18 Z1.42 F1800.0
M103
G1 X43.17 Y-26.62 Z1.42 F3000.0
M101
G1 X44.6 Y-26.62 Z1.42 F1800.0
G1 X44.17 Y-27.05 Z1.42 F1800.0
G1 X44.17 Y-27.49 Z1.42 F1800.0
G1 X43.61 Y-27.49 Z1.42 F1800.0
G1 X43.17 Y-27.93 Z1.42 F1800.0
G1 X43.61 Y-28.36 Z1.42 F1800.0
G1 X43.17 Y-28.8 Z1.42 F1800.0
G1 X44.6 Y-28.8 Z1.42 F1800.0
M103
G1 X44.6 Y-29.23 Z1.42 F3000.0
M101
G1 X43.17 Y-29.23 Z1.42 F1800.0
M103
G1 X43.17 Y-29.67 Z1.42 F3000.0
M101
G1 X44.6 Y-29.67 Z1.42 F1800.0
M103
G1 X44.6 Y-30.11 Z1.42 F3000.0
M101
G1 X43.17 Y-30.11 Z1.42 F1800.0
M103
G1 X43.17 Y-30.54 Z1.42 F3000.0
M101
G1 X44.6 Y-30.54 Z1.42 F1800.0
M103
G1 X44.6 Y-30.98 Z1.42 F3000.0
M101
G1 X43.17 Y-30.98 Z1.42 F1800.0
G1 X43.35 Y-31.89 Z1.42 F1800.0
G1 X44.17 Y-31.85 Z1.42 F1800.0
G1 X44.6 Y-32.29 Z1.42 F1800.0
G1 X44.17 Y-32.73 Z1.42 F1800.0
G1 X44.6 Y-33.16 Z1.42 F1800.0
G1 X43.17 Y-33.16 Z1.42 F1800.0
M103
G1 X43.17 Y-33.6 Z1.42 F3000.0
M101
G1 X44.6 Y-33.6 Z1.42 F1800.0
M103
G1 X44.6 Y-34.03 Z1.42 F3000.0
M101
G1 X43.17 Y-34.03 Z1.42 F1800.0
M103
G1 X43.17 Y-34.47 Z1.42 F3000.0
M101
G1 X44.6 Y-34.47 Z1.42 F1800.0
G1 X44.17 Y-34.91 Z1.42 F1800.0
G1 X43.61 Y-34.91 Z1.42 F1800.0
G1 X43.17 Y-35.34 Z1.42 F1800.0
G1 X43.61 Y-35.78 Z1.42 F1800.0
G1 X44.6 Y-35.34 Z1.42 F1800.0
G1 X44.17 Y-36.22 Z1.42 F1800.0
G1 X43.61 Y-36.65 Z1.42 F1800.0
G1 X43.17 Y-37.09 Z1.42 F1800.0
G1 X44.6 Y-37.09 Z1.42 F1800.0
M103
G1 X44.6 Y-37.53 Z1.42 F3000.0
M101
G1 X43.17 Y-37.53 Z1.42 F1800.0
M103
G1 X43.17 Y-37.96 Z1.42 F3000.0
M101
G1 X44.6 Y-37.96 Z1.42 F1800.0
M103
G1 X44.6 Y-38.4 Z1.42 F3000.0
M101
G1 X43.62 Y-38.4 Z1.42 F1800.0
M108 R30.0
M102
G1 X43.17 Y-38.4 Z1.42 F1800.0
M108 R3.569
M103
G1 X44.52 Y-25.67 Z1.42 F3000.0
M108 R30.0
M101
G1 X44.6 Y-24.87 Z1.42 F3000.0
M108 R3.569
G1 X10.84 Y-24.87 Z1.42 F1800.0
G1 X10.84 Y-24.44 Z1.42 F1800.0
G1 X44.6 Y-24.44 Z1.42 F1800.0
M103
G1 X44.6 Y-24.0 Z1.42 F3000.0
M101
G1 X11.29 Y-24.0 Z1.42 F1800.0
M108 R30.0
M102
G1 X10.84 Y-24.0 Z1.42 F1800.0
M108 R3.569
M103
G1 X13.41 Y-23.01 Z1.42 F3000.0
G1 X26.72 Y-22.87 Z1.42 F3000.0
G1 X26.85 Y-16.27 Z1.42 F3000.0
G1 X28.05 Y-15.41 Z1.42 F3000.0
G1 X28.19 Y-8.54 Z1.42 F3000.0
G1 X42.04 Y-8.4 Z1.42 F3000.0
G1 X43.86 Y-7.71 Z1.42 F3000.0
M108 R30.0
M101
G1 X44.6 Y-7.42 Z1.42 F3000.0
M108 R3.569
G1 X44.17 Y-7.85 Z1.42 F1800.0
G1 X43.61 Y-8.29 Z1.42 F1800.0
G1 X43.17 Y-7.85 Z1.42 F1800.0
G1 X42.67 Y-7.64 Z1.42 F1800.0
G1 X27.42 Y-7.42 Z1.42 F1800.0
G1 X27.42 Y-7.85 Z1.42 F1800.0
G1 X27.48 Y-7.85 Z1.42 F1800.0
G1 X27.48 Y-8.29 Z1.42 F1800.0
G1 X27.42 Y-8.29 Z1.42 F1800.0
G1 X27.42 Y-8.73 Z1.42 F1800.0
G1 X27.48 Y-8.73 Z1.42 F1800.0
G1 X27.48 Y-9.16 Z1.42 F1800.0
G1 X27.42 Y-9.16 Z1.42 F1800.0
G1 X27.42 Y-9.6 Z1.42 F1800.0
G1 X27.48 Y-9.6 Z1.42 F1800.0
G1 X27.48 Y-10.04 Z1.42 F1800.0
G1 X27.42 Y-10.04 Z1.42 F1800.0
G1 X27.42 Y-10.47 Z1.42 F1800.0
G1 X27.48 Y-10.47 Z1.42 F1800.0
G1 X27.48 Y-10.91 Z1.42 F1800.0
G1 X27.42 Y-10.91 Z1.42 F1800.0
G1 X27.42 Y-11.35 Z1.42 F1800.0
G1 X27.48 Y-11.35 Z1.42 F1800.0
G1 X27.48 Y-11.78 Z1.42 F1800.0
G1 X27.42 Y-11.78 Z1.42 F1800.0
G1 X27.42 Y-12.22 Z1.42 F1800.0
G1 X27.48 Y-12.22 Z1.42 F1800.0
G1 X27.48 Y-12.65 Z1.42 F1800.0
G1 X27.42 Y-12.65 Z1.42 F1800.0
G1 X27.42 Y-13.09 Z1.42 F1800.0
G1 X27.48 Y-13.09 Z1.42 F1800.0
G1 X27.48 Y-13.53 Z1.42 F1800.0
G1 X27.42 Y-13.53 Z1.42 F1800.0
G1 X27.42 Y-13.96 Z1.42 F1800.0
G1 X27.48 Y-13.96 Z1.42 F1800.0
G1 X27.48 Y-14.4 Z1.42 F1800.0
G1 X27.42 Y-14.4 Z1.42 F1800.0
G1 X27.42 Y-14.84 Z1.42 F1800.0
G1 X27.48 Y-14.84 Z1.42 F1800.0
G1 X27.48 Y-15.27 Z1.42 F1800.0
G1 X27.42 Y-15.27 Z1.42 F1800.0
G1 X27.42 Y-15.71 Z1.42 F1800.0
G1 X27.48 Y-15.71 Z1.42 F1800.0
G1 X27.48 Y-16.14 Z1.42 F1800.0
G1 X27.42 Y-16.14 Z1.42 F1800.0
G1 X27.42 Y-16.58 Z1.42 F1800.0
G1 X27.48 Y-16.58 Z1.42 F1800.0
G1 X27.48 Y-17.02 Z1.42 F1800.0
G1 X27.42 Y-17.02 Z1.42 F1800.0
G1 X27.42 Y-17.45 Z1.42 F1800.0
G1 X27.48 Y-17.45 Z1.42 F1800.0
G1 X27.48 Y-17.89 Z1.42 F1800.0
G1 X27.42 Y-17.89 Z1.42 F1800.0
G1 X27.42 Y-18.33 Z1.42 F1800.0
G1 X27.48 Y-18.33 Z1.42 F1800.0
G1 X27.48 Y-18.76 Z1.42 F1800.0
G1 X27.42 Y-18.76 Z1.42 F1800.0
G1 X27.42 Y-19.2 Z1.42 F1800.0
G1 X27.48 Y-19.2 Z1.42 F1800.0
G1 X27.48 Y-19.64 Z1.42 F1800.0
G1 X27.42 Y-19.64 Z1.42 F1800.0
G1 X27.42 Y-20.07 Z1.42 F1800.0
G1 X27.48 Y-20.07 Z1.42 F1800.0
G1 X27.48 Y-20.51 Z1.42 F1800.0
G1 X27.42 Y-20.51 Z1.42 F1800.0
G1 X27.42 Y-20.94 Z1.42 F1800.0
G1 X27.48 Y-20.94 Z1.42 F1800.0
G1 X27.48 Y-21.38 Z1.42 F1800.0
G1 X27.42 Y-21.38 Z1.42 F1800.0
G1 X27.42 Y-21.82 Z1.42 F1800.0
G1 X27.48 Y-21.82 Z1.42 F1800.0
G1 X27.48 Y-22.25 Z1.42 F1800.0
G1 X27.42 Y-22.25 Z1.42 F1800.0
G1 X27.42 Y-22.69 Z1.42 F1800.0
G1 X27.48 Y-22.69 Z1.42 F1800.0
G1 X27.48 Y-23.13 Z1.42 F1800.0
G1 X27.42 Y-23.13 Z1.42 F1800.0
G1 X27.42 Y-23.17 Z1.42 F1800.0
M108 R30.0
M102
G1 X27.42 Y-23.56 Z1.42 F1800.0
G1 X27.48 Y-23.56 Z1.42 F1800.0
M108 R3.569
M103
G1 X42.37 Y-23.56 Z1.42 F3000.0
M108 R30.0
M101
G1 X43.17 Y-23.56 Z1.42 F3000.0
M108 R3.569
G1 X44.6 Y-23.56 Z1.42 F1800.0
M103
G1 X44.6 Y-23.13 Z1.42 F3000.0
M101
G1 X43.17 Y-23.13 Z1.42 F1800.0
M103
G1 X43.17 Y-22.69 Z1.42 F3000.0
M101
G1 X44.6 Y-22.69 Z1.42 F1800.0
M103
G1 X44.6 Y-22.25 Z1.42 F3000.0
M101
G1 X43.17 Y-22.25 Z1.42 F1800.0
M103
G1 X43.17 Y-21.82 Z1.42 F3000.0
M101
G1 X44.6 Y-21.82 Z1.42 F1800.0
M103
G1 X44.6 Y-21.38 Z1.42 F3000.0
M101
G1 X43.17 Y-21.38 Z1.42 F1800.0
M103
G1 X43.17 Y-20.94 Z1.42 F3000.0
M101
G1 X44.6 Y-20.94 Z1.42 F1800.0
M103
G1 X44.6 Y-20.51 Z1.42 F3000.0
M101
G1 X43.17 Y-20.51 Z1.42 F1800.0
M103
G1 X43.17 Y-20.07 Z1.42 F3000.0
M101
G1 X44.6 Y-20.07 Z1.42 F1800.0
M103
G1 X44.6 Y-19.64 Z1.42 F3000.0
M101
G1 X43.17 Y-19.64 Z1.42 F1800.0
M103
G1 X43.17 Y-19.2 Z1.42 F3000.0
M101
G1 X44.6 Y-19.2 Z1.42 F1800.0
M103
G1 X44.6 Y-18.76 Z1.42 F3000.0
M101
G1 X43.17 Y-18.76 Z1.42 F1800.0
M103
G1 X43.17 Y-18.33 Z1.42 F3000.0
M101
G1 X44.6 Y-18.33 Z1.42 F1800.0
M103
G1 X44.6 Y-17.89 Z1.42 F3000.0
M101
G1 X43.17 Y-17.89 Z1.42 F1800.0
M103
G1 X43.17 Y-17.45 Z1.42 F3000.0
M101
G1 X44.6 Y-17.45 Z1.42 F1800.0
M103
G1 X44.6 Y-17.02 Z1.42 F3000.0
M101
G1 X43.17 Y-17.02 Z1.42 F1800.0
G1 X43.61 Y-16.58 Z1.42 F1800.0
G1 X44.17 Y-16.14 Z1.42 F1800.0
G1 X44.6 Y-15.71 Z1.42 F1800.0
G1 X43.17 Y-15.71 Z1.42 F1800.0
G1 X43.61 Y-15.27 Z1.42 F1800.0
G1 X44.17 Y-14.84 Z1.42 F1800.0
G1 X44.6 Y-14.4 Z1.42 F1800.0
G1 X43.17 Y-14.4 Z1.42 F1800.0
M103
G1 X43.17 Y-13.96 Z1.42 F3000.0
M101
G1 X44.6 Y-13.96 Z1.42 F1800.0
M103
G1 X44.6 Y-13.53 Z1.42 F3000.0
M101
G1 X43.17 Y-13.53 Z1.42 F1800.0
M103
G1 X43.17 Y-13.09 Z1.42 F3000.0
M101
G1 X44.6 Y-13.09 Z1.42 F1800.0
M103
G1 X44.6 Y-12.65 Z1.42 F3000.0
M101
G1 X43.17 Y-12.65 Z1.42 F1800.0
G1 X43.61 Y-12.22 Z1.42 F1800.0
G1 X44.17 Y-11.78 Z1.42 F1800.0
G1 X44.6 Y-11.35 Z1.42 F1800.0
G1 X43.17 Y-11.35 Z1.42 F1800.0
G1 X44.6 Y-10.47 Z1.42 F1800.0
G1 X43.17 Y-10.47 Z1.42 F1800.0
M103
G1 X43.17 Y-10.04 Z1.42 F3000.0
M101
G1 X44.6 Y-10.04 Z1.42 F1800.0
M103
G1 X44.6 Y-9.6 Z1.42 F3000.0
M101
G1 X43.17 Y-9.6 Z1.42 F1800.0
M103
G1 X43.17 Y-9.16 Z1.42 F3000.0
M101
G1 X44.6 Y-9.16 Z1.42 F1800.0
M103
G1 X44.6 Y-8.73 Z1.42 F3000.0
M101
G1 X43.17 Y-8.73 Z1.42 F1800.0
M103
(</surroundingLoop>)
(</layer>)
(<layer> 1.74 )
(<surroundingLoop>)
(<boundaryPerimeter>)
(<boundaryPoint> X26.579 Y-6.144 Z1.74 </boundaryPoint>)
(<boundaryPoint> X26.579 Y-22.732 Z1.74 </boundaryPoint>)
(<boundaryPoint> X9.991 Y-22.732 Z1.74 </boundaryPoint>)
(<boundaryPoint> X9.991 Y-40.232 Z1.74 </boundaryPoint>)
(<boundaryPoint> X11.327 Y-40.232 Z1.74 </boundaryPoint>)
(<boundaryPoint> X11.36 Y-40.25 Z1.74 </boundaryPoint>)
(<boundaryPoint> X11.36 Y-40.214 Z1.74 </boundaryPoint>)
(<boundaryPoint> X10.348 Y-40.232 Z1.74 </boundaryPoint>)
(<boundaryPoint> X10.295 Y-40.589 Z1.74 </boundaryPoint>)
(<boundaryPoint> X10.295 Y-41.281 Z1.74 </boundaryPoint>)
(<boundaryPoint> X44.383 Y-41.281 Z1.74 </boundaryPoint>)
(<boundaryPoint> X44.383 Y-40.232 Z1.74 </boundaryPoint>)
(<boundaryPoint> X45.128 Y-40.232 Z1.74 </boundaryPoint>)
(<boundaryPoint> X45.128 Y-6.144 Z1.74 </boundaryPoint>)
(<loop> inner )
G1 X42.92 Y-8.4 Z1.74 F3000.0
M101
G1 X42.92 Y-8.73 Z1.74 F1800.0
G1 X42.92 Y-23.32 Z1.74 F1800.0
G1 X27.74 Y-23.32 Z1.74 F1800.0
G1 X27.74 Y-8.09 Z1.74 F1800.0
G1 X42.78 Y-8.09 Z1.74 F1800.0
M108 R30.0
M102
G1 X42.92 Y-8.09 Z1.74 F1800.0
G1 X42.92 Y-8.4 Z1.74 F1800.0
M108 R3.569
M103
(</loop>)
(<loop> inner )
G1 X42.92 Y-24.84 Z1.74 F3000.0
M108 R30.0
M101
G1 X42.92 Y-25.64 Z1.74 F3000.0
M108 R3.569
G1 X42.92 Y-38.29 Z1.74 F1800.0
G1 X27.74 Y-38.29 Z1.74 F1800.0
G1 X27.74 Y-25.64 Z1.74 F1800.0
G1 X42.47 Y-25.64 Z1.74 F1800.0
M108 R30.0
M102
G1 X42.92 Y-25.64 Z1.74 F1800.0
M108 R3.569
M103
(</loop>)
(<loop> inner )
G1 X27.97 Y-25.64 Z1.74 F3000.0
M108 R30.0
M101
G1 X27.17 Y-25.64 Z1.74 F3000.0
M108 R3.569
G1 X27.17 Y-38.29 Z1.74 F1800.0
G1 X14.47 Y-38.29 Z1.74 F1800.0
G1 X14.47 Y-25.64 Z1.74 F1800.0
G1 X26.72 Y-25.64 Z1.74 F1800.0
M108 R30.0
M102
G1 X27.17 Y-25.64 Z1.74 F1800.0
M108 R3.569
M103
(</loop>)
(<loop> outer )
G1 X27.17 Y-24.12 Z1.74 F3000.0
M108 R30.0
M101
G1 X27.17 Y-23.32 Z1.74 F3000.0
M108 R3.569
G1 X10.58 Y-23.32 Z1.74 F1800.0
G1 X10.58 Y-39.64 Z1.74 F1800.0
G1 X11.86 Y-39.66 Z1.74 F1800.0
G1 X11.86 Y-40.69 Z1.74 F1800.0
G1 X43.79 Y-40.69 Z1.74 F1800.0
G1 X43.79 Y-39.64 Z1.74 F1800.0
G1 X44.54 Y-39.64 Z1.74 F1800.0
G1 X44.54 Y-6.73 Z1.74 F1800.0
G1 X27.17 Y-6.73 Z1.74 F1800.0
G1 X27.17 Y-23.32 Z1.74 F1800.0
M103
(</loop>)
(<perimeter> outer )
G1 X26.78 Y-22.93 Z1.74 F3000.0
M101
G1 X10.19 Y-22.93 Z1.74 F1800.0
G1 X10.19 Y-40.04 Z1.74 F1800.0
G1 X11.38 Y-40.04 Z1.74 F1800.0
G1 X11.56 Y-40.13 Z1.74 F1800.0
G1 X11.56 Y-40.33 Z1.74 F1800.0
G1 X11.38 Y-40.43 Z1.74 F1800.0
G1 X10.52 Y-40.43 Z1.74 F1800.0
G1 X10.49 Y-40.6 Z1.74 F1800.0
G1 X10.49 Y-41.09 Z1.74 F1800.0
G1 X44.19 Y-41.09 Z1.74 F1800.0
G1 X44.19 Y-40.04 Z1.74 F1800.0
G1 X44.93 Y-40.04 Z1.74 F1800.0
G1 X44.93 Y-6.34 Z1.74 F1800.0
G1 X26.78 Y-6.34 Z1.74 F1800.0
G1 X26.78 Y-22.48 Z1.74 F1800.0
M108 R30.0
M102
G1 X26.78 Y-22.93 Z1.74 F1800.0
M108 R3.569
M103
(</perimeter>)
(</boundaryPerimeter>)
(<surroundingLoop>)
(<boundaryPerimeter>)
(<boundaryPoint> X28.329 Y-22.732 Z1.74 </boundaryPoint>)
(<boundaryPoint> X28.329 Y-8.678 Z1.74 </boundaryPoint>)
(<boundaryPoint> X42.329 Y-8.678 Z1.74 </boundaryPoint>)
(<boundaryPoint> X42.329 Y-22.732 Z1.74 </boundaryPoint>)
(<perimeter> inner )
G1 X27.33 Y-22.93 Z1.74 F3000.0
M108 R30.0
M101
G1 X28.13 Y-22.93 Z1.74 F3000.0
M108 R3.569
G1 X28.13 Y-8.48 Z1.74 F1800.0
G1 X42.53 Y-8.48 Z1.74 F1800.0
G1 X42.53 Y-22.93 Z1.74 F1800.0
G1 X28.58 Y-22.93 Z1.74 F1800.0
M108 R30.0
M102
G1 X28.13 Y-22.93 Z1.74 F1800.0
M108 R3.569
M103
(</perimeter>)
(</boundaryPerimeter>)
(</surroundingLoop>)
(<surroundingLoop>)
(<boundaryPerimeter>)
(<boundaryPoint> X42.329 Y-26.232 Z1.74 </boundaryPoint>)
(<boundaryPoint> X42.329 Y-37.698 Z1.74 </boundaryPoint>)
(<boundaryPoint> X28.329 Y-37.698 Z1.74 </boundaryPoint>)
(<boundaryPoint> X28.329 Y-26.232 Z1.74 </boundaryPoint>)
(<perimeter> inner )
G1 X28.13 Y-25.24 Z1.74 F3000.0
M108 R30.0
M101
G1 X28.13 Y-26.04 Z1.74 F3000.0
M108 R3.569
G1 X42.53 Y-26.04 Z1.74 F1800.0
G1 X42.53 Y-37.9 Z1.74 F1800.0
G1 X28.13 Y-37.9 Z1.74 F1800.0
G1 X28.13 Y-26.49 Z1.74 F1800.0
M108 R30.0
M102
G1 X28.13 Y-26.04 Z1.74 F1800.0
M108 R3.569
M103
(</perimeter>)
(</boundaryPerimeter>)
(</surroundingLoop>)
(<surroundingLoop>)
(<boundaryPerimeter>)
(<boundaryPoint> X15.059 Y-37.698 Z1.74 </boundaryPoint>)
(<boundaryPoint> X15.059 Y-26.232 Z1.74 </boundaryPoint>)
(<boundaryPoint> X26.579 Y-26.232 Z1.74 </boundaryPoint>)
(<boundaryPoint> X26.579 Y-37.698 Z1.74 </boundaryPoint>)
(<perimeter> inner )
G1 X27.58 Y-26.04 Z1.74 F3000.0
M108 R30.0
M101
G1 X26.78 Y-26.04 Z1.74 F3000.0
M108 R3.569
G1 X26.78 Y-37.9 Z1.74 F1800.0
G1 X14.86 Y-37.9 Z1.74 F1800.0
G1 X14.86 Y-26.04 Z1.74 F1800.0
G1 X26.33 Y-26.04 Z1.74 F1800.0
M108 R30.0
M102
G1 X26.78 Y-26.04 Z1.74 F1800.0
M108 R3.569
M103
(</perimeter>)
(</boundaryPerimeter>)
(</surroundingLoop>)
G1 X18.23 Y-23.78 Z1.74 F3000.0
M108 R30.0
M101
G1 X17.45 Y-23.58 Z1.74 F3000.0
M108 R3.569
G1 X14.84 Y-23.58 Z1.74 F1800.0
G1 X14.4 Y-25.39 Z1.74 F1800.0
G1 X19.2 Y-25.39 Z1.74 F1800.0
G1 X17.89 Y-23.58 Z1.74 F1800.0
G1 X21.38 Y-23.58 Z1.74 F1800.0
G1 X19.64 Y-25.39 Z1.74 F1800.0
G1 X23.56 Y-25.39 Z1.74 F1800.0
G1 X21.82 Y-23.58 Z1.74 F1800.0
G1 X25.74 Y-23.58 Z1.74 F1800.0
G1 X24.0 Y-25.39 Z1.74 F1800.0
G1 X27.93 Y-25.39 Z1.74 F1800.0
G1 X26.18 Y-23.58 Z1.74 F1800.0
G1 X30.11 Y-23.58 Z1.74 F1800.0
G1 X28.36 Y-25.39 Z1.74 F1800.0
G1 X32.29 Y-25.39 Z1.74 F1800.0
G1 X30.54 Y-23.58 Z1.74 F1800.0
G1 X34.47 Y-23.58 Z1.74 F1800.0
G1 X32.73 Y-25.39 Z1.74 F1800.0
G1 X36.65 Y-25.39 Z1.74 F1800.0
G1 X34.91 Y-23.58 Z1.74 F1800.0
G1 X38.83 Y-23.58 Z1.74 F1800.0
G1 X37.09 Y-25.39 Z1.74 F1800.0
G1 X41.02 Y-25.39 Z1.74 F1800.0
G1 X39.27 Y-23.58 Z1.74 F1800.0
G1 X42.76 Y-23.58 Z1.74 F1800.0
G1 X42.54 Y-25.22 Z1.74 F1800.0
G1 X42.76 Y-25.39 Z1.74 F1800.0
G1 X41.9 Y-25.39 Z1.74 F1800.0
M108 R30.0
M102
G1 X41.45 Y-25.39 Z1.74 F1800.0
M108 R3.569
M103
G1 X41.61 Y-25.96 Z1.74 F3000.0
G1 X42.47 Y-26.09 Z1.74 F3000.0
G1 X42.6 Y-30.08 Z1.74 F3000.0
G1 X43.95 Y-38.6 Z1.74 F3000.0
M108 R30.0
M101
G1 X44.07 Y-39.39 Z1.74 F3000.0
M108 R3.569
G1 X44.07 Y-6.99 Z1.74 F1800.0
G1 X43.2 Y-6.99 Z1.74 F1800.0
G1 X43.63 Y-39.39 Z1.74 F1800.0
G1 X43.2 Y-40.44 Z1.74 F1800.0
G1 X42.76 Y-40.44 Z1.74 F1800.0
G1 X42.76 Y-38.54 Z1.74 F1800.0
G1 X42.32 Y-38.54 Z1.74 F1800.0
G1 X42.32 Y-40.44 Z1.74 F1800.0
G1 X41.89 Y-40.44 Z1.74 F1800.0
G1 X41.89 Y-38.54 Z1.74 F1800.0
G1 X41.45 Y-38.54 Z1.74 F1800.0
G1 X41.45 Y-40.44 Z1.74 F1800.0
G1 X41.02 Y-40.44 Z1.74 F1800.0
G1 X41.02 Y-38.54 Z1.74 F1800.0
G1 X40.58 Y-38.54 Z1.74 F1800.0
G1 X40.58 Y-40.44 Z1.74 F1800.0
G1 X40.14 Y-40.44 Z1.74 F1800.0
G1 X40.14 Y-38.54 Z1.74 F1800.0
G1 X39.71 Y-38.54 Z1.74 F1800.0
G1 X39.71 Y-40.44 Z1.74 F1800.0
G1 X39.27 Y-40.44 Z1.74 F1800.0
G1 X39.27 Y-38.54 Z1.74 F1800.0
G1 X38.83 Y-38.54 Z1.74 F1800.0
G1 X38.83 Y-40.44 Z1.74 F1800.0
G1 X38.4 Y-40.44 Z1.74 F1800.0
G1 X38.4 Y-38.54 Z1.74 F1800.0
G1 X37.96 Y-38.54 Z1.74 F1800.0
G1 X37.96 Y-40.44 Z1.74 F1800.0
G1 X37.53 Y-40.44 Z1.74 F1800.0
G1 X37.53 Y-38.54 Z1.74 F1800.0
G1 X37.09 Y-38.54 Z1.74 F1800.0
G1 X37.09 Y-40.44 Z1.74 F1800.0
G1 X36.65 Y-40.44 Z1.74 F1800.0
G1 X36.65 Y-38.54 Z1.74 F1800.0
G1 X36.22 Y-38.54 Z1.74 F1800.0
G1 X36.22 Y-40.44 Z1.74 F1800.0
G1 X35.78 Y-40.44 Z1.74 F1800.0
G1 X35.78 Y-38.54 Z1.74 F1800.0
G1 X35.34 Y-38.54 Z1.74 F1800.0
G1 X35.34 Y-40.44 Z1.74 F1800.0
G1 X34.91 Y-40.44 Z1.74 F1800.0
G1 X34.91 Y-38.54 Z1.74 F1800.0
G1 X34.47 Y-38.54 Z1.74 F1800.0
G1 X34.47 Y-40.44 Z1.74 F1800.0
G1 X34.03 Y-40.44 Z1.74 F1800.0
G1 X34.03 Y-38.54 Z1.74 F1800.0
G1 X33.6 Y-38.54 Z1.74 F1800.0
G1 X33.6 Y-40.44 Z1.74 F1800.0
G1 X33.16 Y-40.44 Z1.74 F1800.0
G1 X33.16 Y-38.54 Z1.74 F1800.0
G1 X32.73 Y-38.54 Z1.74 F1800.0
G1 X32.73 Y-40.44 Z1.74 F1800.0
G1 X32.29 Y-40.44 Z1.74 F1800.0
G1 X32.29 Y-38.54 Z1.74 F1800.0
G1 X31.85 Y-38.54 Z1.74 F1800.0
G1 X31.85 Y-40.44 Z1.74 F1800.0
G1 X31.42 Y-40.44 Z1.74 F1800.0
G1 X31.42 Y-38.54 Z1.74 F1800.0
G1 X30.54 Y-38.54 Z1.74 F1800.0
G1 X30.98 Y-40.44 Z1.74 F1800.0
G1 X28.8 Y-40.44 Z1.74 F1800.0
G1 X30.11 Y-38.54 Z1.74 F1800.0
G1 X28.36 Y-38.54 Z1.74 F1800.0
G1 X28.36 Y-40.44 Z1.74 F1800.0
G1 X27.93 Y-40.44 Z1.74 F1800.0
G1 X27.93 Y-38.54 Z1.74 F1800.0
G1 X27.49 Y-38.54 Z1.74 F1800.0
G1 X27.49 Y-40.44 Z1.74 F1800.0
G1 X27.05 Y-40.44 Z1.74 F1800.0
G1 X27.05 Y-38.54 Z1.74 F1800.0
G1 X26.18 Y-38.54 Z1.74 F1800.0
G1 X26.62 Y-40.44 Z1.74 F1800.0
G1 X24.44 Y-40.44 Z1.74 F1800.0
G1 X25.74 Y-38.54 Z1.74 F1800.0
G1 X24.0 Y-38.54 Z1.74 F1800.0
G1 X24.0 Y-40.44 Z1.74 F1800.0
G1 X23.56 Y-40.44 Z1.74 F1800.0
G1 X23.56 Y-38.54 Z1.74 F1800.0
G1 X23.13 Y-38.54 Z1.74 F1800.0
G1 X23.13 Y-40.44 Z1.74 F1800.0
G1 X22.69 Y-40.44 Z1.74 F1800.0
G1 X22.69 Y-38.54 Z1.74 F1800.0
G1 X21.82 Y-38.54 Z1.74 F1800.0
G1 X22.25 Y-40.44 Z1.74 F1800.0
G1 X20.07 Y-40.44 Z1.74 F1800.0
G1 X21.38 Y-38.54 Z1.74 F1800.0
G1 X19.64 Y-38.54 Z1.74 F1800.0
G1 X19.64 Y-40.44 Z1.74 F1800.0
G1 X19.2 Y-40.44 Z1.74 F1800.0
G1 X19.2 Y-38.54 Z1.74 F1800.0
G1 X18.76 Y-38.54 Z1.74 F1800.0
G1 X18.76 Y-40.44 Z1.74 F1800.0
G1 X18.33 Y-40.44 Z1.74 F1800.0
G1 X18.33 Y-38.54 Z1.74 F1800.0
G1 X17.89 Y-38.54 Z1.74 F1800.0
G1 X17.89 Y-40.44 Z1.74 F1800.0
G1 X17.45 Y-40.44 Z1.74 F1800.0
G1 X17.45 Y-38.54 Z1.74 F1800.0
G1 X17.02 Y-38.54 Z1.74 F1800.0
G1 X17.02 Y-40.44 Z1.74 F1800.0
G1 X16.58 Y-40.44 Z1.74 F1800.0
G1 X16.58 Y-38.54 Z1.74 F1800.0
G1 X16.14 Y-38.54 Z1.74 F1800.0
G1 X16.14 Y-40.44 Z1.74 F1800.0
G1 X15.71 Y-40.44 Z1.74 F1800.0
G1 X15.71 Y-38.54 Z1.74 F1800.0
G1 X15.27 Y-38.54 Z1.74 F1800.0
G1 X15.27 Y-40.44 Z1.74 F1800.0
G1 X14.84 Y-40.44 Z1.74 F1800.0
G1 X14.84 Y-38.54 Z1.74 F1800.0
G1 X14.4 Y-38.54 Z1.74 F1800.0
G1 X14.4 Y-40.44 Z1.74 F1800.0
G1 X13.96 Y-40.44 Z1.74 F1800.0
G1 X13.96 Y-23.58 Z1.74 F1800.0
G1 X13.53 Y-23.58 Z1.74 F1800.0
G1 X13.53 Y-40.44 Z1.74 F1800.0
G1 X13.09 Y-40.44 Z1.74 F1800.0
G1 X13.09 Y-23.58 Z1.74 F1800.0
G1 X12.65 Y-23.58 Z1.74 F1800.0
G1 X12.65 Y-40.44 Z1.74 F1800.0
G1 X12.22 Y-40.44 Z1.74 F1800.0
G1 X12.22 Y-23.58 Z1.74 F1800.0
G1 X11.35 Y-23.58 Z1.74 F1800.0
G1 X11.88 Y-24.96 Z1.74 F1800.0
G1 X11.88 Y-38.31 Z1.74 F1800.0
G1 X11.35 Y-39.4 Z1.74 F1800.0
M103
G1 X10.91 Y-39.39 Z1.74 F3000.0
M101
G1 X10.91 Y-24.03 Z1.74 F1800.0
M108 R30.0
M102
G1 X10.91 Y-23.58 Z1.74 F1800.0
M108 R3.569
M103
G1 X12.5 Y-23.01 Z1.74 F3000.0
G1 X26.72 Y-22.87 Z1.74 F3000.0
G1 X26.85 Y-15.26 Z1.74 F3000.0
G1 X28.05 Y-14.33 Z1.74 F3000.0
G1 X28.19 Y-8.54 Z1.74 F3000.0
G1 X38.99 Y-8.4 Z1.74 F3000.0
G1 X39.83 Y-8.1 Z1.74 F3000.0
M108 R30.0
M101
G1 X40.58 Y-7.83 Z1.74 F3000.0
M108 R3.569
G1 X42.32 Y-7.83 Z1.74 F1800.0
G1 X42.54 Y-7.76 Z1.74 F1800.0
G1 X42.76 Y-7.83 Z1.74 F1800.0
G1 X42.54 Y-7.51 Z1.74 F1800.0
G1 X42.32 Y-6.99 Z1.74 F1800.0
G1 X39.27 Y-6.99 Z1.74 F1800.0
G1 X40.14 Y-7.83 Z1.74 F1800.0
G1 X37.53 Y-7.83 Z1.74 F1800.0
G1 X38.83 Y-6.99 Z1.74 F1800.0
G1 X37.09 Y-6.99 Z1.74 F1800.0
G1 X37.09 Y-7.83 Z1.74 F1800.0
G1 X36.22 Y-7.83 Z1.74 F1800.0
G1 X36.65 Y-6.99 Z1.74 F1800.0
G1 X34.91 Y-6.99 Z1.74 F1800.0
G1 X35.78 Y-7.83 Z1.74 F1800.0
G1 X33.16 Y-7.83 Z1.74 F1800.0
G1 X34.03 Y-6.99 Z1.74 F1800.0
G1 X32.73 Y-6.99 Z1.74 F1800.0
G1 X32.73 Y-7.83 Z1.74 F1800.0
G1 X31.85 Y-7.83 Z1.74 F1800.0
G1 X32.29 Y-6.99 Z1.74 F1800.0
G1 X30.54 Y-6.99 Z1.74 F1800.0
G1 X31.42 Y-7.83 Z1.74 F1800.0
G1 X28.8 Y-7.83 Z1.74 F1800.0
G1 X29.67 Y-6.99 Z1.74 F1800.0
G1 X27.49 Y-6.99 Z1.74 F1800.0
G1 X27.49 Y-7.83 Z1.74 F1800.0
G1 X28.36 Y-7.83 Z1.74 F1800.0
M103
(</surroundingLoop>)
(</layer>)
(<layer> 2.06 )
(<surroundingLoop>)
(<boundaryPerimeter>)
(<boundaryPoint> X44.311 Y-14.556 Z2.06 </boundaryPoint>)
(<boundaryPoint> X44.311 Y-12.529 Z2.06 </boundaryPoint>)
(<boundaryPoint> X44.808 Y-12.529 Z2.06 </boundaryPoint>)
(<boundaryPoint> X44.808 Y-10.502 Z2.06 </boundaryPoint>)
(<boundaryPoint> X44.311 Y-10.502 Z2.06 </boundaryPoint>)
(<boundaryPoint> X44.311 Y-8.475 Z2.06 </boundaryPoint>)
(<boundaryPoint> X44.808 Y-8.475 Z2.06 </boundaryPoint>)
(<boundaryPoint> X44.808 Y-6.448 Z2.06 </boundaryPoint>)
(<boundaryPoint> X44.456 Y-6.448 Z2.06 </boundaryPoint>)
(<boundaryPoint> X44.208 Y-6.144 Z2.06 </boundaryPoint>)
(<boundaryPoint> X26.579 Y-6.144 Z2.06 </boundaryPoint>)
(<boundaryPoint> X26.579 Y-22.732 Z2.06 </boundaryPoint>)
(<boundaryPoint> X9.991 Y-22.732 Z2.06 </boundaryPoint>)
(<boundaryPoint> X9.991 Y-40.231 Z2.06 </boundaryPoint>)
(<boundaryPoint> X12.054 Y-40.232 Z2.06 </boundaryPoint>)
(<boundaryPoint> X12.048 Y-40.464 Z2.06 </boundaryPoint>)
(<boundaryPoint> X20.43 Y-40.464 Z2.06 </boundaryPoint>)
(<boundaryPoint> X20.43 Y-40.961 Z2.06 </boundaryPoint>)
(<boundaryPoint> X22.457 Y-40.961 Z2.06 </boundaryPoint>)
(<boundaryPoint> X22.457 Y-40.464 Z2.06 </boundaryPoint>)
(<boundaryPoint> X24.484 Y-40.464 Z2.06 </boundaryPoint>)
(<boundaryPoint> X24.484 Y-40.961 Z2.06 </boundaryPoint>)
(<boundaryPoint> X26.511 Y-40.961 Z2.06 </boundaryPoint>)
(<boundaryPoint> X26.511 Y-40.464 Z2.06 </boundaryPoint>)
(<boundaryPoint> X28.538 Y-40.464 Z2.06 </boundaryPoint>)
(<boundaryPoint> X28.538 Y-40.961 Z2.06 </boundaryPoint>)
(<boundaryPoint> X30.565 Y-40.961 Z2.06 </boundaryPoint>)
(<boundaryPoint> X30.565 Y-40.464 Z2.06 </boundaryPoint>)
(<boundaryPoint> X44.026 Y-40.464 Z2.06 </boundaryPoint>)
(<boundaryPoint> X44.311 Y-40.232 Z2.06 </boundaryPoint>)
(<boundaryPoint> X44.311 Y-36.853 Z2.06 </boundaryPoint>)
(<boundaryPoint> X44.808 Y-36.853 Z2.06 </boundaryPoint>)
(<boundaryPoint> X44.808 Y-34.826 Z2.06 </boundaryPoint>)
(<boundaryPoint> X44.311 Y-34.826 Z2.06 </boundaryPoint>)
(<boundaryPoint> X44.311 Y-32.799 Z2.06 </boundaryPoint>)
(<boundaryPoint> X44.808 Y-32.799 Z2.06 </boundaryPoint>)
(<boundaryPoint> X44.808 Y-30.772 Z2.06 </boundaryPoint>)
(<boundaryPoint> X44.311 Y-30.772 Z2.06 </boundaryPoint>)
(<boundaryPoint> X44.311 Y-28.745 Z2.06 </boundaryPoint>)
(<boundaryPoint> X44.808 Y-28.745 Z2.06 </boundaryPoint>)
(<boundaryPoint> X44.808 Y-26.718 Z2.06 </boundaryPoint>)
(<boundaryPoint> X44.311 Y-26.718 Z2.06 </boundaryPoint>)
(<boundaryPoint> X44.311 Y-16.583 Z2.06 </boundaryPoint>)
(<boundaryPoint> X44.808 Y-16.583 Z2.06 </boundaryPoint>)
(<boundaryPoint> X44.808 Y-14.556 Z2.06 </boundaryPoint>)
(<loop> inner )
G1 X28.53 Y-8.09 Z2.06 F3000.0
M101
G1 X42.92 Y-8.09 Z2.06 F1800.0
G1 X42.92 Y-23.32 Z2.06 F1800.0
G1 X27.74 Y-23.32 Z2.06 F1800.0
G1 X27.74 Y-8.09 Z2.06 F1800.0
G1 X28.08 Y-8.09 Z2.06 F1800.0
M108 R30.0
M102
G1 X28.36 Y-8.09 Z2.06 F1800.0
G1 X28.53 Y-8.09 Z2.06 F1800.0
M108 R3.569
M103
(</loop>)
(<loop> inner )
G1 X28.52 Y-8.4 Z2.06 F3000.0
G1 X28.19 Y-8.54 Z2.06 F3000.0
G1 X28.19 Y-22.87 Z2.06 F3000.0
G1 X28.39 Y-23.01 Z2.06 F3000.0
G1 X28.37 Y-24.84 Z2.06 F3000.0
M108 R30.0
M101
G1 X28.36 Y-25.64 Z2.06 F3000.0
M108 R3.569
G1 X42.92 Y-25.64 Z2.06 F1800.0
G1 X42.92 Y-38.29 Z2.06 F1800.0
G1 X27.74 Y-38.29 Z2.06 F1800.0
G1 X27.74 Y-25.64 Z2.06 F1800.0
G1 X27.91 Y-25.64 Z2.06 F1800.0
M108 R30.0
M102
G1 X28.36 Y-25.64 Z2.06 F1800.0
M108 R3.569
M103
(</loop>)
(<loop> inner )
G1 X27.97 Y-25.64 Z2.06 F3000.0
M108 R30.0
M101
G1 X27.17 Y-25.64 Z2.06 F3000.0
M108 R3.569
G1 X27.17 Y-38.29 Z2.06 F1800.0
G1 X14.47 Y-38.29 Z2.06 F1800.0
G1 X14.47 Y-25.64 Z2.06 F1800.0
G1 X26.72 Y-25.64 Z2.06 F1800.0
M108 R30.0
M102
G1 X27.17 Y-25.64 Z2.06 F1800.0
M108 R3.569
M103
(</loop>)
(<loop> outer )
G1 X27.17 Y-24.12 Z2.06 F3000.0
M108 R30.0
M101
G1 X27.17 Y-23.32 Z2.06 F3000.0
M108 R3.569
G1 X10.58 Y-23.32 Z2.06 F1800.0
G1 X10.58 Y-39.64 Z2.06 F1800.0
G1 X12.19 Y-39.64 Z2.06 F1800.0
G1 X12.68 Y-39.88 Z2.06 F1800.0
G1 X20.74 Y-39.88 Z2.06 F1800.0
G1 X21.44 Y-40.31 Z2.06 F1800.0
G1 X22.15 Y-39.88 Z2.06 F1800.0
G1 X24.79 Y-39.88 Z2.06 F1800.0
G1 X25.5 Y-40.31 Z2.06 F1800.0
G1 X26.2 Y-39.88 Z2.06 F1800.0
G1 X28.85 Y-39.88 Z2.06 F1800.0
G1 X29.55 Y-40.31 Z2.06 F1800.0
G1 X30.26 Y-39.88 Z2.06 F1800.0
G1 X43.72 Y-39.88 Z2.06 F1800.0
G1 X43.72 Y-36.55 Z2.06 F1800.0
G1 X44.15 Y-35.84 Z2.06 F1800.0
G1 X43.72 Y-35.13 Z2.06 F1800.0
G1 X43.72 Y-32.49 Z2.06 F1800.0
G1 X44.15 Y-31.79 Z2.06 F1800.0
G1 X43.72 Y-31.08 Z2.06 F1800.0
G1 X43.72 Y-28.44 Z2.06 F1800.0
G1 X44.15 Y-27.73 Z2.06 F1800.0
G1 X43.72 Y-27.03 Z2.06 F1800.0
G1 X43.72 Y-16.28 Z2.06 F1800.0
G1 X44.15 Y-15.57 Z2.06 F1800.0
G1 X43.72 Y-14.86 Z2.06 F1800.0
G1 X43.72 Y-12.22 Z2.06 F1800.0
G1 X44.15 Y-11.52 Z2.06 F1800.0
G1 X43.72 Y-10.81 Z2.06 F1800.0
G1 X43.72 Y-8.17 Z2.06 F1800.0
G1 X44.18 Y-7.41 Z2.06 F1800.0
G1 X44.01 Y-6.83 Z2.06 F1800.0
G1 X43.93 Y-6.73 Z2.06 F1800.0
G1 X27.17 Y-6.73 Z2.06 F1800.0
G1 X27.17 Y-23.32 Z2.06 F1800.0
M103
(</loop>)
(<perimeter> outer )
G1 X26.78 Y-22.93 Z2.06 F3000.0
M101
G1 X10.19 Y-22.93 Z2.06 F1800.0
G1 X10.19 Y-40.04 Z2.06 F1800.0
G1 X12.25 Y-40.04 Z2.06 F1800.0
G1 X12.24 Y-40.27 Z2.06 F1800.0
G1 X20.63 Y-40.27 Z2.06 F1800.0
G1 X20.63 Y-40.77 Z2.06 F1800.0
G1 X22.26 Y-40.77 Z2.06 F1800.0
G1 X22.26 Y-40.27 Z2.06 F1800.0
G1 X24.68 Y-40.27 Z2.06 F1800.0
G1 X24.68 Y-40.77 Z2.06 F1800.0
G1 X26.32 Y-40.77 Z2.06 F1800.0
G1 X26.32 Y-40.27 Z2.06 F1800.0
G1 X28.74 Y-40.27 Z2.06 F1800.0
G1 X28.74 Y-40.77 Z2.06 F1800.0
G1 X30.37 Y-40.77 Z2.06 F1800.0
G1 X30.37 Y-40.27 Z2.06 F1800.0
G1 X43.96 Y-40.27 Z2.06 F1800.0
G1 X44.12 Y-40.14 Z2.06 F1800.0
G1 X44.12 Y-36.66 Z2.06 F1800.0
G1 X44.61 Y-36.66 Z2.06 F1800.0
G1 X44.61 Y-35.02 Z2.06 F1800.0
G1 X44.12 Y-35.02 Z2.06 F1800.0
G1 X44.12 Y-32.6 Z2.06 F1800.0
G1 X44.61 Y-32.6 Z2.06 F1800.0
G1 X44.61 Y-30.97 Z2.06 F1800.0
G1 X44.12 Y-30.97 Z2.06 F1800.0
G1 X44.12 Y-28.55 Z2.06 F1800.0
G1 X44.61 Y-28.55 Z2.06 F1800.0
G1 X44.61 Y-26.92 Z2.06 F1800.0
G1 X44.12 Y-26.92 Z2.06 F1800.0
G1 X44.12 Y-16.39 Z2.06 F1800.0
G1 X44.61 Y-16.39 Z2.06 F1800.0
G1 X44.61 Y-14.75 Z2.06 F1800.0
G1 X44.12 Y-14.75 Z2.06 F1800.0
G1 X44.12 Y-12.33 Z2.06 F1800.0
G1 X44.61 Y-12.33 Z2.06 F1800.0
G1 X44.61 Y-10.7 Z2.06 F1800.0
G1 X44.12 Y-10.7 Z2.06 F1800.0
G1 X44.12 Y-8.28 Z2.06 F1800.0
G1 X44.61 Y-8.28 Z2.06 F1800.0
G1 X44.61 Y-6.65 Z2.06 F1800.0
G1 X44.36 Y-6.65 Z2.06 F1800.0
G1 X44.12 Y-6.34 Z2.06 F1800.0
G1 X26.78 Y-6.34 Z2.06 F1800.0
G1 X26.78 Y-22.48 Z2.06 F1800.0
M108 R30.0
M102
G1 X26.78 Y-22.93 Z2.06 F1800.0
M108 R3.569
M103
(</perimeter>)
(</boundaryPerimeter>)
(<surroundingLoop>)
(<boundaryPerimeter>)
(<boundaryPoint> X28.329 Y-22.732 Z2.06 </boundaryPoint>)
(<boundaryPoint> X28.329 Y-8.678 Z2.06 </boundaryPoint>)
(<boundaryPoint> X42.329 Y-8.678 Z2.06 </boundaryPoint>)
(<boundaryPoint> X42.329 Y-22.732 Z2.06 </boundaryPoint>)
(<perimeter> inner )
G1 X27.33 Y-22.93 Z2.06 F3000.0
M108 R30.0
M101
G1 X28.13 Y-22.93 Z2.06 F3000.0
M108 R3.569
G1 X28.13 Y-8.48 Z2.06 F1800.0
G1 X42.53 Y-8.48 Z2.06 F1800.0
G1 X42.53 Y-22.93 Z2.06 F1800.0
G1 X28.58 Y-22.93 Z2.06 F1800.0
M108 R30.0
M102
G1 X28.13 Y-22.93 Z2.06 F1800.0
M108 R3.569
M103
(</perimeter>)
(</boundaryPerimeter>)
(</surroundingLoop>)
(<surroundingLoop>)
(<boundaryPerimeter>)
(<boundaryPoint> X42.329 Y-26.232 Z2.06 </boundaryPoint>)
(<boundaryPoint> X42.329 Y-37.698 Z2.06 </boundaryPoint>)
(<boundaryPoint> X28.329 Y-37.698 Z2.06 </boundaryPoint>)
(<boundaryPoint> X28.329 Y-26.232 Z2.06 </boundaryPoint>)
(<perimeter> inner )
G1 X28.13 Y-25.24 Z2.06 F3000.0
M108 R30.0
M101
G1 X28.13 Y-26.04 Z2.06 F3000.0
M108 R3.569
G1 X42.53 Y-26.04 Z2.06 F1800.0
G1 X42.53 Y-37.9 Z2.06 F1800.0
G1 X28.13 Y-37.9 Z2.06 F1800.0
G1 X28.13 Y-26.49 Z2.06 F1800.0
M108 R30.0
M102
G1 X28.13 Y-26.04 Z2.06 F1800.0
M108 R3.569
M103
(</perimeter>)
(</boundaryPerimeter>)
(</surroundingLoop>)
(<surroundingLoop>)
(<boundaryPerimeter>)
(<boundaryPoint> X15.059 Y-37.698 Z2.06 </boundaryPoint>)
(<boundaryPoint> X15.059 Y-26.232 Z2.06 </boundaryPoint>)
(<boundaryPoint> X26.579 Y-26.232 Z2.06 </boundaryPoint>)
(<boundaryPoint> X26.579 Y-37.698 Z2.06 </boundaryPoint>)
(<perimeter> inner )
G1 X27.58 Y-26.04 Z2.06 F3000.0
M108 R30.0
M101
G1 X26.78 Y-26.04 Z2.06 F3000.0
M108 R3.569
G1 X26.78 Y-37.9 Z2.06 F1800.0
G1 X14.86 Y-37.9 Z2.06 F1800.0
G1 X14.86 Y-26.04 Z2.06 F1800.0
G1 X26.78 Y-26.04 Z2.06 F1800.0
M103
(</perimeter>)
(</boundaryPerimeter>)
(</surroundingLoop>)
G1 X27.48 Y-25.74 Z2.06 F3000.0
M101
G1 X27.42 Y-25.74 Z2.06 F1800.0
G1 X27.42 Y-26.18 Z2.06 F1800.0
G1 X27.48 Y-26.18 Z2.06 F1800.0
G1 X27.48 Y-26.62 Z2.06 F1800.0
G1 X27.42 Y-26.62 Z2.06 F1800.0
G1 X27.42 Y-27.05 Z2.06 F1800.0
G1 X27.48 Y-27.05 Z2.06 F1800.0
G1 X27.48 Y-27.49 Z2.06 F1800.0
G1 X27.42 Y-27.49 Z2.06 F1800.0
G1 X27.42 Y-27.93 Z2.06 F1800.0
G1 X27.48 Y-27.93 Z2.06 F1800.0
G1 X27.48 Y-28.36 Z2.06 F1800.0
G1 X27.42 Y-28.36 Z2.06 F1800.0
G1 X27.42 Y-28.8 Z2.06 F1800.0
G1 X27.48 Y-28.8 Z2.06 F1800.0
G1 X27.48 Y-29.23 Z2.06 F1800.0
G1 X27.42 Y-29.23 Z2.06 F1800.0
G1 X27.42 Y-29.67 Z2.06 F1800.0
G1 X27.48 Y-29.67 Z2.06 F1800.0
G1 X27.48 Y-30.11 Z2.06 F1800.0
G1 X27.42 Y-30.11 Z2.06 F1800.0
G1 X27.42 Y-30.54 Z2.06 F1800.0
G1 X27.48 Y-30.54 Z2.06 F1800.0
G1 X27.48 Y-30.98 Z2.06 F1800.0
G1 X27.42 Y-30.98 Z2.06 F1800.0
G1 X27.42 Y-31.42 Z2.06 F1800.0
G1 X27.48 Y-31.42 Z2.06 F1800.0
G1 X27.48 Y-31.85 Z2.06 F1800.0
G1 X27.42 Y-31.85 Z2.06 F1800.0
G1 X27.42 Y-32.29 Z2.06 F1800.0
G1 X27.48 Y-32.29 Z2.06 F1800.0
G1 X27.48 Y-32.73 Z2.06 F1800.0
G1 X27.42 Y-32.73 Z2.06 F1800.0
G1 X27.42 Y-33.16 Z2.06 F1800.0
G1 X27.48 Y-33.16 Z2.06 F1800.0
G1 X27.48 Y-33.6 Z2.06 F1800.0
G1 X27.42 Y-33.6 Z2.06 F1800.0
G1 X27.42 Y-34.03 Z2.06 F1800.0
G1 X27.48 Y-34.03 Z2.06 F1800.0
G1 X27.48 Y-34.47 Z2.06 F1800.0
G1 X27.42 Y-34.47 Z2.06 F1800.0
G1 X27.42 Y-34.91 Z2.06 F1800.0
G1 X27.48 Y-34.91 Z2.06 F1800.0
G1 X27.48 Y-35.34 Z2.06 F1800.0
G1 X27.42 Y-35.34 Z2.06 F1800.0
G1 X27.42 Y-35.78 Z2.06 F1800.0
G1 X27.48 Y-35.78 Z2.06 F1800.0
G1 X27.48 Y-36.22 Z2.06 F1800.0
G1 X27.42 Y-36.22 Z2.06 F1800.0
G1 X27.42 Y-36.65 Z2.06 F1800.0
G1 X27.48 Y-36.65 Z2.06 F1800.0
G1 X27.48 Y-37.09 Z2.06 F1800.0
G1 X27.42 Y-37.09 Z2.06 F1800.0
G1 X27.42 Y-37.53 Z2.06 F1800.0
G1 X27.48 Y-37.53 Z2.06 F1800.0
G1 X27.48 Y-37.96 Z2.06 F1800.0
G1 X27.42 Y-37.96 Z2.06 F1800.0
G1 X27.42 Y-38.4 Z2.06 F1800.0
G1 X27.48 Y-38.4 Z2.06 F1800.0
G1 X25.99 Y-39.71 Z2.06 F1800.0
G1 X25.46 Y-39.71 Z2.06 F1800.0
M108 R30.0
M102
G1 X25.01 Y-39.71 Z2.06 F1800.0
M108 R3.569
M103
G1 X21.94 Y-39.71 Z2.06 F3000.0
M101
G1 X20.95 Y-39.71 Z2.06 F1800.0
M103
G1 X17.51 Y-37.97 Z2.06 F3000.0
G1 X14.92 Y-37.84 Z2.06 F3000.0
G1 X14.79 Y-36.32 Z2.06 F3000.0
M108 R30.0
M101
G1 X14.78 Y-36.27 Z2.06 F3000.0
G1 X14.21 Y-35.78 Z2.06 F3000.0
M108 R3.569
G1 X14.21 Y-38.4 Z2.06 F1800.0
G1 X11.87 Y-38.18 Z2.06 F1800.0
G1 X10.84 Y-39.27 Z2.06 F1800.0
G1 X10.84 Y-34.03 Z2.06 F1800.0
G1 X12.13 Y-33.93 Z2.06 F1800.0
G1 X14.21 Y-35.34 Z2.06 F1800.0
G1 X14.21 Y-31.85 Z2.06 F1800.0
G1 X12.13 Y-33.7 Z2.06 F1800.0
G1 X10.84 Y-33.6 Z2.06 F1800.0
G1 X10.84 Y-29.67 Z2.06 F1800.0
G1 X12.13 Y-29.57 Z2.06 F1800.0
G1 X14.21 Y-31.42 Z2.06 F1800.0
G1 X14.21 Y-27.49 Z2.06 F1800.0
G1 X12.13 Y-29.34 Z2.06 F1800.0
G1 X10.84 Y-29.23 Z2.06 F1800.0
G1 X10.84 Y-25.31 Z2.06 F1800.0
G1 X12.13 Y-25.2 Z2.06 F1800.0
G1 X14.21 Y-25.74 Z2.06 F1800.0
G1 X14.21 Y-26.6 Z2.06 F1800.0
M108 R30.0
M102
G1 X14.21 Y-27.05 Z2.06 F1800.0
M108 R3.569
M103
G1 X11.43 Y-24.54 Z2.06 F3000.0
M108 R30.0
M101
G1 X10.84 Y-24.0 Z2.06 F3000.0
M108 R3.569
G1 X10.84 Y-24.87 Z2.06 F1800.0
G1 X11.87 Y-24.97 Z2.06 F1800.0
G1 X38.31 Y-25.09 Z2.06 F1800.0
G1 X43.47 Y-24.87 Z2.06 F1800.0
G1 X43.47 Y-23.56 Z2.06 F1800.0
G1 X43.17 Y-23.56 Z2.06 F1800.0
G1 X43.47 Y-23.13 Z2.06 F1800.0
G1 X43.17 Y-23.13 Z2.06 F1800.0
G1 X43.47 Y-22.69 Z2.06 F1800.0
G1 X43.17 Y-22.69 Z2.06 F1800.0
G1 X43.47 Y-22.25 Z2.06 F1800.0
G1 X43.17 Y-22.25 Z2.06 F1800.0
G1 X43.47 Y-21.82 Z2.06 F1800.0
G1 X43.17 Y-21.82 Z2.06 F1800.0
G1 X43.47 Y-21.38 Z2.06 F1800.0
G1 X43.17 Y-21.38 Z2.06 F1800.0
G1 X43.47 Y-20.94 Z2.06 F1800.0
G1 X43.17 Y-20.94 Z2.06 F1800.0
G1 X43.47 Y-20.51 Z2.06 F1800.0
G1 X43.17 Y-20.51 Z2.06 F1800.0
G1 X43.47 Y-20.07 Z2.06 F1800.0
G1 X43.17 Y-20.07 Z2.06 F1800.0
G1 X43.47 Y-19.64 Z2.06 F1800.0
G1 X43.17 Y-19.64 Z2.06 F1800.0
G1 X43.47 Y-19.2 Z2.06 F1800.0
G1 X43.17 Y-19.2 Z2.06 F1800.0
G1 X43.47 Y-18.76 Z2.06 F1800.0
G1 X43.17 Y-18.76 Z2.06 F1800.0
G1 X43.47 Y-18.33 Z2.06 F1800.0
G1 X43.17 Y-18.33 Z2.06 F1800.0
G1 X43.47 Y-17.89 Z2.06 F1800.0
G1 X43.17 Y-17.89 Z2.06 F1800.0
G1 X43.47 Y-17.45 Z2.06 F1800.0
G1 X43.17 Y-17.45 Z2.06 F1800.0
G1 X43.47 Y-17.02 Z2.06 F1800.0
G1 X43.17 Y-17.02 Z2.06 F1800.0
G1 X43.47 Y-16.58 Z2.06 F1800.0
G1 X43.17 Y-16.58 Z2.06 F1800.0
G1 X43.5 Y-16.14 Z2.06 F1800.0
G1 X43.17 Y-16.14 Z2.06 F1800.0
G1 X43.77 Y-15.71 Z2.06 F1800.0
G1 X43.17 Y-15.71 Z2.06 F1800.0
G1 X43.67 Y-15.27 Z2.06 F1800.0
G1 X43.17 Y-15.27 Z2.06 F1800.0
G1 X43.47 Y-14.84 Z2.06 F1800.0
G1 X43.17 Y-14.84 Z2.06 F1800.0
G1 X43.47 Y-14.4 Z2.06 F1800.0
G1 X43.17 Y-14.4 Z2.06 F1800.0
G1 X43.47 Y-13.96 Z2.06 F1800.0
G1 X43.17 Y-13.96 Z2.06 F1800.0
G1 X43.47 Y-13.53 Z2.06 F1800.0
G1 X43.17 Y-13.53 Z2.06 F1800.0
G1 X43.47 Y-13.09 Z2.06 F1800.0
G1 X43.17 Y-13.09 Z2.06 F1800.0
G1 X43.47 Y-12.65 Z2.06 F1800.0
G1 X43.17 Y-12.65 Z2.06 F1800.0
G1 X43.47 Y-12.22 Z2.06 F1800.0
G1 X43.17 Y-12.22 Z2.06 F1800.0
G1 X43.69 Y-11.78 Z2.06 F1800.0
G1 X43.17 Y-11.78 Z2.06 F1800.0
G1 X43.75 Y-11.35 Z2.06 F1800.0
G1 X43.17 Y-11.35 Z2.06 F1800.0
G1 X43.48 Y-10.91 Z2.06 F1800.0
G1 X43.17 Y-10.91 Z2.06 F1800.0
G1 X43.47 Y-10.47 Z2.06 F1800.0
G1 X43.17 Y-10.47 Z2.06 F1800.0
G1 X43.47 Y-10.04 Z2.06 F1800.0
G1 X43.17 Y-10.04 Z2.06 F1800.0
G1 X43.47 Y-9.6 Z2.06 F1800.0
G1 X43.17 Y-9.6 Z2.06 F1800.0
G1 X43.47 Y-9.16 Z2.06 F1800.0
G1 X43.17 Y-9.16 Z2.06 F1800.0
G1 X43.47 Y-8.73 Z2.06 F1800.0
G1 X43.17 Y-8.73 Z2.06 F1800.0
G1 X43.47 Y-8.29 Z2.06 F1800.0
G1 X43.17 Y-8.29 Z2.06 F1800.0
G1 X43.61 Y-7.85 Z2.06 F1800.0
G1 X43.17 Y-7.85 Z2.06 F1800.0
M103
G1 X43.88 Y-7.42 Z2.06 F3000.0
M101
G1 X27.42 Y-7.42 Z2.06 F1800.0
G1 X27.42 Y-7.85 Z2.06 F1800.0
G1 X27.48 Y-7.85 Z2.06 F1800.0
G1 X27.48 Y-8.29 Z2.06 F1800.0
G1 X27.42 Y-8.29 Z2.06 F1800.0
G1 X27.42 Y-8.73 Z2.06 F1800.0
G1 X27.48 Y-8.73 Z2.06 F1800.0
G1 X27.48 Y-9.16 Z2.06 F1800.0
G1 X27.42 Y-9.16 Z2.06 F1800.0
G1 X27.42 Y-9.6 Z2.06 F1800.0
G1 X27.48 Y-9.6 Z2.06 F1800.0
G1 X27.48 Y-10.04 Z2.06 F1800.0
G1 X27.42 Y-10.04 Z2.06 F1800.0
G1 X27.42 Y-10.47 Z2.06 F1800.0
G1 X27.48 Y-10.47 Z2.06 F1800.0
G1 X27.48 Y-10.91 Z2.06 F1800.0
G1 X27.42 Y-10.91 Z2.06 F1800.0
G1 X27.42 Y-11.35 Z2.06 F1800.0
G1 X27.48 Y-11.35 Z2.06 F1800.0
G1 X27.48 Y-11.78 Z2.06 F1800.0
G1 X27.42 Y-11.78 Z2.06 F1800.0
G1 X27.42 Y-12.22 Z2.06 F1800.0
G1 X27.48 Y-12.22 Z2.06 F1800.0
G1 X27.48 Y-12.65 Z2.06 F1800.0
G1 X27.42 Y-12.65 Z2.06 F1800.0
G1 X27.42 Y-13.09 Z2.06 F1800.0
G1 X27.48 Y-13.09 Z2.06 F1800.0
G1 X27.48 Y-13.53 Z2.06 F1800.0
G1 X27.42 Y-13.53 Z2.06 F1800.0
G1 X27.42 Y-13.96 Z2.06 F1800.0
G1 X27.48 Y-13.96 Z2.06 F1800.0
G1 X27.48 Y-14.4 Z2.06 F1800.0
G1 X27.42 Y-14.4 Z2.06 F1800.0
G1 X27.42 Y-14.84 Z2.06 F1800.0
G1 X27.48 Y-14.84 Z2.06 F1800.0
G1 X27.48 Y-15.27 Z2.06 F1800.0
G1 X27.42 Y-15.27 Z2.06 F1800.0
G1 X27.42 Y-15.71 Z2.06 F1800.0
G1 X27.48 Y-15.71 Z2.06 F1800.0
G1 X27.48 Y-16.14 Z2.06 F1800.0
G1 X27.42 Y-16.14 Z2.06 F1800.0
G1 X27.42 Y-16.58 Z2.06 F1800.0
G1 X27.48 Y-16.58 Z2.06 F1800.0
G1 X27.48 Y-17.02 Z2.06 F1800.0
G1 X27.42 Y-17.02 Z2.06 F1800.0
G1 X27.42 Y-17.45 Z2.06 F1800.0
G1 X27.48 Y-17.45 Z2.06 F1800.0
G1 X27.48 Y-17.89 Z2.06 F1800.0
G1 X27.42 Y-17.89 Z2.06 F1800.0
G1 X27.42 Y-18.33 Z2.06 F1800.0
G1 X27.48 Y-18.33 Z2.06 F1800.0
G1 X27.48 Y-18.76 Z2.06 F1800.0
G1 X27.42 Y-18.76 Z2.06 F1800.0
G1 X27.42 Y-19.2 Z2.06 F1800.0
G1 X27.48 Y-19.2 Z2.06 F1800.0
G1 X27.48 Y-19.64 Z2.06 F1800.0
G1 X27.42 Y-19.64 Z2.06 F1800.0
G1 X27.42 Y-20.07 Z2.06 F1800.0
G1 X27.48 Y-20.07 Z2.06 F1800.0
G1 X27.48 Y-20.51 Z2.06 F1800.0
G1 X27.42 Y-20.51 Z2.06 F1800.0
G1 X27.42 Y-20.94 Z2.06 F1800.0
G1 X27.48 Y-20.94 Z2.06 F1800.0
G1 X27.48 Y-21.38 Z2.06 F1800.0
G1 X27.42 Y-21.38 Z2.06 F1800.0
G1 X27.42 Y-21.82 Z2.06 F1800.0
G1 X27.48 Y-21.82 Z2.06 F1800.0
G1 X27.48 Y-22.25 Z2.06 F1800.0
G1 X27.42 Y-22.25 Z2.06 F1800.0
G1 X27.42 Y-22.69 Z2.06 F1800.0
G1 X27.48 Y-22.69 Z2.06 F1800.0
G1 X27.48 Y-23.13 Z2.06 F1800.0
G1 X27.42 Y-23.13 Z2.06 F1800.0
G1 X27.42 Y-23.17 Z2.06 F1800.0
M108 R30.0
M102
G1 X27.42 Y-23.56 Z2.06 F1800.0
G1 X27.48 Y-23.56 Z2.06 F1800.0
M108 R3.569
M103
G1 X42.67 Y-25.22 Z2.06 F3000.0
M108 R30.0
M101
G1 X43.47 Y-25.31 Z2.06 F3000.0
M108 R3.569
G1 X43.17 Y-25.74 Z2.06 F1800.0
G1 X43.47 Y-25.74 Z2.06 F1800.0
G1 X43.47 Y-26.18 Z2.06 F1800.0
G1 X43.17 Y-26.18 Z2.06 F1800.0
G1 X43.47 Y-26.62 Z2.06 F1800.0
G1 X43.17 Y-26.62 Z2.06 F1800.0
G1 X43.47 Y-27.05 Z2.06 F1800.0
G1 X43.17 Y-27.05 Z2.06 F1800.0
G1 X43.71 Y-27.49 Z2.06 F1800.0
G1 X43.17 Y-27.49 Z2.06 F1800.0
G1 X43.74 Y-27.93 Z2.06 F1800.0
G1 X43.17 Y-27.93 Z2.06 F1800.0
G1 X43.47 Y-28.36 Z2.06 F1800.0
G1 X43.17 Y-28.36 Z2.06 F1800.0
G1 X43.47 Y-28.8 Z2.06 F1800.0
G1 X43.17 Y-28.8 Z2.06 F1800.0
G1 X43.47 Y-29.23 Z2.06 F1800.0
G1 X43.17 Y-29.23 Z2.06 F1800.0
G1 X43.47 Y-29.67 Z2.06 F1800.0
G1 X43.17 Y-29.67 Z2.06 F1800.0
G1 X43.47 Y-30.11 Z2.06 F1800.0
G1 X43.17 Y-30.11 Z2.06 F1800.0
G1 X43.47 Y-30.54 Z2.06 F1800.0
G1 X43.17 Y-30.54 Z2.06 F1800.0
G1 X43.47 Y-30.98 Z2.06 F1800.0
G1 X43.17 Y-30.98 Z2.06 F1800.0
G1 X43.63 Y-31.42 Z2.06 F1800.0
G1 X43.17 Y-31.42 Z2.06 F1800.0
G1 X43.81 Y-31.85 Z2.06 F1800.0
G1 X43.17 Y-31.85 Z2.06 F1800.0
G1 X43.55 Y-32.29 Z2.06 F1800.0
G1 X43.17 Y-32.29 Z2.06 F1800.0
G1 X43.47 Y-32.73 Z2.06 F1800.0
G1 X43.17 Y-32.73 Z2.06 F1800.0
G1 X43.47 Y-33.16 Z2.06 F1800.0
G1 X43.17 Y-33.16 Z2.06 F1800.0
G1 X43.47 Y-33.6 Z2.06 F1800.0
G1 X43.17 Y-33.6 Z2.06 F1800.0
G1 X43.47 Y-34.03 Z2.06 F1800.0
G1 X43.17 Y-34.03 Z2.06 F1800.0
G1 X43.47 Y-34.47 Z2.06 F1800.0
G1 X43.17 Y-34.47 Z2.06 F1800.0
G1 X43.47 Y-34.91 Z2.06 F1800.0
G1 X43.17 Y-34.91 Z2.06 F1800.0
G1 X43.55 Y-35.34 Z2.06 F1800.0
G1 X43.17 Y-35.34 Z2.06 F1800.0
G1 X43.82 Y-35.78 Z2.06 F1800.0
G1 X43.17 Y-35.78 Z2.06 F1800.0
G1 X43.62 Y-36.22 Z2.06 F1800.0
G1 X43.17 Y-36.22 Z2.06 F1800.0
G1 X43.47 Y-36.65 Z2.06 F1800.0
G1 X43.17 Y-36.65 Z2.06 F1800.0
G1 X43.47 Y-37.09 Z2.06 F1800.0
G1 X43.17 Y-37.09 Z2.06 F1800.0
G1 X43.47 Y-37.53 Z2.06 F1800.0
G1 X43.17 Y-37.53 Z2.06 F1800.0
G1 X43.47 Y-37.96 Z2.06 F1800.0
G1 X43.17 Y-37.96 Z2.06 F1800.0
G1 X43.47 Y-38.4 Z2.06 F1800.0
G1 X43.17 Y-38.4 Z2.06 F1800.0
G1 X43.46 Y-38.82 Z2.06 F1800.0
M108 R30.0
M102
G1 X43.47 Y-38.83 Z2.06 F1800.0
G1 X43.47 Y-39.27 Z2.06 F1800.0
M108 R3.569
M103
G1 X30.04 Y-39.71 Z2.06 F3000.0
M101
G1 X29.06 Y-39.71 Z2.06 F1800.0
M103
(</surroundingLoop>)
(</layer>)
(<layer> 2.38 )
(<surroundingLoop>)
(<boundaryPerimeter>)
(<boundaryPoint> X44.808 Y-14.556 Z2.38 </boundaryPoint>)
(<boundaryPoint> X44.201 Y-14.556 Z2.38 </boundaryPoint>)
(<boundaryPoint> X44.201 Y-12.529 Z2.38 </boundaryPoint>)
(<boundaryPoint> X44.808 Y-12.529 Z2.38 </boundaryPoint>)
(<boundaryPoint> X44.808 Y-10.502 Z2.38 </boundaryPoint>)
(<boundaryPoint> X44.201 Y-10.502 Z2.38 </boundaryPoint>)
(<boundaryPoint> X44.201 Y-8.475 Z2.38 </boundaryPoint>)
(<boundaryPoint> X44.808 Y-8.475 Z2.38 </boundaryPoint>)
(<boundaryPoint> X44.808 Y-6.448 Z2.38 </boundaryPoint>)
(<boundaryPoint> X44.079 Y-6.448 Z2.38 </boundaryPoint>)
(<boundaryPoint> X44.079 Y-6.144 Z2.38 </boundaryPoint>)
(<boundaryPoint> X26.579 Y-6.144 Z2.38 </boundaryPoint>)
(<boundaryPoint> X26.579 Y-22.732 Z2.38 </boundaryPoint>)
(<boundaryPoint> X9.991 Y-22.732 Z2.38 </boundaryPoint>)
(<boundaryPoint> X9.991 Y-40.232 Z2.38 </boundaryPoint>)
(<boundaryPoint> X20.43 Y-40.232 Z2.38 </boundaryPoint>)
(<boundaryPoint> X20.43 Y-40.961 Z2.38 </boundaryPoint>)
(<boundaryPoint> X22.457 Y-40.961 Z2.38 </boundaryPoint>)
(<boundaryPoint> X22.457 Y-40.353 Z2.38 </boundaryPoint>)
(<boundaryPoint> X24.484 Y-40.353 Z2.38 </boundaryPoint>)
(<boundaryPoint> X24.484 Y-40.961 Z2.38 </boundaryPoint>)
(<boundaryPoint> X26.511 Y-40.961 Z2.38 </boundaryPoint>)
(<boundaryPoint> X26.511 Y-40.353 Z2.38 </boundaryPoint>)
(<boundaryPoint> X28.538 Y-40.353 Z2.38 </boundaryPoint>)
(<boundaryPoint> X28.538 Y-40.961 Z2.38 </boundaryPoint>)
(<boundaryPoint> X30.565 Y-40.961 Z2.38 </boundaryPoint>)
(<boundaryPoint> X30.565 Y-40.232 Z2.38 </boundaryPoint>)
(<boundaryPoint> X44.079 Y-40.232 Z2.38 </boundaryPoint>)
(<boundaryPoint> X44.079 Y-36.853 Z2.38 </boundaryPoint>)
(<boundaryPoint> X44.808 Y-36.853 Z2.38 </boundaryPoint>)
(<boundaryPoint> X44.808 Y-34.826 Z2.38 </boundaryPoint>)
(<boundaryPoint> X44.201 Y-34.826 Z2.38 </boundaryPoint>)
(<boundaryPoint> X44.201 Y-32.799 Z2.38 </boundaryPoint>)
(<boundaryPoint> X44.808 Y-32.799 Z2.38 </boundaryPoint>)
(<boundaryPoint> X44.808 Y-30.772 Z2.38 </boundaryPoint>)
(<boundaryPoint> X44.201 Y-30.772 Z2.38 </boundaryPoint>)
(<boundaryPoint> X44.201 Y-28.745 Z2.38 </boundaryPoint>)
(<boundaryPoint> X44.808 Y-28.745 Z2.38 </boundaryPoint>)
(<boundaryPoint> X44.808 Y-26.718 Z2.38 </boundaryPoint>)
(<boundaryPoint> X44.079 Y-26.718 Z2.38 </boundaryPoint>)
(<boundaryPoint> X44.079 Y-16.583 Z2.38 </boundaryPoint>)
(<boundaryPoint> X44.808 Y-16.583 Z2.38 </boundaryPoint>)
(<loop> inner )
G1 X29.08 Y-37.97 Z2.38 F3000.0
G1 X28.19 Y-37.84 Z2.38 F3000.0
G1 X28.19 Y-26.09 Z2.38 F3000.0
G1 X29.17 Y-25.96 Z2.38 F3000.0
G1 X29.19 Y-24.12 Z2.38 F3000.0
M108 R30.0
M101
G1 X29.2 Y-23.32 Z2.38 F3000.0
M108 R3.569
G1 X29.06 Y-23.32 Z2.38 F1800.0
G1 X27.74 Y-23.32 Z2.38 F1800.0
G1 X27.74 Y-8.09 Z2.38 F1800.0
G1 X42.92 Y-8.09 Z2.38 F1800.0
G1 X42.92 Y-23.32 Z2.38 F1800.0
G1 X29.65 Y-23.32 Z2.38 F1800.0
M108 R30.0
M102
G1 X29.2 Y-23.32 Z2.38 F1800.0
M108 R3.569
M103
(</loop>)
(<loop> inner )
G1 X29.11 Y-24.84 Z2.38 F3000.0
M108 R30.0
M101
G1 X29.06 Y-25.64 Z2.38 F3000.0
M108 R3.569
G1 X42.92 Y-25.64 Z2.38 F1800.0
G1 X42.92 Y-38.29 Z2.38 F1800.0
G1 X27.74 Y-38.29 Z2.38 F1800.0
G1 X27.74 Y-25.64 Z2.38 F1800.0
G1 X28.61 Y-25.64 Z2.38 F1800.0
M108 R30.0
M102
G1 X29.06 Y-25.64 Z2.38 F1800.0
M108 R3.569
M103
(</loop>)
(<loop> inner )
G1 X27.97 Y-25.64 Z2.38 F3000.0
M108 R30.0
M101
G1 X27.17 Y-25.64 Z2.38 F3000.0
M108 R3.569
G1 X27.17 Y-38.29 Z2.38 F1800.0
G1 X14.47 Y-38.29 Z2.38 F1800.0
G1 X14.47 Y-25.64 Z2.38 F1800.0
G1 X26.72 Y-25.64 Z2.38 F1800.0
M108 R30.0
M102
G1 X27.17 Y-25.64 Z2.38 F1800.0
M108 R3.569
M103
(</loop>)
(<loop> outer )
G1 X27.17 Y-24.12 Z2.38 F3000.0
M108 R30.0
M101
G1 X27.17 Y-23.32 Z2.38 F3000.0
M108 R3.569
G1 X10.58 Y-23.32 Z2.38 F1800.0
G1 X10.58 Y-39.64 Z2.38 F1800.0
G1 X20.78 Y-39.64 Z2.38 F1800.0
G1 X21.47 Y-40.26 Z2.38 F1800.0
G1 X22.13 Y-39.76 Z2.38 F1800.0
G1 X24.81 Y-39.76 Z2.38 F1800.0
G1 X25.5 Y-40.28 Z2.38 F1800.0
G1 X26.18 Y-39.76 Z2.38 F1800.0
G1 X28.87 Y-39.76 Z2.38 F1800.0
G1 X29.53 Y-40.26 Z2.38 F1800.0
G1 X30.22 Y-39.64 Z2.38 F1800.0
G1 X43.49 Y-39.64 Z2.38 F1800.0
G1 X43.49 Y-36.51 Z2.38 F1800.0
G1 X44.11 Y-35.82 Z2.38 F1800.0
G1 X43.61 Y-35.15 Z2.38 F1800.0
G1 X43.61 Y-32.47 Z2.38 F1800.0
G1 X44.12 Y-31.79 Z2.38 F1800.0
G1 X43.61 Y-31.1 Z2.38 F1800.0
G1 X43.61 Y-28.42 Z2.38 F1800.0
G1 X44.11 Y-27.75 Z2.38 F1800.0
G1 X43.49 Y-27.06 Z2.38 F1800.0
G1 X43.49 Y-16.24 Z2.38 F1800.0
G1 X44.11 Y-15.55 Z2.38 F1800.0
G1 X43.61 Y-14.88 Z2.38 F1800.0
G1 X43.61 Y-12.2 Z2.38 F1800.0
G1 X44.12 Y-11.52 Z2.38 F1800.0
G1 X43.61 Y-10.83 Z2.38 F1800.0
G1 X43.61 Y-8.15 Z2.38 F1800.0
G1 X44.11 Y-7.48 Z2.38 F1800.0
G1 X43.66 Y-6.99 Z2.38 F1800.0
G1 X42.83 Y-6.73 Z2.38 F1800.0
G1 X27.17 Y-6.73 Z2.38 F1800.0
G1 X27.17 Y-23.32 Z2.38 F1800.0
M103
(</loop>)
(<perimeter> outer )
G1 X26.78 Y-22.93 Z2.38 F3000.0
M101
G1 X10.19 Y-22.93 Z2.38 F1800.0
G1 X10.19 Y-40.04 Z2.38 F1800.0
G1 X20.63 Y-40.04 Z2.38 F1800.0
G1 X20.63 Y-40.77 Z2.38 F1800.0
G1 X22.26 Y-40.77 Z2.38 F1800.0
G1 X22.26 Y-40.16 Z2.38 F1800.0
G1 X24.68 Y-40.16 Z2.38 F1800.0
G1 X24.68 Y-40.77 Z2.38 F1800.0
G1 X26.32 Y-40.77 Z2.38 F1800.0
G1 X26.32 Y-40.16 Z2.38 F1800.0
G1 X28.74 Y-40.16 Z2.38 F1800.0
G1 X28.74 Y-40.77 Z2.38 F1800.0
G1 X30.37 Y-40.77 Z2.38 F1800.0
G1 X30.37 Y-40.04 Z2.38 F1800.0
G1 X43.88 Y-40.04 Z2.38 F1800.0
G1 X43.88 Y-36.66 Z2.38 F1800.0
G1 X44.61 Y-36.66 Z2.38 F1800.0
G1 X44.61 Y-35.02 Z2.38 F1800.0
G1 X44.01 Y-35.02 Z2.38 F1800.0
G1 X44.01 Y-32.6 Z2.38 F1800.0
G1 X44.61 Y-32.6 Z2.38 F1800.0
G1 X44.61 Y-30.97 Z2.38 F1800.0
G1 X44.01 Y-30.97 Z2.38 F1800.0
G1 X44.01 Y-28.55 Z2.38 F1800.0
G1 X44.61 Y-28.55 Z2.38 F1800.0
G1 X44.61 Y-26.92 Z2.38 F1800.0
G1 X43.88 Y-26.92 Z2.38 F1800.0
G1 X43.88 Y-16.39 Z2.38 F1800.0
G1 X44.61 Y-16.39 Z2.38 F1800.0
G1 X44.61 Y-14.75 Z2.38 F1800.0
G1 X44.01 Y-14.75 Z2.38 F1800.0
G1 X44.01 Y-12.33 Z2.38 F1800.0
G1 X44.61 Y-12.33 Z2.38 F1800.0
G1 X44.61 Y-10.7 Z2.38 F1800.0
G1 X44.01 Y-10.7 Z2.38 F1800.0
G1 X44.01 Y-8.28 Z2.38 F1800.0
G1 X44.61 Y-8.28 Z2.38 F1800.0
G1 X44.61 Y-6.65 Z2.38 F1800.0
G1 X43.88 Y-6.65 Z2.38 F1800.0
G1 X43.88 Y-6.34 Z2.38 F1800.0
G1 X26.78 Y-6.34 Z2.38 F1800.0
G1 X26.78 Y-22.48 Z2.38 F1800.0
M108 R30.0
M102
G1 X26.78 Y-22.93 Z2.38 F1800.0
M108 R3.569
M103
(</perimeter>)
(</boundaryPerimeter>)
(<surroundingLoop>)
(<boundaryPerimeter>)
(<boundaryPoint> X28.329 Y-22.732 Z2.38 </boundaryPoint>)
(<boundaryPoint> X28.329 Y-8.678 Z2.38 </boundaryPoint>)
(<boundaryPoint> X42.329 Y-8.678 Z2.38 </boundaryPoint>)
(<boundaryPoint> X42.329 Y-22.732 Z2.38 </boundaryPoint>)
(<perimeter> inner )
G1 X27.33 Y-22.93 Z2.38 F3000.0
M108 R30.0
M101
G1 X28.13 Y-22.93 Z2.38 F3000.0
M108 R3.569
G1 X28.13 Y-8.48 Z2.38 F1800.0
G1 X42.53 Y-8.48 Z2.38 F1800.0
G1 X42.53 Y-22.93 Z2.38 F1800.0
G1 X28.58 Y-22.93 Z2.38 F1800.0
M108 R30.0
M102
G1 X28.13 Y-22.93 Z2.38 F1800.0
M108 R3.569
M103
(</perimeter>)
(</boundaryPerimeter>)
(</surroundingLoop>)
(<surroundingLoop>)
(<boundaryPerimeter>)
(<boundaryPoint> X42.329 Y-26.232 Z2.38 </boundaryPoint>)
(<boundaryPoint> X42.329 Y-37.698 Z2.38 </boundaryPoint>)
(<boundaryPoint> X28.329 Y-37.698 Z2.38 </boundaryPoint>)
(<boundaryPoint> X28.329 Y-26.232 Z2.38 </boundaryPoint>)
(<perimeter> inner )
G1 X28.13 Y-25.24 Z2.38 F3000.0
M108 R30.0
M101
G1 X28.13 Y-26.04 Z2.38 F3000.0
M108 R3.569
G1 X42.53 Y-26.04 Z2.38 F1800.0
G1 X42.53 Y-37.9 Z2.38 F1800.0
G1 X28.13 Y-37.9 Z2.38 F1800.0
G1 X28.13 Y-26.49 Z2.38 F1800.0
M108 R30.0
M102
G1 X28.13 Y-26.04 Z2.38 F1800.0
M108 R3.569
M103
(</perimeter>)
(</boundaryPerimeter>)
(</surroundingLoop>)
(<surroundingLoop>)
(<boundaryPerimeter>)
(<boundaryPoint> X15.059 Y-37.698 Z2.38 </boundaryPoint>)
(<boundaryPoint> X15.059 Y-26.232 Z2.38 </boundaryPoint>)
(<boundaryPoint> X26.579 Y-26.232 Z2.38 </boundaryPoint>)
(<boundaryPoint> X26.579 Y-37.698 Z2.38 </boundaryPoint>)
(<perimeter> inner )
G1 X27.58 Y-26.04 Z2.38 F3000.0
M108 R30.0
M101
G1 X26.78 Y-26.04 Z2.38 F3000.0
M108 R3.569
G1 X26.78 Y-37.9 Z2.38 F1800.0
G1 X14.86 Y-37.9 Z2.38 F1800.0
G1 X14.86 Y-26.04 Z2.38 F1800.0
G1 X26.33 Y-26.04 Z2.38 F1800.0
M108 R30.0
M102
G1 X26.78 Y-26.04 Z2.38 F1800.0
M108 R3.569
M103
(</perimeter>)
(</boundaryPerimeter>)
(</surroundingLoop>)
G1 X26.85 Y-27.43 Z2.38 F3000.0
G1 X26.72 Y-37.84 Z2.38 F3000.0
G1 X25.13 Y-37.97 Z2.38 F3000.0
G1 X25.0 Y-38.72 Z2.38 F3000.0
M108 R30.0
M101
G1 X24.87 Y-39.51 Z2.38 F3000.0
M108 R3.569
G1 X23.56 Y-39.51 Z2.38 F1800.0
G1 X23.56 Y-38.54 Z2.38 F1800.0
G1 X27.05 Y-38.54 Z2.38 F1800.0
G1 X25.52 Y-39.4 Z2.38 F1800.0
G1 X26.18 Y-39.51 Z2.38 F1800.0
G1 X28.8 Y-39.51 Z2.38 F1800.0
G1 X27.49 Y-38.54 Z2.38 F1800.0
G1 X30.54 Y-38.54 Z2.38 F1800.0
G1 X30.54 Y-39.39 Z2.38 F1800.0
G1 X30.98 Y-38.95 Z2.38 F1800.0
G1 X31.42 Y-39.39 Z2.38 F1800.0
G1 X31.85 Y-38.95 Z2.38 F1800.0
G1 X31.37 Y-38.74 Z2.38 F1800.0
G1 X31.42 Y-38.54 Z2.38 F1800.0
