(** This GCode was generated by ReplicatorG 0034 **)
(*  using Skeinforge (35)  *)
(*  for a Single headed Thing-O-Matic  *)
(*  on 2012/04/16 19:27:24 (-0400) *)
(<alteration>)
(**** beginning of start.gcode ****)
(This file is for a MakerBot Thing-O-Matic)
(**** begin initialization commands ****)
G21 (set units to mm)
G90 (set positioning to absolute)
M108 R5.0 (set extruder speed)
M103 (Make sure extruder is off)
M104 S225 T0 (set extruder temperature)
M109 S120 T0 (set heated-build-platform temperature)
(**** end initialization commands ****)
(**** begin homing ****)
G162 Z F1000 (home Z axis maximum)
G92 Z10 (set Z to 0)
G1 Z0.0 (move z down 10)
G162 Z F150 (home Z axis maximum)
G161 X Y F2500 (home XY axes minimum)
M132 X Y Z A B (Recall stored home offsets for XYZAB axis)
(**** end homing ****)
(**** begin pre-wipe commands ****)
( Some people have had problems with the nozzle hitting )
( bolts or wipers during this pre-extrusion warmup.     )
( If this happens to you, you can change the values for )
( the X and Y positions in the following code.          )
( The goal is to have the toolhead wipe its initial     )
( extrusion near the edge of the platform, [anchor it]  )
( so as not to have it interfere with the print.        )
( This file can be found in:                            )
( replicatorg/skein_engines/skeinforge-##/skeinforge_application/ )
( prefs/<profile name [e.g. Thingomatic-ABP-Mk7]>/alterations )
G1 X25.0 Y-60.0 Z10.0 F3300.0 (move to waiting position)
M6 T0 (wait for toolhead parts, nozzle, HBP, etc., to reach temperature)
G0 X25 Y-57 (Position Nozzle)
G0 Z0.6     (Position Height)
M108 R4.0   (Set Extruder Speed)
M101        (Start Extruder)
G4 P1500    (Create Anchor)
(**** end pre-wipe commands ****)
(**** end of start.gcode ****)
(</alteration>)
(<creation> skeinforge </creation>)
(<version> 10.11.05 </version>)
(<extruderInitialization>)
(<craftTypeName> extrusion </craftTypeName>)
M105
(<bridgeWidthMultiplier> 1.0 </bridgeWidthMultiplier>)
(<decimalPlacesCarried> 3 </decimalPlacesCarried>)
(<layerThickness> 0.32 </layerThickness>)
(<threadSequenceString> loops perimeter infill </threadSequenceString>)
(<operatingFeedRatePerSecond> 30.0 </operatingFeedRatePerSecond>)
(<operatingFlowRate> 3.56914845556 </operatingFlowRate>)
(<orbitalFeedRatePerSecond> 15.0 </orbitalFeedRatePerSecond>)
(<travelFeedRatePerSecond> 50.0 </travelFeedRatePerSecond>)
(<perimeterWidth> 0.393 </perimeterWidth>)
(<profileName> ABS </profileName>)
(<procedureDone> carve,bottom </procedureDone>)
(<procedureDone> preface </procedureDone>)
(<procedureDone> inset </procedureDone>)
(<procedureDone> fill </procedureDone>)
(<procedureDone> speed </procedureDone>)
(<procedureDone> raft </procedureDone>)
(<procedureDone> jitter </procedureDone>)
(<procedureDone> comb </procedureDone>)
(<procedureDone> cool </procedureDone>)
(<procedureDone> outline </procedureDone>)
(<procedureDone> reversal </procedureDone>)
(<procedureDone> export </procedureDone>)
(</extruderInitialization>)
(<extrusion>)
;M113 S1.0
M108 R3.569
(<layer> 0.46 )
(<surroundingLoop>)
(<boundaryPerimeter>)
(<boundaryPoint> X20.107 Y15.768 Z0.46 </boundaryPoint>)
(<boundaryPoint> X0.828 Y15.768 Z0.46 </boundaryPoint>)
(<boundaryPoint> X0.828 Y3.555 Z0.46 </boundaryPoint>)
(<boundaryPoint> X-20.135 Y3.555 Z0.46 </boundaryPoint>)
(<boundaryPoint> X-20.135 Y-13.588 Z0.46 </boundaryPoint>)
(<boundaryPoint> X-19.99 Y-13.945 Z0.46 </boundaryPoint>)
(<boundaryPoint> X-20.15 Y-14.302 Z0.46 </boundaryPoint>)
(<boundaryPoint> X-20.15 Y-15.724 Z0.46 </boundaryPoint>)
(<boundaryPoint> X19.013 Y-15.724 Z0.46 </boundaryPoint>)
(<boundaryPoint> X19.013 Y-13.945 Z0.46 </boundaryPoint>)
(<boundaryPoint> X20.107 Y-13.945 Z0.46 </boundaryPoint>)
(<loop> inner )
M108 R2.141
G1 X21.91 Y-17.53 Z0.46 F1080.0
M101
G1 X-21.95 Y-17.53 Z0.46 F1080.0
G1 X-21.95 Y17.57 Z0.46 F1080.0
G1 X21.91 Y17.57 Z0.46 F1080.0
G1 X21.91 Y-17.26 Z0.46 F1080.0
M108 R30.0
M102
G1 X21.91 Y-17.53 Z0.46 F1080.0
M108 R2.141
M103
G1 X8.04 Y-3.96 Z0.46 F3000.0
M108 R30.0
M101
G1 X7.47 Y-3.4 Z0.46 F3000.0
M108 R2.141
G1 X8.37 Y-2.68 Z0.46 F1080.0
G1 X9.58 Y-2.4 Z0.46 F1080.0
G1 X10.79 Y-2.68 Z0.46 F1080.0
G1 X11.76 Y-3.45 Z0.46 F1080.0
G1 X12.3 Y-4.57 Z0.46 F1080.0
G1 X12.3 Y-5.82 Z0.46 F1080.0
G1 X11.76 Y-6.94 Z0.46 F1080.0
G1 X10.79 Y-7.71 Z0.46 F1080.0
G1 X9.58 Y-7.99 Z0.46 F1080.0
G1 X8.37 Y-7.71 Z0.46 F1080.0
G1 X7.4 Y-6.94 Z0.46 F1080.0
G1 X6.86 Y-5.82 Z0.46 F1080.0
G1 X6.86 Y-4.57 Z0.46 F1080.0
G1 X7.32 Y-3.61 Z0.46 F1080.0
M108 R30.0
M102
G1 X7.4 Y-3.45 Z0.46 F1080.0
G1 X7.47 Y-3.4 Z0.46 F1080.0
M108 R2.141
M103
(</loop>)
(<loop> outer )
G1 X1.97 Y2.39 Z0.46 F3000.0
M108 R30.0
M101
G1 X1.42 Y2.97 Z0.46 F3000.0
M108 R2.141
G1 X-19.55 Y2.97 Z0.46 F1080.0
G1 X-19.55 Y-13.47 Z0.46 F1080.0
G1 X-19.35 Y-13.96 Z0.46 F1080.0
G1 X-19.56 Y-14.43 Z0.46 F1080.0
G1 X-19.56 Y-15.14 Z0.46 F1080.0
G1 X18.42 Y-15.14 Z0.46 F1080.0
G1 X18.42 Y-13.36 Z0.46 F1080.0
G1 X19.52 Y-13.36 Z0.46 F1080.0
G1 X19.52 Y15.18 Z0.46 F1080.0
G1 X1.42 Y15.18 Z0.46 F1080.0
G1 X1.42 Y2.97 Z0.46 F1080.0
M103
(</loop>)
(<perimeter> outer )
G1 X1.02 Y3.36 Z0.46 F3000.0
M101
G1 X-19.94 Y3.36 Z0.46 F1080.0
G1 X-19.94 Y-13.55 Z0.46 F1080.0
G1 X-19.78 Y-13.95 Z0.46 F1080.0
G1 X-19.95 Y-14.34 Z0.46 F1080.0
G1 X-19.95 Y-15.53 Z0.46 F1080.0
G1 X18.82 Y-15.53 Z0.46 F1080.0
G1 X18.82 Y-13.75 Z0.46 F1080.0
G1 X19.91 Y-13.75 Z0.46 F1080.0
G1 X19.91 Y15.57 Z0.46 F1080.0
G1 X1.02 Y15.57 Z0.46 F1080.0
G1 X1.02 Y3.63 Z0.46 F1080.0
M108 R30.0
M102
G1 X1.02 Y3.36 Z0.46 F1080.0
M108 R2.141
M103
(</perimeter>)
(</boundaryPerimeter>)
(<surroundingLoop>)
(<boundaryPerimeter>)
(<boundaryPoint> X8.629 Y-7.166 Z0.46 </boundaryPoint>)
(<boundaryPoint> X7.868 Y-6.559 Z0.46 </boundaryPoint>)
(<boundaryPoint> X7.445 Y-5.682 Z0.46 </boundaryPoint>)
(<boundaryPoint> X7.445 Y-4.708 Z0.46 </boundaryPoint>)
(<boundaryPoint> X7.868 Y-3.831 Z0.46 </boundaryPoint>)
(<boundaryPoint> X8.629 Y-3.224 Z0.46 </boundaryPoint>)
(<boundaryPoint> X9.578 Y-3.008 Z0.46 </boundaryPoint>)
(<boundaryPoint> X10.527 Y-3.224 Z0.46 </boundaryPoint>)
(<boundaryPoint> X11.288 Y-3.831 Z0.46 </boundaryPoint>)
(<boundaryPoint> X11.711 Y-4.708 Z0.46 </boundaryPoint>)
(<boundaryPoint> X11.711 Y-5.682 Z0.46 </boundaryPoint>)
(<boundaryPoint> X11.288 Y-6.559 Z0.46 </boundaryPoint>)
(<boundaryPoint> X10.527 Y-7.166 Z0.46 </boundaryPoint>)
(<boundaryPoint> X9.578 Y-7.383 Z0.46 </boundaryPoint>)
(<perimeter> inner )
G1 X7.16 Y-3.12 Z0.46 F3000.0
M108 R30.0
M101
G1 X7.71 Y-3.71 Z0.46 F3000.0
M108 R2.141
G1 X8.54 Y-3.04 Z0.46 F1080.0
G1 X9.58 Y-2.81 Z0.46 F1080.0
G1 X10.61 Y-3.04 Z0.46 F1080.0
G1 X11.45 Y-3.71 Z0.46 F1080.0
G1 X11.91 Y-4.66 Z0.46 F1080.0
G1 X11.91 Y-5.73 Z0.46 F1080.0
G1 X11.45 Y-6.69 Z0.46 F1080.0
G1 X10.61 Y-7.35 Z0.46 F1080.0
G1 X9.58 Y-7.59 Z0.46 F1080.0
G1 X8.54 Y-7.35 Z0.46 F1080.0
G1 X7.71 Y-6.69 Z0.46 F1080.0
G1 X7.25 Y-5.73 Z0.46 F1080.0
G1 X7.25 Y-4.66 Z0.46 F1080.0
G1 X7.59 Y-3.95 Z0.46 F1080.0
M108 R30.0
M102
G1 X7.71 Y-3.71 Z0.46 F1080.0
M108 R2.141
M103
(</perimeter>)
(</boundaryPerimeter>)
(</surroundingLoop>)
G1 X7.08 Y-4.1 Z0.46 F1800.0
M108 R30.0
M101
G1 X6.68 Y-4.36 Z0.46 F1800.0
M108 R2.141
G1 X6.68 Y14.92 Z0.46 F1080.0
M103
G1 X7.07 Y14.92 Z0.46 F1800.0
M101
G1 X7.07 Y-3.54 Z0.46 F1080.0
G1 X7.46 Y-3.08 Z0.46 F1080.0
G1 X7.46 Y14.92 Z0.46 F1080.0
M103
G1 X7.85 Y14.92 Z0.46 F1800.0
M101
G1 X7.85 Y-2.76 Z0.46 F1080.0
G1 X8.25 Y-2.45 Z0.46 F1080.0
G1 X8.25 Y14.92 Z0.46 F1080.0
M103
G1 X8.64 Y14.92 Z0.46 F1800.0
M101
G1 X8.64 Y-2.09 Z0.46 F1080.0
M108 R30.0
M102
G1 X8.64 Y-2.36 Z0.46 F1080.0
M108 R2.141
M103
G1 X9.34 Y-2.26 Z0.46 F1800.0
M108 R30.0
M101
G1 X9.82 Y-2.2 Z0.46 F1800.0
M108 R2.141
G1 X9.82 Y14.92 Z0.46 F1080.0
M103
G1 X10.21 Y14.92 Z0.46 F1800.0
M101
G1 X10.21 Y-2.29 Z0.46 F1080.0
G1 X10.6 Y-2.38 Z0.46 F1080.0
G1 X10.6 Y14.92 Z0.46 F1080.0
M103
G1 X11.0 Y14.92 Z0.46 F1800.0
M101
G1 X11.0 Y-2.52 Z0.46 F1080.0
G1 X11.39 Y-2.83 Z0.46 F1080.0
G1 X11.39 Y14.92 Z0.46 F1080.0
M103
G1 X11.78 Y14.92 Z0.46 F1800.0
M101
G1 X11.78 Y-3.14 Z0.46 F1080.0
M103
G1 X12.17 Y-3.72 Z0.46 F1800.0
M101
G1 X12.17 Y14.92 Z0.46 F1080.0
M103
G1 X12.57 Y14.92 Z0.46 F1800.0
M101
G1 X12.57 Y-14.88 Z0.46 F1080.0
G1 X12.17 Y-14.88 Z0.46 F1080.0
G1 X12.17 Y-6.67 Z0.46 F1080.0
M103
G1 X11.78 Y-7.25 Z0.46 F1800.0
M101
G1 X11.78 Y-14.88 Z0.46 F1080.0
G1 X11.39 Y-14.88 Z0.46 F1080.0
G1 X11.39 Y-7.56 Z0.46 F1080.0
G1 X11.0 Y-7.87 Z0.46 F1080.0
G1 X11.0 Y-14.88 Z0.46 F1080.0
G1 X10.6 Y-14.88 Z0.46 F1080.0
G1 X10.6 Y-8.02 Z0.46 F1080.0
M103
G1 X10.21 Y-8.11 Z0.46 F1800.0
M101
G1 X10.21 Y-14.88 Z0.46 F1080.0
G1 X9.82 Y-14.88 Z0.46 F1080.0
G1 X9.82 Y-8.2 Z0.46 F1080.0
M103
G1 X9.43 Y-8.21 Z0.46 F1800.0
M101
G1 X9.43 Y-14.88 Z0.46 F1080.0
G1 X9.03 Y-14.88 Z0.46 F1080.0
G1 X9.03 Y-8.13 Z0.46 F1080.0
G1 X8.64 Y-8.04 Z0.46 F1080.0
G1 X8.64 Y-14.88 Z0.46 F1080.0
G1 X8.25 Y-14.88 Z0.46 F1080.0
G1 X8.25 Y-7.94 Z0.46 F1080.0
G1 X7.85 Y-7.63 Z0.46 F1080.0
G1 X7.85 Y-14.88 Z0.46 F1080.0
G1 X7.46 Y-14.88 Z0.46 F1080.0
G1 X7.46 Y-7.32 Z0.46 F1080.0
G1 X7.07 Y-6.85 Z0.46 F1080.0
G1 X7.07 Y-14.88 Z0.46 F1080.0
G1 X6.68 Y-14.88 Z0.46 F1080.0
G1 X6.68 Y-6.3 Z0.46 F1080.0
M108 R30.0
M102
G1 X6.68 Y-6.03 Z0.46 F1080.0
M108 R2.141
M103
G1 X1.81 Y2.3 Z0.46 F1800.0
M108 R30.0
M101
G1 X1.57 Y2.71 Z0.46 F1800.0
M108 R2.141
G1 X1.57 Y-14.88 Z0.46 F1080.0
G1 X1.18 Y-14.88 Z0.46 F1080.0
G1 X1.18 Y2.71 Z0.46 F1080.0
G1 X0.79 Y2.71 Z0.46 F1080.0
G1 X0.79 Y-14.88 Z0.46 F1080.0
G1 X0.39 Y-14.88 Z0.46 F1080.0
G1 X0.39 Y2.71 Z0.46 F1080.0
G1 X0.0 Y2.71 Z0.46 F1080.0
G1 X-0.0 Y-14.88 Z0.46 F1080.0
G1 X-0.39 Y-14.88 Z0.46 F1080.0
G1 X-0.39 Y2.71 Z0.46 F1080.0
G1 X-0.79 Y2.71 Z0.46 F1080.0
G1 X-0.79 Y-14.88 Z0.46 F1080.0
G1 X-1.18 Y-14.88 Z0.46 F1080.0
G1 X-1.18 Y2.71 Z0.46 F1080.0
G1 X-1.57 Y2.71 Z0.46 F1080.0
G1 X-1.57 Y-14.88 Z0.46 F1080.0
G1 X-1.96 Y-14.88 Z0.46 F1080.0
G1 X-1.96 Y2.71 Z0.46 F1080.0
G1 X-2.36 Y2.71 Z0.46 F1080.0
G1 X-2.36 Y-14.88 Z0.46 F1080.0
G1 X-2.75 Y-14.88 Z0.46 F1080.0
G1 X-2.75 Y2.71 Z0.46 F1080.0
G1 X-3.14 Y2.71 Z0.46 F1080.0
G1 X-3.14 Y-14.88 Z0.46 F1080.0
G1 X-3.53 Y-14.88 Z0.46 F1080.0
G1 X-3.53 Y2.71 Z0.46 F1080.0
G1 X-3.93 Y2.71 Z0.46 F1080.0
G1 X-3.93 Y-14.88 Z0.46 F1080.0
G1 X-4.32 Y-14.88 Z0.46 F1080.0
G1 X-4.32 Y2.71 Z0.46 F1080.0
G1 X-4.71 Y2.71 Z0.46 F1080.0
G1 X-4.71 Y-14.88 Z0.46 F1080.0
G1 X-5.11 Y-14.88 Z0.46 F1080.0
G1 X-5.11 Y2.71 Z0.46 F1080.0
G1 X-5.5 Y2.71 Z0.46 F1080.0
G1 X-5.5 Y-14.88 Z0.46 F1080.0
G1 X-5.89 Y-14.88 Z0.46 F1080.0
G1 X-5.89 Y2.71 Z0.46 F1080.0
G1 X-6.28 Y2.71 Z0.46 F1080.0
G1 X-6.28 Y-14.88 Z0.46 F1080.0
G1 X-6.68 Y-14.88 Z0.46 F1080.0
G1 X-6.68 Y2.71 Z0.46 F1080.0
G1 X-7.07 Y2.71 Z0.46 F1080.0
G1 X-7.07 Y-14.88 Z0.46 F1080.0
G1 X-7.46 Y-14.88 Z0.46 F1080.0
G1 X-7.46 Y2.71 Z0.46 F1080.0
G1 X-7.85 Y2.71 Z0.46 F1080.0
G1 X-7.85 Y-14.88 Z0.46 F1080.0
G1 X-8.25 Y-14.88 Z0.46 F1080.0
G1 X-8.25 Y2.71 Z0.46 F1080.0
G1 X-8.64 Y2.71 Z0.46 F1080.0
G1 X-8.64 Y-14.88 Z0.46 F1080.0
G1 X-9.03 Y-14.88 Z0.46 F1080.0
G1 X-9.03 Y2.71 Z0.46 F1080.0
G1 X-9.43 Y2.71 Z0.46 F1080.0
G1 X-9.43 Y-14.88 Z0.46 F1080.0
G1 X-9.82 Y-14.88 Z0.46 F1080.0
G1 X-9.82 Y2.71 Z0.46 F1080.0
G1 X-10.21 Y2.71 Z0.46 F1080.0
G1 X-10.21 Y-14.88 Z0.46 F1080.0
G1 X-10.6 Y-14.88 Z0.46 F1080.0
G1 X-10.6 Y2.71 Z0.46 F1080.0
G1 X-11.0 Y2.71 Z0.46 F1080.0
G1 X-11.0 Y-14.88 Z0.46 F1080.0
G1 X-11.39 Y-14.88 Z0.46 F1080.0
G1 X-11.39 Y2.71 Z0.46 F1080.0
G1 X-11.78 Y2.71 Z0.46 F1080.0
G1 X-11.78 Y-14.88 Z0.46 F1080.0
G1 X-12.17 Y-14.88 Z0.46 F1080.0
G1 X-12.17 Y2.71 Z0.46 F1080.0
G1 X-12.57 Y2.71 Z0.46 F1080.0
G1 X-12.57 Y-14.88 Z0.46 F1080.0
G1 X-12.96 Y-14.88 Z0.46 F1080.0
G1 X-12.96 Y2.71 Z0.46 F1080.0
G1 X-13.35 Y2.71 Z0.46 F1080.0
G1 X-13.35 Y-14.88 Z0.46 F1080.0
G1 X-13.74 Y-14.88 Z0.46 F1080.0
G1 X-13.74 Y2.71 Z0.46 F1080.0
G1 X-14.14 Y2.71 Z0.46 F1080.0
G1 X-14.14 Y-14.88 Z0.46 F1080.0
G1 X-14.53 Y-14.88 Z0.46 F1080.0
G1 X-14.53 Y2.71 Z0.46 F1080.0
G1 X-14.92 Y2.71 Z0.46 F1080.0
G1 X-14.92 Y-14.88 Z0.46 F1080.0
G1 X-15.32 Y-14.88 Z0.46 F1080.0
G1 X-15.32 Y2.71 Z0.46 F1080.0
G1 X-15.71 Y2.71 Z0.46 F1080.0
G1 X-15.71 Y-14.88 Z0.46 F1080.0
G1 X-16.1 Y-14.88 Z0.46 F1080.0
G1 X-16.1 Y2.71 Z0.46 F1080.0
G1 X-16.49 Y2.71 Z0.46 F1080.0
G1 X-16.49 Y-14.88 Z0.46 F1080.0
G1 X-16.89 Y-14.88 Z0.46 F1080.0
G1 X-16.89 Y2.71 Z0.46 F1080.0
G1 X-17.28 Y2.71 Z0.46 F1080.0
G1 X-17.28 Y-14.88 Z0.46 F1080.0
G1 X-17.67 Y-14.88 Z0.46 F1080.0
G1 X-17.67 Y2.71 Z0.46 F1080.0
G1 X-18.06 Y2.71 Z0.46 F1080.0
G1 X-18.06 Y-14.88 Z0.46 F1080.0
G1 X-18.46 Y-14.88 Z0.46 F1080.0
G1 X-18.46 Y2.71 Z0.46 F1080.0
G1 X-18.85 Y2.71 Z0.46 F1080.0
G1 X-18.85 Y-14.88 Z0.46 F1080.0
G1 X-19.24 Y-14.88 Z0.46 F1080.0
G1 X-19.24 Y-14.34 Z0.46 F1080.0
M103
G1 X-19.24 Y-13.54 Z0.46 F1800.0
M101
G1 X-19.24 Y2.44 Z0.46 F1080.0
M108 R30.0
M102
G1 X-19.24 Y2.71 Z0.46 F1080.0
M108 R2.141
M103
G1 X-17.75 Y3.28 Z0.46 F3000.0
G1 X0.97 Y3.42 Z0.46 F3000.0
G1 X1.1 Y14.06 Z0.46 F3000.0
G1 X1.96 Y14.65 Z0.46 F1800.0
M108 R30.0
M101
G1 X2.36 Y14.92 Z0.46 F1800.0
M108 R2.141
G1 X2.36 Y-14.88 Z0.46 F1080.0
G1 X1.96 Y-14.88 Z0.46 F1080.0
G1 X1.96 Y14.65 Z0.46 F1080.0
M108 R30.0
M102
G1 X1.96 Y14.92 Z0.46 F1080.0
M108 R2.141
M103
G1 X2.66 Y14.92 Z0.46 F1800.0
M108 R30.0
M101
G1 X3.14 Y14.92 Z0.46 F1800.0
M108 R2.141
G1 X3.14 Y-14.88 Z0.46 F1080.0
G1 X2.75 Y-14.88 Z0.46 F1080.0
G1 X2.75 Y14.65 Z0.46 F1080.0
M108 R30.0
M102
G1 X2.75 Y14.92 Z0.46 F1080.0
M108 R2.141
M103
G1 X3.45 Y14.92 Z0.46 F1800.0
M108 R30.0
M101
G1 X3.93 Y14.92 Z0.46 F1800.0
M108 R2.141
G1 X3.93 Y-14.88 Z0.46 F1080.0
G1 X3.53 Y-14.88 Z0.46 F1080.0
G1 X3.53 Y14.65 Z0.46 F1080.0
M108 R30.0
M102
G1 X3.53 Y14.92 Z0.46 F1080.0
M108 R2.141
M103
G1 X4.23 Y14.92 Z0.46 F1800.0
M108 R30.0
M101
G1 X4.71 Y14.92 Z0.46 F1800.0
M108 R2.141
G1 X4.71 Y-14.88 Z0.46 F1080.0
G1 X4.32 Y-14.88 Z0.46 F1080.0
G1 X4.32 Y14.65 Z0.46 F1080.0
M108 R30.0
M102
G1 X4.32 Y14.92 Z0.46 F1080.0
M108 R2.141
M103
G1 X5.02 Y14.92 Z0.46 F1800.0
M108 R30.0
M101
G1 X5.5 Y14.92 Z0.46 F1800.0
M108 R2.141
G1 X5.5 Y-14.88 Z0.46 F1080.0
G1 X5.11 Y-14.88 Z0.46 F1080.0
G1 X5.11 Y14.65 Z0.46 F1080.0
M108 R30.0
M102
G1 X5.11 Y14.92 Z0.46 F1080.0
M108 R2.141
M103
G1 X5.8 Y14.92 Z0.46 F1800.0
M108 R30.0
M101
G1 X6.28 Y14.92 Z0.46 F1800.0
M108 R2.141
G1 X6.28 Y-14.88 Z0.46 F1080.0
G1 X5.89 Y-14.88 Z0.46 F1080.0
G1 X5.89 Y14.65 Z0.46 F1080.0
M108 R30.0
M102
G1 X5.89 Y14.92 Z0.46 F1080.0
M108 R2.141
M103
G1 X8.55 Y14.92 Z0.46 F1800.0
M108 R30.0
M101
G1 X9.03 Y14.92 Z0.46 F1800.0
M108 R2.141
G1 X9.03 Y-2.27 Z0.46 F1080.0
G1 X9.43 Y-2.18 Z0.46 F1080.0
G1 X9.43 Y14.65 Z0.46 F1080.0
M108 R30.0
M102
G1 X9.43 Y14.92 Z0.46 F1080.0
M108 R2.141
M103
G1 X12.87 Y14.92 Z0.46 F1800.0
M108 R30.0
M101
G1 X13.35 Y14.92 Z0.46 F1800.0
M108 R2.141
G1 X13.35 Y-14.88 Z0.46 F1080.0
G1 X12.96 Y-14.88 Z0.46 F1080.0
G1 X12.96 Y14.65 Z0.46 F1080.0
M108 R30.0
M102
G1 X12.96 Y14.92 Z0.46 F1080.0
M108 R2.141
M103
G1 X13.66 Y14.92 Z0.46 F1800.0
M108 R30.0
M101
G1 X14.14 Y14.92 Z0.46 F1800.0
M108 R2.141
G1 X14.14 Y-14.88 Z0.46 F1080.0
G1 X13.74 Y-14.88 Z0.46 F1080.0
G1 X13.74 Y14.65 Z0.46 F1080.0
M108 R30.0
M102
G1 X13.74 Y14.92 Z0.46 F1080.0
M108 R2.141
M103
G1 X14.44 Y14.92 Z0.46 F1800.0
M108 R30.0
M101
G1 X14.92 Y14.92 Z0.46 F1800.0
M108 R2.141
G1 X14.92 Y-14.88 Z0.46 F1080.0
G1 X14.53 Y-14.88 Z0.46 F1080.0
G1 X14.53 Y14.65 Z0.46 F1080.0
M108 R30.0
M102
G1 X14.53 Y14.92 Z0.46 F1080.0
M108 R2.141
M103
G1 X15.23 Y14.92 Z0.46 F1800.0
M108 R30.0
M101
G1 X15.71 Y14.92 Z0.46 F1800.0
M108 R2.141
G1 X15.71 Y-14.88 Z0.46 F1080.0
G1 X15.32 Y-14.88 Z0.46 F1080.0
G1 X15.32 Y14.65 Z0.46 F1080.0
M108 R30.0
M102
G1 X15.32 Y14.92 Z0.46 F1080.0
M108 R2.141
M103
G1 X16.01 Y14.92 Z0.46 F1800.0
M108 R30.0
M101
G1 X16.49 Y14.92 Z0.46 F1800.0
M108 R2.141
G1 X16.49 Y-14.88 Z0.46 F1080.0
G1 X16.1 Y-14.88 Z0.46 F1080.0
G1 X16.1 Y14.65 Z0.46 F1080.0
M108 R30.0
M102
G1 X16.1 Y14.92 Z0.46 F1080.0
M108 R2.141
M103
G1 X16.8 Y14.92 Z0.46 F1800.0
M108 R30.0
M101
G1 X17.28 Y14.92 Z0.46 F1800.0
M108 R2.141
G1 X17.28 Y-14.88 Z0.46 F1080.0
G1 X16.89 Y-14.88 Z0.46 F1080.0
G1 X16.89 Y14.65 Z0.46 F1080.0
M108 R30.0
M102
G1 X16.89 Y14.92 Z0.46 F1080.0
M108 R2.141
M103
G1 X17.58 Y14.92 Z0.46 F1800.0
M108 R30.0
M101
G1 X18.06 Y14.92 Z0.46 F1800.0
M108 R2.141
G1 X18.06 Y-14.88 Z0.46 F1080.0
G1 X17.67 Y-14.88 Z0.46 F1080.0
G1 X17.67 Y14.65 Z0.46 F1080.0
M108 R30.0
M102
G1 X17.67 Y14.92 Z0.46 F1080.0
M108 R2.141
M103
G1 X18.37 Y14.92 Z0.46 F1800.0
M108 R30.0
M101
G1 X18.85 Y14.92 Z0.46 F1800.0
M108 R2.141
G1 X18.85 Y-13.1 Z0.46 F1080.0
G1 X18.46 Y-13.1 Z0.46 F1080.0
G1 X18.46 Y14.65 Z0.46 F1080.0
M108 R30.0
M102
G1 X18.46 Y14.92 Z0.46 F1080.0
M108 R2.141
M103
G1 X19.23 Y-12.62 Z0.46 F1800.0
M108 R30.0
M101
G1 X19.24 Y-13.1 Z0.46 F1800.0
M108 R2.141
G1 X19.24 Y14.65 Z0.46 F1080.0
M108 R30.0
M102
G1 X19.24 Y14.92 Z0.46 F1080.0
M108 R2.141
M103
(</surroundingLoop>)
(</layer>)
(<layer> 0.78 )
(<surroundingLoop>)
(<boundaryPerimeter>)
(<boundaryPoint> X20.022 Y15.768 Z0.78 </boundaryPoint>)
(<boundaryPoint> X0.828 Y15.768 Z0.78 </boundaryPoint>)
(<boundaryPoint> X0.828 Y3.555 Z0.78 </boundaryPoint>)
(<boundaryPoint> X-20.135 Y3.555 Z0.78 </boundaryPoint>)
(<boundaryPoint> X-20.135 Y-13.945 Z0.78 </boundaryPoint>)
(<boundaryPoint> X-19.924 Y-13.945 Z0.78 </boundaryPoint>)
(<boundaryPoint> X-20.142 Y-13.945 Z0.78 </boundaryPoint>)
(<boundaryPoint> X-20.15 Y-15.638 Z0.78 </boundaryPoint>)
(<boundaryPoint> X19.013 Y-15.639 Z0.78 </boundaryPoint>)
(<boundaryPoint> X19.013 Y-13.945 Z0.78 </boundaryPoint>)
(<boundaryPoint> X20.022 Y-13.945 Z0.78 </boundaryPoint>)
(<loop> inner )
M108 R3.569
G1 X10.94 Y-1.92 Z0.77 F3000.0
M108 R30.0
M101
G1 X10.59 Y-2.63 Z0.78 F3000.0
M108 R3.569
G1 X10.79 Y-2.68 Z0.78 F1800.0
G1 X11.76 Y-3.45 Z0.78 F1800.0
G1 X12.3 Y-4.57 Z0.78 F1800.0
G1 X12.3 Y-5.82 Z0.78 F1800.0
G1 X11.76 Y-6.94 Z0.78 F1800.0
G1 X10.79 Y-7.71 Z0.78 F1800.0
G1 X9.58 Y-7.99 Z0.78 F1800.0
G1 X8.37 Y-7.71 Z0.78 F1800.0
G1 X7.4 Y-6.94 Z0.78 F1800.0
G1 X6.86 Y-5.82 Z0.78 F1800.0
G1 X6.86 Y-4.57 Z0.78 F1800.0
G1 X7.4 Y-3.45 Z0.78 F1800.0
G1 X8.37 Y-2.68 Z0.78 F1800.0
G1 X9.58 Y-2.4 Z0.78 F1800.0
G1 X10.15 Y-2.53 Z0.78 F1800.0
M108 R30.0
M102
G1 X10.59 Y-2.63 Z0.78 F1800.0
M108 R3.569
M103
(</loop>)
(<loop> outer )
G1 X18.63 Y-2.68 Z0.78 F3000.0
M108 R30.0
M101
G1 X19.43 Y-2.68 Z0.78 F3000.0
M108 R3.569
G1 X19.43 Y15.18 Z0.78 F1800.0
G1 X1.42 Y15.18 Z0.78 F1800.0
G1 X1.42 Y2.97 Z0.78 F1800.0
G1 X-19.55 Y2.97 Z0.78 F1800.0
G1 X-19.55 Y-13.33 Z0.78 F1800.0
G1 X-19.28 Y-13.95 Z0.78 F1800.0
G1 X-19.56 Y-14.57 Z0.78 F1800.0
G1 X-19.56 Y-15.05 Z0.78 F1800.0
G1 X18.42 Y-15.05 Z0.78 F1800.0
G1 X18.42 Y-13.36 Z0.78 F1800.0
G1 X19.43 Y-13.36 Z0.78 F1800.0
G1 X19.43 Y-2.68 Z0.78 F1800.0
M103
(</loop>)
(<perimeter> outer )
G1 X19.83 Y-2.68 Z0.78 F3000.0
M101
G1 X19.83 Y15.57 Z0.78 F1800.0
G1 X1.02 Y15.57 Z0.78 F1800.0
G1 X1.02 Y3.36 Z0.78 F1800.0
G1 X-19.94 Y3.36 Z0.78 F1800.0
G1 X-19.94 Y-13.75 Z0.78 F1800.0
G1 X-19.9 Y-13.75 Z0.78 F1800.0
G1 X-19.67 Y-13.95 Z0.78 F1800.0
G1 X-19.9 Y-14.14 Z0.78 F1800.0
G1 X-19.95 Y-14.14 Z0.78 F1800.0
G1 X-19.95 Y-15.44 Z0.78 F1800.0
G1 X18.82 Y-15.44 Z0.78 F1800.0
G1 X18.82 Y-13.75 Z0.78 F1800.0
G1 X19.83 Y-13.75 Z0.78 F1800.0
G1 X19.83 Y-3.13 Z0.78 F1800.0
M108 R30.0
M102
G1 X19.83 Y-2.68 Z0.78 F1800.0
M108 R3.569
M103
(</perimeter>)
(</boundaryPerimeter>)
(<surroundingLoop>)
(<boundaryPerimeter>)
(<boundaryPoint> X8.629 Y-7.166 Z0.78 </boundaryPoint>)
(<boundaryPoint> X7.868 Y-6.559 Z0.78 </boundaryPoint>)
(<boundaryPoint> X7.445 Y-5.682 Z0.78 </boundaryPoint>)
(<boundaryPoint> X7.445 Y-4.708 Z0.78 </boundaryPoint>)
(<boundaryPoint> X7.868 Y-3.831 Z0.78 </boundaryPoint>)
(<boundaryPoint> X8.629 Y-3.224 Z0.78 </boundaryPoint>)
(<boundaryPoint> X9.578 Y-3.008 Z0.78 </boundaryPoint>)
(<boundaryPoint> X10.527 Y-3.224 Z0.78 </boundaryPoint>)
(<boundaryPoint> X11.288 Y-3.831 Z0.78 </boundaryPoint>)
(<boundaryPoint> X11.711 Y-4.708 Z0.78 </boundaryPoint>)
(<boundaryPoint> X11.711 Y-5.682 Z0.78 </boundaryPoint>)
(<boundaryPoint> X11.288 Y-6.559 Z0.78 </boundaryPoint>)
(<boundaryPoint> X10.527 Y-7.166 Z0.78 </boundaryPoint>)
(<boundaryPoint> X9.578 Y-7.383 Z0.78 </boundaryPoint>)
(<perimeter> inner )
G1 X12.68 Y-4.47 Z0.78 F3000.0
M108 R30.0
M101
G1 X11.91 Y-4.66 Z0.78 F3000.0
M108 R3.569
G1 X11.91 Y-5.73 Z0.78 F1800.0
G1 X11.45 Y-6.69 Z0.78 F1800.0
G1 X10.61 Y-7.35 Z0.78 F1800.0
G1 X9.58 Y-7.59 Z0.78 F1800.0
G1 X8.54 Y-7.35 Z0.78 F1800.0
G1 X7.71 Y-6.69 Z0.78 F1800.0
G1 X7.25 Y-5.73 Z0.78 F1800.0
G1 X7.25 Y-4.66 Z0.78 F1800.0
G1 X7.71 Y-3.71 Z0.78 F1800.0
G1 X8.54 Y-3.04 Z0.78 F1800.0
G1 X9.58 Y-2.81 Z0.78 F1800.0
G1 X10.61 Y-3.04 Z0.78 F1800.0
G1 X11.45 Y-3.71 Z0.78 F1800.0
G1 X11.71 Y-4.26 Z0.78 F1800.0
M108 R30.0
M102
G1 X11.91 Y-4.66 Z0.78 F1800.0
M108 R3.569
M103
(</perimeter>)
(</boundaryPerimeter>)
(</surroundingLoop>)
G1 X18.38 Y-4.71 Z0.78 F3000.0
M108 R30.0
M101
G1 X19.18 Y-4.71 Z0.78 F3000.0
M108 R3.569
G1 X12.56 Y-4.71 Z0.78 F1800.0
M103
G1 X12.56 Y-5.11 Z0.78 F3000.0
M101
G1 X19.18 Y-5.11 Z0.78 F1800.0
M103
G1 X19.18 Y-5.5 Z0.78 F3000.0
M101
G1 X12.56 Y-5.5 Z0.78 F1800.0
M103
G1 X12.55 Y-5.89 Z0.78 F3000.0
M101
G1 X19.18 Y-5.89 Z0.78 F1800.0
M103
G1 X19.18 Y-6.28 Z0.78 F3000.0
M101
G1 X12.36 Y-6.28 Z0.78 F1800.0
M103
G1 X12.17 Y-6.68 Z0.78 F3000.0
M101
G1 X19.18 Y-6.68 Z0.78 F1800.0
M103
G1 X19.18 Y-7.07 Z0.78 F3000.0
M101
G1 X11.98 Y-7.07 Z0.78 F1800.0
G1 X11.51 Y-7.46 Z0.78 F1800.0
G1 X19.18 Y-7.46 Z0.78 F1800.0
M103
G1 X19.18 Y-7.85 Z0.78 F3000.0
M101
G1 X11.47 Y-7.85 Z0.78 F1800.0
M108 R30.0
M102
G1 X11.02 Y-7.85 Z0.78 F1800.0
M108 R3.569
M103
G1 X8.94 Y-7.85 Z0.78 F3000.0
M108 R30.0
M101
G1 X8.14 Y-7.85 Z0.78 F3000.0
M108 R3.569
G1 X-19.29 Y-7.85 Z0.78 F1800.0
G1 X-19.29 Y-7.46 Z0.78 F1800.0
G1 X7.65 Y-7.46 Z0.78 F1800.0
G1 X7.18 Y-7.07 Z0.78 F1800.0
G1 X-19.29 Y-7.07 Z0.78 F1800.0
G1 X-19.29 Y-6.68 Z0.78 F1800.0
G1 X6.99 Y-6.68 Z0.78 F1800.0
M103
G1 X6.8 Y-6.28 Z0.78 F3000.0
M101
G1 X-19.29 Y-6.28 Z0.78 F1800.0
G1 X-19.29 Y-5.89 Z0.78 F1800.0
G1 X6.61 Y-5.89 Z0.78 F1800.0
M103
G1 X6.6 Y-5.5 Z0.78 F3000.0
M101
G1 X-19.29 Y-5.5 Z0.78 F1800.0
G1 X-19.29 Y-5.11 Z0.78 F1800.0
G1 X6.6 Y-5.11 Z0.78 F1800.0
M103
G1 X6.6 Y-4.71 Z0.78 F3000.0
M101
G1 X-19.29 Y-4.71 Z0.78 F1800.0
G1 X-19.29 Y-4.32 Z0.78 F1800.0
G1 X6.7 Y-4.32 Z0.78 F1800.0
M103
G1 X6.88 Y-3.93 Z0.78 F3000.0
M101
G1 X-19.29 Y-3.93 Z0.78 F1800.0
G1 X-19.29 Y-3.53 Z0.78 F1800.0
G1 X7.07 Y-3.53 Z0.78 F1800.0
G1 X7.38 Y-3.14 Z0.78 F1800.0
G1 X-19.29 Y-3.14 Z0.78 F1800.0
G1 X-19.29 Y-2.75 Z0.78 F1800.0
G1 X7.87 Y-2.75 Z0.78 F1800.0
M103
G1 X8.64 Y-2.36 Z0.78 F3000.0
M101
G1 X-18.84 Y-2.36 Z0.78 F1800.0
M108 R30.0
M102
G1 X-19.29 Y-2.36 Z0.78 F1800.0
M108 R3.569
M103
G1 X-19.29 Y-8.23 Z0.78 F3000.0
M108 R30.0
M101
G1 X-19.29 Y-9.03 Z0.78 F3000.0
M108 R3.569
G1 X19.18 Y-9.03 Z0.78 F1800.0
M103
G1 X19.18 Y-9.43 Z0.78 F3000.0
M101
G1 X-19.29 Y-9.43 Z0.78 F1800.0
G1 X-19.29 Y-9.82 Z0.78 F1800.0
G1 X19.18 Y-9.82 Z0.78 F1800.0
M103
G1 X19.18 Y-10.21 Z0.78 F3000.0
M101
G1 X-19.29 Y-10.21 Z0.78 F1800.0
G1 X-19.29 Y-10.6 Z0.78 F1800.0
G1 X19.18 Y-10.6 Z0.78 F1800.0
M103
G1 X19.18 Y-11.0 Z0.78 F3000.0
M101
G1 X-19.29 Y-11.0 Z0.78 F1800.0
G1 X-19.29 Y-11.39 Z0.78 F1800.0
G1 X19.18 Y-11.39 Z0.78 F1800.0
M103
G1 X19.18 Y-11.78 Z0.78 F3000.0
M101
G1 X-19.29 Y-11.78 Z0.78 F1800.0
G1 X-19.29 Y-12.17 Z0.78 F1800.0
G1 X19.18 Y-12.17 Z0.78 F1800.0
M103
G1 X19.18 Y-12.57 Z0.78 F3000.0
M101
G1 X-19.29 Y-12.57 Z0.78 F1800.0
G1 X-19.29 Y-12.96 Z0.78 F1800.0
G1 X18.73 Y-12.96 Z0.78 F1800.0
M108 R30.0
M102
G1 X19.18 Y-12.96 Z0.78 F1800.0
M108 R3.569
M103
G1 X18.91 Y-13.06 Z0.78 F3000.0
M108 R30.0
M101
G1 X18.17 Y-13.35 Z0.78 F3000.0
M108 R3.569
G1 X-19.26 Y-13.35 Z0.78 F1800.0
G1 X-19.09 Y-13.74 Z0.78 F1800.0
G1 X18.17 Y-13.74 Z0.78 F1800.0
M103
G1 X18.17 Y-14.14 Z0.78 F3000.0
M101
G1 X-19.09 Y-14.14 Z0.78 F1800.0
G1 X-19.26 Y-14.53 Z0.78 F1800.0
G1 X17.72 Y-14.53 Z0.78 F1800.0
M108 R30.0
M102
G1 X18.17 Y-14.53 Z0.78 F1800.0
M108 R3.569
M103
G1 X19.05 Y-9.04 Z0.78 F3000.0
M108 R30.0
M101
G1 X19.18 Y-8.25 Z0.78 F3000.0
M108 R3.569
G1 X-19.29 Y-8.25 Z0.78 F1800.0
G1 X-19.29 Y-8.64 Z0.78 F1800.0
G1 X18.73 Y-8.64 Z0.78 F1800.0
M108 R30.0
M102
G1 X19.18 Y-8.64 Z0.78 F1800.0
M108 R3.569
M103
G1 X13.13 Y-4.75 Z0.78 F3000.0
M108 R30.0
M101
G1 X12.46 Y-4.32 Z0.78 F3000.0
M108 R3.569
G1 X19.18 Y-4.32 Z0.78 F1800.0
M103
G1 X19.18 Y-3.93 Z0.78 F3000.0
M101
G1 X12.72 Y-3.93 Z0.78 F1800.0
M108 R30.0
M102
G1 X12.27 Y-3.93 Z0.78 F1800.0
M108 R3.569
M103
G1 X11.8 Y-3.36 Z0.78 F3000.0
M108 R30.0
M101
G1 X11.29 Y-2.75 Z0.78 F3000.0
M108 R3.569
G1 X19.18 Y-2.75 Z0.78 F1800.0
M103
G1 X19.18 Y-3.14 Z0.78 F3000.0
M101
G1 X11.78 Y-3.14 Z0.78 F1800.0
G1 X12.08 Y-3.53 Z0.78 F1800.0
G1 X18.73 Y-3.53 Z0.78 F1800.0
M108 R30.0
M102
G1 X19.18 Y-3.53 Z0.78 F1800.0
M108 R3.569
M103
G1 X19.18 Y-3.16 Z0.78 F3000.0
M108 R30.0
M101
G1 X19.18 Y-2.36 Z0.78 F3000.0
M108 R3.569
G1 X10.97 Y-2.36 Z0.78 F1800.0
M108 R30.0
M102
G1 X10.52 Y-2.36 Z0.78 F1800.0
M108 R3.569
M103
G1 X18.38 Y-1.64 Z0.78 F3000.0
M108 R30.0
M101
G1 X19.18 Y-1.57 Z0.78 F3000.0
M108 R3.569
G1 X-19.29 Y-1.57 Z0.78 F1800.0
G1 X-19.29 Y-1.96 Z0.78 F1800.0
G1 X18.73 Y-1.96 Z0.78 F1800.0
M108 R30.0
M102
G1 X19.18 Y-1.96 Z0.78 F1800.0
M108 R3.569
M103
G1 X19.18 Y-1.59 Z0.78 F3000.0
M108 R30.0
M101
G1 X19.18 Y-0.79 Z0.78 F3000.0
M108 R3.569
G1 X-19.29 Y-0.79 Z0.78 F1800.0
G1 X-19.29 Y-1.18 Z0.78 F1800.0
G1 X18.73 Y-1.18 Z0.78 F1800.0
M108 R30.0
M102
G1 X19.18 Y-1.18 Z0.78 F1800.0
M108 R3.569
M103
G1 X19.18 Y-0.8 Z0.78 F3000.0
M108 R30.0
M101
G1 X19.18 Y-0.0 Z0.78 F3000.0
M108 R3.569
G1 X-19.29 Y0.0 Z0.78 F1800.0
G1 X-19.29 Y-0.39 Z0.78 F1800.0
G1 X18.73 Y-0.39 Z0.78 F1800.0
M108 R30.0
M102
G1 X19.18 Y-0.39 Z0.78 F1800.0
M108 R3.569
M103
G1 X19.18 Y-0.02 Z0.78 F3000.0
M108 R30.0
M101
G1 X19.18 Y0.79 Z0.78 F3000.0
M108 R3.569
G1 X-19.29 Y0.79 Z0.78 F1800.0
G1 X-19.29 Y0.39 Z0.78 F1800.0
G1 X18.73 Y0.39 Z0.78 F1800.0
M108 R30.0
M102
G1 X19.18 Y0.39 Z0.78 F1800.0
M108 R3.569
M103
G1 X19.18 Y0.77 Z0.78 F3000.0
M108 R30.0
M101
G1 X19.18 Y1.57 Z0.78 F3000.0
M108 R3.569
G1 X-19.29 Y1.57 Z0.78 F1800.0
G1 X-19.29 Y1.18 Z0.78 F1800.0
G1 X18.73 Y1.18 Z0.78 F1800.0
M108 R30.0
M102
G1 X19.18 Y1.18 Z0.78 F1800.0
M108 R3.569
M103
G1 X19.18 Y1.56 Z0.78 F3000.0
M108 R30.0
M101
G1 X19.18 Y2.36 Z0.78 F3000.0
M108 R3.569
G1 X-19.29 Y2.36 Z0.78 F1800.0
G1 X-19.29 Y1.96 Z0.78 F1800.0
G1 X18.73 Y1.96 Z0.78 F1800.0
M108 R30.0
M102
G1 X19.18 Y1.96 Z0.78 F1800.0
M108 R3.569
M103
G1 X19.18 Y2.34 Z0.78 F3000.0
M108 R30.0
M101
G1 X19.18 Y3.14 Z0.78 F3000.0
M108 R3.569
G1 X1.67 Y3.14 Z0.78 F1800.0
G1 X1.67 Y2.75 Z0.78 F1800.0
G1 X18.73 Y2.75 Z0.78 F1800.0
M108 R30.0
M102
G1 X19.18 Y2.75 Z0.78 F1800.0
M108 R3.569
M103
G1 X19.18 Y3.13 Z0.78 F3000.0
M108 R30.0
M101
G1 X19.18 Y3.93 Z0.78 F3000.0
M108 R3.569
G1 X1.67 Y3.93 Z0.78 F1800.0
G1 X1.67 Y3.53 Z0.78 F1800.0
G1 X18.73 Y3.53 Z0.78 F1800.0
M108 R30.0
M102
G1 X19.18 Y3.53 Z0.78 F1800.0
M108 R3.569
M103
G1 X19.18 Y3.91 Z0.78 F3000.0
M108 R30.0
M101
G1 X19.18 Y4.71 Z0.78 F3000.0
M108 R3.569
G1 X1.67 Y4.71 Z0.78 F1800.0
G1 X1.67 Y4.32 Z0.78 F1800.0
G1 X18.73 Y4.32 Z0.78 F1800.0
M108 R30.0
M102
G1 X19.18 Y4.32 Z0.78 F1800.0
M108 R3.569
M103
G1 X19.18 Y4.7 Z0.78 F3000.0
M108 R30.0
M101
G1 X19.18 Y5.5 Z0.78 F3000.0
M108 R3.569
G1 X1.67 Y5.5 Z0.78 F1800.0
G1 X1.67 Y5.11 Z0.78 F1800.0
G1 X18.73 Y5.11 Z0.78 F1800.0
M108 R30.0
M102
G1 X19.18 Y5.11 Z0.78 F1800.0
M108 R3.569
M103
G1 X19.18 Y5.48 Z0.78 F3000.0
M108 R30.0
M101
G1 X19.18 Y6.28 Z0.78 F3000.0
M108 R3.569
G1 X1.67 Y6.28 Z0.78 F1800.0
G1 X1.67 Y5.89 Z0.78 F1800.0
G1 X18.73 Y5.89 Z0.78 F1800.0
M108 R30.0
M102
G1 X19.18 Y5.89 Z0.78 F1800.0
M108 R3.569
M103
G1 X19.18 Y6.27 Z0.78 F3000.0
M108 R30.0
M101
G1 X19.18 Y7.07 Z0.78 F3000.0
M108 R3.569
G1 X1.67 Y7.07 Z0.78 F1800.0
G1 X1.67 Y6.68 Z0.78 F1800.0
G1 X18.73 Y6.68 Z0.78 F1800.0
M108 R30.0
M102
G1 X19.18 Y6.68 Z0.78 F1800.0
M108 R3.569
M103
G1 X19.18 Y7.05 Z0.78 F3000.0
M108 R30.0
M101
G1 X19.18 Y7.85 Z0.78 F3000.0
M108 R3.569
G1 X1.67 Y7.85 Z0.78 F1800.0
G1 X1.67 Y7.46 Z0.78 F1800.0
G1 X18.73 Y7.46 Z0.78 F1800.0
M108 R30.0
M102
G1 X19.18 Y7.46 Z0.78 F1800.0
M108 R3.569
M103
G1 X19.18 Y7.84 Z0.78 F3000.0
M108 R30.0
M101
G1 X19.18 Y8.64 Z0.78 F3000.0
M108 R3.569
G1 X1.67 Y8.64 Z0.78 F1800.0
G1 X1.67 Y8.25 Z0.78 F1800.0
G1 X18.73 Y8.25 Z0.78 F1800.0
M108 R30.0
M102
G1 X19.18 Y8.25 Z0.78 F1800.0
M108 R3.569
M103
G1 X19.18 Y8.63 Z0.78 F3000.0
M108 R30.0
M101
G1 X19.18 Y9.43 Z0.78 F3000.0
M108 R3.569
G1 X1.67 Y9.43 Z0.78 F1800.0
G1 X1.67 Y9.03 Z0.78 F1800.0
G1 X18.73 Y9.03 Z0.78 F1800.0
M108 R30.0
M102
G1 X19.18 Y9.03 Z0.78 F1800.0
M108 R3.569
M103
G1 X19.18 Y9.41 Z0.78 F3000.0
M108 R30.0
M101
G1 X19.18 Y10.21 Z0.78 F3000.0
M108 R3.569
G1 X1.67 Y10.21 Z0.78 F1800.0
G1 X1.67 Y9.82 Z0.78 F1800.0
G1 X18.73 Y9.82 Z0.78 F1800.0
M108 R30.0
M102
G1 X19.18 Y9.82 Z0.78 F1800.0
M108 R3.569
M103
G1 X19.18 Y10.2 Z0.78 F3000.0
M108 R30.0
M101
G1 X19.18 Y11.0 Z0.78 F3000.0
M108 R3.569
G1 X1.67 Y11.0 Z0.78 F1800.0
G1 X1.67 Y10.6 Z0.78 F1800.0
G1 X18.73 Y10.6 Z0.78 F1800.0
M108 R30.0
M102
G1 X19.18 Y10.6 Z0.78 F1800.0
M108 R3.569
M103
G1 X19.18 Y10.98 Z0.78 F3000.0
M108 R30.0
M101
G1 X19.18 Y11.78 Z0.78 F3000.0
M108 R3.569
G1 X1.67 Y11.78 Z0.78 F1800.0
G1 X1.67 Y11.39 Z0.78 F1800.0
G1 X18.73 Y11.39 Z0.78 F1800.0
M108 R30.0
M102
G1 X19.18 Y11.39 Z0.78 F1800.0
M108 R3.569
M103
G1 X19.18 Y11.77 Z0.78 F3000.0
M108 R30.0
M101
G1 X19.18 Y12.57 Z0.78 F3000.0
M108 R3.569
G1 X1.67 Y12.57 Z0.78 F1800.0
G1 X1.67 Y12.17 Z0.78 F1800.0
G1 X18.73 Y12.17 Z0.78 F1800.0
M108 R30.0
M102
G1 X19.18 Y12.17 Z0.78 F1800.0
M108 R3.569
M103
G1 X19.18 Y12.55 Z0.78 F3000.0
M108 R30.0
M101
G1 X19.18 Y13.35 Z0.78 F3000.0
M108 R3.569
G1 X1.67 Y13.35 Z0.78 F1800.0
G1 X1.67 Y12.96 Z0.78 F1800.0
G1 X18.73 Y12.96 Z0.78 F1800.0
M108 R30.0
M102
G1 X19.18 Y12.96 Z0.78 F1800.0
M108 R3.569
M103
G1 X19.18 Y13.34 Z0.78 F3000.0
M108 R30.0
M101
G1 X19.18 Y14.14 Z0.78 F3000.0
M108 R3.569
G1 X1.67 Y14.14 Z0.78 F1800.0
G1 X1.67 Y13.74 Z0.78 F1800.0
G1 X18.73 Y13.74 Z0.78 F1800.0
M108 R30.0
M102
G1 X19.18 Y13.74 Z0.78 F1800.0
M108 R3.569
M103
G1 X19.18 Y14.12 Z0.78 F3000.0
M108 R30.0
M101
G1 X19.18 Y14.92 Z0.78 F3000.0
M108 R3.569
G1 X1.67 Y14.92 Z0.78 F1800.0
G1 X1.67 Y14.53 Z0.78 F1800.0
G1 X18.73 Y14.53 Z0.78 F1800.0
M108 R30.0
M102
G1 X19.18 Y14.53 Z0.78 F1800.0
M108 R3.569
M103
(</surroundingLoop>)
(</layer>)
(<operatingLayerEnd> </operatingLayerEnd>)
(<layer> 1.1 )
(<surroundingLoop>)
(<boundaryPerimeter>)
(<boundaryPoint> X19.936 Y15.768 Z1.1 </boundaryPoint>)
(<boundaryPoint> X0.828 Y15.768 Z1.1 </boundaryPoint>)
(<boundaryPoint> X0.828 Y3.555 Z1.1 </boundaryPoint>)
(<boundaryPoint> X-20.135 Y3.555 Z1.1 </boundaryPoint>)
(<boundaryPoint> X-20.135 Y-13.945 Z1.1 </boundaryPoint>)
(<boundaryPoint> X-19.758 Y-13.945 Z1.1 </boundaryPoint>)
(<boundaryPoint> X-19.725 Y-13.963 Z1.1 </boundaryPoint>)
(<boundaryPoint> X-19.725 Y-13.927 Z1.1 </boundaryPoint>)
(<boundaryPoint> X-20.142 Y-13.945 Z1.1 </boundaryPoint>)
(<boundaryPoint> X-20.15 Y-15.552 Z1.1 </boundaryPoint>)
(<boundaryPoint> X19.013 Y-15.553 Z1.1 </boundaryPoint>)
(<boundaryPoint> X19.013 Y-13.945 Z1.1 </boundaryPoint>)
(<boundaryPoint> X19.936 Y-13.945 Z1.1 </boundaryPoint>)
(<loop> inner )
G1 X2.07 Y2.57 Z1.09 F3000.0
M108 R30.0
M101
G1 X1.42 Y2.12 Z1.1 F3000.0
M108 R3.569
G1 X1.42 Y-12.78 Z1.1 F1800.0
G1 X-19.04 Y-12.78 Z1.1 F1800.0
G1 X-19.04 Y2.39 Z1.1 F1800.0
G1 X1.42 Y2.39 Z1.1 F1800.0
G1 X1.42 Y2.12 Z1.1 F1800.0
M103
(</loop>)
(<loop> inner )
G1 X1.99 Y2.12 Z1.1 F3000.0
M101
G1 X1.99 Y2.39 Z1.1 F1800.0
G1 X17.17 Y2.39 Z1.1 F1800.0
G1 X17.17 Y-12.51 Z1.1 F1800.0
G1 X1.99 Y-12.51 Z1.1 F1800.0
G1 X1.99 Y2.12 Z1.1 F1800.0
M103
(</loop>)
(<loop> inner )
G1 X1.99 Y2.97 Z1.1 F3000.0
M101
G1 X1.99 Y14.16 Z1.1 F1800.0
G1 X17.17 Y14.16 Z1.1 F1800.0
G1 X17.17 Y2.97 Z1.1 F1800.0
G1 X1.99 Y2.97 Z1.1 F1800.0
M103
(</loop>)
(<loop> outer )
G1 X1.42 Y2.97 Z1.1 F3000.0
M101
G1 X-19.55 Y2.97 Z1.1 F1800.0
G1 X-19.55 Y-12.7 Z1.1 F1800.0
G1 X-19.23 Y-13.69 Z1.1 F1800.0
G1 X-19.23 Y-14.23 Z1.1 F1800.0
G1 X-19.56 Y-14.85 Z1.1 F1800.0
G1 X-19.56 Y-14.97 Z1.1 F1800.0
G1 X18.42 Y-14.96 Z1.1 F1800.0
G1 X18.42 Y-13.36 Z1.1 F1800.0
G1 X19.35 Y-13.36 Z1.1 F1800.0
G1 X19.35 Y15.18 Z1.1 F1800.0
G1 X1.42 Y15.18 Z1.1 F1800.0
G1 X1.42 Y2.97 Z1.1 F1800.0
M103
(</loop>)
(<perimeter> outer )
G1 X1.02 Y3.36 Z1.1 F3000.0
M101
G1 X-19.94 Y3.36 Z1.1 F1800.0
G1 X-19.94 Y-13.75 Z1.1 F1800.0
G1 X-19.71 Y-13.75 Z1.1 F1800.0
G1 X-19.53 Y-13.85 Z1.1 F1800.0
G1 X-19.53 Y-14.04 Z1.1 F1800.0
G1 X-19.71 Y-14.14 Z1.1 F1800.0
G1 X-19.95 Y-14.14 Z1.1 F1800.0
G1 X-19.95 Y-15.36 Z1.1 F1800.0
G1 X18.82 Y-15.36 Z1.1 F1800.0
G1 X18.82 Y-13.75 Z1.1 F1800.0
G1 X19.74 Y-13.75 Z1.1 F1800.0
G1 X19.74 Y15.57 Z1.1 F1800.0
G1 X1.02 Y15.57 Z1.1 F1800.0
G1 X1.02 Y3.81 Z1.1 F1800.0
M108 R30.0
M102
G1 X1.02 Y3.36 Z1.1 F1800.0
M108 R3.569
M103
(</perimeter>)
(</boundaryPerimeter>)
(<surroundingLoop>)
(<boundaryPerimeter>)
(<boundaryPoint> X16.578 Y13.572 Z1.1 </boundaryPoint>)
(<boundaryPoint> X16.578 Y3.555 Z1.1 </boundaryPoint>)
(<boundaryPoint> X2.578 Y3.555 Z1.1 </boundaryPoint>)
(<boundaryPoint> X2.578 Y13.572 Z1.1 </boundaryPoint>)
(<perimeter> inner )
G1 X1.58 Y3.36 Z1.1 F3000.0
M108 R30.0
M101
G1 X2.38 Y3.36 Z1.1 F3000.0
M108 R3.569
G1 X2.38 Y13.77 Z1.1 F1800.0
G1 X16.77 Y13.77 Z1.1 F1800.0
G1 X16.77 Y3.36 Z1.1 F1800.0
G1 X2.83 Y3.36 Z1.1 F1800.0
M108 R30.0
M102
G1 X2.38 Y3.36 Z1.1 F1800.0
M108 R3.569
M103
(</perimeter>)
(</boundaryPerimeter>)
(</surroundingLoop>)
(<surroundingLoop>)
(<boundaryPerimeter>)
(<boundaryPoint> X2.578 Y-11.918 Z1.1 </boundaryPoint>)
(<boundaryPoint> X2.578 Y1.805 Z1.1 </boundaryPoint>)
(<boundaryPoint> X16.578 Y1.805 Z1.1 </boundaryPoint>)
(<boundaryPoint> X16.578 Y-11.918 Z1.1 </boundaryPoint>)
(<perimeter> inner )
G1 X2.38 Y2.8 Z1.1 F3000.0
M108 R30.0
M101
G1 X2.38 Y2.0 Z1.1 F3000.0
M108 R3.569
G1 X16.77 Y2.0 Z1.1 F1800.0
G1 X16.77 Y-12.12 Z1.1 F1800.0
G1 X2.38 Y-12.12 Z1.1 F1800.0
G1 X2.38 Y1.55 Z1.1 F1800.0
M108 R30.0
M102
G1 X2.38 Y2.0 Z1.1 F1800.0
M108 R3.569
M103
(</perimeter>)
(</boundaryPerimeter>)
(</surroundingLoop>)
(<surroundingLoop>)
(<boundaryPerimeter>)
(<boundaryPoint> X0.828 Y1.805 Z1.1 </boundaryPoint>)
(<boundaryPoint> X0.828 Y-12.195 Z1.1 </boundaryPoint>)
(<boundaryPoint> X-18.446 Y-12.195 Z1.1 </boundaryPoint>)
(<boundaryPoint> X-18.446 Y1.805 Z1.1 </boundaryPoint>)
(<perimeter> inner )
G1 X1.83 Y2.0 Z1.1 F3000.0
M108 R30.0
M101
G1 X1.02 Y2.0 Z1.1 F3000.0
M108 R3.569
G1 X1.02 Y-12.39 Z1.1 F1800.0
G1 X-18.64 Y-12.39 Z1.1 F1800.0
G1 X-18.64 Y2.0 Z1.1 F1800.0
G1 X0.57 Y2.0 Z1.1 F1800.0
M108 R30.0
M102
G1 X1.02 Y2.0 Z1.1 F1800.0
M108 R3.569
M103
(</perimeter>)
(</boundaryPerimeter>)
(</surroundingLoop>)
G1 X1.91 Y14.13 Z1.1 F3000.0
M108 R30.0
M101
G1 X1.96 Y14.92 Z1.1 F3000.0
M108 R3.569
G1 X1.96 Y14.42 Z1.1 F1800.0
G1 X2.36 Y14.92 Z1.1 F1800.0
G1 X2.36 Y14.42 Z1.1 F1800.0
G1 X2.75 Y14.92 Z1.1 F1800.0
G1 X2.75 Y14.42 Z1.1 F1800.0
G1 X3.14 Y14.92 Z1.1 F1800.0
G1 X3.14 Y14.42 Z1.1 F1800.0
G1 X3.53 Y14.92 Z1.1 F1800.0
G1 X3.53 Y14.42 Z1.1 F1800.0
G1 X3.93 Y14.92 Z1.1 F1800.0
G1 X3.93 Y14.42 Z1.1 F1800.0
G1 X4.32 Y14.92 Z1.1 F1800.0
G1 X4.32 Y14.42 Z1.1 F1800.0
G1 X4.71 Y14.92 Z1.1 F1800.0
G1 X4.71 Y14.42 Z1.1 F1800.0
G1 X5.11 Y14.92 Z1.1 F1800.0
G1 X5.11 Y14.42 Z1.1 F1800.0
G1 X5.5 Y14.92 Z1.1 F1800.0
G1 X5.5 Y14.42 Z1.1 F1800.0
G1 X5.89 Y14.92 Z1.1 F1800.0
G1 X5.89 Y14.42 Z1.1 F1800.0
G1 X6.28 Y14.92 Z1.1 F1800.0
G1 X6.28 Y14.42 Z1.1 F1800.0
G1 X6.68 Y14.92 Z1.1 F1800.0
G1 X6.68 Y14.42 Z1.1 F1800.0
G1 X7.07 Y14.92 Z1.1 F1800.0
G1 X7.07 Y14.42 Z1.1 F1800.0
G1 X7.46 Y14.92 Z1.1 F1800.0
G1 X7.46 Y14.42 Z1.1 F1800.0
G1 X7.85 Y14.92 Z1.1 F1800.0
G1 X7.85 Y14.42 Z1.1 F1800.0
G1 X8.25 Y14.92 Z1.1 F1800.0
G1 X8.25 Y14.42 Z1.1 F1800.0
G1 X8.64 Y14.92 Z1.1 F1800.0
G1 X8.64 Y14.42 Z1.1 F1800.0
G1 X9.03 Y14.92 Z1.1 F1800.0
G1 X9.03 Y14.42 Z1.1 F1800.0
G1 X9.43 Y14.92 Z1.1 F1800.0
G1 X9.43 Y14.42 Z1.1 F1800.0
G1 X9.82 Y14.92 Z1.1 F1800.0
G1 X9.82 Y14.42 Z1.1 F1800.0
G1 X10.21 Y14.92 Z1.1 F1800.0
G1 X10.21 Y14.42 Z1.1 F1800.0
G1 X10.6 Y14.92 Z1.1 F1800.0
G1 X10.6 Y14.42 Z1.1 F1800.0
G1 X11.0 Y14.92 Z1.1 F1800.0
G1 X11.0 Y14.42 Z1.1 F1800.0
G1 X11.39 Y14.92 Z1.1 F1800.0
G1 X11.39 Y14.42 Z1.1 F1800.0
G1 X11.78 Y14.92 Z1.1 F1800.0
G1 X11.78 Y14.42 Z1.1 F1800.0
G1 X12.17 Y14.92 Z1.1 F1800.0
G1 X12.17 Y14.42 Z1.1 F1800.0
G1 X12.57 Y14.92 Z1.1 F1800.0
G1 X12.57 Y14.42 Z1.1 F1800.0
G1 X12.96 Y14.92 Z1.1 F1800.0
G1 X12.96 Y14.42 Z1.1 F1800.0
G1 X13.35 Y14.92 Z1.1 F1800.0
G1 X13.35 Y14.42 Z1.1 F1800.0
G1 X13.74 Y14.92 Z1.1 F1800.0
G1 X13.74 Y14.42 Z1.1 F1800.0
G1 X14.14 Y14.92 Z1.1 F1800.0
G1 X14.14 Y14.42 Z1.1 F1800.0
G1 X14.53 Y14.92 Z1.1 F1800.0
G1 X14.53 Y14.42 Z1.1 F1800.0
G1 X14.92 Y14.92 Z1.1 F1800.0
G1 X14.92 Y14.42 Z1.1 F1800.0
G1 X15.32 Y14.92 Z1.1 F1800.0
G1 X15.32 Y14.42 Z1.1 F1800.0
G1 X15.71 Y14.92 Z1.1 F1800.0
G1 X15.71 Y14.42 Z1.1 F1800.0
G1 X16.1 Y14.92 Z1.1 F1800.0
G1 X16.1 Y14.42 Z1.1 F1800.0
G1 X16.49 Y14.92 Z1.1 F1800.0
G1 X16.49 Y14.42 Z1.1 F1800.0
G1 X16.89 Y14.92 Z1.1 F1800.0
G1 X16.89 Y14.42 Z1.1 F1800.0
G1 X17.28 Y14.92 Z1.1 F1800.0
G1 X17.28 Y14.42 Z1.1 F1800.0
G1 X18.85 Y14.92 Z1.1 F1800.0
G1 X18.85 Y-13.1 Z1.1 F1800.0
G1 X18.46 Y-13.1 Z1.1 F1800.0
G1 X17.28 Y-12.76 Z1.1 F1800.0
G1 X18.06 Y-14.71 Z1.1 F1800.0
G1 X16.1 Y-14.71 Z1.1 F1800.0
G1 X15.71 Y-13.16 Z1.1 F1800.0
G1 X15.32 Y-12.76 Z1.1 F1800.0
G1 X14.92 Y-13.16 Z1.1 F1800.0
G1 X14.53 Y-13.16 Z1.1 F1800.0
G1 X15.71 Y-14.71 Z1.1 F1800.0
G1 X14.53 Y-14.71 Z1.1 F1800.0
G1 X14.3 Y-14.31 Z1.1 F1800.0
G1 X14.3 Y-14.05 Z1.1 F1800.0
G1 X13.74 Y-13.16 Z1.1 F1800.0
G1 X13.35 Y-12.76 Z1.1 F1800.0
G1 X12.96 Y-13.16 Z1.1 F1800.0
G1 X14.07 Y-14.05 Z1.1 F1800.0
G1 X14.07 Y-14.31 Z1.1 F1800.0
G1 X14.14 Y-14.71 Z1.1 F1800.0
G1 X12.57 Y-14.71 Z1.1 F1800.0
G1 X12.57 Y-13.16 Z1.1 F1800.0
G1 X12.17 Y-12.76 Z1.1 F1800.0
G1 X11.78 Y-13.16 Z1.1 F1800.0
G1 X11.39 Y-12.76 Z1.1 F1800.0
G1 X11.0 Y-13.16 Z1.1 F1800.0
G1 X10.6 Y-13.16 Z1.1 F1800.0
G1 X12.17 Y-14.71 Z1.1 F1800.0
G1 X10.21 Y-14.71 Z1.1 F1800.0
G1 X9.93 Y-14.18 Z1.1 F1800.0
G1 X9.82 Y-13.16 Z1.1 F1800.0
G1 X9.43 Y-12.76 Z1.1 F1800.0
G1 X9.03 Y-13.16 Z1.1 F1800.0
G1 X9.7 Y-14.05 Z1.1 F1800.0
G1 X9.7 Y-14.31 Z1.1 F1800.0
G1 X9.82 Y-14.71 Z1.1 F1800.0
G1 X8.64 Y-14.71 Z1.1 F1800.0
G1 X8.64 Y-13.16 Z1.1 F1800.0
G1 X8.25 Y-12.76 Z1.1 F1800.0
G1 X7.85 Y-13.16 Z1.1 F1800.0
G1 X7.46 Y-12.76 Z1.1 F1800.0
G1 X7.07 Y-13.16 Z1.1 F1800.0
G1 X6.68 Y-13.16 Z1.1 F1800.0
G1 X8.25 Y-14.71 Z1.1 F1800.0
G1 X6.28 Y-14.71 Z1.1 F1800.0
G1 X5.89 Y-13.16 Z1.1 F1800.0
G1 X5.5 Y-12.76 Z1.1 F1800.0
G1 X5.11 Y-13.16 Z1.1 F1800.0
G1 X4.71 Y-13.16 Z1.1 F1800.0
G1 X5.45 Y-14.05 Z1.1 F1800.0
G1 X5.45 Y-14.31 Z1.1 F1800.0
G1 X5.89 Y-14.71 Z1.1 F1800.0
G1 X3.14 Y-14.71 Z1.1 F1800.0
G1 X3.93 Y-13.16 Z1.1 F1800.0
G1 X3.53 Y-12.76 Z1.1 F1800.0
G1 X3.13 Y-12.86 Z1.1 F1800.0
G1 X2.75 Y-12.76 Z1.1 F1800.0
G1 X2.71 Y-12.94 Z1.1 F1800.0
G1 X2.36 Y-12.76 Z1.1 F1800.0
G1 X2.19 Y-13.08 Z1.1 F1800.0
G1 X1.96 Y-12.76 Z1.1 F1800.0
G1 X1.57 Y-13.04 Z1.1 F1800.0
G1 X1.18 Y-13.43 Z1.1 F1800.0
G1 X1.21 Y-14.18 Z1.1 F1800.0
G1 X2.36 Y-14.32 Z1.1 F1800.0
G1 X2.75 Y-14.71 Z1.1 F1800.0
G1 X0.79 Y-14.71 Z1.1 F1800.0
G1 X0.98 Y-14.31 Z1.1 F1800.0
G1 X0.98 Y-14.18 Z1.1 F1800.0
G1 X0.79 Y-13.43 Z1.1 F1800.0
G1 X0.39 Y-13.04 Z1.1 F1800.0
G1 X-0.0 Y-13.43 Z1.1 F1800.0
G1 X-0.39 Y-13.04 Z1.1 F1800.0
G1 X-0.79 Y-13.43 Z1.1 F1800.0
G1 X-1.18 Y-13.43 Z1.1 F1800.0
G1 X0.39 Y-14.71 Z1.1 F1800.0
G1 X-1.57 Y-14.72 Z1.1 F1800.0
G1 X-1.96 Y-13.43 Z1.1 F1800.0
G1 X-2.36 Y-13.04 Z1.1 F1800.0
G1 X-2.75 Y-13.43 Z1.1 F1800.0
G1 X-1.96 Y-14.72 Z1.1 F1800.0
G1 X-3.14 Y-14.72 Z1.1 F1800.0
G1 X-3.27 Y-14.18 Z1.1 F1800.0
G1 X-3.14 Y-13.43 Z1.1 F1800.0
G1 X-3.53 Y-13.04 Z1.1 F1800.0
G1 X-3.93 Y-13.43 Z1.1 F1800.0
G1 X-4.32 Y-13.04 Z1.1 F1800.0
G1 X-4.71 Y-13.43 Z1.1 F1800.0
G1 X-3.53 Y-14.72 Z1.1 F1800.0
G1 X-5.11 Y-14.72 Z1.1 F1800.0
G1 X-5.11 Y-13.43 Z1.1 F1800.0
G1 X-5.5 Y-13.04 Z1.1 F1800.0
G1 X-5.89 Y-13.43 Z1.1 F1800.0
G1 X-6.28 Y-13.04 Z1.1 F1800.0
G1 X-6.68 Y-13.43 Z1.1 F1800.0
G1 X-7.07 Y-13.43 Z1.1 F1800.0
G1 X-5.5 Y-14.72 Z1.1 F1800.0
G1 X-7.46 Y-14.72 Z1.1 F1800.0
G1 X-7.52 Y-14.05 Z1.1 F1800.0
G1 X-7.85 Y-13.43 Z1.1 F1800.0
G1 X-8.25 Y-13.04 Z1.1 F1800.0
G1 X-8.64 Y-13.43 Z1.1 F1800.0
G1 X-7.75 Y-14.05 Z1.1 F1800.0
G1 X-7.75 Y-14.31 Z1.1 F1800.0
G1 X-7.85 Y-14.72 Z1.1 F1800.0
G1 X-9.03 Y-14.72 Z1.1 F1800.0
G1 X-9.03 Y-13.43 Z1.1 F1800.0
G1 X-9.43 Y-13.04 Z1.1 F1800.0
G1 X-9.82 Y-13.43 Z1.1 F1800.0
G1 X-10.21 Y-13.04 Z1.1 F1800.0
G1 X-10.6 Y-13.43 Z1.1 F1800.0
G1 X-11.0 Y-13.43 Z1.1 F1800.0
G1 X-9.43 Y-14.72 Z1.1 F1800.0
G1 X-11.39 Y-14.72 Z1.1 F1800.0
G1 X-11.78 Y-13.43 Z1.1 F1800.0
G1 X-12.17 Y-13.04 Z1.1 F1800.0
G1 X-12.57 Y-13.43 Z1.1 F1800.0
G1 X-12.0 Y-14.05 Z1.1 F1800.0
G1 X-12.0 Y-14.31 Z1.1 F1800.0
G1 X-11.78 Y-14.72 Z1.1 F1800.0
G1 X-12.96 Y-14.72 Z1.1 F1800.0
G1 X-12.96 Y-13.43 Z1.1 F1800.0
G1 X-13.35 Y-13.04 Z1.1 F1800.0
G1 X-13.74 Y-13.43 Z1.1 F1800.0
G1 X-14.14 Y-13.04 Z1.1 F1800.0
G1 X-14.53 Y-13.43 Z1.1 F1800.0
G1 X-13.35 Y-14.72 Z1.1 F1800.0
G1 X-14.92 Y-14.72 Z1.1 F1800.0
G1 X-14.92 Y-13.43 Z1.1 F1800.0
G1 X-15.32 Y-13.04 Z1.1 F1800.0
G1 X-15.71 Y-13.43 Z1.1 F1800.0
G1 X-16.1 Y-13.04 Z1.1 F1800.0
G1 X-16.49 Y-13.43 Z1.1 F1800.0
G1 X-16.25 Y-14.05 Z1.1 F1800.0
G1 X-16.25 Y-14.31 Z1.1 F1800.0
G1 X-16.1 Y-14.72 Z1.1 F1800.0
G1 X-15.77 Y-14.72 Z1.1 F1800.0
M108 R30.0
M102
G1 X-15.32 Y-14.72 Z1.1 F1800.0
M108 R3.569
M103
G1 X-17.38 Y-13.46 Z1.1 F3000.0
M108 R30.0
M101
G1 X-18.06 Y-13.04 Z1.1 F3000.0
M108 R3.569
G1 X-17.67 Y-13.43 Z1.1 F1800.0
G1 X-17.28 Y-13.04 Z1.1 F1800.0
G1 X-16.89 Y-13.43 Z1.1 F1800.0
G1 X-16.48 Y-14.05 Z1.1 F1800.0
G1 X-16.49 Y-14.72 Z1.1 F1800.0
G1 X-18.81 Y-14.72 Z1.1 F1800.0
M108 R30.0
M102
G1 X-19.24 Y-14.72 Z1.1 F1800.0
G1 X-19.24 Y-14.71 Z1.1 F1800.0
M108 R3.569
M103
G1 X-19.24 Y1.85 Z1.1 F3000.0
M108 R30.0
M101
G1 X-19.24 Y2.65 Z1.1 F3000.0
M108 R3.569
G1 X-19.24 Y2.71 Z1.1 F1800.0
G1 X-18.85 Y2.65 Z1.1 F1800.0
G1 X-18.85 Y2.71 Z1.1 F1800.0
G1 X-18.46 Y2.65 Z1.1 F1800.0
G1 X-18.46 Y2.71 Z1.1 F1800.0
G1 X-18.06 Y2.65 Z1.1 F1800.0
G1 X-18.06 Y2.71 Z1.1 F1800.0
G1 X-17.67 Y2.65 Z1.1 F1800.0
G1 X-17.67 Y2.71 Z1.1 F1800.0
G1 X-17.28 Y2.65 Z1.1 F1800.0
G1 X-17.28 Y2.71 Z1.1 F1800.0
G1 X-16.89 Y2.65 Z1.1 F1800.0
G1 X-16.89 Y2.71 Z1.1 F1800.0
G1 X-16.49 Y2.65 Z1.1 F1800.0
G1 X-16.49 Y2.71 Z1.1 F1800.0
G1 X-16.1 Y2.65 Z1.1 F1800.0
G1 X-16.1 Y2.71 Z1.1 F1800.0
G1 X-15.71 Y2.65 Z1.1 F1800.0
G1 X-15.71 Y2.71 Z1.1 F1800.0
G1 X-15.32 Y2.65 Z1.1 F1800.0
G1 X-15.32 Y2.71 Z1.1 F1800.0
G1 X-14.92 Y2.65 Z1.1 F1800.0
G1 X-14.92 Y2.71 Z1.1 F1800.0
G1 X-14.53 Y2.65 Z1.1 F1800.0
G1 X-14.53 Y2.71 Z1.1 F1800.0
G1 X-14.14 Y2.65 Z1.1 F1800.0
G1 X-14.14 Y2.71 Z1.1 F1800.0
G1 X-13.74 Y2.65 Z1.1 F1800.0
G1 X-13.74 Y2.71 Z1.1 F1800.0
G1 X-13.35 Y2.65 Z1.1 F1800.0
G1 X-13.35 Y2.71 Z1.1 F1800.0
G1 X-12.96 Y2.65 Z1.1 F1800.0
G1 X-12.96 Y2.71 Z1.1 F1800.0
G1 X-12.57 Y2.65 Z1.1 F1800.0
G1 X-12.57 Y2.71 Z1.1 F1800.0
G1 X-12.17 Y2.65 Z1.1 F1800.0
G1 X-12.17 Y2.71 Z1.1 F1800.0
G1 X-11.78 Y2.65 Z1.1 F1800.0
G1 X-11.78 Y2.71 Z1.1 F1800.0
G1 X-11.39 Y2.65 Z1.1 F1800.0
G1 X-11.39 Y2.71 Z1.1 F1800.0
G1 X-11.0 Y2.65 Z1.1 F1800.0
G1 X-11.0 Y2.71 Z1.1 F1800.0
G1 X-10.6 Y2.65 Z1.1 F1800.0
G1 X-10.6 Y2.71 Z1.1 F1800.0
G1 X-10.21 Y2.65 Z1.1 F1800.0
G1 X-10.21 Y2.71 Z1.1 F1800.0
G1 X-9.82 Y2.65 Z1.1 F1800.0
G1 X-9.82 Y2.71 Z1.1 F1800.0
G1 X-9.43 Y2.65 Z1.1 F1800.0
G1 X-9.43 Y2.71 Z1.1 F1800.0
G1 X-9.03 Y2.65 Z1.1 F1800.0
G1 X-9.03 Y2.71 Z1.1 F1800.0
G1 X-8.64 Y2.65 Z1.1 F1800.0
G1 X-8.64 Y2.71 Z1.1 F1800.0
G1 X-8.25 Y2.65 Z1.1 F1800.0
G1 X-8.25 Y2.71 Z1.1 F1800.0
G1 X-7.85 Y2.65 Z1.1 F1800.0
G1 X-7.85 Y2.71 Z1.1 F1800.0
G1 X-7.46 Y2.65 Z1.1 F1800.0
G1 X-7.46 Y2.71 Z1.1 F1800.0
G1 X-7.07 Y2.65 Z1.1 F1800.0
G1 X-7.07 Y2.71 Z1.1 F1800.0
G1 X-6.68 Y2.65 Z1.1 F1800.0
G1 X-6.68 Y2.71 Z1.1 F1800.0
G1 X-6.28 Y2.65 Z1.1 F1800.0
G1 X-6.28 Y2.71 Z1.1 F1800.0
G1 X-5.89 Y2.65 Z1.1 F1800.0
G1 X-5.89 Y2.71 Z1.1 F1800.0
G1 X-5.5 Y2.65 Z1.1 F1800.0
G1 X-5.5 Y2.71 Z1.1 F1800.0
G1 X-5.11 Y2.65 Z1.1 F1800.0
G1 X-5.11 Y2.71 Z1.1 F1800.0
G1 X-4.71 Y2.65 Z1.1 F1800.0
G1 X-4.71 Y2.71 Z1.1 F1800.0
G1 X-4.32 Y2.65 Z1.1 F1800.0
G1 X-4.32 Y2.71 Z1.1 F1800.0
G1 X-3.93 Y2.65 Z1.1 F1800.0
G1 X-3.93 Y2.71 Z1.1 F1800.0
G1 X-3.53 Y2.65 Z1.1 F1800.0
G1 X-3.53 Y2.71 Z1.1 F1800.0
G1 X-3.14 Y2.65 Z1.1 F1800.0
G1 X-3.14 Y2.71 Z1.1 F1800.0
G1 X-2.75 Y2.65 Z1.1 F1800.0
G1 X-2.75 Y2.71 Z1.1 F1800.0
G1 X-2.36 Y2.65 Z1.1 F1800.0
G1 X-2.36 Y2.71 Z1.1 F1800.0
G1 X-1.96 Y2.65 Z1.1 F1800.0
G1 X-1.96 Y2.71 Z1.1 F1800.0
G1 X-1.57 Y2.65 Z1.1 F1800.0
G1 X-1.57 Y2.71 Z1.1 F1800.0
G1 X-1.18 Y2.65 Z1.1 F1800.0
G1 X-1.18 Y2.71 Z1.1 F1800.0
G1 X-0.79 Y2.65 Z1.1 F1800.0
G1 X-0.79 Y2.71 Z1.1 F1800.0
G1 X-0.39 Y2.65 Z1.1 F1800.0
G1 X-0.39 Y2.71 Z1.1 F1800.0
G1 X0.0 Y2.65 Z1.1 F1800.0
G1 X0.0 Y2.71 Z1.1 F1800.0
G1 X0.39 Y2.65 Z1.1 F1800.0
G1 X0.39 Y2.71 Z1.1 F1800.0
G1 X0.79 Y2.65 Z1.1 F1800.0
G1 X0.79 Y2.71 Z1.1 F1800.0
G1 X1.18 Y2.65 Z1.1 F1800.0
G1 X1.18 Y2.71 Z1.1 F1800.0
G1 X1.57 Y2.71 Z1.1 F1800.0
G1 X1.57 Y2.65 Z1.1 F1800.0
G1 X1.96 Y2.65 Z1.1 F1800.0
G1 X1.96 Y2.71 Z1.1 F1800.0
G1 X2.36 Y2.65 Z1.1 F1800.0
G1 X2.36 Y2.71 Z1.1 F1800.0
G1 X2.75 Y2.65 Z1.1 F1800.0
G1 X2.75 Y2.71 Z1.1 F1800.0
G1 X3.14 Y2.65 Z1.1 F1800.0
G1 X3.14 Y2.71 Z1.1 F1800.0
G1 X3.53 Y2.65 Z1.1 F1800.0
G1 X3.53 Y2.71 Z1.1 F1800.0
G1 X3.93 Y2.65 Z1.1 F1800.0
G1 X3.93 Y2.71 Z1.1 F1800.0
G1 X4.32 Y2.65 Z1.1 F1800.0
G1 X4.32 Y2.71 Z1.1 F1800.0
G1 X4.71 Y2.65 Z1.1 F1800.0
G1 X4.71 Y2.71 Z1.1 F1800.0
G1 X5.11 Y2.65 Z1.1 F1800.0
G1 X5.11 Y2.71 Z1.1 F1800.0
G1 X5.5 Y2.65 Z1.1 F1800.0
G1 X5.5 Y2.71 Z1.1 F1800.0
G1 X5.89 Y2.65 Z1.1 F1800.0
G1 X5.89 Y2.71 Z1.1 F1800.0
G1 X6.28 Y2.65 Z1.1 F1800.0
G1 X6.28 Y2.71 Z1.1 F1800.0
G1 X6.68 Y2.65 Z1.1 F1800.0
G1 X6.68 Y2.71 Z1.1 F1800.0
G1 X7.07 Y2.65 Z1.1 F1800.0
G1 X7.07 Y2.71 Z1.1 F1800.0
G1 X7.46 Y2.65 Z1.1 F1800.0
G1 X7.46 Y2.71 Z1.1 F1800.0
G1 X7.85 Y2.65 Z1.1 F1800.0
G1 X7.85 Y2.71 Z1.1 F1800.0
G1 X8.25 Y2.65 Z1.1 F1800.0
G1 X8.25 Y2.71 Z1.1 F1800.0
G1 X8.64 Y2.65 Z1.1 F1800.0
G1 X8.64 Y2.71 Z1.1 F1800.0
G1 X9.03 Y2.65 Z1.1 F1800.0
G1 X9.03 Y2.71 Z1.1 F1800.0
G1 X9.43 Y2.65 Z1.1 F1800.0
G1 X9.43 Y2.71 Z1.1 F1800.0
G1 X9.82 Y2.65 Z1.1 F1800.0
G1 X9.82 Y2.71 Z1.1 F1800.0
G1 X10.21 Y2.65 Z1.1 F1800.0
G1 X10.21 Y2.71 Z1.1 F1800.0
G1 X10.6 Y2.65 Z1.1 F1800.0
G1 X10.6 Y2.71 Z1.1 F1800.0
G1 X11.0 Y2.65 Z1.1 F1800.0
G1 X11.0 Y2.71 Z1.1 F1800.0
G1 X11.39 Y2.65 Z1.1 F1800.0
G1 X11.39 Y2.71 Z1.1 F1800.0
G1 X11.78 Y2.65 Z1.1 F1800.0
G1 X11.78 Y2.71 Z1.1 F1800.0
G1 X12.17 Y2.65 Z1.1 F1800.0
G1 X12.17 Y2.71 Z1.1 F1800.0
G1 X12.57 Y2.65 Z1.1 F1800.0
G1 X12.57 Y2.71 Z1.1 F1800.0
G1 X12.96 Y2.65 Z1.1 F1800.0
G1 X12.96 Y2.71 Z1.1 F1800.0
G1 X13.35 Y2.65 Z1.1 F1800.0
G1 X13.35 Y2.71 Z1.1 F1800.0
G1 X13.74 Y2.65 Z1.1 F1800.0
G1 X13.74 Y2.71 Z1.1 F1800.0
G1 X14.14 Y2.65 Z1.1 F1800.0
G1 X14.14 Y2.71 Z1.1 F1800.0
G1 X14.53 Y2.65 Z1.1 F1800.0
G1 X14.53 Y2.71 Z1.1 F1800.0
G1 X14.92 Y2.65 Z1.1 F1800.0
G1 X14.92 Y2.71 Z1.1 F1800.0
G1 X15.32 Y2.65 Z1.1 F1800.0
G1 X15.32 Y2.71 Z1.1 F1800.0
G1 X15.71 Y2.65 Z1.1 F1800.0
G1 X15.71 Y2.71 Z1.1 F1800.0
G1 X16.1 Y2.65 Z1.1 F1800.0
G1 X16.1 Y2.71 Z1.1 F1800.0
G1 X16.49 Y2.65 Z1.1 F1800.0
G1 X16.49 Y2.71 Z1.1 F1800.0
G1 X16.89 Y2.65 Z1.1 F1800.0
G1 X16.89 Y2.71 Z1.1 F1800.0
G1 X17.28 Y2.71 Z1.1 F1800.0
G1 X17.28 Y2.65 Z1.1 F1800.0
M103
(</surroundingLoop>)
(</layer>)
(<layer> 1.42 )
(<surroundingLoop>)
(<boundaryPerimeter>)
(<boundaryPoint> X0.828 Y15.768 Z1.42 </boundaryPoint>)
(<boundaryPoint> X0.828 Y3.555 Z1.42 </boundaryPoint>)
(<boundaryPoint> X-20.135 Y3.555 Z1.42 </boundaryPoint>)
(<boundaryPoint> X-20.135 Y-13.945 Z1.42 </boundaryPoint>)
(<boundaryPoint> X-19.438 Y-13.945 Z1.42 </boundaryPoint>)
(<boundaryPoint> X-19.405 Y-13.963 Z1.42 </boundaryPoint>)
(<boundaryPoint> X-19.405 Y-13.927 Z1.42 </boundaryPoint>)
(<boundaryPoint> X-20.142 Y-13.945 Z1.42 </boundaryPoint>)
(<boundaryPoint> X-20.15 Y-15.313 Z1.42 </boundaryPoint>)
(<boundaryPoint> X19.013 Y-15.314 Z1.42 </boundaryPoint>)
(<boundaryPoint> X19.013 Y-13.945 Z1.42 </boundaryPoint>)
(<boundaryPoint> X19.697 Y-13.945 Z1.42 </boundaryPoint>)
(<boundaryPoint> X19.697 Y15.768 Z1.42 </boundaryPoint>)
(<loop> inner )
G1 X17.15 Y2.39 Z1.42 F3000.0
M101
G1 X17.17 Y2.39 Z1.42 F1800.0
G1 X17.17 Y-12.51 Z1.42 F1800.0
G1 X1.99 Y-12.51 Z1.42 F1800.0
G1 X1.99 Y2.39 Z1.42 F1800.0
G1 X17.15 Y2.39 Z1.42 F1800.0
M103
(</loop>)
(<loop> inner )
G1 X17.17 Y2.97 Z1.42 F3000.0
M101
G1 X1.99 Y2.97 Z1.42 F1800.0
G1 X1.99 Y14.16 Z1.42 F1800.0
G1 X17.17 Y14.16 Z1.42 F1800.0
G1 X17.17 Y3.42 Z1.42 F1800.0
M108 R30.0
M102
G1 X17.17 Y2.97 Z1.42 F1800.0
M108 R3.569
M103
(</loop>)
(<loop> inner )
G1 X2.22 Y2.42 Z1.42 F3000.0
M108 R30.0
M101
G1 X1.42 Y2.39 Z1.42 F3000.0
M108 R3.569
G1 X1.42 Y-12.78 Z1.42 F1800.0
G1 X-19.04 Y-12.78 Z1.42 F1800.0
G1 X-19.04 Y2.39 Z1.42 F1800.0
G1 X1.42 Y2.39 Z1.42 F1800.0
M103
(</loop>)
(<loop> outer )
G1 X1.42 Y2.97 Z1.42 F3000.0
M101
G1 X-19.55 Y2.97 Z1.42 F1800.0
G1 X-19.55 Y-12.74 Z1.42 F1800.0
G1 X-19.48 Y-13.36 Z1.42 F1800.0
G1 X-18.91 Y-13.37 Z1.42 F1800.0
G1 X-18.91 Y-14.07 Z1.42 F1800.0
G1 X-18.68 Y-14.73 Z1.42 F1800.0
G1 X18.42 Y-14.73 Z1.42 F1800.0
G1 X18.42 Y-13.36 Z1.42 F1800.0
G1 X19.11 Y-13.36 Z1.42 F1800.0
G1 X19.11 Y15.18 Z1.42 F1800.0
G1 X1.42 Y15.18 Z1.42 F1800.0
G1 X1.42 Y2.97 Z1.42 F1800.0
M103
(</loop>)
(<perimeter> outer )
G1 X1.02 Y3.36 Z1.42 F3000.0
M101
G1 X-19.94 Y3.36 Z1.42 F1800.0
G1 X-19.94 Y-13.75 Z1.42 F1800.0
G1 X-19.39 Y-13.75 Z1.42 F1800.0
G1 X-19.21 Y-13.85 Z1.42 F1800.0
G1 X-19.21 Y-14.04 Z1.42 F1800.0
G1 X-19.39 Y-14.14 Z1.42 F1800.0
G1 X-19.95 Y-14.14 Z1.42 F1800.0
G1 X-19.95 Y-15.12 Z1.42 F1800.0
G1 X18.82 Y-15.12 Z1.42 F1800.0
G1 X18.82 Y-13.75 Z1.42 F1800.0
G1 X19.5 Y-13.75 Z1.42 F1800.0
G1 X19.5 Y15.57 Z1.42 F1800.0
G1 X1.02 Y15.57 Z1.42 F1800.0
G1 X1.02 Y3.81 Z1.42 F1800.0
M108 R30.0
M102
G1 X1.02 Y3.36 Z1.42 F1800.0
M108 R3.569
M103
(</perimeter>)
(</boundaryPerimeter>)
(<surroundingLoop>)
(<boundaryPerimeter>)
(<boundaryPoint> X16.578 Y3.555 Z1.42 </boundaryPoint>)
(<boundaryPoint> X2.578 Y3.555 Z1.42 </boundaryPoint>)
(<boundaryPoint> X2.578 Y13.572 Z1.42 </boundaryPoint>)
(<boundaryPoint> X16.578 Y13.572 Z1.42 </boundaryPoint>)
(<perimeter> inner )
G1 X1.58 Y3.36 Z1.42 F3000.0
M108 R30.0
M101
G1 X2.38 Y3.36 Z1.42 F3000.0
M108 R3.569
G1 X2.38 Y13.77 Z1.42 F1800.0
G1 X16.77 Y13.77 Z1.42 F1800.0
G1 X16.77 Y3.36 Z1.42 F1800.0
G1 X2.83 Y3.36 Z1.42 F1800.0
M108 R30.0
M102
G1 X2.38 Y3.36 Z1.42 F1800.0
M108 R3.569
M103
(</perimeter>)
(</boundaryPerimeter>)
(</surroundingLoop>)
(<surroundingLoop>)
(<boundaryPerimeter>)
(<boundaryPoint> X16.578 Y1.805 Z1.42 </boundaryPoint>)
(<boundaryPoint> X16.578 Y-11.918 Z1.42 </boundaryPoint>)
(<boundaryPoint> X2.578 Y-11.918 Z1.42 </boundaryPoint>)
(<boundaryPoint> X2.578 Y1.805 Z1.42 </boundaryPoint>)
(<perimeter> inner )
G1 X2.38 Y2.8 Z1.42 F3000.0
M108 R30.0
M101
G1 X2.38 Y2.0 Z1.42 F3000.0
M108 R3.569
G1 X16.77 Y2.0 Z1.42 F1800.0
G1 X16.77 Y-12.12 Z1.42 F1800.0
G1 X2.38 Y-12.12 Z1.42 F1800.0
G1 X2.38 Y1.55 Z1.42 F1800.0
M108 R30.0
M102
G1 X2.38 Y2.0 Z1.42 F1800.0
M108 R3.569
M103
(</perimeter>)
(</boundaryPerimeter>)
(</surroundingLoop>)
(<surroundingLoop>)
(<boundaryPerimeter>)
(<boundaryPoint> X0.828 Y1.805 Z1.42 </boundaryPoint>)
(<boundaryPoint> X0.828 Y-12.195 Z1.42 </boundaryPoint>)
(<boundaryPoint> X-18.446 Y-12.195 Z1.42 </boundaryPoint>)
(<boundaryPoint> X-18.446 Y1.805 Z1.42 </boundaryPoint>)
(<perimeter> inner )
G1 X1.83 Y2.0 Z1.42 F3000.0
M108 R30.0
M101
G1 X1.02 Y2.0 Z1.42 F3000.0
M108 R3.569
G1 X1.02 Y-12.39 Z1.42 F1800.0
G1 X-18.64 Y-12.39 Z1.42 F1800.0
G1 X-18.64 Y2.0 Z1.42 F1800.0
G1 X0.57 Y2.0 Z1.42 F1800.0
M108 R30.0
M102
G1 X1.02 Y2.0 Z1.42 F1800.0
M108 R3.569
M103
(</perimeter>)
(</boundaryPerimeter>)
(</surroundingLoop>)
G1 X2.3 Y0.7 Z1.42 F3000.0
G1 X2.44 Y-12.06 Z1.42 F3000.0
G1 X16.72 Y-12.06 Z1.42 F3000.0
G1 X16.85 Y-11.05 Z1.42 F3000.0
G1 X18.27 Y-12.41 Z1.42 F3000.0
M108 R30.0
M101
G1 X18.85 Y-12.96 Z1.42 F3000.0
M108 R3.569
G1 X1.67 Y-12.96 Z1.42 F1800.0
G1 X1.67 Y-12.57 Z1.42 F1800.0
G1 X1.73 Y-12.57 Z1.42 F1800.0
G1 X1.73 Y-12.17 Z1.42 F1800.0
G1 X1.67 Y-12.17 Z1.42 F1800.0
G1 X1.67 Y-11.78 Z1.42 F1800.0
G1 X1.73 Y-11.78 Z1.42 F1800.0
G1 X1.73 Y-11.39 Z1.42 F1800.0
G1 X1.67 Y-11.39 Z1.42 F1800.0
G1 X1.67 Y-11.0 Z1.42 F1800.0
G1 X1.73 Y-11.0 Z1.42 F1800.0
G1 X1.73 Y-10.6 Z1.42 F1800.0
G1 X1.67 Y-10.6 Z1.42 F1800.0
G1 X1.67 Y-10.21 Z1.42 F1800.0
G1 X1.73 Y-10.21 Z1.42 F1800.0
G1 X1.73 Y-9.82 Z1.42 F1800.0
G1 X1.67 Y-9.82 Z1.42 F1800.0
G1 X1.67 Y-9.43 Z1.42 F1800.0
G1 X1.73 Y-9.43 Z1.42 F1800.0
G1 X1.73 Y-9.03 Z1.42 F1800.0
G1 X1.67 Y-9.03 Z1.42 F1800.0
G1 X1.67 Y-8.64 Z1.42 F1800.0
G1 X1.73 Y-8.64 Z1.42 F1800.0
G1 X1.73 Y-8.25 Z1.42 F1800.0
G1 X1.67 Y-8.25 Z1.42 F1800.0
G1 X1.67 Y-7.85 Z1.42 F1800.0
G1 X1.73 Y-7.85 Z1.42 F1800.0
G1 X1.73 Y-7.46 Z1.42 F1800.0
G1 X1.67 Y-7.46 Z1.42 F1800.0
G1 X1.67 Y-7.07 Z1.42 F1800.0
G1 X1.73 Y-7.07 Z1.42 F1800.0
G1 X1.73 Y-6.68 Z1.42 F1800.0
G1 X1.67 Y-6.68 Z1.42 F1800.0
G1 X1.67 Y-6.28 Z1.42 F1800.0
G1 X1.73 Y-6.28 Z1.42 F1800.0
G1 X1.73 Y-5.89 Z1.42 F1800.0
G1 X1.67 Y-5.89 Z1.42 F1800.0
G1 X1.67 Y-5.5 Z1.42 F1800.0
G1 X1.73 Y-5.5 Z1.42 F1800.0
G1 X1.73 Y-5.11 Z1.42 F1800.0
G1 X1.67 Y-5.11 Z1.42 F1800.0
G1 X1.67 Y-4.71 Z1.42 F1800.0
G1 X1.73 Y-4.71 Z1.42 F1800.0
G1 X1.73 Y-4.32 Z1.42 F1800.0
G1 X1.67 Y-4.32 Z1.42 F1800.0
G1 X1.67 Y-3.93 Z1.42 F1800.0
G1 X1.73 Y-3.93 Z1.42 F1800.0
G1 X1.73 Y-3.53 Z1.42 F1800.0
G1 X1.67 Y-3.53 Z1.42 F1800.0
G1 X1.67 Y-3.14 Z1.42 F1800.0
G1 X1.73 Y-3.14 Z1.42 F1800.0
G1 X1.73 Y-2.75 Z1.42 F1800.0
G1 X1.67 Y-2.75 Z1.42 F1800.0
G1 X1.67 Y-2.36 Z1.42 F1800.0
G1 X1.73 Y-2.36 Z1.42 F1800.0
G1 X1.73 Y-1.96 Z1.42 F1800.0
G1 X1.67 Y-1.96 Z1.42 F1800.0
G1 X1.67 Y-1.57 Z1.42 F1800.0
G1 X1.73 Y-1.57 Z1.42 F1800.0
G1 X1.73 Y-1.18 Z1.42 F1800.0
G1 X1.67 Y-1.18 Z1.42 F1800.0
G1 X1.67 Y-0.79 Z1.42 F1800.0
G1 X1.73 Y-0.79 Z1.42 F1800.0
G1 X1.73 Y-0.39 Z1.42 F1800.0
G1 X1.67 Y-0.39 Z1.42 F1800.0
G1 X1.67 Y-0.0 Z1.42 F1800.0
G1 X1.73 Y-0.0 Z1.42 F1800.0
G1 X1.73 Y0.39 Z1.42 F1800.0
G1 X1.67 Y0.39 Z1.42 F1800.0
G1 X1.67 Y0.79 Z1.42 F1800.0
G1 X1.73 Y0.79 Z1.42 F1800.0
G1 X1.73 Y1.18 Z1.42 F1800.0
G1 X1.67 Y1.18 Z1.42 F1800.0
G1 X1.67 Y1.57 Z1.42 F1800.0
G1 X1.73 Y1.57 Z1.42 F1800.0
G1 X1.73 Y1.96 Z1.42 F1800.0
G1 X1.67 Y1.96 Z1.42 F1800.0
G1 X1.67 Y2.36 Z1.42 F1800.0
G1 X1.73 Y2.36 Z1.42 F1800.0
G1 X1.73 Y2.75 Z1.42 F1800.0
G1 X1.67 Y2.75 Z1.42 F1800.0
G1 X1.67 Y3.14 Z1.42 F1800.0
G1 X1.73 Y3.14 Z1.42 F1800.0
G1 X1.73 Y3.53 Z1.42 F1800.0
G1 X1.67 Y3.53 Z1.42 F1800.0
G1 X1.67 Y3.93 Z1.42 F1800.0
G1 X1.73 Y3.93 Z1.42 F1800.0
G1 X1.73 Y4.32 Z1.42 F1800.0
G1 X1.67 Y4.32 Z1.42 F1800.0
G1 X1.67 Y4.71 Z1.42 F1800.0
G1 X1.73 Y4.71 Z1.42 F1800.0
G1 X1.73 Y5.11 Z1.42 F1800.0
G1 X1.67 Y5.11 Z1.42 F1800.0
G1 X1.67 Y5.5 Z1.42 F1800.0
G1 X1.73 Y5.5 Z1.42 F1800.0
G1 X1.73 Y5.89 Z1.42 F1800.0
G1 X1.67 Y5.89 Z1.42 F1800.0
G1 X1.67 Y6.28 Z1.42 F1800.0
G1 X1.73 Y6.28 Z1.42 F1800.0
G1 X1.73 Y6.68 Z1.42 F1800.0
G1 X1.67 Y6.68 Z1.42 F1800.0
G1 X1.67 Y7.07 Z1.42 F1800.0
G1 X1.73 Y7.07 Z1.42 F1800.0
G1 X1.73 Y7.46 Z1.42 F1800.0
G1 X1.67 Y7.46 Z1.42 F1800.0
G1 X1.67 Y7.85 Z1.42 F1800.0
G1 X1.73 Y7.85 Z1.42 F1800.0
G1 X1.73 Y8.25 Z1.42 F1800.0
G1 X1.67 Y8.25 Z1.42 F1800.0
G1 X1.67 Y8.64 Z1.42 F1800.0
G1 X1.73 Y8.64 Z1.42 F1800.0
G1 X1.73 Y9.03 Z1.42 F1800.0
G1 X1.67 Y9.03 Z1.42 F1800.0
G1 X1.67 Y9.43 Z1.42 F1800.0
G1 X1.73 Y9.43 Z1.42 F1800.0
G1 X1.73 Y9.82 Z1.42 F1800.0
G1 X1.67 Y9.82 Z1.42 F1800.0
G1 X1.67 Y10.21 Z1.42 F1800.0
G1 X1.73 Y10.21 Z1.42 F1800.0
G1 X1.73 Y10.6 Z1.42 F1800.0
G1 X1.67 Y10.6 Z1.42 F1800.0
G1 X1.67 Y11.0 Z1.42 F1800.0
G1 X1.73 Y11.0 Z1.42 F1800.0
G1 X1.73 Y11.39 Z1.42 F1800.0
G1 X1.67 Y11.39 Z1.42 F1800.0
G1 X1.67 Y11.78 Z1.42 F1800.0
G1 X1.73 Y11.78 Z1.42 F1800.0
G1 X1.73 Y12.17 Z1.42 F1800.0
G1 X1.67 Y12.17 Z1.42 F1800.0
G1 X1.67 Y12.57 Z1.42 F1800.0
G1 X1.73 Y12.57 Z1.42 F1800.0
G1 X1.73 Y12.96 Z1.42 F1800.0
G1 X1.67 Y12.96 Z1.42 F1800.0
G1 X1.67 Y13.35 Z1.42 F1800.0
G1 X1.73 Y13.35 Z1.42 F1800.0
G1 X1.73 Y13.74 Z1.42 F1800.0
G1 X1.67 Y13.74 Z1.42 F1800.0
G1 X1.67 Y13.75 Z1.42 F1800.0
M108 R30.0
M102
G1 X1.67 Y14.14 Z1.42 F1800.0
G1 X1.73 Y14.14 Z1.42 F1800.0
M108 R3.569
M103
G1 X18.05 Y14.14 Z1.42 F3000.0
M108 R30.0
M101
G1 X18.85 Y14.14 Z1.42 F3000.0
M108 R3.569
G1 X17.42 Y14.14 Z1.42 F1800.0
G1 X17.42 Y13.74 Z1.42 F1800.0
G1 X18.85 Y13.74 Z1.42 F1800.0
M103
G1 X18.85 Y13.35 Z1.42 F3000.0
M101
G1 X17.42 Y13.35 Z1.42 F1800.0
G1 X17.42 Y12.96 Z1.42 F1800.0
G1 X18.85 Y12.96 Z1.42 F1800.0
M103
G1 X18.85 Y12.57 Z1.42 F3000.0
M101
G1 X17.42 Y12.57 Z1.42 F1800.0
G1 X17.42 Y12.17 Z1.42 F1800.0
G1 X18.85 Y12.17 Z1.42 F1800.0
M103
G1 X18.85 Y11.78 Z1.42 F3000.0
M101
G1 X17.42 Y11.78 Z1.42 F1800.0
G1 X17.42 Y11.39 Z1.42 F1800.0
G1 X18.85 Y11.39 Z1.42 F1800.0
M103
G1 X18.85 Y11.0 Z1.42 F3000.0
M101
G1 X17.42 Y11.0 Z1.42 F1800.0
G1 X17.42 Y10.6 Z1.42 F1800.0
G1 X18.85 Y10.6 Z1.42 F1800.0
M103
G1 X18.85 Y10.21 Z1.42 F3000.0
M101
G1 X17.42 Y10.21 Z1.42 F1800.0
G1 X17.42 Y9.82 Z1.42 F1800.0
G1 X18.85 Y9.82 Z1.42 F1800.0
M103
G1 X18.85 Y9.43 Z1.42 F3000.0
M101
G1 X17.42 Y9.43 Z1.42 F1800.0
G1 X17.42 Y9.03 Z1.42 F1800.0
G1 X18.85 Y9.03 Z1.42 F1800.0
M103
G1 X18.85 Y8.64 Z1.42 F3000.0
M101
G1 X17.42 Y8.64 Z1.42 F1800.0
G1 X17.42 Y8.25 Z1.42 F1800.0
G1 X18.85 Y8.25 Z1.42 F1800.0
M103
G1 X18.85 Y7.85 Z1.42 F3000.0
M101
G1 X17.42 Y7.85 Z1.42 F1800.0
G1 X17.42 Y7.46 Z1.42 F1800.0
G1 X18.85 Y7.46 Z1.42 F1800.0
M103
G1 X18.85 Y7.07 Z1.42 F3000.0
M101
G1 X17.42 Y7.07 Z1.42 F1800.0
G1 X17.42 Y6.68 Z1.42 F1800.0
G1 X18.85 Y6.68 Z1.42 F1800.0
M103
G1 X18.85 Y6.28 Z1.42 F3000.0
M101
G1 X17.42 Y6.28 Z1.42 F1800.0
G1 X17.42 Y5.89 Z1.42 F1800.0
G1 X18.85 Y5.89 Z1.42 F1800.0
M103
G1 X18.85 Y5.5 Z1.42 F3000.0
M101
G1 X17.42 Y5.5 Z1.42 F1800.0
G1 X17.42 Y5.11 Z1.42 F1800.0
G1 X18.85 Y5.11 Z1.42 F1800.0
M103
G1 X18.85 Y4.71 Z1.42 F3000.0
M101
G1 X17.42 Y4.71 Z1.42 F1800.0
G1 X17.42 Y4.32 Z1.42 F1800.0
G1 X18.85 Y4.32 Z1.42 F1800.0
M103
G1 X18.85 Y3.93 Z1.42 F3000.0
M101
G1 X17.42 Y3.93 Z1.42 F1800.0
G1 X17.42 Y3.53 Z1.42 F1800.0
G1 X18.85 Y3.53 Z1.42 F1800.0
M103
G1 X18.85 Y3.14 Z1.42 F3000.0
M101
G1 X17.42 Y3.14 Z1.42 F1800.0
G1 X17.42 Y2.75 Z1.42 F1800.0
G1 X18.85 Y2.75 Z1.42 F1800.0
M103
G1 X18.85 Y2.36 Z1.42 F3000.0
M101
G1 X17.42 Y2.36 Z1.42 F1800.0
G1 X17.42 Y1.96 Z1.42 F1800.0
G1 X18.85 Y1.96 Z1.42 F1800.0
M103
G1 X18.85 Y1.57 Z1.42 F3000.0
M101
G1 X17.42 Y1.57 Z1.42 F1800.0
G1 X17.42 Y1.18 Z1.42 F1800.0
G1 X18.85 Y1.18 Z1.42 F1800.0
M103
G1 X18.85 Y0.79 Z1.42 F3000.0
M101
G1 X17.42 Y0.79 Z1.42 F1800.0
G1 X17.42 Y0.39 Z1.42 F1800.0
G1 X18.85 Y0.39 Z1.42 F1800.0
M103
G1 X18.85 Y-0.0 Z1.42 F3000.0
M101
G1 X17.42 Y-0.0 Z1.42 F1800.0
G1 X17.42 Y-0.39 Z1.42 F1800.0
G1 X18.85 Y-0.39 Z1.42 F1800.0
M103
G1 X18.85 Y-0.79 Z1.42 F3000.0
M101
G1 X17.42 Y-0.79 Z1.42 F1800.0
G1 X17.42 Y-1.18 Z1.42 F1800.0
G1 X18.85 Y-1.18 Z1.42 F1800.0
G1 X18.46 Y-1.57 Z1.42 F1800.0
G1 X17.42 Y-1.57 Z1.42 F1800.0
G1 X17.42 Y-2.75 Z1.42 F1800.0
G1 X18.85 Y-2.75 Z1.42 F1800.0
M103
G1 X18.85 Y-3.14 Z1.42 F3000.0
M101
G1 X17.42 Y-3.14 Z1.42 F1800.0
G1 X17.42 Y-3.53 Z1.42 F1800.0
G1 X18.85 Y-3.53 Z1.42 F1800.0
M103
G1 X18.85 Y-3.93 Z1.42 F3000.0
M101
G1 X17.42 Y-3.93 Z1.42 F1800.0
G1 X17.42 Y-4.32 Z1.42 F1800.0
G1 X18.85 Y-4.32 Z1.42 F1800.0
M103
G1 X18.85 Y-4.71 Z1.42 F3000.0
M101
G1 X17.42 Y-4.71 Z1.42 F1800.0
G1 X17.42 Y-6.28 Z1.42 F1800.0
G1 X18.85 Y-6.28 Z1.42 F1800.0
M103
G1 X18.85 Y-6.68 Z1.42 F3000.0
M101
G1 X17.42 Y-6.68 Z1.42 F1800.0
G1 X17.42 Y-7.85 Z1.42 F1800.0
G1 X18.85 Y-7.07 Z1.42 F1800.0
G1 X18.46 Y-7.46 Z1.42 F1800.0
G1 X18.46 Y-7.85 Z1.42 F1800.0
G1 X17.82 Y-8.25 Z1.42 F1800.0
G1 X17.42 Y-8.64 Z1.42 F1800.0
G1 X18.85 Y-8.64 Z1.42 F1800.0
M103
G1 X18.85 Y-9.03 Z1.42 F3000.0
M101
G1 X17.42 Y-9.03 Z1.42 F1800.0
G1 X17.42 Y-9.43 Z1.42 F1800.0
G1 X18.85 Y-9.43 Z1.42 F1800.0
M103
G1 X18.85 Y-9.82 Z1.42 F3000.0
M101
G1 X17.42 Y-9.82 Z1.42 F1800.0
G1 X17.42 Y-10.21 Z1.42 F1800.0
G1 X18.85 Y-10.21 Z1.42 F1800.0
M103
G1 X18.85 Y-10.6 Z1.42 F3000.0
M101
G1 X17.42 Y-10.6 Z1.42 F1800.0
G1 X17.42 Y-11.0 Z1.42 F1800.0
G1 X18.85 Y-11.0 Z1.42 F1800.0
M103
G1 X18.85 Y-11.39 Z1.42 F3000.0
M101
G1 X17.42 Y-11.39 Z1.42 F1800.0
G1 X17.42 Y-11.78 Z1.42 F1800.0
G1 X18.85 Y-11.78 Z1.42 F1800.0
M103
G1 X18.85 Y-12.17 Z1.42 F3000.0
M101
G1 X17.42 Y-12.17 Z1.42 F1800.0
G1 X17.42 Y-12.57 Z1.42 F1800.0
G1 X18.4 Y-12.57 Z1.42 F1800.0
M108 R30.0
M102
G1 X18.85 Y-12.57 Z1.42 F1800.0
M108 R3.569
M103
G1 X18.49 Y-13.4 Z1.42 F3000.0
M108 R30.0
M101
G1 X18.17 Y-14.14 Z1.42 F3000.0
M108 R3.569
G1 X-18.56 Y-14.14 Z1.42 F1800.0
M108 R30.0
M102
G1 X-18.62 Y-14.14 Z1.42 F1800.0
G1 X-18.66 Y-13.74 Z1.42 F1800.0
M108 R3.569
M103
G1 X-16.63 Y-12.47 Z1.42 F3000.0
G1 X0.97 Y-12.33 Z1.42 F3000.0
G1 X1.1 Y1.15 Z1.42 F3000.0
G1 X3.98 Y3.28 Z1.42 F3000.0
G1 X16.72 Y3.42 Z1.42 F3000.0
G1 X16.85 Y13.19 Z1.42 F3000.0
G1 X18.25 Y14.4 Z1.42 F3000.0
M108 R30.0
M101
G1 X18.85 Y14.92 Z1.42 F3000.0
M108 R3.569
G1 X1.67 Y14.92 Z1.42 F1800.0
G1 X1.67 Y14.53 Z1.42 F1800.0
G1 X18.4 Y14.53 Z1.42 F1800.0
M108 R30.0
M102
G1 X18.85 Y14.53 Z1.42 F1800.0
M108 R3.569
M103
(</surroundingLoop>)
(</layer>)
(<layer> 1.74 )
(<surroundingLoop>)
(<boundaryPerimeter>)
(<boundaryPoint> X0.828 Y15.768 Z1.74 </boundaryPoint>)
(<boundaryPoint> X0.828 Y3.555 Z1.74 </boundaryPoint>)
(<boundaryPoint> X-20.135 Y3.555 Z1.74 </boundaryPoint>)
(<boundaryPoint> X-20.135 Y-13.945 Z1.74 </boundaryPoint>)
(<boundaryPoint> X-19.118 Y-13.945 Z1.74 </boundaryPoint>)
(<boundaryPoint> X-19.085 Y-13.963 Z1.74 </boundaryPoint>)
(<boundaryPoint> X-19.085 Y-13.927 Z1.74 </boundaryPoint>)
(<boundaryPoint> X-20.141 Y-13.945 Z1.74 </boundaryPoint>)
(<boundaryPoint> X-20.15 Y-14.992 Z1.74 </boundaryPoint>)
(<boundaryPoint> X19.013 Y-14.994 Z1.74 </boundaryPoint>)
(<boundaryPoint> X19.013 Y-13.945 Z1.74 </boundaryPoint>)
(<boundaryPoint> X19.006 Y-13.945 Z1.74 </boundaryPoint>)
(<boundaryPoint> X19.391 Y-13.937 Z1.74 </boundaryPoint>)
(<boundaryPoint> X19.377 Y15.768 Z1.74 </boundaryPoint>)
(<loop> inner )
G1 X16.85 Y12.98 Z1.74 F3000.0
G1 X16.72 Y3.42 Z1.74 F3000.0
G1 X2.79 Y3.28 Z1.74 F3000.0
G1 X1.8 Y2.76 Z1.74 F3000.0
M108 R30.0
M101
G1 X1.1 Y2.39 Z1.74 F3000.0
M108 R3.569
G1 X1.42 Y2.39 Z1.74 F1800.0
G1 X1.42 Y-12.78 Z1.74 F1800.0
G1 X-19.04 Y-12.78 Z1.74 F1800.0
G1 X-19.04 Y2.39 Z1.74 F1800.0
G1 X1.1 Y2.39 Z1.74 F1800.0
M103
(</loop>)
(<loop> inner )
G1 X1.99 Y2.39 Z1.74 F3000.0
M101
G1 X17.17 Y2.39 Z1.74 F1800.0
G1 X17.17 Y-12.51 Z1.74 F1800.0
G1 X1.99 Y-12.51 Z1.74 F1800.0
G1 X1.99 Y2.39 Z1.74 F1800.0
M103
(</loop>)
(<loop> inner )
G1 X1.99 Y2.97 Z1.74 F3000.0
M101
G1 X1.99 Y14.16 Z1.74 F1800.0
G1 X17.17 Y14.16 Z1.74 F1800.0
G1 X17.17 Y2.97 Z1.74 F1800.0
G1 X1.99 Y2.97 Z1.74 F1800.0
M103
(</loop>)
(<loop> outer )
G1 X1.42 Y2.97 Z1.74 F3000.0
M101
G1 X-19.55 Y2.97 Z1.74 F1800.0
G1 X-19.55 Y-13.36 Z1.74 F1800.0
G1 X-18.59 Y-13.36 Z1.74 F1800.0
G1 X-18.58 Y-14.4 Z1.74 F1800.0
G1 X18.42 Y-14.41 Z1.74 F1800.0
G1 X18.42 Y-13.68 Z1.74 F1800.0
G1 X18.8 Y-12.68 Z1.74 F1800.0
G1 X18.79 Y15.18 Z1.74 F1800.0
G1 X1.42 Y15.18 Z1.74 F1800.0
G1 X1.42 Y2.97 Z1.74 F1800.0
M103
(</loop>)
(<perimeter> outer )
G1 X1.02 Y3.36 Z1.74 F3000.0
M101
G1 X-19.94 Y3.36 Z1.74 F1800.0
G1 X-19.94 Y-13.75 Z1.74 F1800.0
G1 X-19.07 Y-13.75 Z1.74 F1800.0
G1 X-18.89 Y-13.85 Z1.74 F1800.0
G1 X-18.89 Y-14.04 Z1.74 F1800.0
G1 X-19.07 Y-14.14 Z1.74 F1800.0
G1 X-19.95 Y-14.14 Z1.74 F1800.0
G1 X-19.95 Y-14.8 Z1.74 F1800.0
G1 X18.82 Y-14.8 Z1.74 F1800.0
G1 X18.82 Y-13.75 Z1.74 F1800.0
G1 X19.2 Y-13.75 Z1.74 F1800.0
G1 X19.18 Y15.57 Z1.74 F1800.0
G1 X1.02 Y15.57 Z1.74 F1800.0
G1 X1.02 Y3.81 Z1.74 F1800.0
M108 R30.0
M102
G1 X1.02 Y3.36 Z1.74 F1800.0
M108 R3.569
M103
(</perimeter>)
(</boundaryPerimeter>)
(<surroundingLoop>)
(<boundaryPerimeter>)
(<boundaryPoint> X16.578 Y3.555 Z1.74 </boundaryPoint>)
(<boundaryPoint> X2.578 Y3.555 Z1.74 </boundaryPoint>)
(<boundaryPoint> X2.578 Y13.572 Z1.74 </boundaryPoint>)
(<boundaryPoint> X16.578 Y13.572 Z1.74 </boundaryPoint>)
(<perimeter> inner )
G1 X1.58 Y3.36 Z1.74 F3000.0
M108 R30.0
M101
G1 X2.38 Y3.36 Z1.74 F3000.0
M108 R3.569
G1 X2.38 Y13.77 Z1.74 F1800.0
G1 X16.77 Y13.77 Z1.74 F1800.0
G1 X16.77 Y3.36 Z1.74 F1800.0
G1 X2.83 Y3.36 Z1.74 F1800.0
M108 R30.0
M102
G1 X2.38 Y3.36 Z1.74 F1800.0
M108 R3.569
M103
(</perimeter>)
(</boundaryPerimeter>)
(</surroundingLoop>)
(<surroundingLoop>)
(<boundaryPerimeter>)
(<boundaryPoint> X16.578 Y1.805 Z1.74 </boundaryPoint>)
(<boundaryPoint> X16.578 Y-11.918 Z1.74 </boundaryPoint>)
(<boundaryPoint> X2.578 Y-11.918 Z1.74 </boundaryPoint>)
(<boundaryPoint> X2.578 Y1.805 Z1.74 </boundaryPoint>)
(<perimeter> inner )
G1 X2.38 Y2.8 Z1.74 F3000.0
M108 R30.0
M101
G1 X2.38 Y2.0 Z1.74 F3000.0
M108 R3.569
G1 X16.77 Y2.0 Z1.74 F1800.0
G1 X16.77 Y-12.12 Z1.74 F1800.0
G1 X2.38 Y-12.12 Z1.74 F1800.0
G1 X2.38 Y1.55 Z1.74 F1800.0
M108 R30.0
M102
G1 X2.38 Y2.0 Z1.74 F1800.0
M108 R3.569
M103
(</perimeter>)
(</boundaryPerimeter>)
(</surroundingLoop>)
(<surroundingLoop>)
(<boundaryPerimeter>)
(<boundaryPoint> X0.828 Y1.805 Z1.74 </boundaryPoint>)
(<boundaryPoint> X0.828 Y-12.195 Z1.74 </boundaryPoint>)
(<boundaryPoint> X-18.446 Y-12.195 Z1.74 </boundaryPoint>)
(<boundaryPoint> X-18.446 Y1.805 Z1.74 </boundaryPoint>)
(<perimeter> inner )
G1 X1.83 Y2.0 Z1.74 F3000.0
M108 R30.0
M101
G1 X1.02 Y2.0 Z1.74 F3000.0
M108 R3.569
G1 X1.02 Y-12.39 Z1.74 F1800.0
G1 X-18.64 Y-12.39 Z1.74 F1800.0
G1 X-18.64 Y2.0 Z1.74 F1800.0
G1 X0.57 Y2.0 Z1.74 F1800.0
M108 R30.0
M102
G1 X1.02 Y2.0 Z1.74 F1800.0
M108 R3.569
M103
(</perimeter>)
(</boundaryPerimeter>)
(</surroundingLoop>)
G1 X-18.4 Y2.62 Z1.74 F3000.0
M108 R30.0
M101
G1 X-19.2 Y2.65 Z1.74 F3000.0
M108 R3.569
G1 X-19.2 Y2.71 Z1.74 F1800.0
G1 X-18.76 Y2.71 Z1.74 F1800.0
G1 X-18.76 Y2.65 Z1.74 F1800.0
G1 X-18.33 Y2.71 Z1.74 F1800.0
G1 X-18.33 Y2.65 Z1.74 F1800.0
G1 X-17.89 Y2.71 Z1.74 F1800.0
G1 X-17.89 Y2.65 Z1.74 F1800.0
G1 X-17.45 Y2.71 Z1.74 F1800.0
G1 X-17.45 Y2.65 Z1.74 F1800.0
G1 X-17.02 Y2.71 Z1.74 F1800.0
G1 X-17.02 Y2.65 Z1.74 F1800.0
G1 X-16.58 Y2.71 Z1.74 F1800.0
G1 X-16.58 Y2.65 Z1.74 F1800.0
G1 X-16.14 Y2.71 Z1.74 F1800.0
G1 X-16.14 Y2.65 Z1.74 F1800.0
G1 X-15.71 Y2.71 Z1.74 F1800.0
G1 X-15.71 Y2.65 Z1.74 F1800.0
G1 X-15.27 Y2.71 Z1.74 F1800.0
G1 X-15.27 Y2.65 Z1.74 F1800.0
G1 X-14.84 Y2.71 Z1.74 F1800.0
G1 X-14.84 Y2.65 Z1.74 F1800.0
G1 X-14.4 Y2.71 Z1.74 F1800.0
G1 X-14.4 Y2.65 Z1.74 F1800.0
G1 X-13.96 Y2.71 Z1.74 F1800.0
G1 X-13.96 Y2.65 Z1.74 F1800.0
G1 X-13.53 Y2.71 Z1.74 F1800.0
G1 X-13.53 Y2.65 Z1.74 F1800.0
G1 X-13.09 Y2.71 Z1.74 F1800.0
G1 X-13.09 Y2.65 Z1.74 F1800.0
G1 X-12.65 Y2.71 Z1.74 F1800.0
G1 X-12.65 Y2.65 Z1.74 F1800.0
G1 X-12.22 Y2.71 Z1.74 F1800.0
G1 X-12.22 Y2.65 Z1.74 F1800.0
G1 X-11.78 Y2.71 Z1.74 F1800.0
G1 X-11.78 Y2.65 Z1.74 F1800.0
G1 X-11.35 Y2.71 Z1.74 F1800.0
G1 X-11.35 Y2.65 Z1.74 F1800.0
G1 X-10.91 Y2.71 Z1.74 F1800.0
G1 X-10.91 Y2.65 Z1.74 F1800.0
G1 X-10.47 Y2.71 Z1.74 F1800.0
G1 X-10.47 Y2.65 Z1.74 F1800.0
G1 X-10.04 Y2.71 Z1.74 F1800.0
G1 X-10.04 Y2.65 Z1.74 F1800.0
G1 X-9.6 Y2.71 Z1.74 F1800.0
G1 X-9.6 Y2.65 Z1.74 F1800.0
G1 X-9.16 Y2.71 Z1.74 F1800.0
G1 X-9.16 Y2.65 Z1.74 F1800.0
G1 X-8.73 Y2.71 Z1.74 F1800.0
G1 X-8.73 Y2.65 Z1.74 F1800.0
G1 X-8.29 Y2.71 Z1.74 F1800.0
G1 X-8.29 Y2.65 Z1.74 F1800.0
G1 X-7.85 Y2.71 Z1.74 F1800.0
G1 X-7.85 Y2.65 Z1.74 F1800.0
G1 X-7.42 Y2.71 Z1.74 F1800.0
G1 X-7.42 Y2.65 Z1.74 F1800.0
G1 X-6.98 Y2.71 Z1.74 F1800.0
G1 X-6.98 Y2.65 Z1.74 F1800.0
G1 X-6.55 Y2.71 Z1.74 F1800.0
G1 X-6.55 Y2.65 Z1.74 F1800.0
G1 X-6.11 Y2.71 Z1.74 F1800.0
G1 X-6.11 Y2.65 Z1.74 F1800.0
G1 X-5.67 Y2.71 Z1.74 F1800.0
G1 X-5.67 Y2.65 Z1.74 F1800.0
G1 X-5.24 Y2.71 Z1.74 F1800.0
G1 X-5.24 Y2.65 Z1.74 F1800.0
G1 X-4.8 Y2.71 Z1.74 F1800.0
G1 X-4.8 Y2.65 Z1.74 F1800.0
G1 X-4.36 Y2.71 Z1.74 F1800.0
G1 X-4.36 Y2.65 Z1.74 F1800.0
G1 X-3.93 Y2.71 Z1.74 F1800.0
G1 X-3.93 Y2.65 Z1.74 F1800.0
G1 X-3.49 Y2.71 Z1.74 F1800.0
G1 X-3.49 Y2.65 Z1.74 F1800.0
G1 X-3.05 Y2.71 Z1.74 F1800.0
G1 X-3.05 Y2.65 Z1.74 F1800.0
G1 X-2.62 Y2.71 Z1.74 F1800.0
G1 X-2.62 Y2.65 Z1.74 F1800.0
G1 X-2.18 Y2.71 Z1.74 F1800.0
G1 X-2.18 Y2.65 Z1.74 F1800.0
G1 X-1.75 Y2.71 Z1.74 F1800.0
G1 X-1.75 Y2.65 Z1.74 F1800.0
G1 X-1.31 Y2.71 Z1.74 F1800.0
G1 X-1.31 Y2.65 Z1.74 F1800.0
G1 X-0.87 Y2.71 Z1.74 F1800.0
G1 X-0.87 Y2.65 Z1.74 F1800.0
G1 X-0.44 Y2.71 Z1.74 F1800.0
G1 X-0.44 Y2.65 Z1.74 F1800.0
G1 X0.0 Y2.71 Z1.74 F1800.0
G1 X0.0 Y2.65 Z1.74 F1800.0
G1 X0.44 Y2.71 Z1.74 F1800.0
G1 X0.44 Y2.65 Z1.74 F1800.0
G1 X0.87 Y2.71 Z1.74 F1800.0
G1 X0.87 Y2.65 Z1.74 F1800.0
G1 X1.31 Y2.71 Z1.74 F1800.0
G1 X1.31 Y2.65 Z1.74 F1800.0
M103
G1 X1.75 Y2.71 Z1.74 F3000.0
M101
G1 X1.75 Y2.65 Z1.74 F1800.0
G1 X2.18 Y2.71 Z1.74 F1800.0
G1 X2.18 Y2.65 Z1.74 F1800.0
G1 X2.62 Y2.71 Z1.74 F1800.0
G1 X2.62 Y2.65 Z1.74 F1800.0
G1 X3.05 Y2.71 Z1.74 F1800.0
G1 X3.05 Y2.65 Z1.74 F1800.0
G1 X3.49 Y2.71 Z1.74 F1800.0
G1 X3.49 Y2.65 Z1.74 F1800.0
G1 X3.93 Y2.71 Z1.74 F1800.0
G1 X3.93 Y2.65 Z1.74 F1800.0
G1 X4.36 Y2.71 Z1.74 F1800.0
G1 X4.36 Y2.65 Z1.74 F1800.0
G1 X4.8 Y2.71 Z1.74 F1800.0
G1 X4.8 Y2.65 Z1.74 F1800.0
G1 X5.24 Y2.71 Z1.74 F1800.0
G1 X5.24 Y2.65 Z1.74 F1800.0
G1 X5.67 Y2.71 Z1.74 F1800.0
G1 X5.67 Y2.65 Z1.74 F1800.0
G1 X6.11 Y2.71 Z1.74 F1800.0
G1 X6.11 Y2.65 Z1.74 F1800.0
G1 X6.55 Y2.71 Z1.74 F1800.0
G1 X6.55 Y2.65 Z1.74 F1800.0
G1 X6.98 Y2.71 Z1.74 F1800.0
G1 X6.98 Y2.65 Z1.74 F1800.0
G1 X7.42 Y2.71 Z1.74 F1800.0
G1 X7.42 Y2.65 Z1.74 F1800.0
G1 X7.85 Y2.71 Z1.74 F1800.0
G1 X7.85 Y2.65 Z1.74 F1800.0
G1 X8.29 Y2.71 Z1.74 F1800.0
G1 X8.29 Y2.65 Z1.74 F1800.0
G1 X8.73 Y2.71 Z1.74 F1800.0
G1 X8.73 Y2.65 Z1.74 F1800.0
G1 X9.16 Y2.71 Z1.74 F1800.0
G1 X9.16 Y2.65 Z1.74 F1800.0
G1 X9.6 Y2.71 Z1.74 F1800.0
G1 X9.6 Y2.65 Z1.74 F1800.0
G1 X10.04 Y2.71 Z1.74 F1800.0
G1 X10.04 Y2.65 Z1.74 F1800.0
G1 X10.47 Y2.71 Z1.74 F1800.0
G1 X10.47 Y2.65 Z1.74 F1800.0
G1 X10.91 Y2.71 Z1.74 F1800.0
G1 X10.91 Y2.65 Z1.74 F1800.0
G1 X11.35 Y2.71 Z1.74 F1800.0
G1 X11.35 Y2.65 Z1.74 F1800.0
G1 X11.78 Y2.71 Z1.74 F1800.0
G1 X11.78 Y2.65 Z1.74 F1800.0
G1 X12.22 Y2.71 Z1.74 F1800.0
G1 X12.22 Y2.65 Z1.74 F1800.0
G1 X12.65 Y2.71 Z1.74 F1800.0
G1 X12.65 Y2.65 Z1.74 F1800.0
G1 X13.09 Y2.71 Z1.74 F1800.0
G1 X13.09 Y2.65 Z1.74 F1800.0
G1 X13.53 Y2.71 Z1.74 F1800.0
G1 X13.53 Y2.65 Z1.74 F1800.0
G1 X13.96 Y2.71 Z1.74 F1800.0
G1 X13.96 Y2.65 Z1.74 F1800.0
G1 X14.4 Y2.71 Z1.74 F1800.0
G1 X14.4 Y2.65 Z1.74 F1800.0
G1 X14.84 Y2.71 Z1.74 F1800.0
G1 X14.84 Y2.65 Z1.74 F1800.0
G1 X15.27 Y2.71 Z1.74 F1800.0
G1 X15.27 Y2.65 Z1.74 F1800.0
G1 X15.71 Y2.71 Z1.74 F1800.0
G1 X15.71 Y2.65 Z1.74 F1800.0
G1 X16.14 Y2.71 Z1.74 F1800.0
G1 X16.14 Y2.65 Z1.74 F1800.0
G1 X16.58 Y2.71 Z1.74 F1800.0
G1 X16.58 Y2.65 Z1.74 F1800.0
G1 X16.63 Y2.66 Z1.74 F1800.0
M108 R30.0
M102
G1 X17.02 Y2.71 Z1.74 F1800.0
G1 X17.02 Y2.65 Z1.74 F1800.0
M108 R3.569
M103
G1 X17.83 Y14.13 Z1.74 F3000.0
M108 R30.0
M101
G1 X17.89 Y14.92 Z1.74 F3000.0
M108 R3.569
G1 X17.89 Y-14.16 Z1.74 F1800.0
M103
G1 X17.45 Y-14.16 Z1.74 F3000.0
M101
G1 X17.45 Y14.92 Z1.74 F1800.0
G1 X17.02 Y14.42 Z1.74 F1800.0
G1 X17.02 Y14.92 Z1.74 F1800.0
G1 X16.58 Y14.42 Z1.74 F1800.0
G1 X16.58 Y14.92 Z1.74 F1800.0
G1 X16.14 Y14.42 Z1.74 F1800.0
G1 X16.14 Y14.92 Z1.74 F1800.0
G1 X15.71 Y14.42 Z1.74 F1800.0
G1 X15.71 Y14.92 Z1.74 F1800.0
G1 X15.27 Y14.42 Z1.74 F1800.0
G1 X15.27 Y14.92 Z1.74 F1800.0
G1 X14.84 Y14.42 Z1.74 F1800.0
G1 X14.84 Y14.92 Z1.74 F1800.0
G1 X14.4 Y14.42 Z1.74 F1800.0
G1 X14.4 Y14.92 Z1.74 F1800.0
G1 X13.96 Y14.42 Z1.74 F1800.0
G1 X13.96 Y14.92 Z1.74 F1800.0
G1 X13.53 Y14.42 Z1.74 F1800.0
G1 X13.53 Y14.92 Z1.74 F1800.0
G1 X13.09 Y14.42 Z1.74 F1800.0
G1 X13.09 Y14.92 Z1.74 F1800.0
G1 X12.65 Y14.42 Z1.74 F1800.0
G1 X12.65 Y14.92 Z1.74 F1800.0
G1 X12.22 Y14.42 Z1.74 F1800.0
G1 X12.22 Y14.92 Z1.74 F1800.0
G1 X11.78 Y14.42 Z1.74 F1800.0
G1 X11.78 Y14.92 Z1.74 F1800.0
G1 X11.35 Y14.42 Z1.74 F1800.0
G1 X11.35 Y14.92 Z1.74 F1800.0
G1 X10.91 Y14.42 Z1.74 F1800.0
G1 X10.91 Y14.92 Z1.74 F1800.0
G1 X10.47 Y14.42 Z1.74 F1800.0
G1 X10.47 Y14.92 Z1.74 F1800.0
G1 X10.04 Y14.42 Z1.74 F1800.0
G1 X10.04 Y14.92 Z1.74 F1800.0
G1 X9.6 Y14.42 Z1.74 F1800.0
G1 X9.6 Y14.92 Z1.74 F1800.0
G1 X9.16 Y14.42 Z1.74 F1800.0
G1 X9.16 Y14.92 Z1.74 F1800.0
G1 X8.73 Y14.42 Z1.74 F1800.0
G1 X8.73 Y14.92 Z1.74 F1800.0
G1 X8.29 Y14.42 Z1.74 F1800.0
G1 X8.29 Y14.92 Z1.74 F1800.0
G1 X7.85 Y14.42 Z1.74 F1800.0
G1 X7.85 Y14.92 Z1.74 F1800.0
G1 X7.42 Y14.42 Z1.74 F1800.0
G1 X7.42 Y14.92 Z1.74 F1800.0
G1 X6.98 Y14.42 Z1.74 F1800.0
G1 X6.98 Y14.92 Z1.74 F1800.0
G1 X6.55 Y14.42 Z1.74 F1800.0
G1 X6.55 Y14.92 Z1.74 F1800.0
G1 X6.11 Y14.42 Z1.74 F1800.0
G1 X6.11 Y14.92 Z1.74 F1800.0
G1 X5.67 Y14.42 Z1.74 F1800.0
G1 X5.67 Y14.92 Z1.74 F1800.0
G1 X5.24 Y14.42 Z1.74 F1800.0
G1 X5.24 Y14.92 Z1.74 F1800.0
G1 X4.8 Y14.42 Z1.74 F1800.0
G1 X4.8 Y14.92 Z1.74 F1800.0
G1 X4.36 Y14.42 Z1.74 F1800.0
G1 X4.36 Y14.92 Z1.74 F1800.0
G1 X3.93 Y14.42 Z1.74 F1800.0
G1 X3.93 Y14.92 Z1.74 F1800.0
G1 X3.49 Y14.42 Z1.74 F1800.0
G1 X3.49 Y14.92 Z1.74 F1800.0
G1 X3.05 Y14.42 Z1.74 F1800.0
G1 X3.05 Y14.92 Z1.74 F1800.0
G1 X2.62 Y14.42 Z1.74 F1800.0
G1 X2.62 Y14.92 Z1.74 F1800.0
G1 X2.18 Y14.42 Z1.74 F1800.0
G1 X2.18 Y14.92 Z1.74 F1800.0
G1 X1.75 Y14.42 Z1.74 F1800.0
G1 X1.75 Y14.47 Z1.74 F1800.0
M108 R30.0
M102
G1 X1.75 Y14.92 Z1.74 F1800.0
M108 R3.569
M103
G1 X2.3 Y13.51 Z1.74 F3000.0
G1 X2.44 Y3.42 Z1.74 F3000.0
G1 X8.45 Y3.28 Z1.74 F3000.0
G1 X9.48 Y2.08 Z1.74 F3000.0
G1 X16.72 Y1.94 Z1.74 F3000.0
G1 X16.85 Y-10.24 Z1.74 F3000.0
G1 X17.97 Y-12.49 Z1.74 F3000.0
M108 R30.0
M101
G1 X18.33 Y-13.2 Z1.74 F3000.0
M108 R3.569
G1 X18.33 Y14.47 Z1.74 F1800.0
M108 R30.0
M102
G1 X18.33 Y14.92 Z1.74 F1800.0
M108 R3.569
M103
G1 X17.06 Y-11.96 Z1.74 F3000.0
M108 R30.0
M101
G1 X17.02 Y-12.76 Z1.74 F3000.0
M108 R3.569
G1 X17.02 Y-14.15 Z1.74 F1800.0
M103
G1 X16.58 Y-14.15 Z1.74 F3000.0
M101
G1 X16.58 Y-12.76 Z1.74 F1800.0
M103
G1 X16.14 Y-12.76 Z1.74 F3000.0
M101
G1 X16.14 Y-14.15 Z1.74 F1800.0
M103
G1 X15.71 Y-14.15 Z1.74 F3000.0
M101
G1 X15.71 Y-12.76 Z1.74 F1800.0
M103
G1 X15.27 Y-12.76 Z1.74 F3000.0
M101
G1 X15.27 Y-14.15 Z1.74 F1800.0
M103
G1 X14.84 Y-14.15 Z1.74 F3000.0
M101
G1 X14.84 Y-12.76 Z1.74 F1800.0
M103
G1 X14.4 Y-12.76 Z1.74 F3000.0
M101
G1 X14.4 Y-14.15 Z1.74 F1800.0
M103
G1 X13.96 Y-14.15 Z1.74 F3000.0
M101
G1 X13.96 Y-12.76 Z1.74 F1800.0
M103
G1 X13.53 Y-12.76 Z1.74 F3000.0
M101
G1 X13.53 Y-14.15 Z1.74 F1800.0
G1 X13.09 Y-13.72 Z1.74 F1800.0
G1 X12.65 Y-13.72 Z1.74 F1800.0
G1 X11.78 Y-12.76 Z1.74 F1800.0
G1 X12.22 Y-13.72 Z1.74 F1800.0
G1 X11.78 Y-14.15 Z1.74 F1800.0
G1 X11.35 Y-13.72 Z1.74 F1800.0
G1 X11.35 Y-13.2 Z1.74 F1800.0
G1 X10.91 Y-12.76 Z1.74 F1800.0
G1 X10.91 Y-14.15 Z1.74 F1800.0
G1 X10.04 Y-13.72 Z1.74 F1800.0
G1 X10.04 Y-13.2 Z1.74 F1800.0
G1 X9.6 Y-12.76 Z1.74 F1800.0
G1 X9.16 Y-13.2 Z1.74 F1800.0
G1 X9.6 Y-14.15 Z1.74 F1800.0
G1 X8.73 Y-13.72 Z1.74 F1800.0
G1 X7.85 Y-12.76 Z1.74 F1800.0
G1 X7.85 Y-14.15 Z1.74 F1800.0
M103
G1 X7.42 Y-14.15 Z1.74 F3000.0
M101
G1 X7.42 Y-12.76 Z1.74 F1800.0
G1 X6.51 Y-12.94 Z1.74 F1800.0
G1 X6.55 Y-13.72 Z1.74 F1800.0
G1 X6.11 Y-14.15 Z1.74 F1800.0
G1 X5.67 Y-13.72 Z1.74 F1800.0
G1 X5.24 Y-14.15 Z1.74 F1800.0
G1 X5.24 Y-12.76 Z1.74 F1800.0
M103
G1 X4.8 Y-12.76 Z1.74 F3000.0
M101
G1 X4.8 Y-14.15 Z1.74 F1800.0
M103
G1 X4.36 Y-14.15 Z1.74 F3000.0
M101
G1 X4.36 Y-12.76 Z1.74 F1800.0
M103
G1 X3.93 Y-12.76 Z1.74 F3000.0
M101
G1 X3.93 Y-14.15 Z1.74 F1800.0
M103
G1 X3.49 Y-14.15 Z1.74 F3000.0
M101
G1 X3.49 Y-12.76 Z1.74 F1800.0
M103
G1 X3.05 Y-12.76 Z1.74 F3000.0
M101
G1 X3.05 Y-14.15 Z1.74 F1800.0
M103
G1 X2.62 Y-14.15 Z1.74 F3000.0
M101
G1 X2.62 Y-12.76 Z1.74 F1800.0
M103
G1 X2.18 Y-12.76 Z1.74 F3000.0
M101
G1 X2.18 Y-14.15 Z1.74 F1800.0
M103
G1 X1.75 Y-14.15 Z1.74 F3000.0
M101
G1 X1.75 Y-12.76 Z1.74 F1800.0
M103
G1 X1.31 Y-13.04 Z1.74 F3000.0
M101
G1 X1.31 Y-14.15 Z1.74 F1800.0
M103
G1 X0.87 Y-14.15 Z1.74 F3000.0
M101
G1 X0.87 Y-13.04 Z1.74 F1800.0
M103
G1 X0.44 Y-13.04 Z1.74 F3000.0
M101
G1 X0.44 Y-14.15 Z1.74 F1800.0
M103
G1 X-0.0 Y-14.15 Z1.74 F3000.0
M101
G1 X-0.0 Y-13.04 Z1.74 F1800.0
M103
G1 X-0.44 Y-13.04 Z1.74 F3000.0
M101
G1 X-0.44 Y-14.15 Z1.74 F1800.0
M103
G1 X-0.87 Y-14.15 Z1.74 F3000.0
M101
G1 X-0.87 Y-13.04 Z1.74 F1800.0
M103
G1 X-1.31 Y-13.04 Z1.74 F3000.0
M101
G1 X-1.31 Y-14.15 Z1.74 F1800.0
M103
G1 X-1.75 Y-14.15 Z1.74 F3000.0
M101
G1 X-1.75 Y-13.04 Z1.74 F1800.0
M103
G1 X-2.18 Y-13.04 Z1.74 F3000.0
M101
G1 X-2.18 Y-14.15 Z1.74 F1800.0
M103
G1 X-2.62 Y-14.15 Z1.74 F3000.0
M101
G1 X-2.62 Y-13.04 Z1.74 F1800.0
M103
G1 X-3.05 Y-13.04 Z1.74 F3000.0
M101
G1 X-3.05 Y-14.15 Z1.74 F1800.0
M103
G1 X-3.49 Y-14.15 Z1.74 F3000.0
M101
G1 X-3.49 Y-13.04 Z1.74 F1800.0
M103
G1 X-3.93 Y-13.04 Z1.74 F3000.0
M101
G1 X-3.93 Y-14.15 Z1.74 F1800.0
M103
G1 X-4.36 Y-14.15 Z1.74 F3000.0
M101
G1 X-4.36 Y-13.04 Z1.74 F1800.0
M103
G1 X-4.8 Y-13.04 Z1.74 F3000.0
M101
G1 X-4.8 Y-14.15 Z1.74 F1800.0
M103
G1 X-5.24 Y-14.15 Z1.74 F3000.0
M101
G1 X-5.24 Y-13.04 Z1.74 F1800.0
M103
G1 X-5.67 Y-13.04 Z1.74 F3000.0
M101
G1 X-5.67 Y-14.15 Z1.74 F1800.0
M103
G1 X-6.11 Y-14.15 Z1.74 F3000.0
M101
G1 X-6.11 Y-13.04 Z1.74 F1800.0
M103
G1 X-6.55 Y-13.04 Z1.74 F3000.0
M101
G1 X-6.55 Y-14.15 Z1.74 F1800.0
M103
G1 X-6.98 Y-14.15 Z1.74 F3000.0
M101
G1 X-6.98 Y-13.04 Z1.74 F1800.0
M103
G1 X-7.42 Y-13.04 Z1.74 F3000.0
M101
G1 X-7.42 Y-14.15 Z1.74 F1800.0
M103
G1 X-7.85 Y-14.15 Z1.74 F3000.0
M101
G1 X-7.85 Y-13.04 Z1.74 F1800.0
M103
G1 X-8.29 Y-13.04 Z1.74 F3000.0
M101
G1 X-8.29 Y-14.15 Z1.74 F1800.0
M103
G1 X-8.73 Y-14.15 Z1.74 F3000.0
M101
G1 X-8.73 Y-13.04 Z1.74 F1800.0
M103
G1 X-9.16 Y-13.04 Z1.74 F3000.0
M101
G1 X-9.16 Y-14.15 Z1.74 F1800.0
M103
G1 X-9.6 Y-14.15 Z1.74 F3000.0
M101
G1 X-9.6 Y-13.04 Z1.74 F1800.0
M103
G1 X-10.04 Y-13.04 Z1.74 F3000.0
M101
G1 X-10.04 Y-14.15 Z1.74 F1800.0
M103
G1 X-10.47 Y-14.15 Z1.74 F3000.0
M101
G1 X-10.47 Y-13.04 Z1.74 F1800.0
M103
G1 X-10.91 Y-13.04 Z1.74 F3000.0
M101
G1 X-10.91 Y-14.15 Z1.74 F1800.0
M103
G1 X-11.35 Y-14.15 Z1.74 F3000.0
M101
G1 X-11.35 Y-13.04 Z1.74 F1800.0
G1 X-12.22 Y-14.15 Z1.74 F1800.0
G1 X-12.22 Y-13.04 Z1.74 F1800.0
G1 X-12.72 Y-13.28 Z1.74 F1800.0
G1 X-12.65 Y-13.71 Z1.74 F1800.0
G1 X-13.09 Y-14.15 Z1.74 F1800.0
G1 X-13.53 Y-13.71 Z1.74 F1800.0
G1 X-13.96 Y-14.15 Z1.74 F1800.0
G1 X-13.96 Y-13.04 Z1.74 F1800.0
M103
G1 X-14.4 Y-13.04 Z1.74 F3000.0
M101
G1 X-14.4 Y-14.15 Z1.74 F1800.0
G1 X-14.84 Y-13.71 Z1.74 F1800.0
G1 X-15.27 Y-14.15 Z1.74 F1800.0
G1 X-15.71 Y-13.71 Z1.74 F1800.0
G1 X-15.27 Y-13.48 Z1.74 F1800.0
G1 X-15.71 Y-13.04 Z1.74 F1800.0
G1 X-16.14 Y-13.48 Z1.74 F1800.0
G1 X-16.58 Y-13.04 Z1.74 F1800.0
G1 X-16.58 Y-14.15 Z1.74 F1800.0
M103
G1 X-17.02 Y-14.15 Z1.74 F3000.0
M101
G1 X-17.02 Y-13.04 Z1.74 F1800.0
M103
G1 X-17.45 Y-13.04 Z1.74 F3000.0
M101
G1 X-17.45 Y-13.7 Z1.74 F1800.0
M108 R30.0
M102
G1 X-17.45 Y-14.15 Z1.74 F1800.0
M108 R3.569
M103
G1 X-18.76 Y-13.04 Z1.74 F3000.0
M101
G1 X-18.76 Y-13.11 Z1.74 F1800.0
G1 X-19.2 Y-13.11 Z1.74 F1800.0
G1 X-19.2 Y-13.04 Z1.74 F1800.0
M103
(</surroundingLoop>)
(</layer>)
(<layer> 2.06 )
(<surroundingLoop>)
(<boundaryPerimeter>)
(<boundaryPoint> X-12.211 Y-15.038 Z2.06 </boundaryPoint>)
(<boundaryPoint> X-12.055 Y-14.593 Z2.06 </boundaryPoint>)
(<boundaryPoint> X-11.933 Y-14.391 Z2.06 </boundaryPoint>)
(<boundaryPoint> X-11.785 Y-14.23 Z2.06 </boundaryPoint>)
(<boundaryPoint> X-11.707 Y-14.177 Z2.06 </boundaryPoint>)
(<boundaryPoint> X5.387 Y-14.177 Z2.06 </boundaryPoint>)
(<boundaryPoint> X5.466 Y-14.23 Z2.06 </boundaryPoint>)
(<boundaryPoint> X5.614 Y-14.391 Z2.06 </boundaryPoint>)
(<boundaryPoint> X5.735 Y-14.593 Z2.06 </boundaryPoint>)
(<boundaryPoint> X5.891 Y-15.038 Z2.06 </boundaryPoint>)
(<boundaryPoint> X7.087 Y-15.038 Z2.06 </boundaryPoint>)
(<boundaryPoint> X7.244 Y-14.592 Z2.06 </boundaryPoint>)
(<boundaryPoint> X7.365 Y-14.391 Z2.06 </boundaryPoint>)
(<boundaryPoint> X7.513 Y-14.23 Z2.06 </boundaryPoint>)
(<boundaryPoint> X7.592 Y-14.177 Z2.06 </boundaryPoint>)
(<boundaryPoint> X8.31 Y-14.177 Z2.06 </boundaryPoint>)
(<boundaryPoint> X8.388 Y-14.23 Z2.06 </boundaryPoint>)
(<boundaryPoint> X8.536 Y-14.391 Z2.06 </boundaryPoint>)
(<boundaryPoint> X8.657 Y-14.593 Z2.06 </boundaryPoint>)
(<boundaryPoint> X8.814 Y-15.038 Z2.06 </boundaryPoint>)
(<boundaryPoint> X9.992 Y-15.038 Z2.06 </boundaryPoint>)
(<boundaryPoint> X10.149 Y-14.592 Z2.06 </boundaryPoint>)
(<boundaryPoint> X10.27 Y-14.391 Z2.06 </boundaryPoint>)
(<boundaryPoint> X10.418 Y-14.23 Z2.06 </boundaryPoint>)
(<boundaryPoint> X10.497 Y-14.177 Z2.06 </boundaryPoint>)
(<boundaryPoint> X11.215 Y-14.177 Z2.06 </boundaryPoint>)
(<boundaryPoint> X11.293 Y-14.23 Z2.06 </boundaryPoint>)
(<boundaryPoint> X11.441 Y-14.391 Z2.06 </boundaryPoint>)
(<boundaryPoint> X11.562 Y-14.593 Z2.06 </boundaryPoint>)
(<boundaryPoint> X11.719 Y-15.038 Z2.06 </boundaryPoint>)
(<boundaryPoint> X12.915 Y-15.038 Z2.06 </boundaryPoint>)
(<boundaryPoint> X13.071 Y-14.593 Z2.06 </boundaryPoint>)
(<boundaryPoint> X13.193 Y-14.391 Z2.06 </boundaryPoint>)
(<boundaryPoint> X13.341 Y-14.23 Z2.06 </boundaryPoint>)
(<boundaryPoint> X13.419 Y-14.177 Z2.06 </boundaryPoint>)
(<boundaryPoint> X18.307 Y-14.177 Z2.06 </boundaryPoint>)
(<boundaryPoint> X18.56 Y-13.945 Z2.06 </boundaryPoint>)
(<boundaryPoint> X18.56 Y-9.211 Z2.06 </boundaryPoint>)
(<boundaryPoint> X18.613 Y-9.133 Z2.06 </boundaryPoint>)
(<boundaryPoint> X18.774 Y-8.985 Z2.06 </boundaryPoint>)
(<boundaryPoint> X18.976 Y-8.863 Z2.06 </boundaryPoint>)
(<boundaryPoint> X19.421 Y-8.707 Z2.06 </boundaryPoint>)
(<boundaryPoint> X19.421 Y-7.511 Z2.06 </boundaryPoint>)
(<boundaryPoint> X18.975 Y-7.354 Z2.06 </boundaryPoint>)
(<boundaryPoint> X18.774 Y-7.233 Z2.06 </boundaryPoint>)
(<boundaryPoint> X18.613 Y-7.085 Z2.06 </boundaryPoint>)
(<boundaryPoint> X18.56 Y-7.006 Z2.06 </boundaryPoint>)
(<boundaryPoint> X18.56 Y-6.289 Z2.06 </boundaryPoint>)
(<boundaryPoint> X18.613 Y-6.21 Z2.06 </boundaryPoint>)
(<boundaryPoint> X18.774 Y-6.062 Z2.06 </boundaryPoint>)
(<boundaryPoint> X18.975 Y-5.941 Z2.06 </boundaryPoint>)
(<boundaryPoint> X19.421 Y-5.784 Z2.06 </boundaryPoint>)
(<boundaryPoint> X19.421 Y-4.606 Z2.06 </boundaryPoint>)
(<boundaryPoint> X18.975 Y-4.449 Z2.06 </boundaryPoint>)
(<boundaryPoint> X18.774 Y-4.328 Z2.06 </boundaryPoint>)
(<boundaryPoint> X18.613 Y-4.18 Z2.06 </boundaryPoint>)
(<boundaryPoint> X18.56 Y-4.101 Z2.06 </boundaryPoint>)
(<boundaryPoint> X18.56 Y-3.384 Z2.06 </boundaryPoint>)
(<boundaryPoint> X18.613 Y-3.305 Z2.06 </boundaryPoint>)
(<boundaryPoint> X18.774 Y-3.157 Z2.06 </boundaryPoint>)
(<boundaryPoint> X18.975 Y-3.036 Z2.06 </boundaryPoint>)
(<boundaryPoint> X19.421 Y-2.879 Z2.06 </boundaryPoint>)
(<boundaryPoint> X19.421 Y-1.683 Z2.06 </boundaryPoint>)
(<boundaryPoint> X18.976 Y-1.527 Z2.06 </boundaryPoint>)
(<boundaryPoint> X18.774 Y-1.406 Z2.06 </boundaryPoint>)
(<boundaryPoint> X18.613 Y-1.258 Z2.06 </boundaryPoint>)
(<boundaryPoint> X18.56 Y-1.179 Z2.06 </boundaryPoint>)
(<boundaryPoint> X18.56 Y15.768 Z2.06 </boundaryPoint>)
(<boundaryPoint> X0.828 Y15.768 Z2.06 </boundaryPoint>)
(<boundaryPoint> X0.828 Y3.555 Z2.06 </boundaryPoint>)
(<boundaryPoint> X-20.135 Y3.555 Z2.06 </boundaryPoint>)
(<boundaryPoint> X-20.135 Y-13.945 Z2.06 </boundaryPoint>)
(<boundaryPoint> X-18.798 Y-13.945 Z2.06 </boundaryPoint>)
(<boundaryPoint> X-18.765 Y-13.963 Z2.06 </boundaryPoint>)
(<boundaryPoint> X-18.765 Y-13.927 Z2.06 </boundaryPoint>)
(<boundaryPoint> X-19.347 Y-13.945 Z2.06 </boundaryPoint>)
(<boundaryPoint> X-19.617 Y-14.017 Z2.06 </boundaryPoint>)
(<boundaryPoint> X-19.58 Y-14.309 Z2.06 </boundaryPoint>)
(<boundaryPoint> X-19.39 Y-14.597 Z2.06 </boundaryPoint>)
(<boundaryPoint> X-19.235 Y-15.038 Z2.06 </boundaryPoint>)
(<boundaryPoint> X-18.039 Y-15.038 Z2.06 </boundaryPoint>)
(<boundaryPoint> X-17.882 Y-14.592 Z2.06 </boundaryPoint>)
(<boundaryPoint> X-17.761 Y-14.391 Z2.06 </boundaryPoint>)
(<boundaryPoint> X-17.613 Y-14.23 Z2.06 </boundaryPoint>)
(<boundaryPoint> X-17.534 Y-14.177 Z2.06 </boundaryPoint>)
(<boundaryPoint> X-16.816 Y-14.177 Z2.06 </boundaryPoint>)
(<boundaryPoint> X-16.738 Y-14.23 Z2.06 </boundaryPoint>)
(<boundaryPoint> X-16.59 Y-14.391 Z2.06 </boundaryPoint>)
(<boundaryPoint> X-16.469 Y-14.592 Z2.06 </boundaryPoint>)
(<boundaryPoint> X-16.312 Y-15.038 Z2.06 </boundaryPoint>)
(<boundaryPoint> X-15.134 Y-15.038 Z2.06 </boundaryPoint>)
(<boundaryPoint> X-14.977 Y-14.592 Z2.06 </boundaryPoint>)
(<boundaryPoint> X-14.856 Y-14.391 Z2.06 </boundaryPoint>)
(<boundaryPoint> X-14.708 Y-14.23 Z2.06 </boundaryPoint>)
(<boundaryPoint> X-14.629 Y-14.177 Z2.06 </boundaryPoint>)
(<boundaryPoint> X-13.911 Y-14.177 Z2.06 </boundaryPoint>)
(<boundaryPoint> X-13.833 Y-14.23 Z2.06 </boundaryPoint>)
(<boundaryPoint> X-13.685 Y-14.391 Z2.06 </boundaryPoint>)
(<boundaryPoint> X-13.564 Y-14.592 Z2.06 </boundaryPoint>)
(<boundaryPoint> X-13.407 Y-15.038 Z2.06 </boundaryPoint>)
(<loop> inner )
M108 R30.0
M101
G1 X-19.04 Y-12.62 Z2.06 F2073.367
M108 R3.569
G1 X-19.04 Y2.39 Z2.06 F1800.0
G1 X1.42 Y2.39 Z2.06 F1800.0
G1 X1.42 Y-12.78 Z2.06 F1800.0
G1 X-18.75 Y-12.78 Z2.06 F1800.0
M108 R30.0
M102
G1 X-19.04 Y-12.78 Z2.06 F1800.0
G1 X-19.04 Y-12.62 Z2.06 F1800.0
M108 R3.569
M103
(</loop>)
(<loop> inner )
G1 X1.19 Y-12.51 Z2.06 F3000.0
M108 R30.0
M101
G1 X1.99 Y-12.51 Z2.06 F3000.0
M108 R3.569
G1 X1.99 Y2.39 Z2.06 F1800.0
G1 X17.17 Y2.39 Z2.06 F1800.0
G1 X17.17 Y-12.51 Z2.06 F1800.0
G1 X2.44 Y-12.51 Z2.06 F1800.0
M108 R30.0
M102
G1 X1.99 Y-12.51 Z2.06 F1800.0
M108 R3.569
M103
(</loop>)
(<loop> inner )
G1 X1.99 Y2.17 Z2.06 F3000.0
M108 R30.0
M101
G1 X1.99 Y2.97 Z2.06 F3000.0
M108 R3.569
G1 X1.99 Y14.16 Z2.06 F1800.0
G1 X17.17 Y14.16 Z2.06 F1800.0
G1 X17.17 Y2.97 Z2.06 F1800.0
G1 X1.99 Y2.97 Z2.06 F1800.0
M103
(</loop>)
(<loop> outer )
G1 X1.42 Y2.97 Z2.06 F3000.0
M101
G1 X-19.55 Y2.97 Z2.06 F1800.0
G1 X-19.55 Y-13.36 Z2.06 F1800.0
G1 X-18.59 Y-13.36 Z2.06 F1800.0
G1 X-17.8 Y-13.64 Z2.06 F1800.0
G1 X-17.71 Y-13.59 Z2.06 F1800.0
G1 X-16.64 Y-13.59 Z2.06 F1800.0
G1 X-16.35 Y-13.78 Z2.06 F1800.0
G1 X-16.12 Y-14.04 Z2.06 F1800.0
G1 X-15.93 Y-14.34 Z2.06 F1800.0
G1 X-15.9 Y-14.45 Z2.06 F1800.0
G1 X-15.55 Y-14.45 Z2.06 F1800.0
G1 X-15.51 Y-14.34 Z2.06 F1800.0
G1 X-15.33 Y-14.04 Z2.06 F1800.0
G1 X-15.09 Y-13.78 Z2.06 F1800.0
G1 X-14.81 Y-13.59 Z2.06 F1800.0
G1 X-13.73 Y-13.59 Z2.06 F1800.0
G1 X-13.45 Y-13.78 Z2.06 F1800.0
G1 X-13.21 Y-14.04 Z2.06 F1800.0
G1 X-13.03 Y-14.34 Z2.06 F1800.0
G1 X-12.99 Y-14.45 Z2.06 F1800.0
G1 X-12.63 Y-14.45 Z2.06 F1800.0
G1 X-12.59 Y-14.34 Z2.06 F1800.0
G1 X-12.41 Y-14.04 Z2.06 F1800.0
G1 X-12.17 Y-13.78 Z2.06 F1800.0
G1 X-11.89 Y-13.59 Z2.06 F1800.0
G1 X5.57 Y-13.59 Z2.06 F1800.0
G1 X5.85 Y-13.78 Z2.06 F1800.0
G1 X6.09 Y-14.04 Z2.06 F1800.0
G1 X6.27 Y-14.34 Z2.06 F1800.0
G1 X6.31 Y-14.45 Z2.06 F1800.0
G1 X6.67 Y-14.45 Z2.06 F1800.0
G1 X6.71 Y-14.34 Z2.06 F1800.0
G1 X6.89 Y-14.04 Z2.06 F1800.0
G1 X7.13 Y-13.78 Z2.06 F1800.0
G1 X7.41 Y-13.59 Z2.06 F1800.0
G1 X8.49 Y-13.59 Z2.06 F1800.0
G1 X8.78 Y-13.78 Z2.06 F1800.0
G1 X9.01 Y-14.04 Z2.06 F1800.0
G1 X9.19 Y-14.34 Z2.06 F1800.0
G1 X9.23 Y-14.45 Z2.06 F1800.0
G1 X9.57 Y-14.45 Z2.06 F1800.0
G1 X9.61 Y-14.34 Z2.06 F1800.0
G1 X9.8 Y-14.04 Z2.06 F1800.0
G1 X10.03 Y-13.78 Z2.06 F1800.0
G1 X10.32 Y-13.59 Z2.06 F1800.0
G1 X11.4 Y-13.59 Z2.06 F1800.0
G1 X11.68 Y-13.78 Z2.06 F1800.0
G1 X11.92 Y-14.04 Z2.06 F1800.0
G1 X12.1 Y-14.34 Z2.06 F1800.0
G1 X12.14 Y-14.45 Z2.06 F1800.0
G1 X12.5 Y-14.45 Z2.06 F1800.0
G1 X12.54 Y-14.34 Z2.06 F1800.0
G1 X12.72 Y-14.04 Z2.06 F1800.0
G1 X12.95 Y-13.78 Z2.06 F1800.0
G1 X13.24 Y-13.59 Z2.06 F1800.0
G1 X17.97 Y-13.59 Z2.06 F1800.0
G1 X17.97 Y-9.03 Z2.06 F1800.0
G1 X18.16 Y-8.74 Z2.06 F1800.0
G1 X18.42 Y-8.51 Z2.06 F1800.0
G1 X18.72 Y-8.33 Z2.06 F1800.0
G1 X18.83 Y-8.29 Z2.06 F1800.0
G1 X18.83 Y-7.93 Z2.06 F1800.0
G1 X18.72 Y-7.89 Z2.06 F1800.0
G1 X18.42 Y-7.71 Z2.06 F1800.0
G1 X18.16 Y-7.47 Z2.06 F1800.0
G1 X17.97 Y-7.19 Z2.06 F1800.0
G1 X17.97 Y-6.11 Z2.06 F1800.0
G1 X18.16 Y-5.82 Z2.06 F1800.0
G1 X18.42 Y-5.59 Z2.06 F1800.0
G1 X18.72 Y-5.41 Z2.06 F1800.0
G1 X18.83 Y-5.37 Z2.06 F1800.0
G1 X18.83 Y-5.02 Z2.06 F1800.0
G1 X18.72 Y-4.99 Z2.06 F1800.0
G1 X18.42 Y-4.8 Z2.06 F1800.0
G1 X18.16 Y-4.57 Z2.06 F1800.0
G1 X17.97 Y-4.28 Z2.06 F1800.0
G1 X17.97 Y-3.21 Z2.06 F1800.0
G1 X18.16 Y-2.92 Z2.06 F1800.0
G1 X18.42 Y-2.68 Z2.06 F1800.0
G1 X18.72 Y-2.5 Z2.06 F1800.0
G1 X18.83 Y-2.46 Z2.06 F1800.0
G1 X18.83 Y-2.1 Z2.06 F1800.0
G1 X18.73 Y-2.06 Z2.06 F1800.0
G1 X18.42 Y-1.88 Z2.06 F1800.0
G1 X18.16 Y-1.64 Z2.06 F1800.0
G1 X17.97 Y-1.36 Z2.06 F1800.0
G1 X17.97 Y15.18 Z2.06 F1800.0
G1 X1.42 Y15.18 Z2.06 F1800.0
G1 X1.42 Y2.97 Z2.06 F1800.0
M103
(</loop>)
(<perimeter> outer )
G1 X1.02 Y3.36 Z2.06 F3000.0
M101
G1 X-19.94 Y3.36 Z2.06 F1800.0
G1 X-19.94 Y-13.75 Z2.06 F1800.0
G1 X-18.75 Y-13.75 Z2.06 F1800.0
G1 X-18.57 Y-13.85 Z2.06 F1800.0
G1 X-18.57 Y-14.04 Z2.06 F1800.0
G1 X-18.75 Y-14.14 Z2.06 F1800.0
G1 X-19.43 Y-14.14 Z2.06 F1800.0
G1 X-19.21 Y-14.51 Z2.06 F1800.0
G1 X-19.1 Y-14.84 Z2.06 F1800.0
G1 X-18.18 Y-14.84 Z2.06 F1800.0
G1 X-18.06 Y-14.51 Z2.06 F1800.0
G1 X-17.92 Y-14.27 Z2.06 F1800.0
G1 X-17.74 Y-14.08 Z2.06 F1800.0
G1 X-17.59 Y-13.98 Z2.06 F1800.0
G1 X-16.76 Y-13.98 Z2.06 F1800.0
G1 X-16.61 Y-14.08 Z2.06 F1800.0
G1 X-16.43 Y-14.27 Z2.06 F1800.0
G1 X-16.29 Y-14.51 Z2.06 F1800.0
G1 X-16.17 Y-14.84 Z2.06 F1800.0
G1 X-15.27 Y-14.84 Z2.06 F1800.0
G1 X-15.16 Y-14.51 Z2.06 F1800.0
G1 X-15.01 Y-14.27 Z2.06 F1800.0
G1 X-14.84 Y-14.08 Z2.06 F1800.0
G1 X-14.69 Y-13.98 Z2.06 F1800.0
G1 X-13.85 Y-13.98 Z2.06 F1800.0
G1 X-13.7 Y-14.08 Z2.06 F1800.0
G1 X-13.53 Y-14.27 Z2.06 F1800.0
G1 X-13.39 Y-14.51 Z2.06 F1800.0
G1 X-13.27 Y-14.84 Z2.06 F1800.0
G1 X-12.35 Y-14.84 Z2.06 F1800.0
G1 X-12.23 Y-14.51 Z2.06 F1800.0
G1 X-12.09 Y-14.27 Z2.06 F1800.0
G1 X-11.91 Y-14.08 Z2.06 F1800.0
G1 X-11.77 Y-13.98 Z2.06 F1800.0
G1 X5.45 Y-13.98 Z2.06 F1800.0
G1 X5.6 Y-14.08 Z2.06 F1800.0
G1 X5.77 Y-14.27 Z2.06 F1800.0
G1 X5.91 Y-14.51 Z2.06 F1800.0
G1 X6.03 Y-14.84 Z2.06 F1800.0
G1 X6.95 Y-14.84 Z2.06 F1800.0
G1 X7.07 Y-14.51 Z2.06 F1800.0
G1 X7.21 Y-14.27 Z2.06 F1800.0
G1 X7.38 Y-14.08 Z2.06 F1800.0
G1 X7.53 Y-13.98 Z2.06 F1800.0
G1 X8.37 Y-13.98 Z2.06 F1800.0
G1 X8.52 Y-14.08 Z2.06 F1800.0
G1 X8.69 Y-14.27 Z2.06 F1800.0
G1 X8.84 Y-14.51 Z2.06 F1800.0
G1 X8.95 Y-14.84 Z2.06 F1800.0
G1 X9.85 Y-14.84 Z2.06 F1800.0
G1 X9.97 Y-14.51 Z2.06 F1800.0
G1 X10.11 Y-14.27 Z2.06 F1800.0
G1 X10.29 Y-14.08 Z2.06 F1800.0
G1 X10.44 Y-13.98 Z2.06 F1800.0
G1 X11.28 Y-13.98 Z2.06 F1800.0
G1 X11.42 Y-14.08 Z2.06 F1800.0
G1 X11.6 Y-14.27 Z2.06 F1800.0
G1 X11.74 Y-14.51 Z2.06 F1800.0
G1 X11.86 Y-14.84 Z2.06 F1800.0
G1 X12.78 Y-14.84 Z2.06 F1800.0
G1 X12.89 Y-14.51 Z2.06 F1800.0
G1 X13.04 Y-14.27 Z2.06 F1800.0
G1 X13.21 Y-14.08 Z2.06 F1800.0
G1 X13.36 Y-13.98 Z2.06 F1800.0
G1 X18.23 Y-13.98 Z2.06 F1800.0
G1 X18.36 Y-13.86 Z2.06 F1800.0
G1 X18.36 Y-9.15 Z2.06 F1800.0
G1 X18.46 Y-9.0 Z2.06 F1800.0
G1 X18.66 Y-8.83 Z2.06 F1800.0
G1 X18.89 Y-8.69 Z2.06 F1800.0
G1 X19.23 Y-8.57 Z2.06 F1800.0
G1 X19.23 Y-7.65 Z2.06 F1800.0
G1 X18.89 Y-7.53 Z2.06 F1800.0
G1 X18.66 Y-7.39 Z2.06 F1800.0
G1 X18.46 Y-7.21 Z2.06 F1800.0
G1 X18.36 Y-7.07 Z2.06 F1800.0
G1 X18.36 Y-6.23 Z2.06 F1800.0
G1 X18.46 Y-6.08 Z2.06 F1800.0
G1 X18.66 Y-5.9 Z2.06 F1800.0
G1 X18.89 Y-5.76 Z2.06 F1800.0
G1 X19.23 Y-5.65 Z2.06 F1800.0
G1 X19.23 Y-4.75 Z2.06 F1800.0
G1 X18.89 Y-4.63 Z2.06 F1800.0
G1 X18.66 Y-4.49 Z2.06 F1800.0
G1 X18.46 Y-4.31 Z2.06 F1800.0
G1 X18.36 Y-4.16 Z2.06 F1800.0
G1 X18.36 Y-3.32 Z2.06 F1800.0
G1 X18.46 Y-3.18 Z2.06 F1800.0
G1 X18.66 Y-3.0 Z2.06 F1800.0
G1 X18.89 Y-2.86 Z2.06 F1800.0
G1 X19.23 Y-2.74 Z2.06 F1800.0
G1 X19.23 Y-1.82 Z2.06 F1800.0
G1 X18.89 Y-1.71 Z2.06 F1800.0
G1 X18.66 Y-1.56 Z2.06 F1800.0
G1 X18.46 Y-1.39 Z2.06 F1800.0
G1 X18.36 Y-1.24 Z2.06 F1800.0
G1 X18.36 Y15.57 Z2.06 F1800.0
G1 X1.02 Y15.57 Z2.06 F1800.0
G1 X1.02 Y3.81 Z2.06 F1800.0
M108 R30.0
M102
G1 X1.02 Y3.36 Z2.06 F1800.0
M108 R3.569
M103
(</perimeter>)
(</boundaryPerimeter>)
(<surroundingLoop>)
(<boundaryPerimeter>)
(<boundaryPoint> X2.578 Y3.555 Z2.06 </boundaryPoint>)
(<boundaryPoint> X2.578 Y13.572 Z2.06 </boundaryPoint>)
(<boundaryPoint> X16.578 Y13.572 Z2.06 </boundaryPoint>)
(<boundaryPoint> X16.578 Y3.555 Z2.06 </boundaryPoint>)
(<perimeter> inner )
G1 X1.58 Y3.36 Z2.06 F3000.0
M108 R30.0
M101
G1 X2.38 Y3.36 Z2.06 F3000.0
M108 R3.569
G1 X2.38 Y13.77 Z2.06 F1800.0
G1 X16.77 Y13.77 Z2.06 F1800.0
G1 X16.77 Y3.36 Z2.06 F1800.0
G1 X2.83 Y3.36 Z2.06 F1800.0
M108 R30.0
M102
G1 X2.38 Y3.36 Z2.06 F1800.0
M108 R3.569
M103
(</perimeter>)
(</boundaryPerimeter>)
(</surroundingLoop>)
(<surroundingLoop>)
(<boundaryPerimeter>)
(<boundaryPoint> X16.578 Y1.805 Z2.06 </boundaryPoint>)
(<boundaryPoint> X16.578 Y-11.918 Z2.06 </boundaryPoint>)
(<boundaryPoint> X2.578 Y-11.918 Z2.06 </boundaryPoint>)
(<boundaryPoint> X2.578 Y1.805 Z2.06 </boundaryPoint>)
(<perimeter> inner )
G1 X2.38 Y2.8 Z2.06 F3000.0
M108 R30.0
M101
G1 X2.38 Y2.0 Z2.06 F3000.0
M108 R3.569
G1 X16.77 Y2.0 Z2.06 F1800.0
G1 X16.77 Y-12.12 Z2.06 F1800.0
G1 X2.38 Y-12.12 Z2.06 F1800.0
G1 X2.38 Y1.55 Z2.06 F1800.0
M108 R30.0
M102
G1 X2.38 Y2.0 Z2.06 F1800.0
M108 R3.569
M103
(</perimeter>)
(</boundaryPerimeter>)
(</surroundingLoop>)
(<surroundingLoop>)
(<boundaryPerimeter>)
(<boundaryPoint> X0.828 Y1.805 Z2.06 </boundaryPoint>)
(<boundaryPoint> X0.828 Y-12.195 Z2.06 </boundaryPoint>)
(<boundaryPoint> X-18.446 Y-12.195 Z2.06 </boundaryPoint>)
(<boundaryPoint> X-18.446 Y1.805 Z2.06 </boundaryPoint>)
(<perimeter> inner )
G1 X1.83 Y2.0 Z2.06 F3000.0
M108 R30.0
M101
G1 X1.02 Y2.0 Z2.06 F3000.0
M108 R3.569
G1 X1.02 Y-12.39 Z2.06 F1800.0
G1 X-18.64 Y-12.39 Z2.06 F1800.0
G1 X-18.64 Y2.0 Z2.06 F1800.0
G1 X0.57 Y2.0 Z2.06 F1800.0
M108 R30.0
M102
G1 X1.02 Y2.0 Z2.06 F1800.0
M108 R3.569
M103
(</perimeter>)
(</boundaryPerimeter>)
(</surroundingLoop>)
G1 X3.05 Y3.28 Z2.06 F3000.0
G1 X2.44 Y3.42 Z2.06 F3000.0
G1 X2.44 Y13.71 Z2.06 F3000.0
G1 X16.07 Y13.85 Z2.06 F3000.0
G1 X17.03 Y14.42 Z2.06 F3000.0
M108 R30.0
M101
G1 X17.72 Y14.84 Z2.06 F3000.0
M108 R3.569
G1 X1.67 Y14.84 Z2.06 F1800.0
G1 X1.67 Y14.4 Z2.06 F1800.0
G1 X1.73 Y14.4 Z2.06 F1800.0
G1 X1.73 Y13.96 Z2.06 F1800.0
G1 X1.67 Y13.96 Z2.06 F1800.0
G1 X1.67 Y13.53 Z2.06 F1800.0
G1 X1.73 Y13.53 Z2.06 F1800.0
G1 X1.73 Y13.09 Z2.06 F1800.0
G1 X1.67 Y13.09 Z2.06 F1800.0
G1 X1.67 Y12.65 Z2.06 F1800.0
G1 X1.73 Y12.65 Z2.06 F1800.0
G1 X1.73 Y12.22 Z2.06 F1800.0
G1 X1.67 Y12.22 Z2.06 F1800.0
G1 X1.67 Y11.78 Z2.06 F1800.0
G1 X1.73 Y11.78 Z2.06 F1800.0
G1 X1.73 Y11.35 Z2.06 F1800.0
G1 X1.67 Y11.35 Z2.06 F1800.0
G1 X1.67 Y10.91 Z2.06 F1800.0
G1 X1.73 Y10.91 Z2.06 F1800.0
G1 X1.73 Y10.47 Z2.06 F1800.0
G1 X1.67 Y10.47 Z2.06 F1800.0
G1 X1.67 Y10.04 Z2.06 F1800.0
G1 X1.73 Y10.04 Z2.06 F1800.0
G1 X1.73 Y9.6 Z2.06 F1800.0
G1 X1.67 Y9.6 Z2.06 F1800.0
G1 X1.67 Y9.16 Z2.06 F1800.0
G1 X1.73 Y9.16 Z2.06 F1800.0
G1 X1.73 Y8.73 Z2.06 F1800.0
G1 X1.67 Y8.73 Z2.06 F1800.0
G1 X1.67 Y8.29 Z2.06 F1800.0
G1 X1.73 Y8.29 Z2.06 F1800.0
G1 X1.73 Y7.85 Z2.06 F1800.0
G1 X1.67 Y7.85 Z2.06 F1800.0
G1 X1.67 Y7.42 Z2.06 F1800.0
G1 X1.73 Y7.42 Z2.06 F1800.0
G1 X1.73 Y6.98 Z2.06 F1800.0
G1 X1.67 Y6.98 Z2.06 F1800.0
G1 X1.67 Y6.55 Z2.06 F1800.0
G1 X1.73 Y6.55 Z2.06 F1800.0
G1 X1.73 Y6.11 Z2.06 F1800.0
G1 X1.67 Y6.11 Z2.06 F1800.0
G1 X1.67 Y5.67 Z2.06 F1800.0
G1 X1.73 Y5.67 Z2.06 F1800.0
G1 X1.73 Y5.24 Z2.06 F1800.0
G1 X1.67 Y5.24 Z2.06 F1800.0
G1 X1.67 Y4.8 Z2.06 F1800.0
G1 X1.73 Y4.8 Z2.06 F1800.0
G1 X1.73 Y4.36 Z2.06 F1800.0
G1 X1.67 Y4.36 Z2.06 F1800.0
G1 X1.67 Y3.93 Z2.06 F1800.0
G1 X1.73 Y3.93 Z2.06 F1800.0
G1 X1.73 Y3.49 Z2.06 F1800.0
G1 X1.67 Y3.49 Z2.06 F1800.0
G1 X1.67 Y3.05 Z2.06 F1800.0
G1 X1.73 Y3.05 Z2.06 F1800.0
G1 X1.73 Y2.62 Z2.06 F1800.0
G1 X1.67 Y2.62 Z2.06 F1800.0
G1 X1.67 Y2.18 Z2.06 F1800.0
G1 X1.73 Y2.18 Z2.06 F1800.0
G1 X1.73 Y1.75 Z2.06 F1800.0
G1 X1.67 Y1.75 Z2.06 F1800.0
G1 X1.67 Y1.31 Z2.06 F1800.0
G1 X1.73 Y1.31 Z2.06 F1800.0
G1 X1.73 Y0.87 Z2.06 F1800.0
G1 X1.67 Y0.87 Z2.06 F1800.0
G1 X1.67 Y0.44 Z2.06 F1800.0
G1 X1.73 Y0.44 Z2.06 F1800.0
G1 X1.73 Y-0.0 Z2.06 F1800.0
G1 X1.67 Y-0.0 Z2.06 F1800.0
G1 X1.67 Y-0.44 Z2.06 F1800.0
G1 X1.73 Y-0.44 Z2.06 F1800.0
G1 X1.73 Y-0.87 Z2.06 F1800.0
G1 X1.67 Y-0.87 Z2.06 F1800.0
G1 X1.67 Y-1.31 Z2.06 F1800.0
G1 X1.73 Y-1.31 Z2.06 F1800.0
G1 X1.73 Y-1.75 Z2.06 F1800.0
G1 X1.67 Y-1.75 Z2.06 F1800.0
G1 X1.67 Y-2.18 Z2.06 F1800.0
G1 X1.73 Y-2.18 Z2.06 F1800.0
G1 X1.73 Y-2.62 Z2.06 F1800.0
G1 X1.67 Y-2.62 Z2.06 F1800.0
G1 X1.67 Y-3.05 Z2.06 F1800.0
G1 X1.73 Y-3.05 Z2.06 F1800.0
G1 X1.73 Y-3.49 Z2.06 F1800.0
G1 X1.67 Y-3.49 Z2.06 F1800.0
G1 X1.67 Y-3.93 Z2.06 F1800.0
G1 X1.73 Y-3.93 Z2.06 F1800.0
G1 X1.73 Y-4.36 Z2.06 F1800.0
G1 X1.67 Y-4.36 Z2.06 F1800.0
G1 X1.67 Y-4.8 Z2.06 F1800.0
G1 X1.73 Y-4.8 Z2.06 F1800.0
G1 X1.73 Y-5.24 Z2.06 F1800.0
G1 X1.67 Y-5.24 Z2.06 F1800.0
G1 X1.67 Y-5.67 Z2.06 F1800.0
G1 X1.73 Y-5.67 Z2.06 F1800.0
G1 X1.73 Y-6.11 Z2.06 F1800.0
G1 X1.67 Y-6.11 Z2.06 F1800.0
G1 X1.67 Y-6.55 Z2.06 F1800.0
G1 X1.73 Y-6.55 Z2.06 F1800.0
G1 X1.73 Y-6.98 Z2.06 F1800.0
G1 X1.67 Y-6.98 Z2.06 F1800.0
G1 X1.67 Y-7.42 Z2.06 F1800.0
G1 X1.73 Y-7.42 Z2.06 F1800.0
G1 X1.73 Y-7.85 Z2.06 F1800.0
G1 X1.67 Y-7.85 Z2.06 F1800.0
G1 X1.67 Y-8.29 Z2.06 F1800.0
G1 X1.73 Y-8.29 Z2.06 F1800.0
G1 X1.73 Y-8.73 Z2.06 F1800.0
G1 X1.67 Y-8.73 Z2.06 F1800.0
G1 X1.67 Y-9.16 Z2.06 F1800.0
G1 X1.73 Y-9.16 Z2.06 F1800.0
G1 X1.73 Y-9.6 Z2.06 F1800.0
G1 X1.67 Y-9.6 Z2.06 F1800.0
G1 X1.67 Y-10.04 Z2.06 F1800.0
G1 X1.73 Y-10.04 Z2.06 F1800.0
G1 X1.73 Y-10.47 Z2.06 F1800.0
G1 X1.67 Y-10.47 Z2.06 F1800.0
G1 X1.67 Y-10.91 Z2.06 F1800.0
G1 X1.73 Y-10.91 Z2.06 F1800.0
G1 X1.73 Y-11.35 Z2.06 F1800.0
G1 X1.67 Y-11.35 Z2.06 F1800.0
G1 X1.67 Y-11.78 Z2.06 F1800.0
G1 X1.73 Y-11.78 Z2.06 F1800.0
G1 X1.73 Y-12.22 Z2.06 F1800.0
G1 X1.67 Y-12.22 Z2.06 F1800.0
G1 X1.67 Y-12.26 Z2.06 F1800.0
M108 R30.0
M102
G1 X1.67 Y-12.65 Z2.06 F1800.0
G1 X1.73 Y-12.65 Z2.06 F1800.0
M108 R3.569
M103
G1 X5.15 Y-13.36 Z2.06 F3000.0
M108 R30.0
M101
G1 X5.93 Y-13.53 Z2.06 F3000.0
M108 R3.569
G1 X7.05 Y-13.53 Z2.06 F1800.0
G1 X6.74 Y-13.85 Z2.06 F1800.0
M108 R30.0
M102
G1 X6.64 Y-13.96 Z2.06 F1800.0
G1 X6.34 Y-13.96 Z2.06 F1800.0
M108 R3.569
M103
G1 X8.07 Y-13.66 Z2.06 F3000.0
M108 R30.0
M101
G1 X8.86 Y-13.53 Z2.06 F3000.0
M108 R3.569
G1 X9.95 Y-13.53 Z2.06 F1800.0
G1 X9.66 Y-13.84 Z2.06 F1800.0
M108 R30.0
M102
G1 X9.54 Y-13.96 Z2.06 F1800.0
G1 X9.26 Y-13.96 Z2.06 F1800.0
M108 R3.569
M103
G1 X10.97 Y-13.66 Z2.06 F3000.0
M108 R30.0
M101
G1 X11.76 Y-13.53 Z2.06 F3000.0
M108 R3.569
G1 X12.87 Y-13.53 Z2.06 F1800.0
G1 X12.57 Y-13.85 Z2.06 F1800.0
M108 R30.0
M102
G1 X12.47 Y-13.96 Z2.06 F1800.0
G1 X12.17 Y-13.96 Z2.06 F1800.0
M108 R3.569
M103
G1 X16.93 Y-13.21 Z2.06 F3000.0
M108 R30.0
M101
G1 X17.72 Y-13.09 Z2.06 F3000.0
M108 R3.569
G1 X17.42 Y-12.65 Z2.06 F1800.0
G1 X17.72 Y-12.65 Z2.06 F1800.0
G1 X17.72 Y-12.22 Z2.06 F1800.0
G1 X17.42 Y-12.22 Z2.06 F1800.0
G1 X17.42 Y-11.78 Z2.06 F1800.0
G1 X17.72 Y-11.78 Z2.06 F1800.0
G1 X17.72 Y-11.35 Z2.06 F1800.0
G1 X17.42 Y-11.35 Z2.06 F1800.0
G1 X17.42 Y-10.91 Z2.06 F1800.0
G1 X17.72 Y-10.91 Z2.06 F1800.0
G1 X17.72 Y-10.47 Z2.06 F1800.0
G1 X17.42 Y-10.47 Z2.06 F1800.0
G1 X17.42 Y-10.04 Z2.06 F1800.0
G1 X17.72 Y-10.04 Z2.06 F1800.0
G1 X17.72 Y-9.6 Z2.06 F1800.0
G1 X17.42 Y-9.6 Z2.06 F1800.0
G1 X17.42 Y-9.16 Z2.06 F1800.0
G1 X17.72 Y-9.16 Z2.06 F1800.0
G1 X17.42 Y-8.73 Z2.06 F1800.0
G1 X17.87 Y-8.73 Z2.06 F1800.0
G1 X18.29 Y-8.29 Z2.06 F1800.0
G1 X18.2 Y-7.85 Z2.06 F1800.0
G1 X17.42 Y-8.29 Z2.06 F1800.0
G1 X17.42 Y-7.42 Z2.06 F1800.0
G1 X17.82 Y-7.42 Z2.06 F1800.0
G1 X17.42 Y-6.98 Z2.06 F1800.0
G1 X17.72 Y-6.98 Z2.06 F1800.0
G1 X17.72 Y-6.55 Z2.06 F1800.0
G1 X17.42 Y-6.55 Z2.06 F1800.0
G1 X17.42 Y-6.11 Z2.06 F1800.0
G1 X17.72 Y-6.11 Z2.06 F1800.0
G1 X17.42 Y-5.67 Z2.06 F1800.0
G1 X17.96 Y-5.67 Z2.06 F1800.0
G1 X18.47 Y-5.24 Z2.06 F1800.0
G1 X18.04 Y-4.8 Z2.06 F1800.0
G1 X17.42 Y-5.24 Z2.06 F1800.0
G1 X17.42 Y-4.36 Z2.06 F1800.0
G1 X17.72 Y-4.36 Z2.06 F1800.0
G1 X17.72 Y-3.93 Z2.06 F1800.0
G1 X17.42 Y-3.93 Z2.06 F1800.0
G1 X17.42 Y-3.49 Z2.06 F1800.0
G1 X17.72 Y-3.49 Z2.06 F1800.0
G1 X17.76 Y-3.05 Z2.06 F1800.0
G1 X17.42 Y-3.05 Z2.06 F1800.0
G1 X17.42 Y-2.18 Z2.06 F1800.0
G1 X18.11 Y-2.62 Z2.06 F1800.0
G1 X18.43 Y-2.18 Z2.06 F1800.0
G1 X18.07 Y-1.93 Z2.06 F1800.0
G1 X17.92 Y-1.75 Z2.06 F1800.0
G1 X17.42 Y-1.75 Z2.06 F1800.0
G1 X17.42 Y-1.31 Z2.06 F1800.0
G1 X17.72 Y-1.31 Z2.06 F1800.0
G1 X17.72 Y-0.87 Z2.06 F1800.0
G1 X17.42 Y-0.87 Z2.06 F1800.0
G1 X17.42 Y-0.44 Z2.06 F1800.0
G1 X17.72 Y-0.44 Z2.06 F1800.0
G1 X17.72 Y-0.0 Z2.06 F1800.0
G1 X17.42 Y-0.0 Z2.06 F1800.0
G1 X17.42 Y0.44 Z2.06 F1800.0
G1 X17.72 Y0.44 Z2.06 F1800.0
G1 X17.72 Y0.87 Z2.06 F1800.0
G1 X17.42 Y0.87 Z2.06 F1800.0
G1 X17.42 Y1.31 Z2.06 F1800.0
