(** This GCode was generated by ReplicatorG 0034 **)
(*  using Skeinforge (35)  *)
(*  for a Single headed Thing-O-Matic  *)
(*  on 2012/04/17 16:47:55 (-0400) *)
(<alteration>)
(**** beginning of start.gcode ****)
(This file is for a MakerBot Thing-O-Matic)
(**** begin initialization commands ****)
G21 (set units to mm)
G90 (set positioning to absolute)
M108 R5.0 (set extruder speed)
M103 (Make sure extruder is off)
M104 S225 T0 (set extruder temperature)
M109 S120 T0 (set heated-build-platform temperature)
(**** end initialization commands ****)
(**** begin homing ****)
G162 Z F1000 (home Z axis maximum)
G92 Z10 (set Z to 0)
G1 Z0.0 (move z down 10)
G162 Z F150 (home Z axis maximum)
G161 X Y F2500 (home XY axes minimum)
M132 X Y Z A B (Recall stored home offsets for XYZAB axis)
(**** end homing ****)
(**** begin pre-wipe commands ****)
( Some people have had problems with the nozzle hitting )
( bolts or wipers during this pre-extrusion warmup.     )
( If this happens to you, you can change the values for )
( the X and Y positions in the following code.          )
( The goal is to have the toolhead wipe its initial     )
( extrusion near the edge of the platform, [anchor it]  )
( so as not to have it interfere with the print.        )
( This file can be found in:                            )
( replicatorg/skein_engines/skeinforge-##/skeinforge_application/ )
( prefs/<profile name [e.g. Thingomatic-ABP-Mk7]>/alterations )
G1 X25.0 Y-60.0 Z10.0 F3300.0 (move to waiting position)
M6 T0 (wait for toolhead parts, nozzle, HBP, etc., to reach temperature)
G0 X25 Y-57 (Position Nozzle)
G0 Z0.6     (Position Height)
M108 R4.0   (Set Extruder Speed)
M101        (Start Extruder)
G4 P1500    (Create Anchor)
(**** end pre-wipe commands ****)
(**** end of start.gcode ****)
(</alteration>)
(<creation> skeinforge </creation>)
(<version> 10.11.05 </version>)
(<extruderInitialization>)
(<craftTypeName> extrusion </craftTypeName>)
M105
(<bridgeWidthMultiplier> 1.0 </bridgeWidthMultiplier>)
(<decimalPlacesCarried> 3 </decimalPlacesCarried>)
(<layerThickness> 0.32 </layerThickness>)
(<threadSequenceString> loops perimeter infill </threadSequenceString>)
(<operatingFeedRatePerSecond> 30.0 </operatingFeedRatePerSecond>)
(<operatingFlowRate> 3.56914845556 </operatingFlowRate>)
(<orbitalFeedRatePerSecond> 15.0 </orbitalFeedRatePerSecond>)
(<travelFeedRatePerSecond> 50.0 </travelFeedRatePerSecond>)
(<perimeterWidth> 0.393 </perimeterWidth>)
(<profileName> ABS </profileName>)
(<procedureDone> carve,bottom </procedureDone>)
(<procedureDone> preface </procedureDone>)
(<procedureDone> inset </procedureDone>)
(<procedureDone> fill </procedureDone>)
(<procedureDone> speed </procedureDone>)
(<procedureDone> raft </procedureDone>)
(<procedureDone> jitter </procedureDone>)
(<procedureDone> comb </procedureDone>)
(<procedureDone> cool </procedureDone>)
(<procedureDone> outline </procedureDone>)
(<procedureDone> reversal </procedureDone>)
(<procedureDone> export </procedureDone>)
(</extruderInitialization>)
(<extrusion>)
;M113 S1.0
M108 R3.569
(<layer> 0.46 )
(<surroundingLoop>)
(<boundaryPerimeter>)
(<boundaryPoint> X-45.512 Y-39.328 Z0.46 </boundaryPoint>)
(<boundaryPoint> X25.079 Y25.201 Z0.46 </boundaryPoint>)
(<boundaryPoint> X25.143 Y25.22 Z0.46 </boundaryPoint>)
(<boundaryPoint> X25.153 Y25.211 Z0.46 </boundaryPoint>)
(<boundaryPoint> X25.142 Y25.145 Z0.46 </boundaryPoint>)
(<boundaryPoint> X-29.269 Y-50.943 Z0.46 </boundaryPoint>)
(<boundaryPoint> X-27.22 Y-52.409 Z0.46 </boundaryPoint>)
(<boundaryPoint> X46.073 Y50.081 Z0.46 </boundaryPoint>)
(<boundaryPoint> X43.947 Y52.406 Z0.46 </boundaryPoint>)
(<boundaryPoint> X-51.343 Y-34.7 Z0.46 </boundaryPoint>)
(<boundaryPoint> X-51.544 Y-34.952 Z0.46 </boundaryPoint>)
(<boundaryPoint> X-51.314 Y-35.179 Z0.46 </boundaryPoint>)
(<loop> outer )
M108 R2.141
G1 X47.82 Y-54.14 Z0.46 F1080.0
M101
G1 X-53.38 Y-54.14 Z0.46 F1080.0
G1 X-53.38 Y54.13 Z0.46 F1080.0
G1 X47.82 Y54.13 Z0.46 F1080.0
G1 X47.82 Y-53.87 Z0.46 F1080.0
M108 R30.0
M102
G1 X47.82 Y-54.14 Z0.46 F1080.0
M108 R2.141
M103
G1 X-0.93 Y1.14 Z0.46 F3000.0
M108 R30.0
M101
G1 X-1.46 Y1.74 Z0.46 F3000.0
M108 R2.141
G1 X24.78 Y25.73 Z0.46 F1080.0
G1 X25.29 Y25.88 Z0.46 F1080.0
G1 X25.79 Y25.43 Z0.46 F1080.0
G1 X25.7 Y24.91 Z0.46 F1080.0
G1 X-28.45 Y-50.81 Z0.46 F1080.0
G1 X-27.36 Y-51.59 Z0.46 F1080.0
G1 X45.32 Y50.04 Z0.46 F1080.0
G1 X43.91 Y51.57 Z0.46 F1080.0
G1 X-50.69 Y-34.9 Z0.46 F1080.0
G1 X-45.56 Y-38.57 Z0.46 F1080.0
G1 X-1.53 Y1.68 Z0.46 F1080.0
G1 X-1.46 Y1.74 Z0.46 F1080.0
M103
(</loop>)
(<perimeter> outer )
G1 X-1.27 Y1.38 Z0.46 F3000.0
M101
G1 X24.98 Y25.38 Z0.46 F1080.0
G1 X25.19 Y25.44 Z0.46 F1080.0
G1 X25.37 Y25.29 Z0.46 F1080.0
G1 X25.33 Y25.07 Z0.46 F1080.0
G1 X-29.0 Y-50.9 Z0.46 F1080.0
G1 X-27.27 Y-52.14 Z0.46 F1080.0
G1 X45.82 Y50.07 Z0.46 F1080.0
G1 X43.94 Y52.13 Z0.46 F1080.0
G1 X-51.23 Y-34.86 Z0.46 F1080.0
G1 X-51.38 Y-34.94 Z0.46 F1080.0
G1 X-51.22 Y-35.01 Z0.46 F1080.0
G1 X-45.53 Y-39.08 Z0.46 F1080.0
G1 X-1.47 Y1.2 Z0.46 F1080.0
M108 R30.0
M102
G1 X-1.27 Y1.38 Z0.46 F1080.0
M108 R2.141
M103
(</perimeter>)
(</boundaryPerimeter>)
G1 X-1.29 Y1.47 Z0.46 F3000.0
G1 X25.21 Y24.97 Z0.46 F3000.0
G1 X25.09 Y24.99 Z0.46 F3000.0
G1 X24.93 Y25.13 Z0.46 F3000.0
G1 X24.89 Y25.25 Z0.46 F3000.0
G1 X5.15 Y-3.28 Z0.46 F3000.0
G1 X5.9 Y-3.83 Z0.46 F1800.0
M108 R30.0
M101
G1 X6.28 Y-4.11 Z0.46 F1800.0
M108 R2.141
G1 X6.28 Y-2.68 Z0.46 F1080.0
G1 X5.89 Y-3.23 Z0.46 F1080.0
G1 X5.89 Y-4.66 Z0.46 F1080.0
G1 X5.5 Y-5.21 Z0.46 F1080.0
G1 X5.5 Y-3.78 Z0.46 F1080.0
G1 X5.11 Y-4.33 Z0.46 F1080.0
G1 X5.11 Y-5.76 Z0.46 F1080.0
M103
G1 X4.71 Y-6.3 Z0.46 F1800.0
M101
G1 X4.71 Y-4.88 Z0.46 F1080.0
G1 X4.32 Y-5.43 Z0.46 F1080.0
G1 X4.32 Y-6.85 Z0.46 F1080.0
M103
G1 X3.93 Y-7.4 Z0.46 F1800.0
M101
G1 X3.93 Y-5.97 Z0.46 F1080.0
G1 X3.53 Y-6.52 Z0.46 F1080.0
G1 X3.53 Y-7.95 Z0.46 F1080.0
G1 X3.14 Y-8.5 Z0.46 F1080.0
G1 X3.14 Y-7.07 Z0.46 F1080.0
G1 X2.75 Y-7.62 Z0.46 F1080.0
G1 X2.75 Y-9.05 Z0.46 F1080.0
G1 X2.36 Y-9.6 Z0.46 F1080.0
G1 X2.36 Y-8.17 Z0.46 F1080.0
G1 X1.96 Y-8.72 Z0.46 F1080.0
G1 X1.96 Y-10.15 Z0.46 F1080.0
G1 X1.57 Y-10.7 Z0.46 F1080.0
G1 X1.57 Y-9.27 Z0.46 F1080.0
G1 X1.18 Y-9.82 Z0.46 F1080.0
G1 X1.18 Y-11.25 Z0.46 F1080.0
G1 X0.79 Y-11.8 Z0.46 F1080.0
G1 X0.79 Y-10.37 Z0.46 F1080.0
M103
G1 X0.39 Y-10.92 Z0.46 F1800.0
M101
G1 X0.39 Y-12.35 Z0.46 F1080.0
G1 X-0.0 Y-12.89 Z0.46 F1080.0
G1 X-0.0 Y-11.47 Z0.46 F1080.0
M103
G1 X-0.39 Y-12.02 Z0.46 F1800.0
M101
G1 X-0.39 Y-13.44 Z0.46 F1080.0
G1 X-0.79 Y-13.99 Z0.46 F1080.0
G1 X-0.79 Y-12.56 Z0.46 F1080.0
G1 X-1.18 Y-13.11 Z0.46 F1080.0
G1 X-1.18 Y-14.54 Z0.46 F1080.0
G1 X-1.57 Y-15.09 Z0.46 F1080.0
G1 X-1.57 Y-13.66 Z0.46 F1080.0
M103
G1 X-1.96 Y-14.21 Z0.46 F1800.0
M101
G1 X-1.96 Y-15.64 Z0.46 F1080.0
G1 X-2.36 Y-16.19 Z0.46 F1080.0
G1 X-2.36 Y-14.76 Z0.46 F1080.0
G1 X-2.75 Y-15.31 Z0.46 F1080.0
G1 X-2.75 Y-16.74 Z0.46 F1080.0
G1 X-3.14 Y-17.29 Z0.46 F1080.0
G1 X-3.14 Y-15.86 Z0.46 F1080.0
G1 X-3.53 Y-16.41 Z0.46 F1080.0
G1 X-3.53 Y-17.84 Z0.46 F1080.0
G1 X-3.93 Y-18.39 Z0.46 F1080.0
G1 X-3.93 Y-16.96 Z0.46 F1080.0
G1 X-4.32 Y-17.51 Z0.46 F1080.0
G1 X-4.32 Y-18.93 Z0.46 F1080.0
G1 X-4.71 Y-19.48 Z0.46 F1080.0
G1 X-4.71 Y-18.06 Z0.46 F1080.0
G1 X-5.11 Y-18.6 Z0.46 F1080.0
G1 X-5.11 Y-20.03 Z0.46 F1080.0
G1 X-5.5 Y-20.58 Z0.46 F1080.0
G1 X-5.5 Y-19.15 Z0.46 F1080.0
G1 X-5.89 Y-19.7 Z0.46 F1080.0
G1 X-5.89 Y-21.13 Z0.46 F1080.0
M103
G1 X-6.28 Y-21.68 Z0.46 F1800.0
M101
G1 X-6.28 Y-20.25 Z0.46 F1080.0
G1 X-6.68 Y-20.8 Z0.46 F1080.0
G1 X-6.68 Y-22.23 Z0.46 F1080.0
G1 X-7.07 Y-22.78 Z0.46 F1080.0
G1 X-7.07 Y-21.35 Z0.46 F1080.0
G1 X-7.46 Y-21.9 Z0.46 F1080.0
G1 X-7.46 Y-23.33 Z0.46 F1080.0
M103
G1 X-7.85 Y-23.88 Z0.46 F1800.0
M101
G1 X-7.85 Y-22.45 Z0.46 F1080.0
G1 X-8.25 Y-23.0 Z0.46 F1080.0
G1 X-8.25 Y-24.43 Z0.46 F1080.0
G1 X-8.64 Y-24.98 Z0.46 F1080.0
G1 X-8.64 Y-23.55 Z0.46 F1080.0
G1 X-9.03 Y-24.1 Z0.46 F1080.0
G1 X-9.03 Y-25.52 Z0.46 F1080.0
G1 X-9.43 Y-26.07 Z0.46 F1080.0
G1 X-9.43 Y-24.65 Z0.46 F1080.0
G1 X-9.82 Y-25.19 Z0.46 F1080.0
G1 X-9.82 Y-26.62 Z0.46 F1080.0
G1 X-10.21 Y-27.17 Z0.46 F1080.0
G1 X-10.21 Y-25.74 Z0.46 F1080.0
G1 X-10.6 Y-26.29 Z0.46 F1080.0
G1 X-10.6 Y-27.72 Z0.46 F1080.0
G1 X-11.0 Y-28.27 Z0.46 F1080.0
G1 X-11.0 Y-26.84 Z0.46 F1080.0
G1 X-11.39 Y-27.39 Z0.46 F1080.0
G1 X-11.39 Y-28.82 Z0.46 F1080.0
G1 X-11.78 Y-29.37 Z0.46 F1080.0
G1 X-11.78 Y-27.94 Z0.46 F1080.0
M103
G1 X-12.17 Y-28.49 Z0.46 F1800.0
M101
G1 X-12.17 Y-29.92 Z0.46 F1080.0
G1 X-12.57 Y-30.47 Z0.46 F1080.0
G1 X-12.57 Y-29.04 Z0.46 F1080.0
M103
G1 X-12.96 Y-29.59 Z0.46 F1800.0
M101
G1 X-12.96 Y-31.02 Z0.46 F1080.0
G1 X-13.35 Y-31.57 Z0.46 F1080.0
G1 X-13.35 Y-30.14 Z0.46 F1080.0
G1 X-13.74 Y-30.69 Z0.46 F1080.0
G1 X-13.74 Y-32.11 Z0.46 F1080.0
G1 X-14.14 Y-32.66 Z0.46 F1080.0
G1 X-14.14 Y-31.24 Z0.46 F1080.0
G1 X-14.53 Y-31.78 Z0.46 F1080.0
G1 X-14.53 Y-33.21 Z0.46 F1080.0
G1 X-14.92 Y-33.76 Z0.46 F1080.0
G1 X-14.92 Y-32.33 Z0.46 F1080.0
G1 X-15.32 Y-32.88 Z0.46 F1080.0
G1 X-15.32 Y-34.31 Z0.46 F1080.0
G1 X-15.71 Y-34.86 Z0.46 F1080.0
G1 X-15.71 Y-33.43 Z0.46 F1080.0
G1 X-16.1 Y-33.98 Z0.46 F1080.0
G1 X-16.1 Y-35.41 Z0.46 F1080.0
G1 X-16.49 Y-35.96 Z0.46 F1080.0
G1 X-16.49 Y-34.53 Z0.46 F1080.0
G1 X-16.89 Y-35.08 Z0.46 F1080.0
G1 X-16.89 Y-36.51 Z0.46 F1080.0
G1 X-17.28 Y-37.06 Z0.46 F1080.0
G1 X-17.28 Y-35.63 Z0.46 F1080.0
G1 X-17.67 Y-36.18 Z0.46 F1080.0
G1 X-17.67 Y-37.6 Z0.46 F1080.0
G1 X-18.06 Y-38.15 Z0.46 F1080.0
G1 X-18.06 Y-36.73 Z0.46 F1080.0
G1 X-18.46 Y-37.28 Z0.46 F1080.0
G1 X-18.46 Y-38.7 Z0.46 F1080.0
M103
G1 X-18.85 Y-39.25 Z0.46 F1800.0
M101
G1 X-18.85 Y-37.83 Z0.46 F1080.0
G1 X-19.24 Y-38.37 Z0.46 F1080.0
G1 X-19.24 Y-39.8 Z0.46 F1080.0
G1 X-19.64 Y-40.35 Z0.46 F1080.0
G1 X-19.64 Y-38.92 Z0.46 F1080.0
G1 X-20.03 Y-39.47 Z0.46 F1080.0
G1 X-20.03 Y-40.9 Z0.46 F1080.0
M103
G1 X-20.42 Y-41.45 Z0.46 F1800.0
M101
G1 X-20.42 Y-40.02 Z0.46 F1080.0
G1 X-20.81 Y-40.57 Z0.46 F1080.0
G1 X-20.81 Y-42.0 Z0.46 F1080.0
G1 X-21.21 Y-42.55 Z0.46 F1080.0
G1 X-21.21 Y-41.12 Z0.46 F1080.0
G1 X-21.6 Y-41.67 Z0.46 F1080.0
G1 X-21.6 Y-43.1 Z0.46 F1080.0
G1 X-21.99 Y-43.65 Z0.46 F1080.0
G1 X-21.99 Y-42.22 Z0.46 F1080.0
G1 X-22.38 Y-42.77 Z0.46 F1080.0
G1 X-22.38 Y-44.2 Z0.46 F1080.0
G1 X-22.78 Y-44.74 Z0.46 F1080.0
G1 X-22.78 Y-43.32 Z0.46 F1080.0
G1 X-23.17 Y-43.87 Z0.46 F1080.0
G1 X-23.17 Y-45.29 Z0.46 F1080.0
G1 X-23.56 Y-45.84 Z0.46 F1080.0
G1 X-23.56 Y-44.41 Z0.46 F1080.0
G1 X-23.96 Y-44.96 Z0.46 F1080.0
G1 X-23.96 Y-46.39 Z0.46 F1080.0
G1 X-24.35 Y-46.94 Z0.46 F1080.0
G1 X-24.35 Y-45.51 Z0.46 F1080.0
M103
G1 X-24.74 Y-46.06 Z0.46 F1800.0
M101
G1 X-24.74 Y-47.49 Z0.46 F1080.0
G1 X-25.13 Y-48.04 Z0.46 F1080.0
G1 X-25.13 Y-46.61 Z0.46 F1080.0
M103
G1 X-25.53 Y-47.16 Z0.46 F1800.0
M101
G1 X-25.53 Y-48.59 Z0.46 F1080.0
G1 X-25.92 Y-49.14 Z0.46 F1080.0
G1 X-25.92 Y-47.71 Z0.46 F1080.0
G1 X-26.31 Y-48.26 Z0.46 F1080.0
G1 X-26.31 Y-49.69 Z0.46 F1080.0
G1 X-26.7 Y-50.24 Z0.46 F1080.0
G1 X-26.7 Y-48.81 Z0.46 F1080.0
G1 X-27.1 Y-49.36 Z0.46 F1080.0
G1 X-27.1 Y-50.78 Z0.46 F1080.0
G1 X-27.49 Y-51.18 Z0.46 F1080.0
G1 X-27.49 Y-49.91 Z0.46 F1080.0
G1 X-27.88 Y-50.46 Z0.46 F1080.0
G1 X-27.88 Y-50.63 Z0.46 F1080.0
M108 R30.0
M102
G1 X-27.88 Y-50.9 Z0.46 F1080.0
M108 R2.141
M103
G1 X25.39 Y25.04 Z0.46 F3000.0
G1 X25.38 Y25.29 Z0.46 F3000.0
G1 X25.2 Y25.45 Z0.46 F3000.0
G1 X24.95 Y25.43 Z0.46 F3000.0
G1 X-42.06 Y-35.03 Z0.46 F1800.0
M108 R30.0
M101
G1 X-42.41 Y-35.35 Z0.46 F1800.0
M108 R2.141
G1 X-42.41 Y-27.68 Z0.46 F1080.0
G1 X-42.02 Y-27.32 Z0.46 F1080.0
G1 X-42.02 Y-34.99 Z0.46 F1080.0
G1 X-41.63 Y-34.63 Z0.46 F1080.0
G1 X-41.63 Y-26.96 Z0.46 F1080.0
G1 X-41.23 Y-26.6 Z0.46 F1080.0
G1 X-41.23 Y-34.27 Z0.46 F1080.0
G1 X-40.84 Y-33.91 Z0.46 F1080.0
G1 X-40.84 Y-26.24 Z0.46 F1080.0
G1 X-40.45 Y-25.89 Z0.46 F1080.0
G1 X-40.45 Y-33.56 Z0.46 F1080.0
G1 X-40.06 Y-33.2 Z0.46 F1080.0
G1 X-40.06 Y-25.53 Z0.46 F1080.0
G1 X-39.66 Y-25.17 Z0.46 F1080.0
G1 X-39.66 Y-32.84 Z0.46 F1080.0
G1 X-39.27 Y-32.48 Z0.46 F1080.0
G1 X-39.27 Y-24.81 Z0.46 F1080.0
G1 X-38.88 Y-24.45 Z0.46 F1080.0
G1 X-38.88 Y-32.12 Z0.46 F1080.0
G1 X-38.49 Y-31.76 Z0.46 F1080.0
G1 X-38.49 Y-24.09 Z0.46 F1080.0
G1 X-38.09 Y-23.73 Z0.46 F1080.0
G1 X-38.09 Y-31.4 Z0.46 F1080.0
G1 X-37.7 Y-31.04 Z0.46 F1080.0
G1 X-37.7 Y-23.37 Z0.46 F1080.0
G1 X-37.31 Y-23.01 Z0.46 F1080.0
G1 X-37.31 Y-30.68 Z0.46 F1080.0
G1 X-36.91 Y-30.32 Z0.46 F1080.0
G1 X-36.91 Y-22.65 Z0.46 F1080.0
G1 X-36.52 Y-22.3 Z0.46 F1080.0
G1 X-36.52 Y-29.97 Z0.46 F1080.0
G1 X-36.13 Y-29.61 Z0.46 F1080.0
G1 X-36.13 Y-21.94 Z0.46 F1080.0
G1 X-35.74 Y-21.58 Z0.46 F1080.0
G1 X-35.74 Y-29.25 Z0.46 F1080.0
G1 X-35.34 Y-28.89 Z0.46 F1080.0
G1 X-35.34 Y-21.22 Z0.46 F1080.0
G1 X-34.95 Y-20.86 Z0.46 F1080.0
G1 X-34.95 Y-28.53 Z0.46 F1080.0
G1 X-34.56 Y-28.17 Z0.46 F1080.0
G1 X-34.56 Y-20.5 Z0.46 F1080.0
G1 X-34.17 Y-20.14 Z0.46 F1080.0
G1 X-34.17 Y-27.81 Z0.46 F1080.0
G1 X-33.77 Y-27.45 Z0.46 F1080.0
G1 X-33.77 Y-19.78 Z0.46 F1080.0
G1 X-33.38 Y-19.42 Z0.46 F1080.0
G1 X-33.38 Y-27.09 Z0.46 F1080.0
G1 X-32.99 Y-26.73 Z0.46 F1080.0
G1 X-32.99 Y-19.07 Z0.46 F1080.0
G1 X-32.59 Y-18.71 Z0.46 F1080.0
G1 X-32.59 Y-26.38 Z0.46 F1080.0
G1 X-32.2 Y-26.02 Z0.46 F1080.0
G1 X-32.2 Y-18.35 Z0.46 F1080.0
G1 X-31.81 Y-17.99 Z0.46 F1080.0
G1 X-31.81 Y-25.66 Z0.46 F1080.0
G1 X-31.42 Y-25.3 Z0.46 F1080.0
G1 X-31.42 Y-17.63 Z0.46 F1080.0
G1 X-31.02 Y-17.27 Z0.46 F1080.0
G1 X-31.02 Y-24.94 Z0.46 F1080.0
G1 X-30.63 Y-24.58 Z0.46 F1080.0
G1 X-30.63 Y-16.91 Z0.46 F1080.0
G1 X-30.24 Y-16.55 Z0.46 F1080.0
G1 X-30.24 Y-24.22 Z0.46 F1080.0
G1 X-29.85 Y-23.86 Z0.46 F1080.0
G1 X-29.85 Y-16.19 Z0.46 F1080.0
G1 X-29.45 Y-15.83 Z0.46 F1080.0
G1 X-29.45 Y-23.5 Z0.46 F1080.0
G1 X-29.06 Y-23.14 Z0.46 F1080.0
G1 X-29.06 Y-15.48 Z0.46 F1080.0
G1 X-28.67 Y-15.12 Z0.46 F1080.0
G1 X-28.67 Y-22.79 Z0.46 F1080.0
G1 X-28.27 Y-22.43 Z0.46 F1080.0
G1 X-28.27 Y-14.76 Z0.46 F1080.0
G1 X-27.88 Y-14.4 Z0.46 F1080.0
G1 X-27.88 Y-22.07 Z0.46 F1080.0
G1 X-27.49 Y-21.71 Z0.46 F1080.0
G1 X-27.49 Y-14.04 Z0.46 F1080.0
G1 X-27.1 Y-13.68 Z0.46 F1080.0
G1 X-27.1 Y-21.35 Z0.46 F1080.0
G1 X-26.7 Y-20.99 Z0.46 F1080.0
G1 X-26.7 Y-13.32 Z0.46 F1080.0
G1 X-26.31 Y-12.96 Z0.46 F1080.0
G1 X-26.31 Y-20.63 Z0.46 F1080.0
G1 X-25.92 Y-20.27 Z0.46 F1080.0
G1 X-25.92 Y-12.6 Z0.46 F1080.0
G1 X-25.53 Y-12.24 Z0.46 F1080.0
G1 X-25.53 Y-19.91 Z0.46 F1080.0
G1 X-25.13 Y-19.55 Z0.46 F1080.0
G1 X-25.13 Y-11.89 Z0.46 F1080.0
G1 X-24.74 Y-11.53 Z0.46 F1080.0
G1 X-24.74 Y-19.2 Z0.46 F1080.0
G1 X-24.35 Y-18.84 Z0.46 F1080.0
G1 X-24.35 Y-11.17 Z0.46 F1080.0
G1 X-23.96 Y-10.81 Z0.46 F1080.0
G1 X-23.96 Y-18.48 Z0.46 F1080.0
G1 X-23.56 Y-18.12 Z0.46 F1080.0
G1 X-23.56 Y-10.45 Z0.46 F1080.0
G1 X-23.17 Y-10.09 Z0.46 F1080.0
G1 X-23.17 Y-17.76 Z0.46 F1080.0
G1 X-22.78 Y-17.4 Z0.46 F1080.0
G1 X-22.78 Y-9.73 Z0.46 F1080.0
G1 X-22.38 Y-9.37 Z0.46 F1080.0
G1 X-22.38 Y-17.04 Z0.46 F1080.0
G1 X-21.99 Y-16.68 Z0.46 F1080.0
G1 X-21.99 Y-9.01 Z0.46 F1080.0
G1 X-21.6 Y-8.65 Z0.46 F1080.0
G1 X-21.6 Y-16.32 Z0.46 F1080.0
G1 X-21.21 Y-15.97 Z0.46 F1080.0
G1 X-21.21 Y-8.3 Z0.46 F1080.0
G1 X-20.81 Y-7.94 Z0.46 F1080.0
G1 X-20.81 Y-15.61 Z0.46 F1080.0
G1 X-20.42 Y-15.25 Z0.46 F1080.0
G1 X-20.42 Y-7.58 Z0.46 F1080.0
G1 X-20.03 Y-7.22 Z0.46 F1080.0
G1 X-20.03 Y-14.89 Z0.46 F1080.0
G1 X-19.64 Y-14.53 Z0.46 F1080.0
G1 X-19.64 Y-6.86 Z0.46 F1080.0
G1 X-19.24 Y-6.5 Z0.46 F1080.0
G1 X-19.24 Y-14.17 Z0.46 F1080.0
G1 X-18.85 Y-13.81 Z0.46 F1080.0
G1 X-18.85 Y-6.14 Z0.46 F1080.0
G1 X-18.46 Y-5.78 Z0.46 F1080.0
G1 X-18.46 Y-13.45 Z0.46 F1080.0
G1 X-18.06 Y-13.09 Z0.46 F1080.0
G1 X-18.06 Y-5.42 Z0.46 F1080.0
G1 X-17.67 Y-5.07 Z0.46 F1080.0
G1 X-17.67 Y-12.73 Z0.46 F1080.0
G1 X-17.28 Y-12.38 Z0.46 F1080.0
G1 X-17.28 Y-4.71 Z0.46 F1080.0
G1 X-16.89 Y-4.35 Z0.46 F1080.0
G1 X-16.89 Y-12.02 Z0.46 F1080.0
G1 X-16.49 Y-11.66 Z0.46 F1080.0
G1 X-16.49 Y-3.99 Z0.46 F1080.0
G1 X-16.1 Y-3.63 Z0.46 F1080.0
G1 X-16.1 Y-11.3 Z0.46 F1080.0
G1 X-15.71 Y-10.94 Z0.46 F1080.0
G1 X-15.71 Y-3.27 Z0.46 F1080.0
G1 X-15.32 Y-2.91 Z0.46 F1080.0
G1 X-15.32 Y-10.58 Z0.46 F1080.0
G1 X-14.92 Y-10.22 Z0.46 F1080.0
G1 X-14.92 Y-2.55 Z0.46 F1080.0
G1 X-14.53 Y-2.19 Z0.46 F1080.0
G1 X-14.53 Y-9.86 Z0.46 F1080.0
G1 X-14.14 Y-9.5 Z0.46 F1080.0
G1 X-14.14 Y-1.83 Z0.46 F1080.0
G1 X-13.74 Y-1.48 Z0.46 F1080.0
G1 X-13.74 Y-9.14 Z0.46 F1080.0
G1 X-13.35 Y-8.79 Z0.46 F1080.0
G1 X-13.35 Y-1.12 Z0.46 F1080.0
G1 X-12.96 Y-0.76 Z0.46 F1080.0
G1 X-12.96 Y-8.43 Z0.46 F1080.0
G1 X-12.57 Y-8.07 Z0.46 F1080.0
G1 X-12.57 Y-0.4 Z0.46 F1080.0
G1 X-12.17 Y-0.04 Z0.46 F1080.0
G1 X-12.17 Y-7.71 Z0.46 F1080.0
G1 X-11.78 Y-7.35 Z0.46 F1080.0
G1 X-11.78 Y0.32 Z0.46 F1080.0
G1 X-11.39 Y0.68 Z0.46 F1080.0
G1 X-11.39 Y-6.99 Z0.46 F1080.0
G1 X-11.0 Y-6.63 Z0.46 F1080.0
G1 X-11.0 Y1.04 Z0.46 F1080.0
G1 X-10.6 Y1.4 Z0.46 F1080.0
G1 X-10.6 Y-6.27 Z0.46 F1080.0
G1 X-10.21 Y-5.91 Z0.46 F1080.0
G1 X-10.21 Y1.76 Z0.46 F1080.0
G1 X-9.82 Y2.12 Z0.46 F1080.0
G1 X-9.82 Y-5.55 Z0.46 F1080.0
G1 X-9.43 Y-5.2 Z0.46 F1080.0
G1 X-9.43 Y2.47 Z0.46 F1080.0
G1 X-9.03 Y2.83 Z0.46 F1080.0
G1 X-9.03 Y-4.84 Z0.46 F1080.0
G1 X-8.64 Y-4.48 Z0.46 F1080.0
G1 X-8.64 Y3.19 Z0.46 F1080.0
G1 X-8.25 Y3.55 Z0.46 F1080.0
G1 X-8.25 Y-4.12 Z0.46 F1080.0
G1 X-7.85 Y-3.76 Z0.46 F1080.0
G1 X-7.85 Y3.91 Z0.46 F1080.0
G1 X-7.46 Y4.27 Z0.46 F1080.0
G1 X-7.46 Y-3.4 Z0.46 F1080.0
G1 X-7.07 Y-3.04 Z0.46 F1080.0
G1 X-7.07 Y4.63 Z0.46 F1080.0
G1 X-6.68 Y4.99 Z0.46 F1080.0
G1 X-6.68 Y-2.68 Z0.46 F1080.0
G1 X-6.28 Y-2.32 Z0.46 F1080.0
G1 X-6.28 Y5.35 Z0.46 F1080.0
G1 X-5.89 Y5.71 Z0.46 F1080.0
G1 X-5.89 Y-1.97 Z0.46 F1080.0
G1 X-5.5 Y-1.61 Z0.46 F1080.0
G1 X-5.5 Y6.06 Z0.46 F1080.0
G1 X-5.11 Y6.42 Z0.46 F1080.0
G1 X-5.11 Y-1.25 Z0.46 F1080.0
G1 X-4.71 Y-0.89 Z0.46 F1080.0
G1 X-4.71 Y6.78 Z0.46 F1080.0
G1 X-4.32 Y7.14 Z0.46 F1080.0
G1 X-4.32 Y-0.53 Z0.46 F1080.0
G1 X-3.93 Y-0.17 Z0.46 F1080.0
G1 X-3.93 Y7.5 Z0.46 F1080.0
G1 X-3.53 Y7.86 Z0.46 F1080.0
G1 X-3.53 Y0.19 Z0.46 F1080.0
G1 X-3.14 Y0.55 Z0.46 F1080.0
G1 X-3.14 Y8.22 Z0.46 F1080.0
G1 X-2.75 Y8.58 Z0.46 F1080.0
G1 X-2.75 Y0.91 Z0.46 F1080.0
G1 X-2.36 Y1.27 Z0.46 F1080.0
G1 X-2.36 Y8.94 Z0.46 F1080.0
G1 X-1.96 Y9.29 Z0.46 F1080.0
G1 X-1.96 Y1.63 Z0.46 F1080.0
G1 X-1.57 Y1.98 Z0.46 F1080.0
G1 X-1.57 Y9.65 Z0.46 F1080.0
G1 X-1.18 Y10.01 Z0.46 F1080.0
G1 X-1.18 Y2.34 Z0.46 F1080.0
G1 X-0.79 Y2.7 Z0.46 F1080.0
G1 X-0.79 Y10.37 Z0.46 F1080.0
G1 X-0.39 Y10.73 Z0.46 F1080.0
G1 X-0.39 Y3.06 Z0.46 F1080.0
G1 X0.0 Y3.42 Z0.46 F1080.0
G1 X0.0 Y11.09 Z0.46 F1080.0
G1 X0.39 Y11.45 Z0.46 F1080.0
G1 X0.39 Y3.78 Z0.46 F1080.0
G1 X0.79 Y4.14 Z0.46 F1080.0
G1 X0.79 Y11.81 Z0.46 F1080.0
G1 X1.18 Y12.17 Z0.46 F1080.0
G1 X1.18 Y4.5 Z0.46 F1080.0
G1 X1.57 Y4.86 Z0.46 F1080.0
G1 X1.57 Y12.53 Z0.46 F1080.0
G1 X1.96 Y12.88 Z0.46 F1080.0
G1 X1.96 Y5.22 Z0.46 F1080.0
G1 X2.36 Y5.57 Z0.46 F1080.0
G1 X2.36 Y13.24 Z0.46 F1080.0
G1 X2.75 Y13.6 Z0.46 F1080.0
G1 X2.75 Y5.93 Z0.46 F1080.0
G1 X3.14 Y6.29 Z0.46 F1080.0
G1 X3.14 Y13.96 Z0.46 F1080.0
G1 X3.53 Y14.32 Z0.46 F1080.0
G1 X3.53 Y6.65 Z0.46 F1080.0
G1 X3.93 Y7.01 Z0.46 F1080.0
G1 X3.93 Y14.68 Z0.46 F1080.0
G1 X4.32 Y15.04 Z0.46 F1080.0
G1 X4.32 Y7.37 Z0.46 F1080.0
G1 X4.71 Y7.73 Z0.46 F1080.0
G1 X4.71 Y15.4 Z0.46 F1080.0
G1 X5.11 Y15.76 Z0.46 F1080.0
G1 X5.11 Y8.09 Z0.46 F1080.0
G1 X5.5 Y8.45 Z0.46 F1080.0
G1 X5.5 Y16.11 Z0.46 F1080.0
G1 X5.89 Y16.47 Z0.46 F1080.0
G1 X5.89 Y8.81 Z0.46 F1080.0
G1 X6.28 Y9.16 Z0.46 F1080.0
G1 X6.28 Y16.83 Z0.46 F1080.0
G1 X6.68 Y17.19 Z0.46 F1080.0
G1 X6.68 Y9.52 Z0.46 F1080.0
G1 X7.07 Y9.88 Z0.46 F1080.0
G1 X7.07 Y17.55 Z0.46 F1080.0
G1 X7.46 Y17.91 Z0.46 F1080.0
G1 X7.46 Y10.24 Z0.46 F1080.0
G1 X7.85 Y10.6 Z0.46 F1080.0
G1 X7.85 Y18.27 Z0.46 F1080.0
G1 X8.25 Y18.63 Z0.46 F1080.0
G1 X8.25 Y10.96 Z0.46 F1080.0
G1 X8.64 Y11.32 Z0.46 F1080.0
G1 X8.64 Y18.99 Z0.46 F1080.0
G1 X9.03 Y19.35 Z0.46 F1080.0
G1 X9.03 Y11.68 Z0.46 F1080.0
G1 X9.43 Y12.04 Z0.46 F1080.0
G1 X9.43 Y19.7 Z0.46 F1080.0
G1 X9.82 Y20.06 Z0.46 F1080.0
G1 X9.82 Y12.39 Z0.46 F1080.0
G1 X10.21 Y12.75 Z0.46 F1080.0
G1 X10.21 Y20.42 Z0.46 F1080.0
G1 X10.6 Y20.78 Z0.46 F1080.0
G1 X10.6 Y13.11 Z0.46 F1080.0
G1 X11.0 Y13.47 Z0.46 F1080.0
G1 X11.0 Y21.14 Z0.46 F1080.0
G1 X11.39 Y21.5 Z0.46 F1080.0
G1 X11.39 Y13.83 Z0.46 F1080.0
G1 X11.78 Y14.19 Z0.46 F1080.0
G1 X11.78 Y21.86 Z0.46 F1080.0
G1 X12.17 Y22.22 Z0.46 F1080.0
G1 X12.17 Y14.55 Z0.46 F1080.0
G1 X12.57 Y14.91 Z0.46 F1080.0
G1 X12.57 Y22.58 Z0.46 F1080.0
G1 X12.96 Y22.94 Z0.46 F1080.0
G1 X12.96 Y15.27 Z0.46 F1080.0
G1 X13.35 Y15.63 Z0.46 F1080.0
G1 X13.35 Y23.29 Z0.46 F1080.0
G1 X13.74 Y23.65 Z0.46 F1080.0
G1 X13.74 Y15.98 Z0.46 F1080.0
G1 X14.14 Y16.34 Z0.46 F1080.0
G1 X14.14 Y24.01 Z0.46 F1080.0
G1 X14.53 Y24.37 Z0.46 F1080.0
G1 X14.53 Y16.7 Z0.46 F1080.0
G1 X14.92 Y17.06 Z0.46 F1080.0
G1 X14.92 Y24.73 Z0.46 F1080.0
G1 X15.32 Y25.09 Z0.46 F1080.0
G1 X15.32 Y17.42 Z0.46 F1080.0
G1 X15.71 Y17.78 Z0.46 F1080.0
G1 X15.71 Y25.45 Z0.46 F1080.0
G1 X16.1 Y25.81 Z0.46 F1080.0
G1 X16.1 Y18.14 Z0.46 F1080.0
G1 X16.49 Y18.5 Z0.46 F1080.0
G1 X16.49 Y26.17 Z0.46 F1080.0
G1 X16.89 Y26.53 Z0.46 F1080.0
G1 X16.89 Y18.86 Z0.46 F1080.0
G1 X17.28 Y19.22 Z0.46 F1080.0
G1 X17.28 Y26.88 Z0.46 F1080.0
G1 X17.67 Y27.24 Z0.46 F1080.0
G1 X17.67 Y19.57 Z0.46 F1080.0
G1 X18.06 Y19.93 Z0.46 F1080.0
G1 X18.06 Y27.6 Z0.46 F1080.0
G1 X18.46 Y27.96 Z0.46 F1080.0
G1 X18.46 Y20.29 Z0.46 F1080.0
G1 X18.85 Y20.65 Z0.46 F1080.0
G1 X18.85 Y28.32 Z0.46 F1080.0
G1 X19.24 Y28.68 Z0.46 F1080.0
G1 X19.24 Y21.01 Z0.46 F1080.0
G1 X19.64 Y21.37 Z0.46 F1080.0
G1 X19.64 Y29.04 Z0.46 F1080.0
G1 X20.03 Y29.4 Z0.46 F1080.0
G1 X20.03 Y21.73 Z0.46 F1080.0
G1 X20.42 Y22.09 Z0.46 F1080.0
G1 X20.42 Y29.76 Z0.46 F1080.0
G1 X20.81 Y30.12 Z0.46 F1080.0
G1 X20.81 Y22.45 Z0.46 F1080.0
G1 X21.21 Y22.81 Z0.46 F1080.0
G1 X21.21 Y30.47 Z0.46 F1080.0
G1 X21.6 Y30.83 Z0.46 F1080.0
G1 X21.6 Y23.16 Z0.46 F1080.0
G1 X21.99 Y23.52 Z0.46 F1080.0
G1 X21.99 Y31.19 Z0.46 F1080.0
G1 X22.38 Y31.55 Z0.46 F1080.0
G1 X22.38 Y23.88 Z0.46 F1080.0
G1 X22.78 Y24.24 Z0.46 F1080.0
G1 X22.78 Y31.91 Z0.46 F1080.0
G1 X23.17 Y32.27 Z0.46 F1080.0
G1 X23.17 Y24.6 Z0.46 F1080.0
G1 X23.56 Y24.96 Z0.46 F1080.0
G1 X23.56 Y32.63 Z0.46 F1080.0
G1 X23.96 Y32.99 Z0.46 F1080.0
G1 X23.96 Y25.32 Z0.46 F1080.0
G1 X24.35 Y25.68 Z0.46 F1080.0
G1 X24.35 Y33.35 Z0.46 F1080.0
G1 X24.74 Y33.7 Z0.46 F1080.0
G1 X24.74 Y25.98 Z0.46 F1080.0
M103
G1 X25.13 Y26.1 Z0.46 F1800.0
M101
G1 X25.13 Y34.06 Z0.46 F1080.0
G1 X25.53 Y34.42 Z0.46 F1080.0
G1 X25.53 Y26.01 Z0.46 F1080.0
G1 X25.92 Y25.66 Z0.46 F1080.0
G1 X25.92 Y34.51 Z0.46 F1080.0
M108 R30.0
M102
G1 X25.92 Y34.78 Z0.46 F1080.0
M108 R2.141
M103
G1 X39.64 Y42.87 Z0.46 F1800.0
M108 R30.0
M101
G1 X40.06 Y43.12 Z0.46 F1800.0
M108 R2.141
G1 X40.06 Y47.7 Z0.46 F1080.0
G1 X39.66 Y47.35 Z0.46 F1080.0
G1 X39.66 Y42.57 Z0.46 F1080.0
G1 X39.27 Y42.02 Z0.46 F1080.0
G1 X39.27 Y46.99 Z0.46 F1080.0
G1 X38.88 Y46.63 Z0.46 F1080.0
G1 X38.88 Y41.47 Z0.46 F1080.0
G1 X38.49 Y40.92 Z0.46 F1080.0
G1 X38.49 Y46.27 Z0.46 F1080.0
G1 X38.09 Y45.91 Z0.46 F1080.0
G1 X38.09 Y40.37 Z0.46 F1080.0
G1 X37.7 Y39.82 Z0.46 F1080.0
G1 X37.7 Y45.55 Z0.46 F1080.0
G1 X37.31 Y45.19 Z0.46 F1080.0
G1 X37.31 Y39.27 Z0.46 F1080.0
G1 X36.91 Y38.73 Z0.46 F1080.0
G1 X36.91 Y44.83 Z0.46 F1080.0
G1 X36.52 Y44.47 Z0.46 F1080.0
G1 X36.52 Y38.18 Z0.46 F1080.0
G1 X36.13 Y37.63 Z0.46 F1080.0
G1 X36.13 Y44.12 Z0.46 F1080.0
G1 X35.74 Y43.76 Z0.46 F1080.0
G1 X35.74 Y37.08 Z0.46 F1080.0
G1 X35.34 Y36.53 Z0.46 F1080.0
G1 X35.34 Y43.4 Z0.46 F1080.0
G1 X34.95 Y43.04 Z0.46 F1080.0
G1 X34.95 Y35.98 Z0.46 F1080.0
G1 X34.56 Y35.43 Z0.46 F1080.0
G1 X34.56 Y42.68 Z0.46 F1080.0
G1 X34.17 Y42.32 Z0.46 F1080.0
G1 X34.17 Y34.88 Z0.46 F1080.0
G1 X33.77 Y34.33 Z0.46 F1080.0
G1 X33.77 Y41.96 Z0.46 F1080.0
G1 X33.38 Y41.6 Z0.46 F1080.0
G1 X33.38 Y33.78 Z0.46 F1080.0
G1 X32.99 Y33.23 Z0.46 F1080.0
G1 X32.99 Y41.24 Z0.46 F1080.0
G1 X32.59 Y40.88 Z0.46 F1080.0
G1 X32.59 Y32.68 Z0.46 F1080.0
G1 X32.2 Y32.14 Z0.46 F1080.0
G1 X32.2 Y40.53 Z0.46 F1080.0
G1 X31.81 Y40.17 Z0.46 F1080.0
G1 X31.81 Y31.59 Z0.46 F1080.0
G1 X31.42 Y31.04 Z0.46 F1080.0
G1 X31.42 Y39.81 Z0.46 F1080.0
G1 X31.02 Y39.45 Z0.46 F1080.0
G1 X31.02 Y30.49 Z0.46 F1080.0
G1 X30.63 Y29.94 Z0.46 F1080.0
G1 X30.63 Y39.09 Z0.46 F1080.0
G1 X30.24 Y38.73 Z0.46 F1080.0
G1 X30.24 Y29.39 Z0.46 F1080.0
M103
G1 X29.85 Y28.84 Z0.46 F1800.0
M101
G1 X29.85 Y38.37 Z0.46 F1080.0
G1 X29.45 Y38.01 Z0.46 F1080.0
G1 X29.45 Y28.29 Z0.46 F1080.0
M103
G1 X29.06 Y27.74 Z0.46 F1800.0
M101
G1 X29.06 Y37.65 Z0.46 F1080.0
G1 X28.67 Y37.29 Z0.46 F1080.0
G1 X28.67 Y27.19 Z0.46 F1080.0
G1 X28.27 Y26.64 Z0.46 F1080.0
G1 X28.27 Y36.94 Z0.46 F1080.0
G1 X27.88 Y36.58 Z0.46 F1080.0
G1 X27.88 Y26.1 Z0.46 F1080.0
G1 X27.49 Y25.55 Z0.46 F1080.0
G1 X27.49 Y36.22 Z0.46 F1080.0
G1 X27.1 Y35.86 Z0.46 F1080.0
G1 X27.1 Y25.0 Z0.46 F1080.0
G1 X26.7 Y24.45 Z0.46 F1080.0
G1 X26.7 Y35.5 Z0.46 F1080.0
G1 X26.31 Y35.14 Z0.46 F1080.0
G1 X26.31 Y23.9 Z0.46 F1080.0
G1 X25.92 Y23.35 Z0.46 F1080.0
G1 X25.92 Y24.78 Z0.46 F1080.0
G1 X25.53 Y24.23 Z0.46 F1080.0
G1 X25.53 Y22.8 Z0.46 F1080.0
G1 X25.13 Y22.25 Z0.46 F1080.0
G1 X25.13 Y23.68 Z0.46 F1080.0
M103
G1 X24.74 Y23.13 Z0.46 F1800.0
M101
G1 X24.74 Y21.7 Z0.46 F1080.0
G1 X24.35 Y21.15 Z0.46 F1080.0
G1 X24.35 Y22.58 Z0.46 F1080.0
G1 X23.96 Y22.03 Z0.46 F1080.0
G1 X23.96 Y20.6 Z0.46 F1080.0
G1 X23.56 Y20.05 Z0.46 F1080.0
G1 X23.56 Y21.48 Z0.46 F1080.0
M103
G1 X23.17 Y20.93 Z0.46 F1800.0
M101
G1 X23.17 Y19.51 Z0.46 F1080.0
G1 X22.78 Y18.96 Z0.46 F1080.0
G1 X22.78 Y20.39 Z0.46 F1080.0
G1 X22.38 Y19.84 Z0.46 F1080.0
G1 X22.38 Y18.41 Z0.46 F1080.0
G1 X21.99 Y17.86 Z0.46 F1080.0
G1 X21.99 Y19.29 Z0.46 F1080.0
G1 X21.6 Y18.74 Z0.46 F1080.0
G1 X21.6 Y17.31 Z0.46 F1080.0
G1 X21.21 Y16.76 Z0.46 F1080.0
G1 X21.21 Y18.19 Z0.46 F1080.0
G1 X20.81 Y17.64 Z0.46 F1080.0
G1 X20.81 Y16.21 Z0.46 F1080.0
G1 X20.42 Y15.66 Z0.46 F1080.0
G1 X20.42 Y17.09 Z0.46 F1080.0
G1 X20.03 Y16.54 Z0.46 F1080.0
G1 X20.03 Y15.11 Z0.46 F1080.0
G1 X19.64 Y14.56 Z0.46 F1080.0
G1 X19.64 Y15.99 Z0.46 F1080.0
G1 X19.24 Y15.44 Z0.46 F1080.0
G1 X19.24 Y14.01 Z0.46 F1080.0
G1 X18.85 Y13.47 Z0.46 F1080.0
G1 X18.85 Y14.89 Z0.46 F1080.0
G1 X18.46 Y14.35 Z0.46 F1080.0
G1 X18.46 Y12.92 Z0.46 F1080.0
G1 X18.06 Y12.37 Z0.46 F1080.0
G1 X18.06 Y13.8 Z0.46 F1080.0
G1 X17.67 Y13.25 Z0.46 F1080.0
G1 X17.67 Y11.82 Z0.46 F1080.0
M103
G1 X17.28 Y11.27 Z0.46 F1800.0
M101
G1 X17.28 Y12.7 Z0.46 F1080.0
G1 X16.89 Y12.15 Z0.46 F1080.0
G1 X16.89 Y10.72 Z0.46 F1080.0
M103
G1 X16.49 Y10.17 Z0.46 F1800.0
M101
G1 X16.49 Y11.6 Z0.46 F1080.0
G1 X16.1 Y11.05 Z0.46 F1080.0
G1 X16.1 Y9.62 Z0.46 F1080.0
G1 X15.71 Y9.07 Z0.46 F1080.0
G1 X15.71 Y10.5 Z0.46 F1080.0
G1 X15.32 Y9.95 Z0.46 F1080.0
G1 X15.32 Y8.52 Z0.46 F1080.0
G1 X14.92 Y7.97 Z0.46 F1080.0
G1 X14.92 Y9.4 Z0.46 F1080.0
G1 X14.53 Y8.85 Z0.46 F1080.0
G1 X14.53 Y7.42 Z0.46 F1080.0
G1 X14.14 Y6.88 Z0.46 F1080.0
G1 X14.14 Y8.3 Z0.46 F1080.0
G1 X13.74 Y7.76 Z0.46 F1080.0
G1 X13.74 Y6.33 Z0.46 F1080.0
G1 X13.35 Y5.78 Z0.46 F1080.0
G1 X13.35 Y7.21 Z0.46 F1080.0
G1 X12.96 Y6.66 Z0.46 F1080.0
G1 X12.96 Y5.23 Z0.46 F1080.0
G1 X12.57 Y4.68 Z0.46 F1080.0
G1 X12.57 Y6.11 Z0.46 F1080.0
M103
G1 X12.17 Y5.56 Z0.46 F1800.0
M101
G1 X12.17 Y4.13 Z0.46 F1080.0
G1 X11.78 Y3.58 Z0.46 F1080.0
G1 X11.78 Y5.01 Z0.46 F1080.0
G1 X11.39 Y4.46 Z0.46 F1080.0
G1 X11.39 Y3.03 Z0.46 F1080.0
G1 X11.0 Y2.48 Z0.46 F1080.0
G1 X11.0 Y3.91 Z0.46 F1080.0
M103
G1 X10.6 Y3.36 Z0.46 F1800.0
M101
G1 X10.6 Y1.93 Z0.46 F1080.0
G1 X10.21 Y1.38 Z0.46 F1080.0
G1 X10.21 Y2.81 Z0.46 F1080.0
G1 X9.82 Y2.26 Z0.46 F1080.0
G1 X9.82 Y0.84 Z0.46 F1080.0
G1 X9.43 Y0.28 Z0.46 F1080.0
G1 X9.43 Y1.71 Z0.46 F1080.0
G1 X9.03 Y1.17 Z0.46 F1080.0
G1 X9.03 Y-0.26 Z0.46 F1080.0
G1 X8.64 Y-0.81 Z0.46 F1080.0
G1 X8.64 Y0.62 Z0.46 F1080.0
G1 X8.25 Y0.07 Z0.46 F1080.0
G1 X8.25 Y-1.36 Z0.46 F1080.0
G1 X7.85 Y-1.91 Z0.46 F1080.0
G1 X7.85 Y-0.48 Z0.46 F1080.0
G1 X7.46 Y-1.03 Z0.46 F1080.0
G1 X7.46 Y-2.46 Z0.46 F1080.0
G1 X7.07 Y-3.01 Z0.46 F1080.0
G1 X7.07 Y-1.58 Z0.46 F1080.0
G1 X6.68 Y-2.13 Z0.46 F1080.0
G1 X6.68 Y-3.29 Z0.46 F1080.0
M108 R30.0
M102
G1 X6.68 Y-3.56 Z0.46 F1080.0
M108 R2.141
M103
G1 X25.39 Y25.04 Z0.46 F3000.0
G1 X25.38 Y25.29 Z0.46 F3000.0
G1 X25.2 Y25.45 Z0.46 F3000.0
G1 X24.95 Y25.43 Z0.46 F3000.0
G1 X-42.43 Y-27.74 Z0.46 F1800.0
M108 R30.0
M101
G1 X-42.8 Y-28.04 Z0.46 F1800.0
M108 R2.141
G1 X-42.8 Y-35.71 Z0.46 F1080.0
G1 X-43.2 Y-36.07 Z0.46 F1080.0
G1 X-43.2 Y-28.4 Z0.46 F1080.0
G1 X-43.59 Y-28.76 Z0.46 F1080.0
G1 X-43.59 Y-36.43 Z0.46 F1080.0
G1 X-43.98 Y-36.78 Z0.46 F1080.0
G1 X-43.98 Y-29.12 Z0.46 F1080.0
G1 X-44.38 Y-29.48 Z0.46 F1080.0
G1 X-44.38 Y-37.14 Z0.46 F1080.0
G1 X-44.77 Y-37.5 Z0.46 F1080.0
G1 X-44.77 Y-29.83 Z0.46 F1080.0
G1 X-45.16 Y-30.19 Z0.46 F1080.0
G1 X-45.16 Y-37.86 Z0.46 F1080.0
G1 X-45.55 Y-38.22 Z0.46 F1080.0
G1 X-45.55 Y-30.55 Z0.46 F1080.0
G1 X-45.95 Y-30.91 Z0.46 F1080.0
G1 X-45.95 Y-37.98 Z0.46 F1080.0
G1 X-46.34 Y-37.7 Z0.46 F1080.0
G1 X-46.34 Y-31.27 Z0.46 F1080.0
G1 X-46.73 Y-31.63 Z0.46 F1080.0
G1 X-46.73 Y-37.42 Z0.46 F1080.0
G1 X-47.12 Y-37.14 Z0.46 F1080.0
G1 X-47.12 Y-31.99 Z0.46 F1080.0
G1 X-47.52 Y-32.35 Z0.46 F1080.0
G1 X-47.52 Y-36.86 Z0.46 F1080.0
G1 X-47.91 Y-36.58 Z0.46 F1080.0
G1 X-47.91 Y-32.71 Z0.46 F1080.0
G1 X-48.3 Y-33.06 Z0.46 F1080.0
G1 X-48.3 Y-36.3 Z0.46 F1080.0
G1 X-48.7 Y-36.01 Z0.46 F1080.0
G1 X-48.7 Y-33.42 Z0.46 F1080.0
G1 X-49.09 Y-33.78 Z0.46 F1080.0
G1 X-49.09 Y-35.73 Z0.46 F1080.0
G1 X-49.48 Y-35.45 Z0.46 F1080.0
G1 X-49.48 Y-34.14 Z0.46 F1080.0
G1 X-49.87 Y-34.5 Z0.46 F1080.0
G1 X-49.87 Y-35.17 Z0.46 F1080.0
G1 X-50.12 Y-35.02 Z0.46 F1080.0
M108 R30.0
M102
G1 X-50.27 Y-34.92 Z0.46 F1080.0
G1 X-50.27 Y-34.83 Z0.46 F1080.0
M108 R2.141
M103
G1 X41.26 Y45.0 Z0.46 F1800.0
M108 R30.0
M101
G1 X41.63 Y45.32 Z0.46 F1800.0
M108 R2.141
G1 X41.63 Y49.14 Z0.46 F1080.0
G1 X41.23 Y48.78 Z0.46 F1080.0
G1 X41.23 Y44.77 Z0.46 F1080.0
G1 X40.84 Y44.22 Z0.46 F1080.0
G1 X40.84 Y48.42 Z0.46 F1080.0
G1 X40.45 Y48.06 Z0.46 F1080.0
G1 X40.45 Y43.94 Z0.46 F1080.0
M108 R30.0
M102
G1 X40.45 Y43.67 Z0.46 F1080.0
M108 R2.141
M103
G1 X44.49 Y49.32 Z0.46 F1800.0
M108 R30.0
M101
G1 X44.77 Y49.71 Z0.46 F1800.0
M108 R2.141
G1 X44.77 Y50.26 Z0.46 F1080.0
G1 X44.38 Y50.69 Z0.46 F1080.0
G1 X44.38 Y49.16 Z0.46 F1080.0
G1 X43.98 Y48.61 Z0.46 F1080.0
G1 X43.98 Y51.12 Z0.46 F1080.0
G1 X43.59 Y50.94 Z0.46 F1080.0
G1 X43.59 Y48.06 Z0.46 F1080.0
G1 X43.2 Y47.51 Z0.46 F1080.0
G1 X43.2 Y50.58 Z0.46 F1080.0
G1 X42.8 Y50.22 Z0.46 F1080.0
G1 X42.8 Y46.96 Z0.46 F1080.0
G1 X42.41 Y46.41 Z0.46 F1080.0
G1 X42.41 Y49.86 Z0.46 F1080.0
G1 X42.02 Y49.5 Z0.46 F1080.0
G1 X42.02 Y45.86 Z0.46 F1080.0
M103
(</surroundingLoop>)
(</layer>)
(<layer> 0.78 )
(<surroundingLoop>)
(<boundaryPerimeter>)
(<boundaryPoint> X-45.512 Y-39.328 Z0.78 </boundaryPoint>)
(<boundaryPoint> X25.079 Y25.201 Z0.78 </boundaryPoint>)
(<boundaryPoint> X25.143 Y25.22 Z0.78 </boundaryPoint>)
(<boundaryPoint> X25.153 Y25.211 Z0.78 </boundaryPoint>)
(<boundaryPoint> X25.142 Y25.145 Z0.78 </boundaryPoint>)
(<boundaryPoint> X-29.269 Y-50.943 Z0.78 </boundaryPoint>)
(<boundaryPoint> X-27.22 Y-52.409 Z0.78 </boundaryPoint>)
(<boundaryPoint> X46.073 Y50.081 Z0.78 </boundaryPoint>)
(<boundaryPoint> X43.947 Y52.406 Z0.78 </boundaryPoint>)
(<boundaryPoint> X-51.343 Y-34.7 Z0.78 </boundaryPoint>)
(<boundaryPoint> X-51.544 Y-34.952 Z0.78 </boundaryPoint>)
(<boundaryPoint> X-51.314 Y-35.179 Z0.78 </boundaryPoint>)
(<loop> outer )
M108 R3.569
G1 X42.11 Y45.55 Z0.78 F3000.0
M101
G1 X42.23 Y45.72 Z0.78 F1800.0
G1 X45.32 Y50.04 Z0.78 F1800.0
G1 X43.91 Y51.57 Z0.78 F1800.0
G1 X-50.69 Y-34.9 Z0.78 F1800.0
G1 X-45.56 Y-38.57 Z0.78 F1800.0
G1 X24.78 Y25.73 Z0.78 F1800.0
G1 X25.29 Y25.88 Z0.78 F1800.0
G1 X25.79 Y25.43 Z0.78 F1800.0
G1 X25.7 Y24.91 Z0.78 F1800.0
G1 X-28.45 Y-50.81 Z0.78 F1800.0
G1 X-27.36 Y-51.59 Z0.78 F1800.0
G1 X42.11 Y45.55 Z0.78 F1800.0
M103
(</loop>)
(<perimeter> outer )
G1 X42.43 Y45.32 Z0.78 F3000.0
M101
G1 X42.55 Y45.49 Z0.78 F1800.0
G1 X45.82 Y50.07 Z0.78 F1800.0
G1 X43.94 Y52.13 Z0.78 F1800.0
G1 X-51.23 Y-34.86 Z0.78 F1800.0
G1 X-51.38 Y-34.94 Z0.78 F1800.0
G1 X-51.22 Y-35.01 Z0.78 F1800.0
G1 X-45.53 Y-39.08 Z0.78 F1800.0
G1 X24.98 Y25.38 Z0.78 F1800.0
G1 X25.19 Y25.44 Z0.78 F1800.0
G1 X25.37 Y25.29 Z0.78 F1800.0
G1 X25.33 Y25.07 Z0.78 F1800.0
G1 X-29.0 Y-50.9 Z0.78 F1800.0
G1 X-27.27 Y-52.14 Z0.78 F1800.0
G1 X42.16 Y44.95 Z0.78 F1800.0
M108 R30.0
M102
G1 X42.43 Y45.32 Z0.78 F1800.0
M108 R3.569
M103
(</perimeter>)
(</boundaryPerimeter>)
G1 X43.83 Y50.28 Z0.78 F3000.0
M108 R30.0
M101
G1 X44.04 Y51.05 Z0.78 F3000.0
M108 R3.569
G1 X43.72 Y51.05 Z0.78 F1800.0
G1 X43.29 Y50.66 Z0.78 F1800.0
G1 X44.4 Y50.66 Z0.78 F1800.0
G1 X44.76 Y50.27 Z0.78 F1800.0
G1 X42.86 Y50.27 Z0.78 F1800.0
G1 X42.43 Y49.87 Z0.78 F1800.0
G1 X44.89 Y49.87 Z0.78 F1800.0
G1 X44.61 Y49.48 Z0.78 F1800.0
G1 X42.0 Y49.48 Z0.78 F1800.0
G1 X41.57 Y49.09 Z0.78 F1800.0
G1 X44.32 Y49.09 Z0.78 F1800.0
G1 X44.04 Y48.7 Z0.78 F1800.0
G1 X41.14 Y48.7 Z0.78 F1800.0
G1 X40.71 Y48.3 Z0.78 F1800.0
G1 X43.76 Y48.3 Z0.78 F1800.0
G1 X43.48 Y47.91 Z0.78 F1800.0
G1 X40.28 Y47.91 Z0.78 F1800.0
G1 X39.85 Y47.52 Z0.78 F1800.0
G1 X43.2 Y47.52 Z0.78 F1800.0
G1 X42.92 Y47.12 Z0.78 F1800.0
G1 X39.42 Y47.12 Z0.78 F1800.0
G1 X38.99 Y46.73 Z0.78 F1800.0
G1 X42.64 Y46.73 Z0.78 F1800.0
G1 X42.36 Y46.34 Z0.78 F1800.0
G1 X38.56 Y46.34 Z0.78 F1800.0
G1 X38.13 Y45.95 Z0.78 F1800.0
G1 X42.08 Y45.95 Z0.78 F1800.0
G1 X41.8 Y45.55 Z0.78 F1800.0
G1 X37.7 Y45.55 Z0.78 F1800.0
G1 X37.27 Y45.16 Z0.78 F1800.0
G1 X41.52 Y45.16 Z0.78 F1800.0
G1 X41.24 Y44.77 Z0.78 F1800.0
G1 X36.84 Y44.77 Z0.78 F1800.0
G1 X36.41 Y44.38 Z0.78 F1800.0
G1 X40.95 Y44.38 Z0.78 F1800.0
M103
G1 X40.67 Y43.98 Z0.78 F3000.0
M101
G1 X35.98 Y43.98 Z0.78 F1800.0
G1 X35.55 Y43.59 Z0.78 F1800.0
G1 X40.39 Y43.59 Z0.78 F1800.0
M103
G1 X40.11 Y43.2 Z0.78 F3000.0
M101
G1 X35.12 Y43.2 Z0.78 F1800.0
G1 X34.7 Y42.8 Z0.78 F1800.0
G1 X39.83 Y42.8 Z0.78 F1800.0
G1 X39.55 Y42.41 Z0.78 F1800.0
G1 X34.27 Y42.41 Z0.78 F1800.0
G1 X33.84 Y42.02 Z0.78 F1800.0
G1 X39.27 Y42.02 Z0.78 F1800.0
G1 X38.99 Y41.63 Z0.78 F1800.0
G1 X33.41 Y41.63 Z0.78 F1800.0
G1 X32.98 Y41.23 Z0.78 F1800.0
G1 X38.71 Y41.23 Z0.78 F1800.0
G1 X38.43 Y40.84 Z0.78 F1800.0
G1 X32.55 Y40.84 Z0.78 F1800.0
G1 X32.12 Y40.45 Z0.78 F1800.0
G1 X38.15 Y40.45 Z0.78 F1800.0
G1 X37.87 Y40.06 Z0.78 F1800.0
G1 X31.69 Y40.06 Z0.78 F1800.0
G1 X31.26 Y39.66 Z0.78 F1800.0
G1 X37.58 Y39.66 Z0.78 F1800.0
G1 X37.3 Y39.27 Z0.78 F1800.0
G1 X30.83 Y39.27 Z0.78 F1800.0
G1 X30.4 Y38.88 Z0.78 F1800.0
G1 X37.02 Y38.88 Z0.78 F1800.0
G1 X36.74 Y38.49 Z0.78 F1800.0
G1 X29.97 Y38.49 Z0.78 F1800.0
G1 X29.54 Y38.09 Z0.78 F1800.0
G1 X36.46 Y38.09 Z0.78 F1800.0
G1 X36.18 Y37.7 Z0.78 F1800.0
G1 X29.11 Y37.7 Z0.78 F1800.0
G1 X28.68 Y37.31 Z0.78 F1800.0
G1 X35.9 Y37.31 Z0.78 F1800.0
G1 X35.62 Y36.91 Z0.78 F1800.0
G1 X28.25 Y36.91 Z0.78 F1800.0
G1 X27.82 Y36.52 Z0.78 F1800.0
G1 X35.34 Y36.52 Z0.78 F1800.0
G1 X35.06 Y36.13 Z0.78 F1800.0
G1 X27.39 Y36.13 Z0.78 F1800.0
G1 X26.96 Y35.74 Z0.78 F1800.0
G1 X34.78 Y35.74 Z0.78 F1800.0
G1 X34.49 Y35.34 Z0.78 F1800.0
G1 X26.53 Y35.34 Z0.78 F1800.0
G1 X26.1 Y34.95 Z0.78 F1800.0
G1 X34.21 Y34.95 Z0.78 F1800.0
G1 X33.93 Y34.56 Z0.78 F1800.0
G1 X25.67 Y34.56 Z0.78 F1800.0
G1 X25.24 Y34.17 Z0.78 F1800.0
G1 X33.65 Y34.17 Z0.78 F1800.0
G1 X33.37 Y33.77 Z0.78 F1800.0
G1 X24.81 Y33.77 Z0.78 F1800.0
G1 X24.39 Y33.38 Z0.78 F1800.0
G1 X33.09 Y33.38 Z0.78 F1800.0
G1 X32.81 Y32.99 Z0.78 F1800.0
G1 X23.96 Y32.99 Z0.78 F1800.0
G1 X23.53 Y32.59 Z0.78 F1800.0
G1 X32.53 Y32.59 Z0.78 F1800.0
G1 X32.25 Y32.2 Z0.78 F1800.0
G1 X23.1 Y32.2 Z0.78 F1800.0
G1 X22.67 Y31.81 Z0.78 F1800.0
G1 X31.97 Y31.81 Z0.78 F1800.0
G1 X31.69 Y31.42 Z0.78 F1800.0
G1 X22.24 Y31.42 Z0.78 F1800.0
G1 X21.81 Y31.02 Z0.78 F1800.0
G1 X31.41 Y31.02 Z0.78 F1800.0
G1 X31.13 Y30.63 Z0.78 F1800.0
G1 X21.38 Y30.63 Z0.78 F1800.0
G1 X20.95 Y30.24 Z0.78 F1800.0
G1 X30.84 Y30.24 Z0.78 F1800.0
M103
G1 X30.56 Y29.85 Z0.78 F3000.0
M101
G1 X20.52 Y29.85 Z0.78 F1800.0
G1 X20.09 Y29.45 Z0.78 F1800.0
G1 X30.28 Y29.45 Z0.78 F1800.0
M103
G1 X30.0 Y29.06 Z0.78 F3000.0
M101
G1 X19.66 Y29.06 Z0.78 F1800.0
G1 X19.23 Y28.67 Z0.78 F1800.0
G1 X29.72 Y28.67 Z0.78 F1800.0
M103
G1 X29.44 Y28.27 Z0.78 F3000.0
M101
G1 X18.8 Y28.27 Z0.78 F1800.0
G1 X18.37 Y27.88 Z0.78 F1800.0
G1 X29.16 Y27.88 Z0.78 F1800.0
G1 X28.88 Y27.49 Z0.78 F1800.0
G1 X17.94 Y27.49 Z0.78 F1800.0
G1 X17.51 Y27.1 Z0.78 F1800.0
G1 X28.6 Y27.1 Z0.78 F1800.0
G1 X28.32 Y26.7 Z0.78 F1800.0
G1 X17.08 Y26.7 Z0.78 F1800.0
G1 X16.65 Y26.31 Z0.78 F1800.0
G1 X28.04 Y26.31 Z0.78 F1800.0
G1 X27.76 Y25.92 Z0.78 F1800.0
G1 X25.63 Y25.92 Z0.78 F1800.0
G1 X26.06 Y25.53 Z0.78 F1800.0
G1 X27.47 Y25.53 Z0.78 F1800.0
G1 X27.19 Y25.13 Z0.78 F1800.0
G1 X26.0 Y25.13 Z0.78 F1800.0
M103
G1 X25.89 Y24.74 Z0.78 F3000.0
M101
G1 X26.91 Y24.74 Z0.78 F1800.0
G1 X26.63 Y24.35 Z0.78 F1800.0
G1 X25.61 Y24.35 Z0.78 F1800.0
G1 X25.33 Y23.96 Z0.78 F1800.0
G1 X26.35 Y23.96 Z0.78 F1800.0
G1 X26.07 Y23.56 Z0.78 F1800.0
G1 X25.05 Y23.56 Z0.78 F1800.0
G1 X25.79 Y23.17 Z0.78 F1800.0
G1 X24.77 Y23.17 Z0.78 F1800.0
G1 X24.49 Y22.78 Z0.78 F1800.0
G1 X25.51 Y22.78 Z0.78 F1800.0
G1 X25.23 Y22.38 Z0.78 F1800.0
G1 X24.21 Y22.38 Z0.78 F1800.0
G1 X23.93 Y21.99 Z0.78 F1800.0
G1 X24.95 Y21.99 Z0.78 F1800.0
G1 X24.67 Y21.6 Z0.78 F1800.0
G1 X23.64 Y21.6 Z0.78 F1800.0
G1 X23.36 Y21.21 Z0.78 F1800.0
G1 X24.39 Y21.21 Z0.78 F1800.0
G1 X24.11 Y20.81 Z0.78 F1800.0
G1 X23.08 Y20.81 Z0.78 F1800.0
G1 X23.82 Y20.42 Z0.78 F1800.0
G1 X22.8 Y20.42 Z0.78 F1800.0
G1 X22.52 Y20.03 Z0.78 F1800.0
G1 X23.54 Y20.03 Z0.78 F1800.0
G1 X23.26 Y19.64 Z0.78 F1800.0
G1 X22.24 Y19.64 Z0.78 F1800.0
G1 X21.96 Y19.24 Z0.78 F1800.0
G1 X22.98 Y19.24 Z0.78 F1800.0
G1 X22.7 Y18.85 Z0.78 F1800.0
G1 X21.68 Y18.85 Z0.78 F1800.0
G1 X21.4 Y18.46 Z0.78 F1800.0
G1 X22.42 Y18.46 Z0.78 F1800.0
G1 X22.14 Y18.06 Z0.78 F1800.0
G1 X21.12 Y18.06 Z0.78 F1800.0
G1 X20.84 Y17.67 Z0.78 F1800.0
G1 X21.86 Y17.67 Z0.78 F1800.0
G1 X21.58 Y17.28 Z0.78 F1800.0
G1 X20.56 Y17.28 Z0.78 F1800.0
G1 X20.27 Y16.89 Z0.78 F1800.0
G1 X21.3 Y16.89 Z0.78 F1800.0
G1 X21.02 Y16.49 Z0.78 F1800.0
G1 X19.99 Y16.49 Z0.78 F1800.0
G1 X19.71 Y16.1 Z0.78 F1800.0
G1 X20.74 Y16.1 Z0.78 F1800.0
G1 X20.45 Y15.71 Z0.78 F1800.0
G1 X19.43 Y15.71 Z0.78 F1800.0
G1 X19.15 Y15.32 Z0.78 F1800.0
G1 X20.17 Y15.32 Z0.78 F1800.0
G1 X19.89 Y14.92 Z0.78 F1800.0
G1 X18.87 Y14.92 Z0.78 F1800.0
G1 X18.59 Y14.53 Z0.78 F1800.0
G1 X19.61 Y14.53 Z0.78 F1800.0
G1 X19.33 Y14.14 Z0.78 F1800.0
G1 X18.31 Y14.14 Z0.78 F1800.0
G1 X18.03 Y13.74 Z0.78 F1800.0
G1 X19.05 Y13.74 Z0.78 F1800.0
G1 X18.77 Y13.35 Z0.78 F1800.0
G1 X17.75 Y13.35 Z0.78 F1800.0
G1 X17.47 Y12.96 Z0.78 F1800.0
G1 X18.49 Y12.96 Z0.78 F1800.0
G1 X18.21 Y12.57 Z0.78 F1800.0
G1 X17.18 Y12.57 Z0.78 F1800.0
G1 X16.9 Y12.17 Z0.78 F1800.0
G1 X17.93 Y12.17 Z0.78 F1800.0
G1 X17.65 Y11.78 Z0.78 F1800.0
G1 X16.62 Y11.78 Z0.78 F1800.0
G1 X16.34 Y11.39 Z0.78 F1800.0
G1 X17.36 Y11.39 Z0.78 F1800.0
G1 X17.08 Y11.0 Z0.78 F1800.0
G1 X16.06 Y11.0 Z0.78 F1800.0
G1 X15.78 Y10.6 Z0.78 F1800.0
G1 X16.8 Y10.6 Z0.78 F1800.0
M103
G1 X16.52 Y10.21 Z0.78 F3000.0
M101
G1 X15.5 Y10.21 Z0.78 F1800.0
G1 X15.22 Y9.82 Z0.78 F1800.0
G1 X16.24 Y9.82 Z0.78 F1800.0
M103
G1 X15.96 Y9.43 Z0.78 F3000.0
M101
G1 X14.94 Y9.43 Z0.78 F1800.0
G1 X14.66 Y9.03 Z0.78 F1800.0
G1 X15.68 Y9.03 Z0.78 F1800.0
G1 X15.4 Y8.64 Z0.78 F1800.0
G1 X14.38 Y8.64 Z0.78 F1800.0
G1 X14.1 Y8.25 Z0.78 F1800.0
G1 X15.12 Y8.25 Z0.78 F1800.0
G1 X14.84 Y7.85 Z0.78 F1800.0
G1 X13.82 Y7.85 Z0.78 F1800.0
G1 X13.54 Y7.46 Z0.78 F1800.0
G1 X14.56 Y7.46 Z0.78 F1800.0
G1 X14.28 Y7.07 Z0.78 F1800.0
G1 X13.25 Y7.07 Z0.78 F1800.0
G1 X12.97 Y6.68 Z0.78 F1800.0
G1 X14.0 Y6.68 Z0.78 F1800.0
G1 X13.71 Y6.28 Z0.78 F1800.0
G1 X12.69 Y6.28 Z0.78 F1800.0
G1 X12.41 Y5.89 Z0.78 F1800.0
G1 X13.43 Y5.89 Z0.78 F1800.0
G1 X13.15 Y5.5 Z0.78 F1800.0
G1 X12.13 Y5.5 Z0.78 F1800.0
G1 X11.85 Y5.11 Z0.78 F1800.0
G1 X12.87 Y5.11 Z0.78 F1800.0
G1 X12.59 Y4.71 Z0.78 F1800.0
G1 X11.57 Y4.71 Z0.78 F1800.0
G1 X11.29 Y4.32 Z0.78 F1800.0
G1 X12.31 Y4.32 Z0.78 F1800.0
G1 X12.03 Y3.93 Z0.78 F1800.0
G1 X11.01 Y3.93 Z0.78 F1800.0
G1 X11.75 Y3.53 Z0.78 F1800.0
G1 X10.73 Y3.53 Z0.78 F1800.0
G1 X10.45 Y3.14 Z0.78 F1800.0
G1 X11.47 Y3.14 Z0.78 F1800.0
G1 X11.19 Y2.75 Z0.78 F1800.0
G1 X10.16 Y2.75 Z0.78 F1800.0
G1 X9.88 Y2.36 Z0.78 F1800.0
G1 X10.91 Y2.36 Z0.78 F1800.0
G1 X10.63 Y1.96 Z0.78 F1800.0
G1 X9.6 Y1.96 Z0.78 F1800.0
G1 X9.32 Y1.57 Z0.78 F1800.0
G1 X10.34 Y1.57 Z0.78 F1800.0
G1 X10.06 Y1.18 Z0.78 F1800.0
G1 X9.04 Y1.18 Z0.78 F1800.0
G1 X8.76 Y0.79 Z0.78 F1800.0
G1 X9.78 Y0.79 Z0.78 F1800.0
G1 X9.5 Y0.39 Z0.78 F1800.0
G1 X8.48 Y0.39 Z0.78 F1800.0
G1 X8.2 Y-0.0 Z0.78 F1800.0
G1 X9.22 Y-0.0 Z0.78 F1800.0
G1 X8.94 Y-0.39 Z0.78 F1800.0
G1 X7.92 Y-0.39 Z0.78 F1800.0
G1 X7.64 Y-0.79 Z0.78 F1800.0
G1 X8.66 Y-0.79 Z0.78 F1800.0
G1 X8.38 Y-1.18 Z0.78 F1800.0
G1 X7.36 Y-1.18 Z0.78 F1800.0
G1 X7.08 Y-1.57 Z0.78 F1800.0
G1 X8.1 Y-1.57 Z0.78 F1800.0
G1 X7.82 Y-1.96 Z0.78 F1800.0
G1 X6.8 Y-1.96 Z0.78 F1800.0
G1 X6.51 Y-2.36 Z0.78 F1800.0
G1 X7.54 Y-2.36 Z0.78 F1800.0
G1 X7.26 Y-2.75 Z0.78 F1800.0
G1 X6.23 Y-2.75 Z0.78 F1800.0
G1 X5.95 Y-3.14 Z0.78 F1800.0
G1 X6.97 Y-3.14 Z0.78 F1800.0
G1 X6.69 Y-3.53 Z0.78 F1800.0
G1 X5.67 Y-3.53 Z0.78 F1800.0
G1 X5.39 Y-3.93 Z0.78 F1800.0
G1 X6.41 Y-3.93 Z0.78 F1800.0
G1 X6.13 Y-4.32 Z0.78 F1800.0
G1 X5.11 Y-4.32 Z0.78 F1800.0
G1 X4.83 Y-4.71 Z0.78 F1800.0
G1 X5.85 Y-4.71 Z0.78 F1800.0
G1 X5.57 Y-5.11 Z0.78 F1800.0
G1 X4.55 Y-5.11 Z0.78 F1800.0
G1 X4.27 Y-5.5 Z0.78 F1800.0
G1 X5.29 Y-5.5 Z0.78 F1800.0
G1 X5.01 Y-5.89 Z0.78 F1800.0
G1 X3.99 Y-5.89 Z0.78 F1800.0
G1 X3.71 Y-6.28 Z0.78 F1800.0
G1 X4.73 Y-6.28 Z0.78 F1800.0
M103
G1 X4.45 Y-6.68 Z0.78 F3000.0
M101
G1 X3.43 Y-6.68 Z0.78 F1800.0
G1 X3.14 Y-7.07 Z0.78 F1800.0
G1 X4.17 Y-7.07 Z0.78 F1800.0
M103
G1 X3.89 Y-7.46 Z0.78 F3000.0
M101
G1 X2.86 Y-7.46 Z0.78 F1800.0
G1 X2.58 Y-7.85 Z0.78 F1800.0
G1 X3.6 Y-7.85 Z0.78 F1800.0
G1 X3.32 Y-8.25 Z0.78 F1800.0
G1 X2.3 Y-8.25 Z0.78 F1800.0
G1 X2.02 Y-8.64 Z0.78 F1800.0
G1 X3.04 Y-8.64 Z0.78 F1800.0
G1 X2.76 Y-9.03 Z0.78 F1800.0
G1 X1.74 Y-9.03 Z0.78 F1800.0
G1 X1.46 Y-9.43 Z0.78 F1800.0
G1 X2.48 Y-9.43 Z0.78 F1800.0
G1 X2.2 Y-9.82 Z0.78 F1800.0
G1 X1.18 Y-9.82 Z0.78 F1800.0
G1 X0.9 Y-10.21 Z0.78 F1800.0
G1 X1.92 Y-10.21 Z0.78 F1800.0
G1 X1.64 Y-10.6 Z0.78 F1800.0
G1 X0.62 Y-10.6 Z0.78 F1800.0
G1 X0.34 Y-11.0 Z0.78 F1800.0
G1 X1.36 Y-11.0 Z0.78 F1800.0
G1 X1.08 Y-11.39 Z0.78 F1800.0
G1 X0.06 Y-11.39 Z0.78 F1800.0
G1 X-0.23 Y-11.78 Z0.78 F1800.0
G1 X0.8 Y-11.78 Z0.78 F1800.0
G1 X0.52 Y-12.17 Z0.78 F1800.0
G1 X-0.51 Y-12.17 Z0.78 F1800.0
G1 X-0.79 Y-12.57 Z0.78 F1800.0
G1 X0.23 Y-12.57 Z0.78 F1800.0
G1 X-0.05 Y-12.96 Z0.78 F1800.0
G1 X-1.07 Y-12.96 Z0.78 F1800.0
G1 X-0.33 Y-13.35 Z0.78 F1800.0
G1 X-1.35 Y-13.35 Z0.78 F1800.0
G1 X-1.63 Y-13.74 Z0.78 F1800.0
G1 X-0.61 Y-13.74 Z0.78 F1800.0
G1 X-0.89 Y-14.14 Z0.78 F1800.0
G1 X-1.91 Y-14.14 Z0.78 F1800.0
G1 X-2.19 Y-14.53 Z0.78 F1800.0
G1 X-1.17 Y-14.53 Z0.78 F1800.0
G1 X-1.45 Y-14.92 Z0.78 F1800.0
G1 X-2.47 Y-14.92 Z0.78 F1800.0
G1 X-2.75 Y-15.32 Z0.78 F1800.0
G1 X-1.73 Y-15.32 Z0.78 F1800.0
G1 X-2.01 Y-15.71 Z0.78 F1800.0
G1 X-3.03 Y-15.71 Z0.78 F1800.0
G1 X-3.32 Y-16.1 Z0.78 F1800.0
G1 X-2.29 Y-16.1 Z0.78 F1800.0
G1 X-2.57 Y-16.49 Z0.78 F1800.0
G1 X-3.6 Y-16.49 Z0.78 F1800.0
G1 X-3.88 Y-16.89 Z0.78 F1800.0
G1 X-2.86 Y-16.89 Z0.78 F1800.0
G1 X-3.14 Y-17.28 Z0.78 F1800.0
G1 X-4.16 Y-17.28 Z0.78 F1800.0
G1 X-4.44 Y-17.67 Z0.78 F1800.0
G1 X-3.42 Y-17.67 Z0.78 F1800.0
G1 X-3.7 Y-18.06 Z0.78 F1800.0
G1 X-4.72 Y-18.06 Z0.78 F1800.0
G1 X-5.0 Y-18.46 Z0.78 F1800.0
G1 X-3.98 Y-18.46 Z0.78 F1800.0
G1 X-4.26 Y-18.85 Z0.78 F1800.0
G1 X-5.28 Y-18.85 Z0.78 F1800.0
G1 X-5.56 Y-19.24 Z0.78 F1800.0
G1 X-4.54 Y-19.24 Z0.78 F1800.0
G1 X-4.82 Y-19.64 Z0.78 F1800.0
G1 X-5.84 Y-19.64 Z0.78 F1800.0
G1 X-6.12 Y-20.03 Z0.78 F1800.0
G1 X-5.1 Y-20.03 Z0.78 F1800.0
G1 X-5.38 Y-20.42 Z0.78 F1800.0
G1 X-6.4 Y-20.42 Z0.78 F1800.0
G1 X-6.69 Y-20.81 Z0.78 F1800.0
G1 X-5.66 Y-20.81 Z0.78 F1800.0
G1 X-5.94 Y-21.21 Z0.78 F1800.0
G1 X-6.97 Y-21.21 Z0.78 F1800.0
G1 X-7.25 Y-21.6 Z0.78 F1800.0
G1 X-6.23 Y-21.6 Z0.78 F1800.0
G1 X-6.51 Y-21.99 Z0.78 F1800.0
G1 X-7.53 Y-21.99 Z0.78 F1800.0
G1 X-7.81 Y-22.38 Z0.78 F1800.0
G1 X-6.79 Y-22.38 Z0.78 F1800.0
G1 X-7.07 Y-22.78 Z0.78 F1800.0
G1 X-8.09 Y-22.78 Z0.78 F1800.0
G1 X-8.37 Y-23.17 Z0.78 F1800.0
G1 X-7.35 Y-23.17 Z0.78 F1800.0
M103
G1 X-7.63 Y-23.56 Z0.78 F3000.0
M101
G1 X-8.65 Y-23.56 Z0.78 F1800.0
G1 X-8.93 Y-23.96 Z0.78 F1800.0
G1 X-7.91 Y-23.96 Z0.78 F1800.0
M103
G1 X-8.19 Y-24.35 Z0.78 F3000.0
M101
G1 X-9.21 Y-24.35 Z0.78 F1800.0
G1 X-9.49 Y-24.74 Z0.78 F1800.0
G1 X-8.47 Y-24.74 Z0.78 F1800.0
G1 X-8.75 Y-25.13 Z0.78 F1800.0
G1 X-9.77 Y-25.13 Z0.78 F1800.0
G1 X-10.05 Y-25.53 Z0.78 F1800.0
G1 X-9.03 Y-25.53 Z0.78 F1800.0
G1 X-9.31 Y-25.92 Z0.78 F1800.0
G1 X-10.34 Y-25.92 Z0.78 F1800.0
G1 X-10.62 Y-26.31 Z0.78 F1800.0
G1 X-9.6 Y-26.31 Z0.78 F1800.0
G1 X-9.88 Y-26.7 Z0.78 F1800.0
G1 X-10.9 Y-26.7 Z0.78 F1800.0
G1 X-11.18 Y-27.1 Z0.78 F1800.0
G1 X-10.16 Y-27.1 Z0.78 F1800.0
G1 X-10.44 Y-27.49 Z0.78 F1800.0
G1 X-11.46 Y-27.49 Z0.78 F1800.0
G1 X-11.74 Y-27.88 Z0.78 F1800.0
G1 X-10.72 Y-27.88 Z0.78 F1800.0
G1 X-11.0 Y-28.27 Z0.78 F1800.0
G1 X-12.02 Y-28.27 Z0.78 F1800.0
G1 X-12.3 Y-28.67 Z0.78 F1800.0
G1 X-11.28 Y-28.67 Z0.78 F1800.0
G1 X-11.56 Y-29.06 Z0.78 F1800.0
G1 X-12.58 Y-29.06 Z0.78 F1800.0
G1 X-12.86 Y-29.45 Z0.78 F1800.0
G1 X-11.84 Y-29.45 Z0.78 F1800.0
G1 X-12.12 Y-29.85 Z0.78 F1800.0
G1 X-13.14 Y-29.85 Z0.78 F1800.0
G1 X-12.4 Y-30.24 Z0.78 F1800.0
G1 X-13.42 Y-30.24 Z0.78 F1800.0
G1 X-13.71 Y-30.63 Z0.78 F1800.0
G1 X-12.68 Y-30.63 Z0.78 F1800.0
G1 X-12.97 Y-31.02 Z0.78 F1800.0
G1 X-13.99 Y-31.02 Z0.78 F1800.0
G1 X-14.27 Y-31.42 Z0.78 F1800.0
G1 X-13.25 Y-31.42 Z0.78 F1800.0
G1 X-13.53 Y-31.81 Z0.78 F1800.0
G1 X-14.55 Y-31.81 Z0.78 F1800.0
G1 X-14.83 Y-32.2 Z0.78 F1800.0
G1 X-13.81 Y-32.2 Z0.78 F1800.0
G1 X-14.09 Y-32.59 Z0.78 F1800.0
G1 X-15.11 Y-32.59 Z0.78 F1800.0
G1 X-15.39 Y-32.99 Z0.78 F1800.0
G1 X-14.37 Y-32.99 Z0.78 F1800.0
G1 X-14.65 Y-33.38 Z0.78 F1800.0
G1 X-15.67 Y-33.38 Z0.78 F1800.0
G1 X-15.95 Y-33.77 Z0.78 F1800.0
G1 X-14.93 Y-33.77 Z0.78 F1800.0
G1 X-15.21 Y-34.17 Z0.78 F1800.0
G1 X-16.23 Y-34.17 Z0.78 F1800.0
G1 X-16.51 Y-34.56 Z0.78 F1800.0
G1 X-15.49 Y-34.56 Z0.78 F1800.0
G1 X-15.77 Y-34.95 Z0.78 F1800.0
G1 X-16.79 Y-34.95 Z0.78 F1800.0
G1 X-17.08 Y-35.34 Z0.78 F1800.0
G1 X-16.05 Y-35.34 Z0.78 F1800.0
G1 X-16.34 Y-35.74 Z0.78 F1800.0
G1 X-17.36 Y-35.74 Z0.78 F1800.0
G1 X-17.64 Y-36.13 Z0.78 F1800.0
G1 X-16.61 Y-36.13 Z0.78 F1800.0
G1 X-16.9 Y-36.52 Z0.78 F1800.0
G1 X-17.92 Y-36.52 Z0.78 F1800.0
G1 X-18.2 Y-36.91 Z0.78 F1800.0
G1 X-17.18 Y-36.91 Z0.78 F1800.0
G1 X-17.46 Y-37.31 Z0.78 F1800.0
G1 X-18.48 Y-37.31 Z0.78 F1800.0
G1 X-18.76 Y-37.7 Z0.78 F1800.0
G1 X-17.74 Y-37.7 Z0.78 F1800.0
G1 X-18.02 Y-38.09 Z0.78 F1800.0
G1 X-19.04 Y-38.09 Z0.78 F1800.0
G1 X-19.32 Y-38.49 Z0.78 F1800.0
G1 X-18.3 Y-38.49 Z0.78 F1800.0
G1 X-18.58 Y-38.88 Z0.78 F1800.0
G1 X-19.6 Y-38.88 Z0.78 F1800.0
G1 X-19.88 Y-39.27 Z0.78 F1800.0
G1 X-18.86 Y-39.27 Z0.78 F1800.0
G1 X-19.14 Y-39.66 Z0.78 F1800.0
G1 X-20.16 Y-39.66 Z0.78 F1800.0
G1 X-20.45 Y-40.06 Z0.78 F1800.0
G1 X-19.42 Y-40.06 Z0.78 F1800.0
M103
G1 X-19.7 Y-40.45 Z0.78 F3000.0
M101
G1 X-20.73 Y-40.45 Z0.78 F1800.0
G1 X-21.01 Y-40.84 Z0.78 F1800.0
G1 X-19.99 Y-40.84 Z0.78 F1800.0
M103
G1 X-20.27 Y-41.23 Z0.78 F3000.0
M101
G1 X-21.29 Y-41.23 Z0.78 F1800.0
G1 X-21.57 Y-41.63 Z0.78 F1800.0
G1 X-20.55 Y-41.63 Z0.78 F1800.0
G1 X-20.83 Y-42.02 Z0.78 F1800.0
G1 X-21.85 Y-42.02 Z0.78 F1800.0
G1 X-22.13 Y-42.41 Z0.78 F1800.0
G1 X-21.11 Y-42.41 Z0.78 F1800.0
G1 X-21.39 Y-42.8 Z0.78 F1800.0
G1 X-22.41 Y-42.8 Z0.78 F1800.0
G1 X-22.69 Y-43.2 Z0.78 F1800.0
G1 X-21.67 Y-43.2 Z0.78 F1800.0
G1 X-21.95 Y-43.59 Z0.78 F1800.0
G1 X-22.97 Y-43.59 Z0.78 F1800.0
G1 X-23.25 Y-43.98 Z0.78 F1800.0
G1 X-22.23 Y-43.98 Z0.78 F1800.0
G1 X-22.51 Y-44.38 Z0.78 F1800.0
G1 X-23.53 Y-44.38 Z0.78 F1800.0
G1 X-23.82 Y-44.77 Z0.78 F1800.0
G1 X-22.79 Y-44.77 Z0.78 F1800.0
G1 X-23.07 Y-45.16 Z0.78 F1800.0
G1 X-24.1 Y-45.16 Z0.78 F1800.0
G1 X-24.38 Y-45.55 Z0.78 F1800.0
G1 X-23.36 Y-45.55 Z0.78 F1800.0
G1 X-23.64 Y-45.95 Z0.78 F1800.0
G1 X-24.66 Y-45.95 Z0.78 F1800.0
G1 X-24.94 Y-46.34 Z0.78 F1800.0
G1 X-23.92 Y-46.34 Z0.78 F1800.0
G1 X-24.2 Y-46.73 Z0.78 F1800.0
G1 X-25.22 Y-46.73 Z0.78 F1800.0
G1 X-24.48 Y-47.12 Z0.78 F1800.0
G1 X-25.5 Y-47.12 Z0.78 F1800.0
G1 X-25.78 Y-47.52 Z0.78 F1800.0
G1 X-24.76 Y-47.52 Z0.78 F1800.0
G1 X-25.04 Y-47.91 Z0.78 F1800.0
G1 X-26.06 Y-47.91 Z0.78 F1800.0
G1 X-26.34 Y-48.3 Z0.78 F1800.0
G1 X-25.32 Y-48.3 Z0.78 F1800.0
G1 X-25.6 Y-48.7 Z0.78 F1800.0
G1 X-26.62 Y-48.7 Z0.78 F1800.0
G1 X-26.9 Y-49.09 Z0.78 F1800.0
G1 X-25.88 Y-49.09 Z0.78 F1800.0
G1 X-26.16 Y-49.48 Z0.78 F1800.0
G1 X-27.19 Y-49.48 Z0.78 F1800.0
G1 X-27.47 Y-49.87 Z0.78 F1800.0
G1 X-26.44 Y-49.87 Z0.78 F1800.0
G1 X-26.73 Y-50.27 Z0.78 F1800.0
G1 X-27.75 Y-50.27 Z0.78 F1800.0
G1 X-28.03 Y-50.66 Z0.78 F1800.0
G1 X-27.01 Y-50.66 Z0.78 F1800.0
G1 X-27.25 Y-50.99 Z0.78 F1800.0
M108 R30.0
M102
G1 X-27.29 Y-51.05 Z0.78 F1800.0
G1 X-27.67 Y-51.05 Z0.78 F1800.0
M108 R3.569
M103
G1 X25.39 Y25.04 Z0.78 F3000.0
G1 X25.38 Y25.29 Z0.78 F3000.0
G1 X25.2 Y25.45 Z0.78 F3000.0
G1 X24.95 Y25.43 Z0.78 F3000.0
G1 X-44.82 Y-37.56 Z0.78 F3000.0
M108 R30.0
M101
G1 X-45.41 Y-38.09 Z0.78 F3000.0
M108 R3.569
G1 X-45.79 Y-38.09 Z0.78 F1800.0
G1 X-46.34 Y-37.7 Z0.78 F1800.0
G1 X-44.98 Y-37.7 Z0.78 F1800.0
G1 X-44.55 Y-37.31 Z0.78 F1800.0
G1 X-46.89 Y-37.31 Z0.78 F1800.0
G1 X-47.44 Y-36.91 Z0.78 F1800.0
G1 X-44.12 Y-36.91 Z0.78 F1800.0
G1 X-43.69 Y-36.52 Z0.78 F1800.0
G1 X-47.99 Y-36.52 Z0.78 F1800.0
G1 X-48.53 Y-36.13 Z0.78 F1800.0
G1 X-43.26 Y-36.13 Z0.78 F1800.0
G1 X-42.83 Y-35.74 Z0.78 F1800.0
G1 X-49.08 Y-35.74 Z0.78 F1800.0
G1 X-49.63 Y-35.34 Z0.78 F1800.0
G1 X-42.4 Y-35.34 Z0.78 F1800.0
G1 X-41.98 Y-34.95 Z0.78 F1800.0
G1 X-50.2 Y-34.95 Z0.78 F1800.0
G1 X-49.94 Y-34.56 Z0.78 F1800.0
G1 X-41.55 Y-34.56 Z0.78 F1800.0
G1 X-41.12 Y-34.17 Z0.78 F1800.0
G1 X-49.51 Y-34.17 Z0.78 F1800.0
G1 X-49.08 Y-33.77 Z0.78 F1800.0
G1 X-40.69 Y-33.77 Z0.78 F1800.0
G1 X-40.26 Y-33.38 Z0.78 F1800.0
G1 X-48.65 Y-33.38 Z0.78 F1800.0
G1 X-48.22 Y-32.99 Z0.78 F1800.0
G1 X-39.83 Y-32.99 Z0.78 F1800.0
G1 X-39.4 Y-32.59 Z0.78 F1800.0
G1 X-47.79 Y-32.59 Z0.78 F1800.0
G1 X-47.36 Y-32.2 Z0.78 F1800.0
G1 X-38.97 Y-32.2 Z0.78 F1800.0
G1 X-38.54 Y-31.81 Z0.78 F1800.0
G1 X-46.93 Y-31.81 Z0.78 F1800.0
G1 X-46.5 Y-31.42 Z0.78 F1800.0
G1 X-38.11 Y-31.42 Z0.78 F1800.0
G1 X-37.68 Y-31.02 Z0.78 F1800.0
G1 X-46.07 Y-31.02 Z0.78 F1800.0
G1 X-45.64 Y-30.63 Z0.78 F1800.0
G1 X-37.25 Y-30.63 Z0.78 F1800.0
G1 X-36.82 Y-30.24 Z0.78 F1800.0
G1 X-45.21 Y-30.24 Z0.78 F1800.0
G1 X-44.78 Y-29.85 Z0.78 F1800.0
G1 X-36.39 Y-29.85 Z0.78 F1800.0
G1 X-35.96 Y-29.45 Z0.78 F1800.0
G1 X-44.35 Y-29.45 Z0.78 F1800.0
G1 X-43.92 Y-29.06 Z0.78 F1800.0
G1 X-35.53 Y-29.06 Z0.78 F1800.0
G1 X-35.1 Y-28.67 Z0.78 F1800.0
G1 X-43.49 Y-28.67 Z0.78 F1800.0
G1 X-43.06 Y-28.27 Z0.78 F1800.0
G1 X-34.67 Y-28.27 Z0.78 F1800.0
G1 X-34.24 Y-27.88 Z0.78 F1800.0
G1 X-42.63 Y-27.88 Z0.78 F1800.0
G1 X-42.2 Y-27.49 Z0.78 F1800.0
G1 X-33.81 Y-27.49 Z0.78 F1800.0
G1 X-33.38 Y-27.1 Z0.78 F1800.0
G1 X-41.77 Y-27.1 Z0.78 F1800.0
G1 X-41.34 Y-26.7 Z0.78 F1800.0
G1 X-32.95 Y-26.7 Z0.78 F1800.0
G1 X-32.52 Y-26.31 Z0.78 F1800.0
G1 X-40.91 Y-26.31 Z0.78 F1800.0
G1 X-40.48 Y-25.92 Z0.78 F1800.0
G1 X-32.09 Y-25.92 Z0.78 F1800.0
G1 X-31.67 Y-25.53 Z0.78 F1800.0
G1 X-40.06 Y-25.53 Z0.78 F1800.0
G1 X-39.63 Y-25.13 Z0.78 F1800.0
G1 X-31.24 Y-25.13 Z0.78 F1800.0
G1 X-30.81 Y-24.74 Z0.78 F1800.0
G1 X-39.2 Y-24.74 Z0.78 F1800.0
G1 X-38.77 Y-24.35 Z0.78 F1800.0
G1 X-30.38 Y-24.35 Z0.78 F1800.0
G1 X-29.95 Y-23.96 Z0.78 F1800.0
G1 X-38.34 Y-23.96 Z0.78 F1800.0
G1 X-37.91 Y-23.56 Z0.78 F1800.0
G1 X-29.52 Y-23.56 Z0.78 F1800.0
G1 X-29.09 Y-23.17 Z0.78 F1800.0
G1 X-37.48 Y-23.17 Z0.78 F1800.0
G1 X-37.05 Y-22.78 Z0.78 F1800.0
G1 X-28.66 Y-22.78 Z0.78 F1800.0
G1 X-28.23 Y-22.38 Z0.78 F1800.0
G1 X-36.62 Y-22.38 Z0.78 F1800.0
G1 X-36.19 Y-21.99 Z0.78 F1800.0
G1 X-27.8 Y-21.99 Z0.78 F1800.0
G1 X-27.37 Y-21.6 Z0.78 F1800.0
G1 X-35.76 Y-21.6 Z0.78 F1800.0
G1 X-35.33 Y-21.21 Z0.78 F1800.0
G1 X-26.94 Y-21.21 Z0.78 F1800.0
G1 X-26.51 Y-20.81 Z0.78 F1800.0
G1 X-34.9 Y-20.81 Z0.78 F1800.0
G1 X-34.47 Y-20.42 Z0.78 F1800.0
G1 X-26.08 Y-20.42 Z0.78 F1800.0
G1 X-25.65 Y-20.03 Z0.78 F1800.0
G1 X-34.04 Y-20.03 Z0.78 F1800.0
G1 X-33.61 Y-19.64 Z0.78 F1800.0
G1 X-25.22 Y-19.64 Z0.78 F1800.0
G1 X-24.79 Y-19.24 Z0.78 F1800.0
G1 X-33.18 Y-19.24 Z0.78 F1800.0
G1 X-32.75 Y-18.85 Z0.78 F1800.0
G1 X-24.36 Y-18.85 Z0.78 F1800.0
G1 X-23.93 Y-18.46 Z0.78 F1800.0
G1 X-32.32 Y-18.46 Z0.78 F1800.0
G1 X-31.89 Y-18.06 Z0.78 F1800.0
G1 X-23.5 Y-18.06 Z0.78 F1800.0
G1 X-23.07 Y-17.67 Z0.78 F1800.0
G1 X-31.46 Y-17.67 Z0.78 F1800.0
G1 X-31.03 Y-17.28 Z0.78 F1800.0
G1 X-22.64 Y-17.28 Z0.78 F1800.0
G1 X-22.21 Y-16.89 Z0.78 F1800.0
G1 X-30.6 Y-16.89 Z0.78 F1800.0
G1 X-30.17 Y-16.49 Z0.78 F1800.0
G1 X-21.78 Y-16.49 Z0.78 F1800.0
G1 X-21.35 Y-16.1 Z0.78 F1800.0
G1 X-29.74 Y-16.1 Z0.78 F1800.0
G1 X-29.32 Y-15.71 Z0.78 F1800.0
G1 X-20.93 Y-15.71 Z0.78 F1800.0
G1 X-20.5 Y-15.32 Z0.78 F1800.0
G1 X-28.89 Y-15.32 Z0.78 F1800.0
G1 X-28.46 Y-14.92 Z0.78 F1800.0
G1 X-20.07 Y-14.92 Z0.78 F1800.0
G1 X-19.64 Y-14.53 Z0.78 F1800.0
G1 X-28.03 Y-14.53 Z0.78 F1800.0
G1 X-27.6 Y-14.14 Z0.78 F1800.0
G1 X-19.21 Y-14.14 Z0.78 F1800.0
G1 X-18.78 Y-13.74 Z0.78 F1800.0
G1 X-27.17 Y-13.74 Z0.78 F1800.0
G1 X-26.74 Y-13.35 Z0.78 F1800.0
G1 X-18.35 Y-13.35 Z0.78 F1800.0
G1 X-17.92 Y-12.96 Z0.78 F1800.0
G1 X-26.31 Y-12.96 Z0.78 F1800.0
G1 X-25.88 Y-12.57 Z0.78 F1800.0
G1 X-17.49 Y-12.57 Z0.78 F1800.0
G1 X-17.06 Y-12.17 Z0.78 F1800.0
G1 X-25.45 Y-12.17 Z0.78 F1800.0
G1 X-25.02 Y-11.78 Z0.78 F1800.0
G1 X-16.63 Y-11.78 Z0.78 F1800.0
G1 X-16.2 Y-11.39 Z0.78 F1800.0
G1 X-24.59 Y-11.39 Z0.78 F1800.0
G1 X-24.16 Y-11.0 Z0.78 F1800.0
G1 X-15.77 Y-11.0 Z0.78 F1800.0
G1 X-15.34 Y-10.6 Z0.78 F1800.0
G1 X-23.73 Y-10.6 Z0.78 F1800.0
G1 X-23.3 Y-10.21 Z0.78 F1800.0
G1 X-14.91 Y-10.21 Z0.78 F1800.0
G1 X-14.48 Y-9.82 Z0.78 F1800.0
G1 X-22.87 Y-9.82 Z0.78 F1800.0
G1 X-22.44 Y-9.43 Z0.78 F1800.0
G1 X-14.05 Y-9.43 Z0.78 F1800.0
G1 X-13.62 Y-9.03 Z0.78 F1800.0
G1 X-22.01 Y-9.03 Z0.78 F1800.0
G1 X-21.58 Y-8.64 Z0.78 F1800.0
G1 X-13.19 Y-8.64 Z0.78 F1800.0
G1 X-12.76 Y-8.25 Z0.78 F1800.0
G1 X-21.15 Y-8.25 Z0.78 F1800.0
G1 X-20.72 Y-7.85 Z0.78 F1800.0
G1 X-12.33 Y-7.85 Z0.78 F1800.0
G1 X-11.9 Y-7.46 Z0.78 F1800.0
G1 X-20.29 Y-7.46 Z0.78 F1800.0
G1 X-19.86 Y-7.07 Z0.78 F1800.0
G1 X-11.47 Y-7.07 Z0.78 F1800.0
G1 X-11.04 Y-6.68 Z0.78 F1800.0
G1 X-19.43 Y-6.68 Z0.78 F1800.0
G1 X-19.0 Y-6.28 Z0.78 F1800.0
G1 X-10.62 Y-6.28 Z0.78 F1800.0
G1 X-10.19 Y-5.89 Z0.78 F1800.0
G1 X-18.58 Y-5.89 Z0.78 F1800.0
G1 X-18.15 Y-5.5 Z0.78 F1800.0
G1 X-9.76 Y-5.5 Z0.78 F1800.0
G1 X-9.33 Y-5.11 Z0.78 F1800.0
G1 X-17.72 Y-5.11 Z0.78 F1800.0
G1 X-17.29 Y-4.71 Z0.78 F1800.0
G1 X-8.9 Y-4.71 Z0.78 F1800.0
G1 X-8.47 Y-4.32 Z0.78 F1800.0
G1 X-16.86 Y-4.32 Z0.78 F1800.0
G1 X-16.43 Y-3.93 Z0.78 F1800.0
G1 X-8.04 Y-3.93 Z0.78 F1800.0
G1 X-7.61 Y-3.53 Z0.78 F1800.0
G1 X-16.0 Y-3.53 Z0.78 F1800.0
G1 X-15.57 Y-3.14 Z0.78 F1800.0
G1 X-7.18 Y-3.14 Z0.78 F1800.0
G1 X-6.75 Y-2.75 Z0.78 F1800.0
G1 X-15.14 Y-2.75 Z0.78 F1800.0
G1 X-14.71 Y-2.36 Z0.78 F1800.0
G1 X-6.32 Y-2.36 Z0.78 F1800.0
G1 X-5.89 Y-1.96 Z0.78 F1800.0
G1 X-14.28 Y-1.96 Z0.78 F1800.0
G1 X-13.85 Y-1.57 Z0.78 F1800.0
G1 X-5.46 Y-1.57 Z0.78 F1800.0
G1 X-5.03 Y-1.18 Z0.78 F1800.0
G1 X-13.42 Y-1.18 Z0.78 F1800.0
G1 X-12.99 Y-0.79 Z0.78 F1800.0
G1 X-4.6 Y-0.79 Z0.78 F1800.0
G1 X-4.17 Y-0.39 Z0.78 F1800.0
G1 X-12.56 Y-0.39 Z0.78 F1800.0
G1 X-12.13 Y0.0 Z0.78 F1800.0
G1 X-3.74 Y0.0 Z0.78 F1800.0
G1 X-3.31 Y0.39 Z0.78 F1800.0
G1 X-11.7 Y0.39 Z0.78 F1800.0
G1 X-11.27 Y0.79 Z0.78 F1800.0
G1 X-2.88 Y0.79 Z0.78 F1800.0
G1 X-2.45 Y1.18 Z0.78 F1800.0
G1 X-10.84 Y1.18 Z0.78 F1800.0
G1 X-10.41 Y1.57 Z0.78 F1800.0
G1 X-2.02 Y1.57 Z0.78 F1800.0
G1 X-1.59 Y1.96 Z0.78 F1800.0
G1 X-9.98 Y1.96 Z0.78 F1800.0
G1 X-9.55 Y2.36 Z0.78 F1800.0
G1 X-1.16 Y2.36 Z0.78 F1800.0
G1 X-0.73 Y2.75 Z0.78 F1800.0
G1 X-9.12 Y2.75 Z0.78 F1800.0
G1 X-8.69 Y3.14 Z0.78 F1800.0
G1 X-0.31 Y3.14 Z0.78 F1800.0
G1 X0.13 Y3.53 Z0.78 F1800.0
G1 X-8.27 Y3.53 Z0.78 F1800.0
G1 X-7.84 Y3.93 Z0.78 F1800.0
G1 X0.56 Y3.93 Z0.78 F1800.0
G1 X0.98 Y4.32 Z0.78 F1800.0
G1 X-7.41 Y4.32 Z0.78 F1800.0
G1 X-6.98 Y4.71 Z0.78 F1800.0
G1 X1.41 Y4.71 Z0.78 F1800.0
G1 X1.84 Y5.11 Z0.78 F1800.0
G1 X-6.55 Y5.11 Z0.78 F1800.0
G1 X-6.12 Y5.5 Z0.78 F1800.0
G1 X2.27 Y5.5 Z0.78 F1800.0
G1 X2.7 Y5.89 Z0.78 F1800.0
G1 X-5.69 Y5.89 Z0.78 F1800.0
G1 X-5.26 Y6.28 Z0.78 F1800.0
G1 X3.13 Y6.28 Z0.78 F1800.0
G1 X3.56 Y6.68 Z0.78 F1800.0
G1 X-4.83 Y6.68 Z0.78 F1800.0
G1 X-4.4 Y7.07 Z0.78 F1800.0
G1 X3.99 Y7.07 Z0.78 F1800.0
G1 X4.42 Y7.46 Z0.78 F1800.0
G1 X-3.97 Y7.46 Z0.78 F1800.0
G1 X-3.54 Y7.85 Z0.78 F1800.0
G1 X4.85 Y7.85 Z0.78 F1800.0
G1 X5.28 Y8.25 Z0.78 F1800.0
G1 X-3.11 Y8.25 Z0.78 F1800.0
G1 X-2.68 Y8.64 Z0.78 F1800.0
G1 X5.71 Y8.64 Z0.78 F1800.0
G1 X6.14 Y9.03 Z0.78 F1800.0
G1 X-2.25 Y9.03 Z0.78 F1800.0
G1 X-1.82 Y9.43 Z0.78 F1800.0
G1 X6.57 Y9.43 Z0.78 F1800.0
G1 X7.0 Y9.82 Z0.78 F1800.0
G1 X-1.39 Y9.82 Z0.78 F1800.0
G1 X-0.96 Y10.21 Z0.78 F1800.0
G1 X7.43 Y10.21 Z0.78 F1800.0
G1 X7.86 Y10.6 Z0.78 F1800.0
G1 X-0.53 Y10.6 Z0.78 F1800.0
G1 X-0.1 Y11.0 Z0.78 F1800.0
G1 X8.29 Y11.0 Z0.78 F1800.0
G1 X8.72 Y11.39 Z0.78 F1800.0
G1 X0.33 Y11.39 Z0.78 F1800.0
G1 X0.76 Y11.78 Z0.78 F1800.0
G1 X9.15 Y11.78 Z0.78 F1800.0
G1 X9.58 Y12.17 Z0.78 F1800.0
G1 X1.19 Y12.17 Z0.78 F1800.0
G1 X1.62 Y12.57 Z0.78 F1800.0
G1 X10.01 Y12.57 Z0.78 F1800.0
G1 X10.44 Y12.96 Z0.78 F1800.0
G1 X2.05 Y12.96 Z0.78 F1800.0
G1 X2.48 Y13.35 Z0.78 F1800.0
G1 X10.87 Y13.35 Z0.78 F1800.0
G1 X11.29 Y13.74 Z0.78 F1800.0
G1 X2.91 Y13.74 Z0.78 F1800.0
G1 X3.33 Y14.14 Z0.78 F1800.0
G1 X11.72 Y14.14 Z0.78 F1800.0
G1 X12.15 Y14.53 Z0.78 F1800.0
G1 X3.76 Y14.53 Z0.78 F1800.0
G1 X4.19 Y14.92 Z0.78 F1800.0
G1 X12.58 Y14.92 Z0.78 F1800.0
G1 X13.01 Y15.32 Z0.78 F1800.0
G1 X4.62 Y15.32 Z0.78 F1800.0
G1 X5.05 Y15.71 Z0.78 F1800.0
G1 X13.44 Y15.71 Z0.78 F1800.0
G1 X13.87 Y16.1 Z0.78 F1800.0
G1 X5.48 Y16.1 Z0.78 F1800.0
G1 X5.91 Y16.49 Z0.78 F1800.0
G1 X14.3 Y16.49 Z0.78 F1800.0
G1 X14.73 Y16.89 Z0.78 F1800.0
G1 X6.34 Y16.89 Z0.78 F1800.0
G1 X6.77 Y17.28 Z0.78 F1800.0
G1 X15.16 Y17.28 Z0.78 F1800.0
G1 X15.59 Y17.67 Z0.78 F1800.0
G1 X7.2 Y17.67 Z0.78 F1800.0
G1 X7.63 Y18.06 Z0.78 F1800.0
G1 X16.02 Y18.06 Z0.78 F1800.0
G1 X16.45 Y18.46 Z0.78 F1800.0
G1 X8.06 Y18.46 Z0.78 F1800.0
G1 X8.49 Y18.85 Z0.78 F1800.0
G1 X16.88 Y18.85 Z0.78 F1800.0
G1 X17.31 Y19.24 Z0.78 F1800.0
G1 X8.92 Y19.24 Z0.78 F1800.0
G1 X9.35 Y19.64 Z0.78 F1800.0
G1 X17.74 Y19.64 Z0.78 F1800.0
G1 X18.17 Y20.03 Z0.78 F1800.0
G1 X9.78 Y20.03 Z0.78 F1800.0
G1 X10.21 Y20.42 Z0.78 F1800.0
G1 X18.6 Y20.42 Z0.78 F1800.0
G1 X19.03 Y20.81 Z0.78 F1800.0
G1 X10.64 Y20.81 Z0.78 F1800.0
G1 X11.07 Y21.21 Z0.78 F1800.0
G1 X19.46 Y21.21 Z0.78 F1800.0
G1 X19.89 Y21.6 Z0.78 F1800.0
G1 X11.5 Y21.6 Z0.78 F1800.0
G1 X11.93 Y21.99 Z0.78 F1800.0
G1 X20.32 Y21.99 Z0.78 F1800.0
G1 X20.75 Y22.38 Z0.78 F1800.0
G1 X12.36 Y22.38 Z0.78 F1800.0
G1 X12.79 Y22.78 Z0.78 F1800.0
G1 X21.18 Y22.78 Z0.78 F1800.0
G1 X21.61 Y23.17 Z0.78 F1800.0
G1 X13.22 Y23.17 Z0.78 F1800.0
G1 X13.65 Y23.56 Z0.78 F1800.0
G1 X22.03 Y23.56 Z0.78 F1800.0
G1 X22.46 Y23.96 Z0.78 F1800.0
G1 X14.07 Y23.96 Z0.78 F1800.0
G1 X14.5 Y24.35 Z0.78 F1800.0
G1 X22.89 Y24.35 Z0.78 F1800.0
G1 X23.32 Y24.74 Z0.78 F1800.0
G1 X14.93 Y24.74 Z0.78 F1800.0
G1 X15.36 Y25.13 Z0.78 F1800.0
G1 X23.75 Y25.13 Z0.78 F1800.0
G1 X24.18 Y25.53 Z0.78 F1800.0
G1 X15.79 Y25.53 Z0.78 F1800.0
G1 X16.22 Y25.92 Z0.78 F1800.0
G1 X24.61 Y25.92 Z0.78 F1800.0
M103
(</surroundingLoop>)
(</layer>)
(<operatingLayerEnd> </operatingLayerEnd>)
(<layer> 1.1 )
(<surroundingLoop>)
(<boundaryPerimeter>)
(<boundaryPoint> X-45.512 Y-39.328 Z1.1 </boundaryPoint>)
(<boundaryPoint> X25.079 Y25.201 Z1.1 </boundaryPoint>)
(<boundaryPoint> X25.143 Y25.22 Z1.1 </boundaryPoint>)
(<boundaryPoint> X25.153 Y25.211 Z1.1 </boundaryPoint>)
(<boundaryPoint> X25.142 Y25.145 Z1.1 </boundaryPoint>)
(<boundaryPoint> X-29.269 Y-50.943 Z1.1 </boundaryPoint>)
(<boundaryPoint> X-27.22 Y-52.409 Z1.1 </boundaryPoint>)
(<boundaryPoint> X46.073 Y50.081 Z1.1 </boundaryPoint>)
(<boundaryPoint> X43.947 Y52.406 Z1.1 </boundaryPoint>)
(<boundaryPoint> X-51.343 Y-34.7 Z1.1 </boundaryPoint>)
(<boundaryPoint> X-51.544 Y-34.952 Z1.1 </boundaryPoint>)
(<boundaryPoint> X-51.314 Y-35.179 Z1.1 </boundaryPoint>)
(<loop> outer )
G1 X25.05 Y25.81 Z1.1 F3000.0
M101
G1 X25.29 Y25.88 Z1.1 F1800.0
G1 X25.79 Y25.43 Z1.1 F1800.0
G1 X25.7 Y24.91 Z1.1 F1800.0
G1 X-28.45 Y-50.81 Z1.1 F1800.0
G1 X-27.36 Y-51.59 Z1.1 F1800.0
G1 X45.32 Y50.04 Z1.1 F1800.0
G1 X43.91 Y51.57 Z1.1 F1800.0
G1 X-50.69 Y-34.9 Z1.1 F1800.0
G1 X-45.56 Y-38.57 Z1.1 F1800.0
G1 X24.78 Y25.73 Z1.1 F1800.0
G1 X25.05 Y25.81 Z1.1 F1800.0
M103
(</loop>)
(<perimeter> outer )
G1 X25.19 Y25.44 Z1.1 F3000.0
M101
G1 X25.37 Y25.29 Z1.1 F1800.0
G1 X25.33 Y25.07 Z1.1 F1800.0
G1 X-29.0 Y-50.9 Z1.1 F1800.0
G1 X-27.27 Y-52.14 Z1.1 F1800.0
G1 X45.82 Y50.07 Z1.1 F1800.0
G1 X43.94 Y52.13 Z1.1 F1800.0
G1 X-51.23 Y-34.86 Z1.1 F1800.0
G1 X-51.38 Y-34.94 Z1.1 F1800.0
G1 X-51.22 Y-35.01 Z1.1 F1800.0
G1 X-45.53 Y-39.08 Z1.1 F1800.0
G1 X24.81 Y25.22 Z1.1 F1800.0
M108 R30.0
M102
G1 X24.98 Y25.38 Z1.1 F1800.0
G1 X25.19 Y25.44 Z1.1 F1800.0
M108 R3.569
M103
(</perimeter>)
(</boundaryPerimeter>)
G1 X25.12 Y24.86 Z1.1 F3000.0
G1 X25.21 Y24.97 Z1.1 F3000.0
G1 X25.09 Y24.99 Z1.1 F3000.0
G1 X24.93 Y25.13 Z1.1 F3000.0
G1 X24.89 Y25.25 Z1.1 F3000.0
G1 X18.32 Y15.13 Z1.1 F3000.0
G1 X-27.46 Y-49.86 Z1.1 F3000.0
M108 R30.0
M101
G1 X-27.93 Y-50.52 Z1.1 F3000.0
M108 R3.569
G1 X-27.93 Y-50.87 Z1.1 F1800.0
G1 X-27.49 Y-51.18 Z1.1 F1800.0
G1 X-27.05 Y-50.72 Z1.1 F1800.0
G1 X-26.62 Y-50.11 Z1.1 F1800.0
G1 X-27.49 Y-49.91 Z1.1 F1800.0
G1 X-27.05 Y-49.3 Z1.1 F1800.0
G1 X-26.18 Y-49.5 Z1.1 F1800.0
G1 X-25.74 Y-48.89 Z1.1 F1800.0
G1 X-26.62 Y-48.69 Z1.1 F1800.0
G1 X-26.18 Y-48.08 Z1.1 F1800.0
G1 X-25.31 Y-48.28 Z1.1 F1800.0
G1 X-25.39 Y-47.72 Z1.1 F1800.0
G1 X-24.87 Y-47.67 Z1.1 F1800.0
G1 X-24.44 Y-47.06 Z1.1 F1800.0
G1 X-25.31 Y-46.86 Z1.1 F1800.0
G1 X-24.87 Y-46.25 Z1.1 F1800.0
G1 X-24.0 Y-46.45 Z1.1 F1800.0
G1 X-23.56 Y-45.84 Z1.1 F1800.0
G1 X-24.44 Y-45.64 Z1.1 F1800.0
G1 X-23.56 Y-44.41 Z1.1 F1800.0
G1 X-23.13 Y-45.23 Z1.1 F1800.0
G1 X-22.25 Y-44.01 Z1.1 F1800.0
G1 X-23.13 Y-43.8 Z1.1 F1800.0
G1 X-22.69 Y-43.19 Z1.1 F1800.0
G1 X-21.82 Y-43.4 Z1.1 F1800.0
G1 X-21.38 Y-42.79 Z1.1 F1800.0
G1 X-22.25 Y-42.58 Z1.1 F1800.0
G1 X-21.38 Y-41.36 Z1.1 F1800.0
G1 X-20.94 Y-42.18 Z1.1 F1800.0
G1 X-20.51 Y-41.57 Z1.1 F1800.0
G1 X-20.94 Y-40.75 Z1.1 F1800.0
G1 X-20.51 Y-40.14 Z1.1 F1800.0
G1 X-19.64 Y-40.35 Z1.1 F1800.0
G1 X-19.2 Y-39.74 Z1.1 F1800.0
G1 X-20.07 Y-39.53 Z1.1 F1800.0
G1 X-19.2 Y-38.31 Z1.1 F1800.0
G1 X-18.33 Y-38.52 Z1.1 F1800.0
G1 X-18.76 Y-37.7 Z1.1 F1800.0
G1 X-18.33 Y-37.09 Z1.1 F1800.0
G1 X-17.45 Y-37.3 Z1.1 F1800.0
G1 X-17.02 Y-36.69 Z1.1 F1800.0
G1 X-17.89 Y-36.48 Z1.1 F1800.0
G1 X-17.02 Y-35.26 Z1.1 F1800.0
G1 X-16.58 Y-36.08 Z1.1 F1800.0
G1 X-15.71 Y-34.86 Z1.1 F1800.0
G1 X-16.58 Y-34.65 Z1.1 F1800.0
G1 X-16.14 Y-34.04 Z1.1 F1800.0
G1 X-15.27 Y-34.25 Z1.1 F1800.0
G1 X-14.84 Y-33.64 Z1.1 F1800.0
G1 X-15.71 Y-33.43 Z1.1 F1800.0
G1 X-14.84 Y-32.21 Z1.1 F1800.0
G1 X-14.4 Y-33.03 Z1.1 F1800.0
G1 X-13.53 Y-31.81 Z1.1 F1800.0
G1 X-14.4 Y-31.6 Z1.1 F1800.0
G1 X-13.96 Y-30.99 Z1.1 F1800.0
G1 X-13.09 Y-31.2 Z1.1 F1800.0
G1 X-13.53 Y-30.38 Z1.1 F1800.0
G1 X-12.65 Y-30.59 Z1.1 F1800.0
G1 X-12.74 Y-30.02 Z1.1 F1800.0
G1 X-12.22 Y-29.98 Z1.1 F1800.0
G1 X-12.65 Y-29.16 Z1.1 F1800.0
G1 X-11.78 Y-29.37 Z1.1 F1800.0
G1 X-11.35 Y-28.76 Z1.1 F1800.0
G1 X-12.22 Y-28.55 Z1.1 F1800.0
G1 X-11.78 Y-27.94 Z1.1 F1800.0
G1 X-10.91 Y-28.15 Z1.1 F1800.0
G1 X-10.99 Y-27.58 Z1.1 F1800.0
G1 X-10.47 Y-27.54 Z1.1 F1800.0
G1 X-10.04 Y-26.93 Z1.1 F1800.0
G1 X-10.91 Y-26.72 Z1.1 F1800.0
G1 X-10.47 Y-26.11 Z1.1 F1800.0
G1 X-9.6 Y-26.32 Z1.1 F1800.0
G1 X-9.16 Y-25.71 Z1.1 F1800.0
G1 X-10.04 Y-25.5 Z1.1 F1800.0
G1 X-9.6 Y-24.89 Z1.1 F1800.0
G1 X-8.73 Y-25.1 Z1.1 F1800.0
G1 X-8.29 Y-24.49 Z1.1 F1800.0
G1 X-9.16 Y-24.28 Z1.1 F1800.0
G1 X-8.29 Y-23.06 Z1.1 F1800.0
G1 X-7.85 Y-23.88 Z1.1 F1800.0
G1 X-7.42 Y-23.27 Z1.1 F1800.0
G1 X-7.85 Y-22.45 Z1.1 F1800.0
G1 X-7.42 Y-21.84 Z1.1 F1800.0
G1 X-6.55 Y-22.05 Z1.1 F1800.0
G1 X-6.11 Y-21.44 Z1.1 F1800.0
G1 X-6.98 Y-21.23 Z1.1 F1800.0
G1 X-6.11 Y-20.01 Z1.1 F1800.0
G1 X-5.24 Y-20.22 Z1.1 F1800.0
G1 X-4.8 Y-19.61 Z1.1 F1800.0
G1 X-5.67 Y-19.4 Z1.1 F1800.0
G1 X-5.24 Y-18.79 Z1.1 F1800.0
G1 X-4.36 Y-19.0 Z1.1 F1800.0
G1 X-3.93 Y-18.39 Z1.1 F1800.0
G1 X-4.8 Y-18.18 Z1.1 F1800.0
G1 X-3.93 Y-16.96 Z1.1 F1800.0
G1 X-3.49 Y-17.77 Z1.1 F1800.0
G1 X-2.62 Y-16.56 Z1.1 F1800.0
G1 X-3.49 Y-16.35 Z1.1 F1800.0
G1 X-3.05 Y-15.74 Z1.1 F1800.0
G1 X-2.18 Y-15.95 Z1.1 F1800.0
G1 X-1.75 Y-15.34 Z1.1 F1800.0
G1 X-2.62 Y-15.13 Z1.1 F1800.0
G1 X-1.75 Y-13.91 Z1.1 F1800.0
G1 X-1.31 Y-14.72 Z1.1 F1800.0
G1 X-0.44 Y-13.5 Z1.1 F1800.0
G1 X-1.31 Y-13.3 Z1.1 F1800.0
G1 X-0.87 Y-12.69 Z1.1 F1800.0
G1 X-0.0 Y-12.89 Z1.1 F1800.0
G1 X0.44 Y-12.28 Z1.1 F1800.0
G1 X-0.44 Y-12.08 Z1.1 F1800.0
G1 X-0.0 Y-11.47 Z1.1 F1800.0
G1 X0.87 Y-11.67 Z1.1 F1800.0
G1 X0.79 Y-11.11 Z1.1 F1800.0
G1 X1.31 Y-11.06 Z1.1 F1800.0
G1 X1.75 Y-10.45 Z1.1 F1800.0
G1 X0.87 Y-10.25 Z1.1 F1800.0
G1 X1.31 Y-9.64 Z1.1 F1800.0
G1 X2.18 Y-9.84 Z1.1 F1800.0
G1 X2.62 Y-9.23 Z1.1 F1800.0
G1 X1.75 Y-9.03 Z1.1 F1800.0
G1 X2.62 Y-7.8 Z1.1 F1800.0
G1 X3.05 Y-8.62 Z1.1 F1800.0
G1 X3.93 Y-7.4 Z1.1 F1800.0
G1 X3.05 Y-7.19 Z1.1 F1800.0
G1 X3.49 Y-6.58 Z1.1 F1800.0
G1 X4.36 Y-6.79 Z1.1 F1800.0
G1 X3.93 Y-5.97 Z1.1 F1800.0
G1 X4.8 Y-4.75 Z1.1 F1800.0
G1 X5.67 Y-4.96 Z1.1 F1800.0
G1 X5.75 Y-4.1 Z1.1 F1800.0
G1 X5.24 Y-4.14 Z1.1 F1800.0
G1 X5.67 Y-3.53 Z1.1 F1800.0
G1 X6.55 Y-3.74 Z1.1 F1800.0
G1 X6.98 Y-3.13 Z1.1 F1800.0
G1 X6.11 Y-2.92 Z1.1 F1800.0
G1 X6.98 Y-1.7 Z1.1 F1800.0
G1 X7.42 Y-2.52 Z1.1 F1800.0
G1 X8.29 Y-1.3 Z1.1 F1800.0
G1 X7.42 Y-1.09 Z1.1 F1800.0
G1 X7.85 Y-0.48 Z1.1 F1800.0
G1 X8.73 Y-0.69 Z1.1 F1800.0
G1 X9.16 Y-0.08 Z1.1 F1800.0
G1 X8.29 Y0.13 Z1.1 F1800.0
G1 X9.16 Y1.35 Z1.1 F1800.0
G1 X9.6 Y0.53 Z1.1 F1800.0
G1 X10.47 Y1.75 Z1.1 F1800.0
G1 X9.6 Y1.96 Z1.1 F1800.0
G1 X10.04 Y2.57 Z1.1 F1800.0
G1 X10.91 Y2.36 Z1.1 F1800.0
G1 X10.83 Y2.93 Z1.1 F1800.0
G1 X11.35 Y2.97 Z1.1 F1800.0
G1 X10.91 Y3.79 Z1.1 F1800.0
G1 X11.78 Y3.58 Z1.1 F1800.0
G1 X11.7 Y4.14 Z1.1 F1800.0
G1 X12.22 Y4.19 Z1.1 F1800.0
G1 X12.65 Y4.8 Z1.1 F1800.0
G1 X11.78 Y5.01 Z1.1 F1800.0
G1 X12.22 Y5.62 Z1.1 F1800.0
G1 X13.09 Y5.41 Z1.1 F1800.0
G1 X13.53 Y6.02 Z1.1 F1800.0
G1 X12.65 Y6.23 Z1.1 F1800.0
G1 X13.53 Y7.45 Z1.1 F1800.0
G1 X13.96 Y6.63 Z1.1 F1800.0
G1 X14.84 Y7.85 Z1.1 F1800.0
G1 X13.96 Y8.06 Z1.1 F1800.0
G1 X14.4 Y8.67 Z1.1 F1800.0
G1 X15.27 Y8.46 Z1.1 F1800.0
G1 X15.71 Y9.07 Z1.1 F1800.0
G1 X14.84 Y9.28 Z1.1 F1800.0
G1 X15.71 Y10.5 Z1.1 F1800.0
G1 X16.14 Y9.68 Z1.1 F1800.0
G1 X17.02 Y10.9 Z1.1 F1800.0
G1 X16.14 Y11.11 Z1.1 F1800.0
G1 X16.58 Y11.72 Z1.1 F1800.0
G1 X17.45 Y11.51 Z1.1 F1800.0
G1 X17.89 Y12.12 Z1.1 F1800.0
G1 X17.02 Y12.33 Z1.1 F1800.0
G1 X17.89 Y13.55 Z1.1 F1800.0
G1 X18.76 Y13.34 Z1.1 F1800.0
G1 X19.2 Y13.95 Z1.1 F1800.0
G1 X18.33 Y14.16 Z1.1 F1800.0
G1 X18.76 Y14.77 Z1.1 F1800.0
G1 X19.64 Y14.56 Z1.1 F1800.0
G1 X20.07 Y15.17 Z1.1 F1800.0
G1 X19.2 Y15.38 Z1.1 F1800.0
G1 X20.07 Y16.6 Z1.1 F1800.0
G1 X20.51 Y15.78 Z1.1 F1800.0
G1 X21.38 Y17.0 Z1.1 F1800.0
G1 X20.51 Y17.21 Z1.1 F1800.0
G1 X20.94 Y17.82 Z1.1 F1800.0
G1 X21.82 Y17.61 Z1.1 F1800.0
G1 X22.25 Y18.22 Z1.1 F1800.0
G1 X21.38 Y18.43 Z1.1 F1800.0
G1 X22.25 Y19.65 Z1.1 F1800.0
G1 X22.69 Y18.83 Z1.1 F1800.0
G1 X23.13 Y19.44 Z1.1 F1800.0
G1 X23.04 Y20.01 Z1.1 F1800.0
G1 X23.56 Y20.05 Z1.1 F1800.0
G1 X23.13 Y20.87 Z1.1 F1800.0
G1 X24.0 Y20.66 Z1.1 F1800.0
G1 X23.92 Y21.23 Z1.1 F1800.0
G1 X24.44 Y21.28 Z1.1 F1800.0
G1 X24.0 Y22.09 Z1.1 F1800.0
G1 X24.87 Y21.89 Z1.1 F1800.0
G1 X25.74 Y23.11 Z1.1 F1800.0
G1 X24.87 Y23.31 Z1.1 F1800.0
G1 X25.74 Y24.53 Z1.1 F1800.0
G1 X26.62 Y24.33 Z1.1 F1800.0
G1 X26.44 Y24.08 Z1.1 F1800.0
M108 R30.0
M102
G1 X26.18 Y23.72 Z1.1 F1800.0
M108 R3.569
M103
G1 X29.21 Y27.95 Z1.1 F3000.0
M108 R30.0
M101
G1 X29.67 Y28.6 Z1.1 F3000.0
M108 R3.569
G1 X31.42 Y31.04 Z1.1 F1800.0
G1 X29.57 Y31.51 Z1.1 F1800.0
G1 X29.57 Y31.76 Z1.1 F1800.0
G1 X31.52 Y33.69 Z1.1 F1800.0
G1 X31.52 Y33.94 Z1.1 F1800.0
G1 X29.57 Y35.87 Z1.1 F1800.0
G1 X29.57 Y36.13 Z1.1 F1800.0
G1 X31.52 Y38.05 Z1.1 F1800.0
G1 X31.42 Y39.81 Z1.1 F1800.0
G1 X27.49 Y36.22 Z1.1 F1800.0
G1 X29.34 Y36.13 Z1.1 F1800.0
G1 X29.34 Y35.87 Z1.1 F1800.0
G1 X27.39 Y33.94 Z1.1 F1800.0
G1 X27.39 Y33.69 Z1.1 F1800.0
G1 X29.34 Y31.76 Z1.1 F1800.0
G1 X29.34 Y31.51 Z1.1 F1800.0
G1 X27.39 Y29.58 Z1.1 F1800.0
G1 X27.39 Y29.33 Z1.1 F1800.0
G1 X28.88 Y28.24 Z1.1 F1800.0
G1 X28.8 Y27.38 Z1.1 F1800.0
G1 X28.01 Y27.02 Z1.1 F1800.0
G1 X27.93 Y26.16 Z1.1 F1800.0
G1 X27.05 Y24.94 Z1.1 F1800.0
G1 X25.31 Y26.15 Z1.1 F1800.0
G1 X25.2 Y27.4 Z1.1 F1800.0
G1 X27.16 Y29.33 Z1.1 F1800.0
G1 X27.16 Y29.58 Z1.1 F1800.0
G1 X25.2 Y31.51 Z1.1 F1800.0
G1 X25.2 Y31.76 Z1.1 F1800.0
G1 X27.16 Y33.69 Z1.1 F1800.0
G1 X27.05 Y35.82 Z1.1 F1800.0
G1 X23.13 Y32.23 Z1.1 F1800.0
G1 X24.97 Y31.76 Z1.1 F1800.0
G1 X24.97 Y31.51 Z1.1 F1800.0
G1 X23.02 Y29.58 Z1.1 F1800.0
G1 X23.02 Y29.33 Z1.1 F1800.0
G1 X24.97 Y27.4 Z1.1 F1800.0
G1 X24.97 Y27.14 Z1.1 F1800.0
G1 X24.44 Y25.76 Z1.1 F1800.0
G1 X20.94 Y22.57 Z1.1 F1800.0
G1 X20.84 Y27.4 Z1.1 F1800.0
G1 X22.79 Y29.33 Z1.1 F1800.0
G1 X22.69 Y31.83 Z1.1 F1800.0
G1 X18.33 Y27.84 Z1.1 F1800.0
G1 X20.61 Y27.4 Z1.1 F1800.0
G1 X20.61 Y27.14 Z1.1 F1800.0
G1 X18.66 Y25.22 Z1.1 F1800.0
G1 X18.66 Y24.96 Z1.1 F1800.0
G1 X20.51 Y22.17 Z1.1 F1800.0
G1 X16.58 Y18.58 Z1.1 F1800.0
G1 X16.48 Y23.04 Z1.1 F1800.0
G1 X18.43 Y24.96 Z1.1 F1800.0
G1 X18.43 Y25.22 Z1.1 F1800.0
G1 X17.89 Y27.44 Z1.1 F1800.0
G1 X13.96 Y23.85 Z1.1 F1800.0
G1 X16.25 Y23.04 Z1.1 F1800.0
G1 X16.25 Y22.78 Z1.1 F1800.0
G1 X14.3 Y20.85 Z1.1 F1800.0
G1 X14.3 Y20.6 Z1.1 F1800.0
G1 X16.14 Y18.18 Z1.1 F1800.0
G1 X12.22 Y14.59 Z1.1 F1800.0
G1 X12.11 Y18.67 Z1.1 F1800.0
G1 X14.07 Y20.6 Z1.1 F1800.0
G1 X14.07 Y20.85 Z1.1 F1800.0
G1 X13.53 Y23.45 Z1.1 F1800.0
G1 X9.6 Y19.86 Z1.1 F1800.0
G1 X11.88 Y18.67 Z1.1 F1800.0
G1 X11.88 Y18.42 Z1.1 F1800.0
G1 X9.93 Y16.49 Z1.1 F1800.0
G1 X9.93 Y16.24 Z1.1 F1800.0
G1 X11.78 Y14.19 Z1.1 F1800.0
G1 X7.85 Y10.6 Z1.1 F1800.0
G1 X7.75 Y14.31 Z1.1 F1800.0
G1 X9.7 Y16.24 Z1.1 F1800.0
G1 X9.16 Y19.47 Z1.1 F1800.0
G1 X5.24 Y15.88 Z1.1 F1800.0
G1 X7.52 Y14.31 Z1.1 F1800.0
G1 X7.52 Y14.05 Z1.1 F1800.0
G1 X5.57 Y12.13 Z1.1 F1800.0
G1 X5.57 Y11.87 Z1.1 F1800.0
G1 X7.42 Y10.2 Z1.1 F1800.0
G1 X3.49 Y6.61 Z1.1 F1800.0
G1 X3.39 Y9.95 Z1.1 F1800.0
G1 X5.34 Y11.87 Z1.1 F1800.0
G1 X4.8 Y15.48 Z1.1 F1800.0
G1 X0.0 Y11.09 Z1.1 F1800.0
G1 X3.16 Y9.95 Z1.1 F1800.0
G1 X3.16 Y9.69 Z1.1 F1800.0
G1 X1.21 Y7.76 Z1.1 F1800.0
G1 X1.21 Y7.51 Z1.1 F1800.0
G1 X3.05 Y6.21 Z1.1 F1800.0
G1 X-0.87 Y2.62 Z1.1 F1800.0
G1 X-0.98 Y5.58 Z1.1 F1800.0
G1 X0.98 Y7.51 Z1.1 F1800.0
G1 X0.98 Y7.76 Z1.1 F1800.0
G1 X-0.98 Y9.69 Z1.1 F1800.0
G1 X-0.98 Y9.95 Z1.1 F1800.0
G1 X-0.87 Y10.29 Z1.1 F1800.0
G1 X-1.21 Y9.95 Z1.1 F1800.0
G1 X-1.21 Y9.69 Z1.1 F1800.0
G1 X-1.75 Y9.49 Z1.1 F1800.0
G1 X-3.49 Y7.9 Z1.1 F1800.0
G1 X-3.27 Y7.76 Z1.1 F1800.0
G1 X-3.27 Y7.51 Z1.1 F1800.0
G1 X-1.21 Y5.58 Z1.1 F1800.0
G1 X-1.21 Y5.33 Z1.1 F1800.0
G1 X-3.16 Y3.4 Z1.1 F1800.0
G1 X-3.16 Y3.15 Z1.1 F1800.0
G1 X-1.31 Y2.22 Z1.1 F1800.0
G1 X-5.24 Y-1.37 Z1.1 F1800.0
G1 X-5.34 Y1.22 Z1.1 F1800.0
G1 X-3.39 Y3.15 Z1.1 F1800.0
G1 X-3.39 Y3.4 Z1.1 F1800.0
G1 X-5.34 Y5.33 Z1.1 F1800.0
G1 X-5.34 Y5.58 Z1.1 F1800.0
G1 X-4.51 Y6.38 Z1.1 F1800.0
G1 X-4.36 Y7.1 Z1.1 F1800.0
G1 X-5.67 Y5.9 Z1.1 F1800.0
G1 X-5.57 Y5.58 Z1.1 F1800.0
G1 X-5.57 Y5.33 Z1.1 F1800.0
G1 X-6.11 Y5.51 Z1.1 F1800.0
G1 X-8.29 Y3.51 Z1.1 F1800.0
G1 X-7.64 Y3.4 Z1.1 F1800.0
G1 X-7.64 Y3.15 Z1.1 F1800.0
G1 X-5.57 Y1.22 Z1.1 F1800.0
G1 X-5.57 Y0.96 Z1.1 F1800.0
G1 X-7.52 Y-0.96 Z1.1 F1800.0
G1 X-7.52 Y-1.22 Z1.1 F1800.0
G1 X-5.67 Y-1.77 Z1.1 F1800.0
G1 X-9.6 Y-5.36 Z1.1 F1800.0
G1 X-9.7 Y-3.15 Z1.1 F1800.0
G1 X-7.75 Y-1.22 Z1.1 F1800.0
G1 X-7.75 Y-0.96 Z1.1 F1800.0
G1 X-9.7 Y0.96 Z1.1 F1800.0
G1 X-9.7 Y1.22 Z1.1 F1800.0
G1 X-8.43 Y2.79 Z1.1 F1800.0
G1 X-9.16 Y2.71 Z1.1 F1800.0
G1 X-10.04 Y1.92 Z1.1 F1800.0
G1 X-9.93 Y0.96 Z1.1 F1800.0
G1 X-10.47 Y1.52 Z1.1 F1800.0
G1 X-12.65 Y-0.48 Z1.1 F1800.0
G1 X-12.0 Y-0.96 Z1.1 F1800.0
G1 X-12.0 Y-1.22 Z1.1 F1800.0
G1 X-9.93 Y-3.15 Z1.1 F1800.0
G1 X-9.93 Y-3.4 Z1.1 F1800.0
G1 X-11.88 Y-5.33 Z1.1 F1800.0
G1 X-11.88 Y-5.58 Z1.1 F1800.0
G1 X-10.04 Y-5.75 Z1.1 F1800.0
G1 X-14.4 Y-9.74 Z1.1 F1800.0
G1 X-14.07 Y-7.51 Z1.1 F1800.0
G1 X-12.11 Y-5.58 Z1.1 F1800.0
G1 X-12.11 Y-5.33 Z1.1 F1800.0
G1 X-14.07 Y-3.4 Z1.1 F1800.0
G1 X-14.07 Y-3.15 Z1.1 F1800.0
G1 X-12.8 Y-1.2 Z1.1 F1800.0
G1 X-13.53 Y-1.28 Z1.1 F1800.0
G1 X-14.84 Y-2.47 Z1.1 F1800.0
G1 X-14.3 Y-3.15 Z1.1 F1800.0
G1 X-14.3 Y-3.4 Z1.1 F1800.0
G1 X-15.27 Y-2.87 Z1.1 F1800.0
G1 X-17.02 Y-4.47 Z1.1 F1800.0
G1 X-16.36 Y-5.33 Z1.1 F1800.0
G1 X-16.36 Y-5.58 Z1.1 F1800.0
G1 X-14.3 Y-7.51 Z1.1 F1800.0
G1 X-14.3 Y-7.76 Z1.1 F1800.0
G1 X-16.25 Y-9.69 Z1.1 F1800.0
G1 X-16.25 Y-9.95 Z1.1 F1800.0
G1 X-14.84 Y-10.14 Z1.1 F1800.0
G1 X-18.33 Y-13.33 Z1.1 F1800.0
G1 X-18.43 Y-11.87 Z1.1 F1800.0
G1 X-16.48 Y-9.95 Z1.1 F1800.0
G1 X-16.48 Y-9.69 Z1.1 F1800.0
G1 X-18.43 Y-7.76 Z1.1 F1800.0
G1 X-18.43 Y-7.51 Z1.1 F1800.0
G1 X-17.45 Y-4.87 Z1.1 F1800.0
G1 X-19.2 Y-6.46 Z1.1 F1800.0
G1 X-18.66 Y-7.51 Z1.1 F1800.0
G1 X-18.66 Y-7.76 Z1.1 F1800.0
G1 X-19.64 Y-6.86 Z1.1 F1800.0
G1 X-21.38 Y-8.46 Z1.1 F1800.0
G1 X-20.61 Y-9.69 Z1.1 F1800.0
G1 X-20.61 Y-9.95 Z1.1 F1800.0
G1 X-18.66 Y-11.87 Z1.1 F1800.0
G1 X-18.76 Y-13.73 Z1.1 F1800.0
G1 X-22.69 Y-17.32 Z1.1 F1800.0
G1 X-22.79 Y-11.87 Z1.1 F1800.0
G1 X-20.84 Y-9.95 Z1.1 F1800.0
G1 X-20.84 Y-9.69 Z1.1 F1800.0
G1 X-21.82 Y-8.85 Z1.1 F1800.0
G1 X-24.87 Y-11.65 Z1.1 F1800.0
G1 X-23.02 Y-11.87 Z1.1 F1800.0
G1 X-23.02 Y-12.13 Z1.1 F1800.0
G1 X-24.97 Y-14.05 Z1.1 F1800.0
G1 X-24.97 Y-14.31 Z1.1 F1800.0
G1 X-23.13 Y-17.72 Z1.1 F1800.0
G1 X-27.05 Y-21.31 Z1.1 F1800.0
G1 X-27.16 Y-16.24 Z1.1 F1800.0
G1 X-25.2 Y-14.31 Z1.1 F1800.0
G1 X-25.31 Y-12.05 Z1.1 F1800.0
G1 X-29.23 Y-15.63 Z1.1 F1800.0
G1 X-27.39 Y-16.24 Z1.1 F1800.0
G1 X-27.39 Y-16.49 Z1.1 F1800.0
G1 X-29.34 Y-18.42 Z1.1 F1800.0
G1 X-29.34 Y-18.67 Z1.1 F1800.0
G1 X-27.49 Y-21.71 Z1.1 F1800.0
G1 X-31.42 Y-25.3 Z1.1 F1800.0
G1 X-31.52 Y-20.6 Z1.1 F1800.0
G1 X-29.57 Y-18.67 Z1.1 F1800.0
G1 X-29.67 Y-16.03 Z1.1 F1800.0
G1 X-34.03 Y-20.02 Z1.1 F1800.0
G1 X-31.75 Y-20.6 Z1.1 F1800.0
G1 X-31.75 Y-20.85 Z1.1 F1800.0
G1 X-33.7 Y-22.78 Z1.1 F1800.0
G1 X-33.7 Y-23.04 Z1.1 F1800.0
G1 X-31.85 Y-25.7 Z1.1 F1800.0
G1 X-35.78 Y-29.29 Z1.1 F1800.0
G1 X-35.88 Y-24.96 Z1.1 F1800.0
G1 X-33.93 Y-23.04 Z1.1 F1800.0
G1 X-33.93 Y-22.78 Z1.1 F1800.0
G1 X-34.47 Y-20.42 Z1.1 F1800.0
G1 X-38.4 Y-24.01 Z1.1 F1800.0
G1 X-36.11 Y-24.96 Z1.1 F1800.0
G1 X-36.11 Y-25.22 Z1.1 F1800.0
G1 X-38.06 Y-27.14 Z1.1 F1800.0
G1 X-38.06 Y-27.4 Z1.1 F1800.0
G1 X-36.22 Y-29.69 Z1.1 F1800.0
G1 X-40.14 Y-33.28 Z1.1 F1800.0
G1 X-40.25 Y-29.33 Z1.1 F1800.0
G1 X-38.29 Y-27.4 Z1.1 F1800.0
G1 X-38.29 Y-27.14 Z1.1 F1800.0
G1 X-38.83 Y-24.41 Z1.1 F1800.0
G1 X-42.76 Y-28.0 Z1.1 F1800.0
G1 X-40.48 Y-29.33 Z1.1 F1800.0
G1 X-40.48 Y-29.58 Z1.1 F1800.0
G1 X-42.43 Y-31.51 Z1.1 F1800.0
G1 X-42.43 Y-31.76 Z1.1 F1800.0
G1 X-40.58 Y-33.67 Z1.1 F1800.0
G1 X-44.51 Y-37.26 Z1.1 F1800.0
G1 X-44.61 Y-33.69 Z1.1 F1800.0
G1 X-42.66 Y-31.76 Z1.1 F1800.0
G1 X-43.2 Y-28.4 Z1.1 F1800.0
G1 X-47.12 Y-31.99 Z1.1 F1800.0
G1 X-44.84 Y-33.69 Z1.1 F1800.0
G1 X-44.84 Y-33.94 Z1.1 F1800.0
G1 X-46.79 Y-35.87 Z1.1 F1800.0
G1 X-46.79 Y-36.13 Z1.1 F1800.0
G1 X-44.94 Y-37.66 Z1.1 F1800.0
G1 X-45.38 Y-38.06 Z1.1 F1800.0
G1 X-45.82 Y-38.07 Z1.1 F1800.0
G1 X-47.12 Y-37.14 Z1.1 F1800.0
G1 X-47.02 Y-35.87 Z1.1 F1800.0
G1 X-47.56 Y-36.83 Z1.1 F1800.0
G1 X-48.87 Y-35.89 Z1.1 F1800.0
G1 X-47.56 Y-32.39 Z1.1 F1800.0
G1 X-48.87 Y-33.58 Z1.1 F1800.0
G1 X-49.09 Y-33.69 Z1.1 F1800.0
G1 X-49.09 Y-33.94 Z1.1 F1800.0
G1 X-49.31 Y-33.98 Z1.1 F1800.0
G1 X-50.18 Y-34.78 Z1.1 F1800.0
G1 X-50.18 Y-34.96 Z1.1 F1800.0
G1 X-50.11 Y-35.01 Z1.1 F1800.0
M108 R30.0
M102
G1 X-49.74 Y-35.27 Z1.1 F1800.0
M108 R3.569
M103
G1 X43.91 Y48.81 Z1.1 F3000.0
M108 R30.0
M101
G1 X44.51 Y49.34 Z1.1 F3000.0
M108 R3.569
G1 X44.94 Y49.95 Z1.1 F1800.0
G1 X44.94 Y50.07 Z1.1 F1800.0
G1 X44.07 Y51.02 Z1.1 F1800.0
G1 X43.63 Y50.98 Z1.1 F1800.0
G1 X41.89 Y49.38 Z1.1 F1800.0
G1 X42.54 Y49.22 Z1.1 F1800.0
G1 X42.54 Y48.96 Z1.1 F1800.0
G1 X44.07 Y48.73 Z1.1 F1800.0
G1 X42.32 Y46.29 Z1.1 F1800.0
G1 X41.45 Y48.98 Z1.1 F1800.0
G1 X39.71 Y47.39 Z1.1 F1800.0
G1 X40.36 Y47.03 Z1.1 F1800.0
G1 X40.36 Y46.78 Z1.1 F1800.0
G1 X41.53 Y45.94 Z1.1 F1800.0
G1 X41.45 Y45.07 Z1.1 F1800.0
G1 X40.66 Y44.71 Z1.1 F1800.0
G1 X40.58 Y43.85 Z1.1 F1800.0
G1 X38.83 Y46.59 Z1.1 F1800.0
G1 X37.09 Y44.99 Z1.1 F1800.0
G1 X38.18 Y44.85 Z1.1 F1800.0
G1 X38.18 Y44.6 Z1.1 F1800.0
G1 X40.14 Y43.24 Z1.1 F1800.0
G1 X38.4 Y40.8 Z1.1 F1800.0
G1 X36.65 Y44.59 Z1.1 F1800.0
G1 X35.34 Y43.4 Z1.1 F1800.0
G1 X36.0 Y42.67 Z1.1 F1800.0
G1 X36.0 Y42.42 Z1.1 F1800.0
G1 X37.96 Y40.19 Z1.1 F1800.0
G1 X34.03 Y34.7 Z1.1 F1800.0
G1 X33.82 Y40.49 Z1.1 F1800.0
G1 X35.2 Y42.68 Z1.1 F1800.0
G1 X34.47 Y42.6 Z1.1 F1800.0
G1 X31.85 Y40.21 Z1.1 F1800.0
G1 X31.75 Y33.69 Z1.1 F1800.0
G1 X33.6 Y34.09 Z1.1 F1800.0
G1 X31.85 Y31.65 Z1.1 F1800.0
M103
(</surroundingLoop>)
(</layer>)
(<layer> 1.42 )
(<surroundingLoop>)
(<boundaryPerimeter>)
(<boundaryPoint> X-45.512 Y-39.328 Z1.42 </boundaryPoint>)
(<boundaryPoint> X25.079 Y25.201 Z1.42 </boundaryPoint>)
(<boundaryPoint> X25.143 Y25.22 Z1.42 </boundaryPoint>)
(<boundaryPoint> X25.153 Y25.211 Z1.42 </boundaryPoint>)
(<boundaryPoint> X25.142 Y25.145 Z1.42 </boundaryPoint>)
(<boundaryPoint> X-29.269 Y-50.943 Z1.42 </boundaryPoint>)
(<boundaryPoint> X-27.22 Y-52.409 Z1.42 </boundaryPoint>)
(<boundaryPoint> X46.073 Y50.081 Z1.42 </boundaryPoint>)
(<boundaryPoint> X43.947 Y52.406 Z1.42 </boundaryPoint>)
(<boundaryPoint> X-51.343 Y-34.7 Z1.42 </boundaryPoint>)
(<boundaryPoint> X-51.544 Y-34.952 Z1.42 </boundaryPoint>)
(<boundaryPoint> X-51.314 Y-35.179 Z1.42 </boundaryPoint>)
(<loop> outer )
G1 X32.05 Y31.48 Z1.42 F3000.0
M101
G1 X32.06 Y31.5 Z1.42 F1800.0
G1 X45.32 Y50.04 Z1.42 F1800.0
G1 X43.91 Y51.57 Z1.42 F1800.0
G1 X-50.69 Y-34.9 Z1.42 F1800.0
G1 X-45.56 Y-38.57 Z1.42 F1800.0
G1 X24.78 Y25.73 Z1.42 F1800.0
G1 X25.29 Y25.88 Z1.42 F1800.0
G1 X25.79 Y25.43 Z1.42 F1800.0
G1 X25.7 Y24.91 Z1.42 F1800.0
G1 X-28.45 Y-50.81 Z1.42 F1800.0
G1 X-27.36 Y-51.59 Z1.42 F1800.0
G1 X32.05 Y31.48 Z1.42 F1800.0
M103
(</loop>)
(<perimeter> outer )
G1 X32.38 Y31.27 Z1.42 F3000.0
M101
G1 X45.82 Y50.07 Z1.42 F1800.0
G1 X43.94 Y52.13 Z1.42 F1800.0
G1 X-51.23 Y-34.86 Z1.42 F1800.0
G1 X-51.38 Y-34.94 Z1.42 F1800.0
G1 X-51.22 Y-35.01 Z1.42 F1800.0
G1 X-45.53 Y-39.08 Z1.42 F1800.0
G1 X24.98 Y25.38 Z1.42 F1800.0
G1 X25.19 Y25.44 Z1.42 F1800.0
G1 X25.37 Y25.29 Z1.42 F1800.0
G1 X25.33 Y25.07 Z1.42 F1800.0
G1 X-29.0 Y-50.9 Z1.42 F1800.0
G1 X-27.27 Y-52.14 Z1.42 F1800.0
G1 X32.12 Y30.9 Z1.42 F1800.0
M108 R30.0
M102
G1 X32.38 Y31.27 Z1.42 F1800.0
M108 R3.569
M103
(</perimeter>)
(</boundaryPerimeter>)
G1 X43.64 Y50.36 Z1.42 F3000.0
M108 R30.0
M101
G1 X44.04 Y51.05 Z1.42 F3000.0
M108 R3.569
G1 X43.72 Y51.05 Z1.42 F1800.0
G1 X43.24 Y50.62 Z1.42 F1800.0
G1 X44.44 Y50.62 Z1.42 F1800.0
G1 X44.84 Y50.18 Z1.42 F1800.0
G1 X44.79 Y49.74 Z1.42 F1800.0
G1 X43.86 Y48.43 Z1.42 F1800.0
G1 X42.67 Y49.09 Z1.42 F1800.0
G1 X42.42 Y49.09 Z1.42 F1800.0
G1 X42.76 Y50.18 Z1.42 F1800.0
G1 X40.85 Y48.43 Z1.42 F1800.0
G1 X43.54 Y48.0 Z1.42 F1800.0
G1 X42.3 Y46.25 Z1.42 F1800.0
G1 X41.63 Y46.07 Z1.42 F1800.0
G1 X40.49 Y46.91 Z1.42 F1800.0
G1 X40.23 Y46.91 Z1.42 F1800.0
G1 X40.38 Y48.0 Z1.42 F1800.0
G1 X38.47 Y46.25 Z1.42 F1800.0
G1 X41.01 Y45.2 Z1.42 F1800.0
G1 X41.05 Y44.51 Z1.42 F1800.0
G1 X40.74 Y44.07 Z1.42 F1800.0
G1 X40.07 Y43.89 Z1.42 F1800.0
G1 X38.31 Y44.72 Z1.42 F1800.0
G1 X38.05 Y44.72 Z1.42 F1800.0
G1 X37.99 Y45.82 Z1.42 F1800.0
G1 X34.17 Y42.32 Z1.42 F1800.0
G1 X40.11 Y43.2 Z1.42 F1800.0
G1 X37.62 Y39.71 Z1.42 F1800.0
G1 X33.69 Y40.36 Z1.42 F1800.0
G1 X33.69 Y41.89 Z1.42 F1800.0
G1 X28.44 Y37.09 Z1.42 F1800.0
G1 X29.33 Y36.11 Z1.42 F1800.0
G1 X29.58 Y36.11 Z1.42 F1800.0
G1 X31.51 Y38.18 Z1.42 F1800.0
G1 X31.76 Y38.18 Z1.42 F1800.0
G1 X37.3 Y39.27 Z1.42 F1800.0
G1 X33.56 Y34.03 Z1.42 F1800.0
G1 X31.51 Y33.93 Z1.42 F1800.0
G1 X29.58 Y35.88 Z1.42 F1800.0
G1 X29.33 Y35.88 Z1.42 F1800.0
G1 X27.4 Y33.93 Z1.42 F1800.0
G1 X27.14 Y33.93 Z1.42 F1800.0
G1 X27.97 Y36.65 Z1.42 F1800.0
G1 X23.67 Y32.73 Z1.42 F1800.0
G1 X24.96 Y31.75 Z1.42 F1800.0
G1 X25.22 Y31.75 Z1.42 F1800.0
G1 X27.14 Y33.7 Z1.42 F1800.0
G1 X27.4 Y33.7 Z1.42 F1800.0
G1 X29.33 Y31.75 Z1.42 F1800.0
G1 X29.58 Y31.75 Z1.42 F1800.0
G1 X31.51 Y33.7 Z1.42 F1800.0
G1 X33.25 Y33.6 Z1.42 F1800.0
G1 X31.06 Y30.54 Z1.42 F1800.0
G1 X29.58 Y31.52 Z1.42 F1800.0
G1 X29.33 Y31.52 Z1.42 F1800.0
G1 X27.4 Y29.57 Z1.42 F1800.0
G1 X27.14 Y29.57 Z1.42 F1800.0
G1 X25.22 Y31.52 Z1.42 F1800.0
G1 X24.96 Y31.52 Z1.42 F1800.0
G1 X23.04 Y29.57 Z1.42 F1800.0
G1 X22.78 Y29.57 Z1.42 F1800.0
G1 X23.19 Y32.29 Z1.42 F1800.0
G1 X19.85 Y29.23 Z1.42 F1800.0
G1 X20.6 Y27.39 Z1.42 F1800.0
G1 X20.85 Y27.39 Z1.42 F1800.0
G1 X22.78 Y29.34 Z1.42 F1800.0
G1 X23.04 Y29.34 Z1.42 F1800.0
G1 X24.96 Y27.39 Z1.42 F1800.0
G1 X25.22 Y27.39 Z1.42 F1800.0
G1 X27.14 Y29.34 Z1.42 F1800.0
G1 X30.13 Y29.23 Z1.42 F1800.0
G1 X30.18 Y29.31 Z1.42 F1800.0
M108 R30.0
M102
G1 X30.44 Y29.67 Z1.42 F1800.0
M108 R3.569
M103
G1 X30.28 Y29.45 Z1.42 F3000.0
M108 R30.0
M101
G1 X29.82 Y28.8 Z1.42 F3000.0
M108 R3.569
G1 X28.26 Y26.62 Z1.42 F1800.0
G1 X25.22 Y27.16 Z1.42 F1800.0
G1 X20.6 Y27.16 Z1.42 F1800.0
G1 X18.67 Y25.2 Z1.42 F1800.0
G1 X18.42 Y25.2 Z1.42 F1800.0
G1 X19.37 Y28.8 Z1.42 F1800.0
G1 X14.6 Y24.44 Z1.42 F1800.0
G1 X16.24 Y23.02 Z1.42 F1800.0
G1 X16.49 Y23.02 Z1.42 F1800.0
G1 X18.42 Y24.97 Z1.42 F1800.0
G1 X24.42 Y25.74 Z1.42 F1800.0
G1 X20.13 Y21.82 Z1.42 F1800.0
G1 X16.49 Y22.79 Z1.42 F1800.0
G1 X16.24 Y22.79 Z1.42 F1800.0
G1 X14.31 Y20.84 Z1.42 F1800.0
G1 X14.05 Y20.84 Z1.42 F1800.0
G1 X14.12 Y24.0 Z1.42 F1800.0
G1 X9.83 Y20.07 Z1.42 F1800.0
G1 X11.87 Y18.66 Z1.42 F1800.0
G1 X12.13 Y18.66 Z1.42 F1800.0
G1 X14.05 Y20.61 Z1.42 F1800.0
G1 X18.22 Y20.07 Z1.42 F1800.0
G1 X19.32 Y21.08 Z1.42 F1800.0
M108 R30.0
M102
G1 X19.65 Y21.38 Z1.42 F1800.0
M108 R3.569
M103
G1 X18.33 Y20.18 Z1.42 F3000.0
M108 R30.0
M101
G1 X17.74 Y19.64 Z1.42 F3000.0
M108 R3.569
G1 X14.87 Y17.02 Z1.42 F1800.0
G1 X12.13 Y18.43 Z1.42 F1800.0
G1 X11.87 Y18.43 Z1.42 F1800.0
G1 X9.95 Y16.48 Z1.42 F1800.0
G1 X9.69 Y16.48 Z1.42 F1800.0
G1 X9.35 Y19.64 Z1.42 F1800.0
G1 X5.05 Y15.71 Z1.42 F1800.0
G1 X7.51 Y14.3 Z1.42 F1800.0
G1 X7.76 Y14.3 Z1.42 F1800.0
G1 X9.69 Y16.25 Z1.42 F1800.0
G1 X14.4 Y16.58 Z1.42 F1800.0
G1 X10.1 Y12.65 Z1.42 F1800.0
G1 X7.76 Y14.07 Z1.42 F1800.0
G1 X7.51 Y14.07 Z1.42 F1800.0
G1 X5.58 Y12.11 Z1.42 F1800.0
G1 X5.33 Y12.11 Z1.42 F1800.0
G1 X4.58 Y15.27 Z1.42 F1800.0
G1 X0.28 Y11.35 Z1.42 F1800.0
G1 X3.15 Y9.93 Z1.42 F1800.0
G1 X3.4 Y9.93 Z1.42 F1800.0
G1 X5.33 Y11.88 Z1.42 F1800.0
G1 X9.62 Y12.22 Z1.42 F1800.0
G1 X5.33 Y8.29 Z1.42 F1800.0
G1 X3.4 Y9.7 Z1.42 F1800.0
G1 X3.15 Y9.7 Z1.42 F1800.0
G1 X1.22 Y7.75 Z1.42 F1800.0
G1 X0.96 Y7.75 Z1.42 F1800.0
G1 X-0.2 Y10.91 Z1.42 F1800.0
G1 X-0.68 Y10.47 Z1.42 F1800.0
G1 X-0.96 Y9.82 Z1.42 F1800.0
G1 X-1.15 Y10.04 Z1.42 F1800.0
G1 X-1.22 Y9.82 Z1.42 F1800.0
G1 X-1.63 Y9.6 Z1.42 F1800.0
G1 X-3.06 Y8.29 Z1.42 F1800.0
G1 X-3.4 Y7.75 Z1.42 F1800.0
G1 X-3.54 Y7.85 Z1.42 F1800.0
G1 X-4.97 Y6.55 Z1.42 F1800.0
G1 X-4.2 Y6.66 Z1.42 F1800.0
G1 X-3.4 Y7.52 Z1.42 F1800.0
G1 X-3.15 Y7.52 Z1.42 F1800.0
G1 X-1.22 Y5.57 Z1.42 F1800.0
G1 X-0.96 Y5.57 Z1.42 F1800.0
G1 X0.96 Y7.52 Z1.42 F1800.0
G1 X4.85 Y7.85 Z1.42 F1800.0
G1 X0.56 Y3.93 Z1.42 F1800.0
G1 X-0.96 Y5.34 Z1.42 F1800.0
G1 X-1.22 Y5.34 Z1.42 F1800.0
G1 X-3.15 Y3.39 Z1.42 F1800.0
G1 X-3.4 Y3.39 Z1.42 F1800.0
G1 X-5.33 Y5.45 Z1.42 F1800.0
G1 X-5.58 Y5.45 Z1.42 F1800.0
G1 X-5.45 Y6.11 Z1.42 F1800.0
G1 X-7.84 Y3.93 Z1.42 F1800.0
G1 X-7.51 Y3.39 Z1.42 F1800.0
G1 X-7.76 Y3.39 Z1.42 F1800.0
G1 X-8.31 Y3.49 Z1.42 F1800.0
G1 X-8.79 Y3.05 Z1.42 F1800.0
G1 X-7.51 Y3.16 Z1.42 F1800.0
G1 X-5.58 Y1.21 Z1.42 F1800.0
G1 X-5.33 Y1.21 Z1.42 F1800.0
G1 X-3.4 Y3.16 Z1.42 F1800.0
G1 X0.08 Y3.49 Z1.42 F1800.0
G1 X-4.22 Y-0.44 Z1.42 F1800.0
G1 X-5.33 Y0.98 Z1.42 F1800.0
G1 X-5.58 Y0.98 Z1.42 F1800.0
G1 X-7.51 Y-0.98 Z1.42 F1800.0
G1 X-7.76 Y-0.98 Z1.42 F1800.0
G1 X-9.69 Y1.09 Z1.42 F1800.0
G1 X-9.95 Y1.09 Z1.42 F1800.0
G1 X-9.74 Y2.18 Z1.42 F1800.0
G1 X-12.13 Y0.0 Z1.42 F1800.0
G1 X-11.87 Y-0.98 Z1.42 F1800.0
G1 X-12.13 Y-0.98 Z1.42 F1800.0
G1 X-12.61 Y-0.44 Z1.42 F1800.0
G1 X-13.56 Y-1.31 Z1.42 F1800.0
G1 X-11.87 Y-1.21 Z1.42 F1800.0
G1 X-9.95 Y-3.16 Z1.42 F1800.0
G1 X-9.69 Y-3.16 Z1.42 F1800.0
G1 X-7.76 Y-1.21 Z1.42 F1800.0
G1 X-4.7 Y-0.87 Z1.42 F1800.0
G1 X-8.51 Y-4.36 Z1.42 F1800.0
G1 X-9.69 Y-3.39 Z1.42 F1800.0
G1 X-9.95 Y-3.39 Z1.42 F1800.0
G1 X-11.87 Y-5.34 Z1.42 F1800.0
G1 X-12.13 Y-5.34 Z1.42 F1800.0
G1 X-14.05 Y-3.27 Z1.42 F1800.0
G1 X-14.31 Y-3.27 Z1.42 F1800.0
G1 X-14.04 Y-1.75 Z1.42 F1800.0
G1 X-16.9 Y-4.36 Z1.42 F1800.0
G1 X-16.24 Y-5.34 Z1.42 F1800.0
G1 X-16.49 Y-5.34 Z1.42 F1800.0
G1 X-17.38 Y-4.8 Z1.42 F1800.0
G1 X-18.34 Y-5.67 Z1.42 F1800.0
G1 X-16.24 Y-5.57 Z1.42 F1800.0
G1 X-14.31 Y-7.52 Z1.42 F1800.0
G1 X-14.05 Y-7.52 Z1.42 F1800.0
G1 X-12.13 Y-5.57 Z1.42 F1800.0
G1 X-11.87 Y-5.57 Z1.42 F1800.0
G1 X-8.99 Y-4.8 Z1.42 F1800.0
G1 X-12.33 Y-7.85 Z1.42 F1800.0
G1 X-14.31 Y-7.75 Z1.42 F1800.0
G1 X-16.24 Y-9.7 Z1.42 F1800.0
G1 X-16.49 Y-9.7 Z1.42 F1800.0
G1 X-18.42 Y-7.64 Z1.42 F1800.0
G1 X-18.67 Y-7.64 Z1.42 F1800.0
G1 X-18.81 Y-6.11 Z1.42 F1800.0
G1 X-24.06 Y-10.91 Z1.42 F1800.0
G1 X-23.04 Y-11.88 Z1.42 F1800.0
G1 X-22.78 Y-11.88 Z1.42 F1800.0
G1 X-20.85 Y-9.82 Z1.42 F1800.0
G1 X-20.6 Y-9.82 Z1.42 F1800.0
G1 X-18.67 Y-11.88 Z1.42 F1800.0
G1 X-18.42 Y-11.88 Z1.42 F1800.0
G1 X-16.49 Y-9.93 Z1.42 F1800.0
G1 X-16.24 Y-9.93 Z1.42 F1800.0
G1 X-14.06 Y-8.84 Z1.42 F1800.0
G1 X-13.11 Y-7.97 Z1.42 F1800.0
G1 X-13.29 Y-8.73 Z1.42 F1800.0
G1 X-18.06 Y-13.09 Z1.42 F1800.0
G1 X-18.42 Y-12.11 Z1.42 F1800.0
G1 X-23.04 Y-12.11 Z1.42 F1800.0
G1 X-24.96 Y-14.07 Z1.42 F1800.0
G1 X-25.22 Y-14.07 Z1.42 F1800.0
G1 X-24.54 Y-11.35 Z1.42 F1800.0
G1 X-28.84 Y-15.27 Z1.42 F1800.0
G1 X-27.4 Y-16.25 Z1.42 F1800.0
G1 X-27.14 Y-16.25 Z1.42 F1800.0
G1 X-25.22 Y-14.3 Z1.42 F1800.0
G1 X-18.54 Y-13.53 Z1.42 F1800.0
G1 X-23.31 Y-17.89 Z1.42 F1800.0
G1 X-27.14 Y-16.48 Z1.42 F1800.0
G1 X-27.4 Y-16.48 Z1.42 F1800.0
G1 X-29.33 Y-18.43 Z1.42 F1800.0
G1 X-29.58 Y-18.43 Z1.42 F1800.0
G1 X-29.32 Y-15.71 Z1.42 F1800.0
G1 X-33.13 Y-19.2 Z1.42 F1800.0
G1 X-31.76 Y-20.61 Z1.42 F1800.0
G1 X-31.51 Y-20.61 Z1.42 F1800.0
G1 X-29.58 Y-18.66 Z1.42 F1800.0
G1 X-23.79 Y-18.33 Z1.42 F1800.0
G1 X-28.09 Y-22.25 Z1.42 F1800.0
G1 X-31.51 Y-20.84 Z1.42 F1800.0
G1 X-31.76 Y-20.84 Z1.42 F1800.0
G1 X-33.69 Y-22.79 Z1.42 F1800.0
G1 X-33.94 Y-22.79 Z1.42 F1800.0
G1 X-33.61 Y-19.64 Z1.42 F1800.0
G1 X-37.91 Y-23.56 Z1.42 F1800.0
G1 X-36.13 Y-24.97 Z1.42 F1800.0
G1 X-35.87 Y-24.97 Z1.42 F1800.0
G1 X-33.94 Y-23.02 Z1.42 F1800.0
G1 X-28.56 Y-22.69 Z1.42 F1800.0
G1 X-32.38 Y-26.18 Z1.42 F1800.0
G1 X-35.87 Y-25.2 Z1.42 F1800.0
G1 X-36.13 Y-25.2 Z1.42 F1800.0
G1 X-38.05 Y-27.16 Z1.42 F1800.0
G1 X-38.31 Y-27.16 Z1.42 F1800.0
G1 X-38.38 Y-24.0 Z1.42 F1800.0
G1 X-42.68 Y-27.93 Z1.42 F1800.0
G1 X-40.49 Y-29.34 Z1.42 F1800.0
G1 X-40.23 Y-29.34 Z1.42 F1800.0
G1 X-38.31 Y-27.39 Z1.42 F1800.0
G1 X-34.29 Y-27.93 Z1.42 F1800.0
G1 X-33.19 Y-26.92 Z1.42 F1800.0
M108 R30.0
M102
G1 X-32.86 Y-26.62 Z1.42 F1800.0
M108 R3.569
M103
G1 X-34.18 Y-27.82 Z1.42 F3000.0
M108 R30.0
M101
G1 X-34.77 Y-28.36 Z1.42 F3000.0
M108 R3.569
G1 X-36.2 Y-29.67 Z1.42 F1800.0
G1 X-40.49 Y-29.57 Z1.42 F1800.0
G1 X-42.42 Y-31.52 Z1.42 F1800.0
G1 X-42.67 Y-31.52 Z1.42 F1800.0
G1 X-44.59 Y-29.67 Z1.42 F1800.0
G1 X-43.49 Y-28.67 Z1.42 F1800.0
M108 R30.0
M102
G1 X-43.16 Y-28.36 Z1.42 F1800.0
M108 R3.569
M103
G1 X-46.86 Y-31.75 Z1.42 F3000.0
M108 R30.0
M101
G1 X-47.45 Y-32.29 Z1.42 F3000.0
M108 R3.569
G1 X-45.07 Y-30.11 Z1.42 F1800.0
G1 X-44.85 Y-33.7 Z1.42 F1800.0
G1 X-44.6 Y-33.7 Z1.42 F1800.0
G1 X-42.67 Y-31.75 Z1.42 F1800.0
G1 X-42.42 Y-31.75 Z1.42 F1800.0
G1 X-36.68 Y-30.11 Z1.42 F1800.0
G1 X-42.4 Y-35.34 Z1.42 F1800.0
G1 X-44.6 Y-33.93 Z1.42 F1800.0
G1 X-44.85 Y-33.93 Z1.42 F1800.0
G1 X-46.78 Y-35.88 Z1.42 F1800.0
G1 X-47.03 Y-35.88 Z1.42 F1800.0
G1 X-47.93 Y-32.73 Z1.42 F1800.0
G1 X-48.89 Y-33.6 Z1.42 F1800.0
G1 X-48.96 Y-33.82 Z1.42 F1800.0
G1 X-49.22 Y-33.82 Z1.42 F1800.0
G1 X-49.36 Y-34.03 Z1.42 F1800.0
G1 X-50.31 Y-34.91 Z1.42 F1800.0
G1 X-47.8 Y-36.65 Z1.42 F1800.0
G1 X-47.03 Y-36.11 Z1.42 F1800.0
G1 X-42.88 Y-35.78 Z1.42 F1800.0
G1 X-45.27 Y-37.96 Z1.42 F1800.0
G1 X-45.97 Y-37.96 Z1.42 F1800.0
G1 X-46.83 Y-37.35 Z1.42 F1800.0
M108 R30.0
M102
G1 X-47.19 Y-37.09 Z1.42 F1800.0
M108 R3.569
M103
G1 X-44.95 Y-38.44 Z1.42 F3000.0
G1 X25.21 Y24.97 Z1.42 F3000.0
G1 X25.09 Y24.99 Z1.42 F3000.0
G1 X24.93 Y25.13 Z1.42 F3000.0
G1 X24.89 Y25.25 Z1.42 F3000.0
G1 X-27.73 Y-49.26 Z1.42 F3000.0
M108 R30.0
M101
G1 X-27.86 Y-49.45 Z1.42 F3000.0
G1 X-27.37 Y-49.74 Z1.42 F3000.0
M108 R3.569
G1 X-26.12 Y-48.0 Z1.42 F1800.0
G1 X-25.1 Y-48.0 Z1.42 F1800.0
G1 X-27.29 Y-51.05 Z1.42 F1800.0
G1 X-27.67 Y-51.05 Z1.42 F1800.0
G1 X-28.0 Y-50.62 Z1.42 F1800.0
G1 X-27.95 Y-50.54 Z1.42 F1800.0
M108 R30.0
M102
G1 X-27.68 Y-50.18 Z1.42 F1800.0
M108 R3.569
M103
G1 X-26.28 Y-48.21 Z1.42 F3000.0
M108 R30.0
M101
G1 X-25.81 Y-47.56 Z1.42 F3000.0
M108 R3.569
G1 X-25.19 Y-46.69 Z1.42 F1800.0
G1 X-24.79 Y-47.56 Z1.42 F1800.0
G1 X-23.54 Y-45.82 Z1.42 F1800.0
G1 X-24.25 Y-45.38 Z1.42 F1800.0
G1 X-23.63 Y-44.51 Z1.42 F1800.0
G1 X-23.23 Y-45.38 Z1.42 F1800.0
G1 X-22.61 Y-44.51 Z1.42 F1800.0
G1 X-23.32 Y-44.07 Z1.42 F1800.0
G1 X-23.0 Y-43.63 Z1.42 F1800.0
G1 X-22.29 Y-44.07 Z1.42 F1800.0
G1 X-21.98 Y-43.63 Z1.42 F1800.0
G1 X-22.69 Y-43.2 Z1.42 F1800.0
G1 X-22.07 Y-42.32 Z1.42 F1800.0
G1 X-21.67 Y-43.2 Z1.42 F1800.0
G1 X-21.05 Y-42.32 Z1.42 F1800.0
G1 X-21.76 Y-41.89 Z1.42 F1800.0
G1 X-21.13 Y-41.02 Z1.42 F1800.0
G1 X-20.73 Y-41.89 Z1.42 F1800.0
G1 X-20.42 Y-41.45 Z1.42 F1800.0
G1 X-20.82 Y-40.58 Z1.42 F1800.0
G1 X-20.51 Y-40.14 Z1.42 F1800.0
G1 X-20.11 Y-41.02 Z1.42 F1800.0
G1 X-19.8 Y-40.58 Z1.42 F1800.0
G1 X-19.84 Y-39.89 Z1.42 F1800.0
G1 X-20.2 Y-39.71 Z1.42 F1800.0
G1 X-19.88 Y-39.27 Z1.42 F1800.0
G1 X-18.86 Y-39.27 Z1.42 F1800.0
G1 X-19.57 Y-38.83 Z1.42 F1800.0
G1 X-18.95 Y-37.96 Z1.42 F1800.0
G1 X-18.55 Y-38.83 Z1.42 F1800.0
G1 X-17.93 Y-37.96 Z1.42 F1800.0
G1 X-18.64 Y-37.53 Z1.42 F1800.0
G1 X-18.01 Y-36.65 Z1.42 F1800.0
G1 X-17.61 Y-37.09 Z1.42 F1800.0
G1 X-17.3 Y-37.09 Z1.42 F1800.0
G1 X-16.99 Y-36.65 Z1.42 F1800.0
G1 X-17.7 Y-36.22 Z1.42 F1800.0
G1 X-17.08 Y-35.34 Z1.42 F1800.0
G1 X-16.68 Y-36.22 Z1.42 F1800.0
G1 X-15.74 Y-34.91 Z1.42 F1800.0
G1 X-16.76 Y-34.91 Z1.42 F1800.0
G1 X-15.83 Y-33.6 Z1.42 F1800.0
G1 X-15.43 Y-34.47 Z1.42 F1800.0
G1 X-14.81 Y-33.6 Z1.42 F1800.0
G1 X-15.52 Y-33.16 Z1.42 F1800.0
G1 X-15.2 Y-32.73 Z1.42 F1800.0
G1 X-14.49 Y-33.16 Z1.42 F1800.0
G1 X-14.18 Y-32.73 Z1.42 F1800.0
G1 X-14.89 Y-32.29 Z1.42 F1800.0
G1 X-13.96 Y-30.98 Z1.42 F1800.0
G1 X-13.87 Y-32.29 Z1.42 F1800.0
G1 X-12.62 Y-30.54 Z1.42 F1800.0
G1 X-13.64 Y-30.54 Z1.42 F1800.0
G1 X-13.02 Y-29.67 Z1.42 F1800.0
G1 X-12.31 Y-30.11 Z1.42 F1800.0
G1 X-12.0 Y-29.67 Z1.42 F1800.0
G1 X-12.71 Y-29.23 Z1.42 F1800.0
G1 X-12.08 Y-28.36 Z1.42 F1800.0
G1 X-11.69 Y-29.23 Z1.42 F1800.0
G1 X-11.06 Y-28.36 Z1.42 F1800.0
G1 X-11.77 Y-27.93 Z1.42 F1800.0
G1 X-11.15 Y-27.05 Z1.42 F1800.0
G1 X-10.75 Y-27.93 Z1.42 F1800.0
G1 X-10.13 Y-27.05 Z1.42 F1800.0
G1 X-10.83 Y-26.62 Z1.42 F1800.0
G1 X-10.52 Y-26.18 Z1.42 F1800.0
G1 X-9.81 Y-26.62 Z1.42 F1800.0
G1 X-9.5 Y-26.18 Z1.42 F1800.0
G1 X-10.21 Y-25.74 Z1.42 F1800.0
G1 X-9.59 Y-24.87 Z1.42 F1800.0
G1 X-9.19 Y-25.74 Z1.42 F1800.0
G1 X-8.57 Y-24.87 Z1.42 F1800.0
G1 X-9.27 Y-24.44 Z1.42 F1800.0
G1 X-8.96 Y-24.0 Z1.42 F1800.0
G1 X-8.25 Y-24.44 Z1.42 F1800.0
G1 X-8.3 Y-23.74 Z1.42 F1800.0
G1 X-8.65 Y-23.56 Z1.42 F1800.0
G1 X-8.03 Y-22.69 Z1.42 F1800.0
G1 X-7.98 Y-23.31 Z1.42 F1800.0
G1 X-7.32 Y-23.13 Z1.42 F1800.0
G1 X-7.36 Y-22.44 Z1.42 F1800.0
G1 X-7.71 Y-22.25 Z1.42 F1800.0
G1 X-7.09 Y-21.38 Z1.42 F1800.0
G1 X-6.38 Y-21.82 Z1.42 F1800.0
G1 X-6.78 Y-20.94 Z1.42 F1800.0
G1 X-6.47 Y-20.51 Z1.42 F1800.0
G1 X-6.07 Y-21.38 Z1.42 F1800.0
G1 X-5.76 Y-20.94 Z1.42 F1800.0
G1 X-5.8 Y-20.25 Z1.42 F1800.0
G1 X-6.15 Y-20.07 Z1.42 F1800.0
G1 X-5.84 Y-19.64 Z1.42 F1800.0
G1 X-4.82 Y-19.64 Z1.42 F1800.0
G1 X-5.53 Y-19.2 Z1.42 F1800.0
G1 X-4.91 Y-18.33 Z1.42 F1800.0
G1 X-4.51 Y-19.2 Z1.42 F1800.0
G1 X-3.89 Y-18.33 Z1.42 F1800.0
G1 X-4.59 Y-17.89 Z1.42 F1800.0
G1 X-3.97 Y-17.02 Z1.42 F1800.0
G1 X-3.57 Y-17.45 Z1.42 F1800.0
G1 X-3.26 Y-17.45 Z1.42 F1800.0
G1 X-2.95 Y-17.02 Z1.42 F1800.0
G1 X-3.66 Y-16.58 Z1.42 F1800.0
G1 X-3.03 Y-15.71 Z1.42 F1800.0
G1 X-2.64 Y-16.58 Z1.42 F1800.0
G1 X-1.7 Y-15.27 Z1.42 F1800.0
G1 X-2.72 Y-15.27 Z1.42 F1800.0
G1 X-1.47 Y-13.53 Z1.42 F1800.0
G1 X-1.39 Y-14.84 Z1.42 F1800.0
G1 X-0.14 Y-13.09 Z1.42 F1800.0
G1 X-0.54 Y-12.22 Z1.42 F1800.0
G1 X0.17 Y-12.65 Z1.42 F1800.0
G1 X0.48 Y-12.22 Z1.42 F1800.0
G1 X-0.23 Y-11.78 Z1.42 F1800.0
G1 X0.4 Y-10.91 Z1.42 F1800.0
G1 X0.8 Y-11.78 Z1.42 F1800.0
G1 X1.42 Y-10.91 Z1.42 F1800.0
G1 X0.71 Y-10.47 Z1.42 F1800.0
G1 X1.33 Y-9.6 Z1.42 F1800.0
G1 X1.73 Y-10.47 Z1.42 F1800.0
G1 X2.36 Y-9.6 Z1.42 F1800.0
G1 X1.65 Y-9.16 Z1.42 F1800.0
G1 X1.96 Y-8.73 Z1.42 F1800.0
G1 X2.67 Y-9.16 Z1.42 F1800.0
G1 X2.98 Y-8.73 Z1.42 F1800.0
G1 X2.27 Y-8.29 Z1.42 F1800.0
G1 X2.9 Y-7.42 Z1.42 F1800.0
G1 X3.29 Y-8.29 Z1.42 F1800.0
G1 X3.92 Y-7.42 Z1.42 F1800.0
G1 X3.21 Y-6.98 Z1.42 F1800.0
G1 X3.52 Y-6.55 Z1.42 F1800.0
G1 X4.23 Y-6.98 Z1.42 F1800.0
G1 X4.54 Y-6.55 Z1.42 F1800.0
G1 X3.83 Y-6.11 Z1.42 F1800.0
G1 X4.14 Y-5.67 Z1.42 F1800.0
G1 X4.5 Y-5.86 Z1.42 F1800.0
G1 X5.16 Y-5.67 Z1.42 F1800.0
G1 X4.46 Y-5.24 Z1.42 F1800.0
G1 X5.08 Y-4.36 Z1.42 F1800.0
G1 X5.48 Y-4.8 Z1.42 F1800.0
G1 X5.79 Y-4.8 Z1.42 F1800.0
G1 X5.75 Y-4.11 Z1.42 F1800.0
G1 X5.39 Y-3.93 Z1.42 F1800.0
G1 X5.7 Y-3.49 Z1.42 F1800.0
G1 X6.06 Y-3.67 Z1.42 F1800.0
G1 X6.72 Y-3.49 Z1.42 F1800.0
G1 X7.04 Y-3.05 Z1.42 F1800.0
G1 X6.02 Y-3.05 Z1.42 F1800.0
G1 X6.95 Y-1.75 Z1.42 F1800.0
G1 X7.35 Y-2.62 Z1.42 F1800.0
G1 X7.66 Y-2.18 Z1.42 F1800.0
G1 X7.26 Y-1.31 Z1.42 F1800.0
G1 X7.58 Y-0.87 Z1.42 F1800.0
G1 X7.97 Y-1.75 Z1.42 F1800.0
G1 X8.6 Y-0.87 Z1.42 F1800.0
G1 X7.89 Y-0.44 Z1.42 F1800.0
G1 X8.2 Y-0.0 Z1.42 F1800.0
G1 X8.91 Y-0.44 Z1.42 F1800.0
G1 X9.22 Y-0.0 Z1.42 F1800.0
G1 X8.51 Y0.44 Z1.42 F1800.0
G1 X9.14 Y1.31 Z1.42 F1800.0
G1 X9.53 Y0.44 Z1.42 F1800.0
G1 X10.16 Y1.31 Z1.42 F1800.0
G1 X9.45 Y1.75 Z1.42 F1800.0
G1 X10.07 Y2.62 Z1.42 F1800.0
G1 X10.47 Y2.18 Z1.42 F1800.0
G1 X10.78 Y2.18 Z1.42 F1800.0
G1 X11.09 Y2.62 Z1.42 F1800.0
G1 X10.38 Y3.05 Z1.42 F1800.0
G1 X11.32 Y4.36 Z1.42 F1800.0
G1 X11.41 Y3.05 Z1.42 F1800.0
G1 X12.34 Y4.36 Z1.42 F1800.0
G1 X11.99 Y4.55 Z1.42 F1800.0
G1 X11.94 Y5.24 Z1.42 F1800.0
G1 X12.57 Y6.11 Z1.42 F1800.0
G1 X12.65 Y4.8 Z1.42 F1800.0
G1 X13.9 Y6.55 Z1.42 F1800.0
G1 X12.88 Y6.55 Z1.42 F1800.0
G1 X13.82 Y7.85 Z1.42 F1800.0
G1 X14.21 Y6.98 Z1.42 F1800.0
G1 X14.84 Y7.85 Z1.42 F1800.0
G1 X14.13 Y8.29 Z1.42 F1800.0
G1 X14.44 Y8.73 Z1.42 F1800.0
G1 X15.46 Y8.73 Z1.42 F1800.0
G1 X14.75 Y9.16 Z1.42 F1800.0
G1 X15.38 Y10.04 Z1.42 F1800.0
G1 X15.77 Y9.16 Z1.42 F1800.0
G1 X16.4 Y10.04 Z1.42 F1800.0
G1 X15.69 Y10.47 Z1.42 F1800.0
G1 X16.0 Y10.91 Z1.42 F1800.0
G1 X16.71 Y10.47 Z1.42 F1800.0
G1 X17.02 Y10.91 Z1.42 F1800.0
G1 X16.31 Y11.35 Z1.42 F1800.0
G1 X16.94 Y12.22 Z1.42 F1800.0
G1 X17.33 Y11.35 Z1.42 F1800.0
G1 X17.96 Y12.22 Z1.42 F1800.0
G1 X17.25 Y12.65 Z1.42 F1800.0
G1 X17.56 Y13.09 Z1.42 F1800.0
G1 X18.27 Y12.65 Z1.42 F1800.0
G1 X18.58 Y13.09 Z1.42 F1800.0
G1 X17.87 Y13.53 Z1.42 F1800.0
G1 X18.5 Y14.4 Z1.42 F1800.0
G1 X18.89 Y13.53 Z1.42 F1800.0
G1 X19.52 Y14.4 Z1.42 F1800.0
G1 X18.81 Y14.84 Z1.42 F1800.0
G1 X19.12 Y15.27 Z1.42 F1800.0
G1 X19.83 Y14.84 Z1.42 F1800.0
G1 X20.14 Y15.27 Z1.42 F1800.0
G1 X19.43 Y15.71 Z1.42 F1800.0
G1 X20.06 Y16.58 Z1.42 F1800.0
G1 X20.45 Y15.71 Z1.42 F1800.0
G1 X21.08 Y16.58 Z1.42 F1800.0
G1 X20.37 Y17.02 Z1.42 F1800.0
G1 X20.99 Y17.89 Z1.42 F1800.0
G1 X21.39 Y17.02 Z1.42 F1800.0
G1 X21.7 Y17.45 Z1.42 F1800.0
G1 X21.3 Y18.33 Z1.42 F1800.0
G1 X21.62 Y18.76 Z1.42 F1800.0
G1 X22.01 Y17.89 Z1.42 F1800.0
G1 X22.64 Y18.76 Z1.42 F1800.0
G1 X21.93 Y19.2 Z1.42 F1800.0
G1 X22.24 Y19.64 Z1.42 F1800.0
G1 X22.95 Y19.2 Z1.42 F1800.0
G1 X23.26 Y19.64 Z1.42 F1800.0
G1 X22.55 Y20.07 Z1.42 F1800.0
G1 X23.18 Y20.94 Z1.42 F1800.0
G1 X23.57 Y20.07 Z1.42 F1800.0
G1 X24.82 Y21.82 Z1.42 F1800.0
G1 X24.11 Y22.25 Z1.42 F1800.0
G1 X25.36 Y24.0 Z1.42 F1800.0
G1 X25.13 Y22.25 Z1.42 F1800.0
G1 X26.38 Y24.0 Z1.42 F1800.0
G1 X26.04 Y24.2 Z1.42 F1800.0
G1 X25.95 Y24.87 Z1.42 F1800.0
G1 X26.69 Y24.44 Z1.42 F1800.0
G1 X27.94 Y26.18 Z1.42 F1800.0
G1 X25.82 Y25.74 Z1.42 F1800.0
M103
(</surroundingLoop>)
(</layer>)
(<layer> 1.74 )
(<surroundingLoop>)
(<boundaryPerimeter>)
(<boundaryPoint> X-45.512 Y-39.328 Z1.74 </boundaryPoint>)
(<boundaryPoint> X25.079 Y25.201 Z1.74 </boundaryPoint>)
(<boundaryPoint> X25.143 Y25.22 Z1.74 </boundaryPoint>)
(<boundaryPoint> X25.153 Y25.211 Z1.74 </boundaryPoint>)
(<boundaryPoint> X25.142 Y25.145 Z1.74 </boundaryPoint>)
(<boundaryPoint> X-29.269 Y-50.943 Z1.74 </boundaryPoint>)
(<boundaryPoint> X-27.22 Y-52.409 Z1.74 </boundaryPoint>)
(<boundaryPoint> X46.073 Y50.081 Z1.74 </boundaryPoint>)
(<boundaryPoint> X43.947 Y52.406 Z1.74 </boundaryPoint>)
(<boundaryPoint> X-51.343 Y-34.7 Z1.74 </boundaryPoint>)
(<boundaryPoint> X-51.544 Y-34.952 Z1.74 </boundaryPoint>)
(<boundaryPoint> X-51.314 Y-35.179 Z1.74 </boundaryPoint>)
(<loop> outer )
G1 X25.55 Y25.65 Z1.74 F3000.0
M101
G1 X25.79 Y25.43 Z1.74 F1800.0
G1 X25.7 Y24.91 Z1.74 F1800.0
G1 X-28.45 Y-50.81 Z1.74 F1800.0
G1 X-27.36 Y-51.59 Z1.74 F1800.0
G1 X45.32 Y50.04 Z1.74 F1800.0
G1 X43.91 Y51.57 Z1.74 F1800.0
G1 X-50.69 Y-34.9 Z1.74 F1800.0
G1 X-45.56 Y-38.57 Z1.74 F1800.0
G1 X24.78 Y25.73 Z1.74 F1800.0
G1 X25.29 Y25.88 Z1.74 F1800.0
G1 X25.55 Y25.65 Z1.74 F1800.0
M103
(</loop>)
(<perimeter> outer )
G1 X25.37 Y25.29 Z1.74 F3000.0
M101
G1 X25.33 Y25.07 Z1.74 F1800.0
G1 X-29.0 Y-50.9 Z1.74 F1800.0
G1 X-27.27 Y-52.14 Z1.74 F1800.0
G1 X45.82 Y50.07 Z1.74 F1800.0
G1 X43.94 Y52.13 Z1.74 F1800.0
G1 X-51.23 Y-34.86 Z1.74 F1800.0
G1 X-51.38 Y-34.94 Z1.74 F1800.0
G1 X-51.22 Y-35.01 Z1.74 F1800.0
G1 X-45.53 Y-39.08 Z1.74 F1800.0
G1 X24.98 Y25.38 Z1.74 F1800.0
G1 X24.98 Y25.38 Z1.74 F1800.0
M108 R30.0
M102
G1 X25.19 Y25.44 Z1.74 F1800.0
G1 X25.37 Y25.29 Z1.74 F1800.0
M108 R3.569
M103
(</perimeter>)
(</boundaryPerimeter>)
G1 X-27.47 Y-49.86 Z1.74 F3000.0
M108 R30.0
M101
G1 X-27.93 Y-50.52 Z1.74 F3000.0
M108 R3.569
G1 X-27.93 Y-50.87 Z1.74 F1800.0
G1 X-27.49 Y-51.18 Z1.74 F1800.0
G1 X-27.05 Y-50.72 Z1.74 F1800.0
G1 X-26.62 Y-50.11 Z1.74 F1800.0
G1 X-27.49 Y-49.91 Z1.74 F1800.0
G1 X-27.05 Y-49.3 Z1.74 F1800.0
G1 X-26.18 Y-49.5 Z1.74 F1800.0
G1 X-25.74 Y-48.89 Z1.74 F1800.0
G1 X-26.62 Y-48.69 Z1.74 F1800.0
G1 X-26.18 Y-48.08 Z1.74 F1800.0
G1 X-25.31 Y-48.28 Z1.74 F1800.0
G1 X-25.39 Y-47.72 Z1.74 F1800.0
G1 X-24.87 Y-47.67 Z1.74 F1800.0
G1 X-24.44 Y-47.06 Z1.74 F1800.0
G1 X-25.31 Y-46.86 Z1.74 F1800.0
G1 X-24.87 Y-46.25 Z1.74 F1800.0
G1 X-24.0 Y-46.45 Z1.74 F1800.0
G1 X-23.56 Y-45.84 Z1.74 F1800.0
G1 X-24.44 Y-45.64 Z1.74 F1800.0
G1 X-23.56 Y-44.41 Z1.74 F1800.0
G1 X-23.13 Y-45.23 Z1.74 F1800.0
G1 X-22.25 Y-44.01 Z1.74 F1800.0
G1 X-23.13 Y-43.8 Z1.74 F1800.0
G1 X-22.69 Y-43.19 Z1.74 F1800.0
G1 X-21.82 Y-43.4 Z1.74 F1800.0
G1 X-21.38 Y-42.79 Z1.74 F1800.0
G1 X-22.25 Y-42.58 Z1.74 F1800.0
G1 X-21.38 Y-41.36 Z1.74 F1800.0
G1 X-20.94 Y-42.18 Z1.74 F1800.0
G1 X-20.51 Y-41.57 Z1.74 F1800.0
G1 X-20.94 Y-40.75 Z1.74 F1800.0
G1 X-20.51 Y-40.14 Z1.74 F1800.0
G1 X-19.64 Y-40.35 Z1.74 F1800.0
G1 X-19.2 Y-39.74 Z1.74 F1800.0
G1 X-20.07 Y-39.53 Z1.74 F1800.0
G1 X-19.2 Y-38.31 Z1.74 F1800.0
G1 X-18.33 Y-38.52 Z1.74 F1800.0
G1 X-18.76 Y-37.7 Z1.74 F1800.0
G1 X-18.33 Y-37.09 Z1.74 F1800.0
G1 X-17.45 Y-37.3 Z1.74 F1800.0
G1 X-17.02 Y-36.69 Z1.74 F1800.0
G1 X-17.89 Y-36.48 Z1.74 F1800.0
G1 X-17.02 Y-35.26 Z1.74 F1800.0
G1 X-16.58 Y-36.08 Z1.74 F1800.0
G1 X-15.71 Y-34.86 Z1.74 F1800.0
G1 X-16.58 Y-34.65 Z1.74 F1800.0
G1 X-16.14 Y-34.04 Z1.74 F1800.0
G1 X-15.27 Y-34.25 Z1.74 F1800.0
G1 X-14.84 Y-33.64 Z1.74 F1800.0
G1 X-15.71 Y-33.43 Z1.74 F1800.0
G1 X-14.84 Y-32.21 Z1.74 F1800.0
G1 X-14.4 Y-33.03 Z1.74 F1800.0
