(** This GCode was generated by ReplicatorG 0034 **)
(*  using Skeinforge (35)  *)
(*  for a Single headed Thing-O-Matic  *)
(*  on 2012/04/24 23:54:30 (-0400) *)
(<alteration>)
(**** beginning of start.gcode ****)
(This file is for a MakerBot Thing-O-Matic)
(**** begin initialization commands ****)
G21 (set units to mm)
G90 (set positioning to absolute)
M108 R5.0 (set extruder speed)
M103 (Make sure extruder is off)
M104 S225 T0 (set extruder temperature)
M109 S120 T0 (set heated-build-platform temperature)
(**** end initialization commands ****)
(**** begin homing ****)
G162 Z F1000 (home Z axis maximum)
G92 Z10 (set Z to 0)
G1 Z0.0 (move z down 10)
G162 Z F150 (home Z axis maximum)
G161 X Y F2500 (home XY axes minimum)
M132 X Y Z A B (Recall stored home offsets for XYZAB axis)
(**** end homing ****)
(**** begin pre-wipe commands ****)
( Some people have had problems with the nozzle hitting )
( bolts or wipers during this pre-extrusion warmup.     )
( If this happens to you, you can change the values for )
( the X and Y positions in the following code.          )
( The goal is to have the toolhead wipe its initial     )
( extrusion near the edge of the platform, [anchor it]  )
( so as not to have it interfere with the print.        )
( This file can be found in:                            )
( replicatorg/skein_engines/skeinforge-##/skeinforge_application/ )
( prefs/<profile name [e.g. Thingomatic-ABP-Mk7]>/alterations )
G1 X25.0 Y-60.0 Z10.0 F3300.0 (move to waiting position)
M6 T0 (wait for toolhead parts, nozzle, HBP, etc., to reach temperature)
G0 X25 Y-57 (Position Nozzle)
G0 Z0.6     (Position Height)
M108 R4.0   (Set Extruder Speed)
M101        (Start Extruder)
G4 P1500    (Create Anchor)
(**** end pre-wipe commands ****)
(**** end of start.gcode ****)
(</alteration>)
(<creation> skeinforge </creation>)
(<version> 10.11.05 </version>)
(<extruderInitialization>)
(<craftTypeName> extrusion </craftTypeName>)
M105
(<bridgeWidthMultiplier> 1.0 </bridgeWidthMultiplier>)
(<decimalPlacesCarried> 3 </decimalPlacesCarried>)
(<layerThickness> 0.32 </layerThickness>)
(<threadSequenceString> loops perimeter infill </threadSequenceString>)
(<operatingFeedRatePerSecond> 30.0 </operatingFeedRatePerSecond>)
(<operatingFlowRate> 3.56914845556 </operatingFlowRate>)
(<orbitalFeedRatePerSecond> 15.0 </orbitalFeedRatePerSecond>)
(<travelFeedRatePerSecond> 50.0 </travelFeedRatePerSecond>)
(<perimeterWidth> 0.393 </perimeterWidth>)
(<profileName> ABS </profileName>)
(<procedureDone> carve,bottom </procedureDone>)
(<procedureDone> preface </procedureDone>)
(<procedureDone> inset </procedureDone>)
(<procedureDone> fill </procedureDone>)
(<procedureDone> speed </procedureDone>)
(<procedureDone> raft </procedureDone>)
(<procedureDone> jitter </procedureDone>)
(<procedureDone> comb </procedureDone>)
(<procedureDone> cool </procedureDone>)
(<procedureDone> outline </procedureDone>)
(<procedureDone> reversal </procedureDone>)
(<procedureDone> export </procedureDone>)
(</extruderInitialization>)
(<extrusion>)
;M113 S1.0
M108 R3.569
(<layer> 0.46 )
(<surroundingLoop>)
(<boundaryPerimeter>)
(<boundaryPoint> X32.172 Y-16.724 Z0.46 </boundaryPoint>)
(<boundaryPoint> X33.657 Y-11.777 Z0.46 </boundaryPoint>)
(<boundaryPoint> X-40.555 Y10.498 Z0.46 </boundaryPoint>)
(<boundaryPoint> X-42.04 Y5.55 Z0.46 </boundaryPoint>)
(<loop> outer )
M108 R2.141
G1 X45.07 Y-18.48 Z0.46 F1080.0
M101
G1 X-43.8 Y-18.48 Z0.46 F1080.0
G1 X-43.8 Y22.08 Z0.46 F1080.0
G1 X45.07 Y22.08 Z0.46 F1080.0
G1 X45.07 Y-18.21 Z0.46 F1080.0
M108 R30.0
M102
G1 X45.07 Y-18.48 Z0.46 F1080.0
M108 R2.141
M103
G1 X0.03 Y-2.34 Z0.46 F3000.0
M108 R30.0
M101
G1 X-0.72 Y-2.07 Z0.46 F3000.0
M108 R2.141
G1 X-40.16 Y9.76 Z0.46 F1080.0
G1 X-41.31 Y5.95 Z0.46 F1080.0
G1 X31.78 Y-15.99 Z0.46 F1080.0
G1 X32.92 Y-12.17 Z0.46 F1080.0
G1 X-0.63 Y-2.1 Z0.46 F1080.0
G1 X-0.72 Y-2.07 Z0.46 F1080.0
M103
(</loop>)
(<perimeter> outer )
G1 X-0.52 Y-1.73 Z0.46 F3000.0
M101
G1 X-40.42 Y10.25 Z0.46 F1080.0
G1 X-41.8 Y5.68 Z0.46 F1080.0
G1 X32.04 Y-16.48 Z0.46 F1080.0
G1 X33.41 Y-11.91 Z0.46 F1080.0
G1 X-0.26 Y-1.8 Z0.46 F1080.0
M108 R30.0
M102
G1 X-0.52 Y-1.73 Z0.46 F1080.0
M108 R2.141
M103
(</perimeter>)
(</boundaryPerimeter>)
G1 X-0.76 Y-5.47 Z0.46 F1800.0
M108 R30.0
M101
G1 X-0.79 Y-5.95 Z0.46 F1800.0
M108 R2.141
G1 X-0.79 Y-2.32 Z0.46 F1080.0
M103
G1 X-0.39 Y-2.44 Z0.46 F1800.0
M101
G1 X-0.39 Y-6.07 Z0.46 F1080.0
M103
G1 X-0.0 Y-6.19 Z0.46 F1800.0
M101
G1 X-0.0 Y-2.56 Z0.46 F1080.0
M103
G1 X0.39 Y-2.67 Z0.46 F1800.0
M101
G1 X0.39 Y-6.3 Z0.46 F1080.0
M103
G1 X0.79 Y-6.42 Z0.46 F1800.0
M101
G1 X0.79 Y-2.79 Z0.46 F1080.0
M103
G1 X1.18 Y-2.91 Z0.46 F1800.0
M101
G1 X1.18 Y-6.54 Z0.46 F1080.0
M103
G1 X1.57 Y-6.66 Z0.46 F1800.0
M101
G1 X1.57 Y-3.03 Z0.46 F1080.0
M103
G1 X1.96 Y-3.15 Z0.46 F1800.0
M101
G1 X1.96 Y-6.78 Z0.46 F1080.0
M103
G1 X2.36 Y-6.89 Z0.46 F1800.0
M101
G1 X2.36 Y-3.26 Z0.46 F1080.0
M103
G1 X2.75 Y-3.38 Z0.46 F1800.0
M101
G1 X2.75 Y-7.01 Z0.46 F1080.0
M103
G1 X3.14 Y-7.13 Z0.46 F1800.0
M101
G1 X3.14 Y-3.5 Z0.46 F1080.0
M103
G1 X3.53 Y-3.62 Z0.46 F1800.0
M101
G1 X3.53 Y-7.25 Z0.46 F1080.0
M103
G1 X3.93 Y-7.37 Z0.46 F1800.0
M101
G1 X3.93 Y-3.74 Z0.46 F1080.0
M103
G1 X4.32 Y-3.85 Z0.46 F1800.0
M101
G1 X4.32 Y-7.48 Z0.46 F1080.0
M103
G1 X4.71 Y-7.6 Z0.46 F1800.0
M101
G1 X4.71 Y-3.97 Z0.46 F1080.0
M103
G1 X5.11 Y-4.09 Z0.46 F1800.0
M101
G1 X5.11 Y-7.72 Z0.46 F1080.0
M103
G1 X5.5 Y-7.84 Z0.46 F1800.0
M101
G1 X5.5 Y-4.21 Z0.46 F1080.0
M103
G1 X5.89 Y-4.33 Z0.46 F1800.0
M101
G1 X5.89 Y-7.95 Z0.46 F1080.0
M103
G1 X6.28 Y-8.07 Z0.46 F1800.0
M101
G1 X6.28 Y-4.44 Z0.46 F1080.0
M103
G1 X6.68 Y-4.56 Z0.46 F1800.0
M101
G1 X6.68 Y-8.19 Z0.46 F1080.0
M103
G1 X7.07 Y-8.31 Z0.46 F1800.0
M101
G1 X7.07 Y-4.68 Z0.46 F1080.0
M103
G1 X7.46 Y-4.8 Z0.46 F1800.0
M101
G1 X7.46 Y-8.43 Z0.46 F1080.0
M103
G1 X7.85 Y-8.54 Z0.46 F1800.0
M101
G1 X7.85 Y-4.91 Z0.46 F1080.0
M103
G1 X8.25 Y-5.03 Z0.46 F1800.0
M101
G1 X8.25 Y-8.66 Z0.46 F1080.0
M103
G1 X8.64 Y-8.78 Z0.46 F1800.0
M101
G1 X8.64 Y-5.15 Z0.46 F1080.0
M103
G1 X9.03 Y-5.27 Z0.46 F1800.0
M101
G1 X9.03 Y-8.9 Z0.46 F1080.0
M103
G1 X9.43 Y-9.02 Z0.46 F1800.0
M101
G1 X9.43 Y-5.39 Z0.46 F1080.0
M103
G1 X9.82 Y-5.5 Z0.46 F1800.0
M101
G1 X9.82 Y-9.13 Z0.46 F1080.0
M103
G1 X10.21 Y-9.25 Z0.46 F1800.0
M101
G1 X10.21 Y-5.62 Z0.46 F1080.0
M103
G1 X10.6 Y-5.74 Z0.46 F1800.0
M101
G1 X10.6 Y-9.37 Z0.46 F1080.0
M103
G1 X11.0 Y-9.49 Z0.46 F1800.0
M101
G1 X11.0 Y-5.86 Z0.46 F1080.0
M103
G1 X11.39 Y-5.98 Z0.46 F1800.0
M101
G1 X11.39 Y-9.6 Z0.46 F1080.0
M103
G1 X11.78 Y-9.72 Z0.46 F1800.0
M101
G1 X11.78 Y-6.09 Z0.46 F1080.0
M103
G1 X12.17 Y-6.21 Z0.46 F1800.0
M101
G1 X12.17 Y-9.84 Z0.46 F1080.0
M103
G1 X12.57 Y-9.96 Z0.46 F1800.0
M101
G1 X12.57 Y-6.33 Z0.46 F1080.0
M103
G1 X12.96 Y-6.45 Z0.46 F1800.0
M101
G1 X12.96 Y-10.08 Z0.46 F1080.0
M103
G1 X13.35 Y-10.19 Z0.46 F1800.0
M101
G1 X13.35 Y-6.56 Z0.46 F1080.0
M103
G1 X13.74 Y-6.68 Z0.46 F1800.0
M101
G1 X13.74 Y-10.31 Z0.46 F1080.0
G1 X14.14 Y-10.43 Z0.46 F1080.0
G1 X14.14 Y-6.8 Z0.46 F1080.0
M103
G1 X14.53 Y-6.92 Z0.46 F1800.0
M101
G1 X14.53 Y-10.55 Z0.46 F1080.0
M103
G1 X14.92 Y-10.67 Z0.46 F1800.0
M101
G1 X14.92 Y-7.04 Z0.46 F1080.0
M103
G1 X15.32 Y-7.15 Z0.46 F1800.0
M101
G1 X15.32 Y-10.51 Z0.46 F1080.0
M108 R30.0
M102
G1 X15.32 Y-10.78 Z0.46 F1080.0
M108 R2.141
M103
G1 X16.03 Y-11.0 Z0.46 F1800.0
M108 R30.0
M101
G1 X16.49 Y-11.14 Z0.46 F1800.0
M108 R2.141
G1 X16.49 Y-7.51 Z0.46 F1080.0
M103
G1 X16.89 Y-7.63 Z0.46 F1800.0
M101
G1 X16.89 Y-11.25 Z0.46 F1080.0
M103
G1 X17.28 Y-11.37 Z0.46 F1800.0
M101
G1 X17.28 Y-7.74 Z0.46 F1080.0
M103
G1 X17.67 Y-7.86 Z0.46 F1800.0
M101
G1 X17.67 Y-11.49 Z0.46 F1080.0
G1 X18.06 Y-11.61 Z0.46 F1080.0
G1 X18.06 Y-7.98 Z0.46 F1080.0
M103
G1 X18.46 Y-8.1 Z0.46 F1800.0
M101
G1 X18.46 Y-11.73 Z0.46 F1080.0
M103
G1 X18.85 Y-11.84 Z0.46 F1800.0
M101
G1 X18.85 Y-8.21 Z0.46 F1080.0
M103
G1 X19.24 Y-8.33 Z0.46 F1800.0
M101
G1 X19.24 Y-11.69 Z0.46 F1080.0
M108 R30.0
M102
G1 X19.24 Y-11.96 Z0.46 F1080.0
M108 R2.141
M103
G1 X19.96 Y-12.18 Z0.46 F1800.0
M108 R30.0
M101
G1 X20.42 Y-12.32 Z0.46 F1800.0
M108 R2.141
G1 X20.42 Y-8.69 Z0.46 F1080.0
M103
G1 X19.64 Y-8.45 Z0.46 F1800.0
M101
G1 X19.64 Y-12.08 Z0.46 F1080.0
G1 X20.03 Y-12.2 Z0.46 F1080.0
G1 X20.03 Y-8.57 Z0.46 F1080.0
M103
G1 X20.81 Y-8.8 Z0.46 F1800.0
M101
G1 X20.81 Y-12.43 Z0.46 F1080.0
M103
G1 X21.21 Y-12.55 Z0.46 F1800.0
M101
G1 X21.21 Y-8.92 Z0.46 F1080.0
M103
G1 X21.6 Y-9.04 Z0.46 F1800.0
M101
G1 X21.6 Y-12.67 Z0.46 F1080.0
G1 X21.99 Y-12.79 Z0.46 F1080.0
G1 X21.99 Y-9.16 Z0.46 F1080.0
M103
G1 X22.38 Y-9.28 Z0.46 F1800.0
M101
G1 X22.38 Y-12.9 Z0.46 F1080.0
M103
G1 X22.78 Y-13.02 Z0.46 F1800.0
M101
G1 X22.78 Y-9.39 Z0.46 F1080.0
M103
G1 X23.17 Y-9.51 Z0.46 F1800.0
M101
G1 X23.17 Y-12.87 Z0.46 F1080.0
M108 R30.0
M102
G1 X23.17 Y-13.14 Z0.46 F1080.0
M108 R2.141
M103
G1 X23.89 Y-13.36 Z0.46 F1800.0
M108 R30.0
M101
G1 X24.35 Y-13.49 Z0.46 F1800.0
M108 R2.141
G1 X24.35 Y-9.86 Z0.46 F1080.0
M103
G1 X23.56 Y-9.63 Z0.46 F1800.0
M101
G1 X23.56 Y-13.26 Z0.46 F1080.0
G1 X23.96 Y-13.38 Z0.46 F1080.0
G1 X23.96 Y-9.75 Z0.46 F1080.0
M103
G1 X24.74 Y-9.98 Z0.46 F1800.0
M101
G1 X24.74 Y-13.61 Z0.46 F1080.0
M103
G1 X25.13 Y-13.73 Z0.46 F1800.0
M101
G1 X25.13 Y-10.1 Z0.46 F1080.0
M103
G1 X25.53 Y-10.22 Z0.46 F1800.0
M101
G1 X25.53 Y-13.85 Z0.46 F1080.0
G1 X25.92 Y-13.97 Z0.46 F1080.0
G1 X25.92 Y-10.34 Z0.46 F1080.0
M103
G1 X26.31 Y-10.45 Z0.46 F1800.0
M101
G1 X26.31 Y-14.08 Z0.46 F1080.0
M103
G1 X26.7 Y-14.2 Z0.46 F1800.0
M101
G1 X26.7 Y-10.57 Z0.46 F1080.0
M103
G1 X27.1 Y-10.69 Z0.46 F1800.0
M101
G1 X27.1 Y-14.05 Z0.46 F1080.0
M108 R30.0
M102
G1 X27.1 Y-14.32 Z0.46 F1080.0
M108 R2.141
M103
G1 X27.81 Y-14.53 Z0.46 F1800.0
M108 R30.0
M101
G1 X28.27 Y-14.67 Z0.46 F1800.0
M108 R2.141
G1 X28.27 Y-11.04 Z0.46 F1080.0
M103
G1 X27.49 Y-10.81 Z0.46 F1800.0
M101
G1 X27.49 Y-14.44 Z0.46 F1080.0
G1 X27.88 Y-14.55 Z0.46 F1080.0
G1 X27.88 Y-10.93 Z0.46 F1080.0
M103
G1 X28.67 Y-11.16 Z0.46 F1800.0
M101
G1 X28.67 Y-14.79 Z0.46 F1080.0
M103
G1 X29.06 Y-14.91 Z0.46 F1800.0
M101
G1 X29.06 Y-11.28 Z0.46 F1080.0
M103
G1 X29.45 Y-11.4 Z0.46 F1800.0
M101
G1 X29.45 Y-15.03 Z0.46 F1080.0
G1 X29.85 Y-15.14 Z0.46 F1080.0
G1 X29.85 Y-11.52 Z0.46 F1080.0
M103
G1 X30.24 Y-11.63 Z0.46 F1800.0
M101
G1 X30.24 Y-15.26 Z0.46 F1080.0
M103
G1 X30.63 Y-15.38 Z0.46 F1800.0
M101
G1 X30.63 Y-11.75 Z0.46 F1080.0
M103
G1 X31.02 Y-11.87 Z0.46 F1800.0
M101
G1 X31.02 Y-15.23 Z0.46 F1080.0
M108 R30.0
M102
G1 X31.02 Y-15.5 Z0.46 F1080.0
M108 R2.141
M103
G1 X31.94 Y-14.09 Z0.46 F1800.0
M108 R30.0
M101
G1 X32.2 Y-13.69 Z0.46 F1800.0
M108 R2.141
G1 X32.2 Y-12.22 Z0.46 F1080.0
M103
G1 X32.59 Y-12.34 Z0.46 F1800.0
M101
M108 R30.0
M102
G1 X32.59 Y-12.38 Z0.46 F164.0
M108 R2.141
M103
G1 X31.87 Y-12.14 Z0.46 F1800.0
M108 R30.0
M101
G1 X31.42 Y-11.99 Z0.46 F1800.0
M108 R2.141
G1 X31.42 Y-15.62 Z0.46 F1080.0
G1 X31.81 Y-15.0 Z0.46 F1080.0
G1 X31.81 Y-12.37 Z0.46 F1080.0
M108 R30.0
M102
G1 X31.81 Y-12.1 Z0.46 F1080.0
M108 R2.141
M103
G1 X16.17 Y-7.41 Z0.46 F1800.0
M108 R30.0
M101
G1 X15.71 Y-7.27 Z0.46 F1800.0
M108 R2.141
G1 X15.71 Y-10.9 Z0.46 F1080.0
G1 X16.1 Y-11.02 Z0.46 F1080.0
G1 X16.1 Y-7.66 Z0.46 F1080.0
M108 R30.0
M102
G1 X16.1 Y-7.39 Z0.46 F1080.0
M108 R2.141
M103
G1 X-0.72 Y-2.34 Z0.46 F1800.0
M108 R30.0
M101
G1 X-1.18 Y-2.2 Z0.46 F1800.0
M108 R2.141
G1 X-1.18 Y-5.83 Z0.46 F1080.0
M103
G1 X-1.57 Y-5.72 Z0.46 F1800.0
M101
G1 X-1.57 Y-2.09 Z0.46 F1080.0
M103
G1 X-1.96 Y-1.97 Z0.46 F1800.0
M101
G1 X-1.96 Y-5.6 Z0.46 F1080.0
M103
G1 X-2.36 Y-5.48 Z0.46 F1800.0
M101
G1 X-2.36 Y-1.85 Z0.46 F1080.0
M103
G1 X-2.75 Y-1.73 Z0.46 F1800.0
M101
G1 X-2.75 Y-5.36 Z0.46 F1080.0
M103
G1 X-3.14 Y-5.24 Z0.46 F1800.0
M101
G1 X-3.14 Y-1.61 Z0.46 F1080.0
M103
G1 X-3.53 Y-1.5 Z0.46 F1800.0
M101
G1 X-3.53 Y-5.13 Z0.46 F1080.0
M103
G1 X-3.93 Y-5.01 Z0.46 F1800.0
M101
G1 X-3.93 Y-1.38 Z0.46 F1080.0
M103
G1 X-4.32 Y-1.26 Z0.46 F1800.0
M101
G1 X-4.32 Y-4.89 Z0.46 F1080.0
M103
G1 X-4.71 Y-4.77 Z0.46 F1800.0
M101
G1 X-4.71 Y-1.14 Z0.46 F1080.0
M103
G1 X-5.11 Y-1.02 Z0.46 F1800.0
M101
G1 X-5.11 Y-4.65 Z0.46 F1080.0
M103
G1 X-5.5 Y-4.54 Z0.46 F1800.0
M101
G1 X-5.5 Y-0.91 Z0.46 F1080.0
M103
G1 X-5.89 Y-0.79 Z0.46 F1800.0
M101
G1 X-5.89 Y-4.42 Z0.46 F1080.0
M103
G1 X-6.28 Y-4.3 Z0.46 F1800.0
M101
G1 X-6.28 Y-0.67 Z0.46 F1080.0
M103
G1 X-6.68 Y-0.55 Z0.46 F1800.0
M101
G1 X-6.68 Y-4.18 Z0.46 F1080.0
M103
G1 X-7.07 Y-4.06 Z0.46 F1800.0
M101
G1 X-7.07 Y-0.44 Z0.46 F1080.0
M103
G1 X-7.46 Y-0.32 Z0.46 F1800.0
M101
G1 X-7.46 Y-3.95 Z0.46 F1080.0
M103
G1 X-7.85 Y-3.83 Z0.46 F1800.0
M101
G1 X-7.85 Y-0.2 Z0.46 F1080.0
M103
G1 X-8.25 Y-0.08 Z0.46 F1800.0
M101
G1 X-8.25 Y-3.71 Z0.46 F1080.0
M103
G1 X-8.64 Y-3.59 Z0.46 F1800.0
M101
G1 X-8.64 Y0.04 Z0.46 F1080.0
M103
G1 X-9.03 Y0.15 Z0.46 F1800.0
M101
G1 X-9.03 Y-3.48 Z0.46 F1080.0
M103
G1 X-9.43 Y-3.36 Z0.46 F1800.0
M101
G1 X-9.43 Y0.27 Z0.46 F1080.0
M103
G1 X-9.82 Y0.39 Z0.46 F1800.0
M101
G1 X-9.82 Y-3.24 Z0.46 F1080.0
M103
G1 X-10.21 Y-3.12 Z0.46 F1800.0
M101
G1 X-10.21 Y0.51 Z0.46 F1080.0
M103
G1 X-10.6 Y0.63 Z0.46 F1800.0
M101
G1 X-10.6 Y-3.0 Z0.46 F1080.0
M103
G1 X-11.0 Y-2.89 Z0.46 F1800.0
M101
G1 X-11.0 Y0.74 Z0.46 F1080.0
M103
G1 X-11.39 Y0.86 Z0.46 F1800.0
M101
G1 X-11.39 Y-2.77 Z0.46 F1080.0
M103
G1 X-11.78 Y-2.65 Z0.46 F1800.0
M101
G1 X-11.78 Y0.98 Z0.46 F1080.0
M103
G1 X-12.17 Y1.1 Z0.46 F1800.0
M101
G1 X-12.17 Y-2.53 Z0.46 F1080.0
M103
G1 X-12.57 Y-2.41 Z0.46 F1800.0
M101
G1 X-12.57 Y1.22 Z0.46 F1080.0
M103
G1 X-12.96 Y1.33 Z0.46 F1800.0
M101
G1 X-12.96 Y-2.3 Z0.46 F1080.0
M103
G1 X-13.35 Y-2.18 Z0.46 F1800.0
M101
G1 X-13.35 Y1.45 Z0.46 F1080.0
M103
G1 X-13.74 Y1.57 Z0.46 F1800.0
M101
G1 X-13.74 Y-2.06 Z0.46 F1080.0
M103
G1 X-14.14 Y-1.94 Z0.46 F1800.0
M101
G1 X-14.14 Y1.69 Z0.46 F1080.0
M103
G1 X-14.53 Y1.81 Z0.46 F1800.0
M101
G1 X-14.53 Y-1.83 Z0.46 F1080.0
M103
G1 X-14.92 Y-1.71 Z0.46 F1800.0
M101
G1 X-14.92 Y1.92 Z0.46 F1080.0
M103
G1 X-15.32 Y2.04 Z0.46 F1800.0
M101
G1 X-15.32 Y-1.59 Z0.46 F1080.0
M103
G1 X-15.71 Y-1.47 Z0.46 F1800.0
M101
G1 X-15.71 Y2.16 Z0.46 F1080.0
M103
G1 X-16.1 Y2.28 Z0.46 F1800.0
M101
G1 X-16.1 Y-1.35 Z0.46 F1080.0
M103
G1 X-16.49 Y-1.24 Z0.46 F1800.0
M101
G1 X-16.49 Y2.39 Z0.46 F1080.0
M103
G1 X-16.89 Y2.51 Z0.46 F1800.0
M101
G1 X-16.89 Y-1.12 Z0.46 F1080.0
M103
G1 X-17.28 Y-1.0 Z0.46 F1800.0
M101
G1 X-17.28 Y2.63 Z0.46 F1080.0
M103
G1 X-17.67 Y2.75 Z0.46 F1800.0
M101
G1 X-17.67 Y-0.88 Z0.46 F1080.0
M103
G1 X-18.06 Y-0.76 Z0.46 F1800.0
M101
G1 X-18.06 Y2.87 Z0.46 F1080.0
M103
G1 X-18.46 Y2.98 Z0.46 F1800.0
M101
G1 X-18.46 Y-0.65 Z0.46 F1080.0
M103
G1 X-18.85 Y-0.53 Z0.46 F1800.0
M101
G1 X-18.85 Y3.1 Z0.46 F1080.0
M103
G1 X-19.24 Y3.22 Z0.46 F1800.0
M101
G1 X-19.24 Y-0.41 Z0.46 F1080.0
M103
G1 X-19.64 Y-0.29 Z0.46 F1800.0
M101
G1 X-19.64 Y3.34 Z0.46 F1080.0
M103
G1 X-20.03 Y3.46 Z0.46 F1800.0
M101
G1 X-20.03 Y-0.18 Z0.46 F1080.0
M103
G1 X-20.42 Y-0.06 Z0.46 F1800.0
M101
G1 X-20.42 Y3.57 Z0.46 F1080.0
M103
G1 X-20.81 Y3.69 Z0.46 F1800.0
M101
G1 X-20.81 Y0.06 Z0.46 F1080.0
M103
G1 X-21.21 Y0.18 Z0.46 F1800.0
M101
G1 X-21.21 Y3.81 Z0.46 F1080.0
M103
G1 X-21.6 Y3.93 Z0.46 F1800.0
M101
G1 X-21.6 Y0.3 Z0.46 F1080.0
M103
G1 X-21.99 Y0.41 Z0.46 F1800.0
M101
G1 X-21.99 Y4.04 Z0.46 F1080.0
M103
G1 X-22.38 Y4.16 Z0.46 F1800.0
M101
G1 X-22.38 Y0.53 Z0.46 F1080.0
M103
G1 X-22.78 Y0.65 Z0.46 F1800.0
M101
G1 X-22.78 Y4.28 Z0.46 F1080.0
M103
G1 X-23.17 Y4.4 Z0.46 F1800.0
M101
G1 X-23.17 Y0.77 Z0.46 F1080.0
M103
G1 X-23.56 Y0.89 Z0.46 F1800.0
M101
G1 X-23.56 Y4.52 Z0.46 F1080.0
M103
G1 X-23.96 Y4.63 Z0.46 F1800.0
M101
G1 X-23.96 Y1.0 Z0.46 F1080.0
M103
G1 X-24.35 Y1.12 Z0.46 F1800.0
M101
G1 X-24.35 Y4.75 Z0.46 F1080.0
M103
G1 X-24.74 Y4.87 Z0.46 F1800.0
M101
G1 X-24.74 Y1.24 Z0.46 F1080.0
M103
G1 X-25.13 Y1.36 Z0.46 F1800.0
M101
G1 X-25.13 Y4.99 Z0.46 F1080.0
M103
G1 X-25.53 Y5.11 Z0.46 F1800.0
M101
G1 X-25.53 Y1.48 Z0.46 F1080.0
M103
G1 X-25.92 Y1.59 Z0.46 F1800.0
M101
G1 X-25.92 Y5.22 Z0.46 F1080.0
M103
G1 X-26.31 Y5.34 Z0.46 F1800.0
M101
G1 X-26.31 Y1.71 Z0.46 F1080.0
M103
G1 X-26.7 Y1.83 Z0.46 F1800.0
M101
G1 X-26.7 Y5.46 Z0.46 F1080.0
M103
G1 X-27.1 Y5.58 Z0.46 F1800.0
M101
G1 X-27.1 Y1.95 Z0.46 F1080.0
M103
G1 X-27.49 Y2.06 Z0.46 F1800.0
M101
G1 X-27.49 Y5.69 Z0.46 F1080.0
M103
G1 X-27.88 Y5.81 Z0.46 F1800.0
M101
G1 X-27.88 Y2.18 Z0.46 F1080.0
M103
G1 X-28.27 Y2.3 Z0.46 F1800.0
M101
G1 X-28.27 Y5.93 Z0.46 F1080.0
M103
G1 X-28.67 Y6.05 Z0.46 F1800.0
M101
G1 X-28.67 Y2.42 Z0.46 F1080.0
M103
G1 X-29.06 Y2.54 Z0.46 F1800.0
M101
G1 X-29.06 Y6.17 Z0.46 F1080.0
M103
G1 X-29.45 Y6.28 Z0.46 F1800.0
M101
G1 X-29.45 Y2.65 Z0.46 F1080.0
M103
G1 X-29.85 Y2.77 Z0.46 F1800.0
M101
G1 X-29.85 Y6.4 Z0.46 F1080.0
M103
G1 X-30.24 Y6.52 Z0.46 F1800.0
M101
G1 X-30.24 Y2.89 Z0.46 F1080.0
M103
G1 X-30.63 Y3.01 Z0.46 F1800.0
M101
G1 X-30.63 Y6.64 Z0.46 F1080.0
M103
G1 X-31.02 Y6.76 Z0.46 F1800.0
M101
G1 X-31.02 Y3.13 Z0.46 F1080.0
M103
G1 X-31.42 Y3.24 Z0.46 F1800.0
M101
G1 X-31.42 Y6.87 Z0.46 F1080.0
M103
G1 X-31.81 Y6.99 Z0.46 F1800.0
M101
G1 X-31.81 Y3.36 Z0.46 F1080.0
M103
G1 X-32.2 Y3.48 Z0.46 F1800.0
M101
G1 X-32.2 Y7.11 Z0.46 F1080.0
M103
G1 X-32.59 Y7.23 Z0.46 F1800.0
M101
G1 X-32.59 Y3.6 Z0.46 F1080.0
M103
G1 X-32.99 Y3.72 Z0.46 F1800.0
M101
G1 X-32.99 Y7.35 Z0.46 F1080.0
M103
G1 X-33.38 Y7.46 Z0.46 F1800.0
M101
G1 X-33.38 Y3.83 Z0.46 F1080.0
M103
G1 X-33.77 Y3.95 Z0.46 F1800.0
M101
G1 X-33.77 Y7.58 Z0.46 F1080.0
M103
G1 X-34.17 Y7.7 Z0.46 F1800.0
M101
G1 X-34.17 Y4.07 Z0.46 F1080.0
M103
G1 X-34.56 Y4.19 Z0.46 F1800.0
M101
G1 X-34.56 Y7.82 Z0.46 F1080.0
M103
G1 X-34.95 Y7.93 Z0.46 F1800.0
M101
G1 X-34.95 Y4.3 Z0.46 F1080.0
M103
G1 X-35.34 Y4.42 Z0.46 F1800.0
M101
G1 X-35.34 Y8.05 Z0.46 F1080.0
M103
G1 X-35.74 Y8.17 Z0.46 F1800.0
M101
G1 X-35.74 Y4.54 Z0.46 F1080.0
M103
G1 X-36.13 Y4.66 Z0.46 F1800.0
M101
G1 X-36.13 Y8.29 Z0.46 F1080.0
M103
G1 X-36.52 Y8.4 Z0.46 F1800.0
M101
G1 X-36.52 Y4.78 Z0.46 F1080.0
M103
G1 X-36.91 Y4.89 Z0.46 F1800.0
M101
G1 X-36.91 Y8.52 Z0.46 F1080.0
M103
G1 X-37.31 Y8.64 Z0.46 F1800.0
M101
G1 X-37.31 Y5.01 Z0.46 F1080.0
M103
G1 X-37.7 Y5.13 Z0.46 F1800.0
M101
G1 X-37.7 Y8.76 Z0.46 F1080.0
M103
G1 X-38.09 Y8.88 Z0.46 F1800.0
M101
G1 X-38.09 Y5.25 Z0.46 F1080.0
M103
G1 X-38.49 Y5.37 Z0.46 F1800.0
M101
G1 X-38.49 Y8.99 Z0.46 F1080.0
M103
G1 X-38.88 Y9.11 Z0.46 F1800.0
M101
G1 X-38.88 Y5.48 Z0.46 F1080.0
M103
G1 X-39.27 Y5.6 Z0.46 F1800.0
M101
G1 X-39.27 Y8.96 Z0.46 F1080.0
M108 R30.0
M102
G1 X-39.27 Y9.23 Z0.46 F1080.0
M108 R2.141
M103
G1 X-40.13 Y8.27 Z0.46 F1800.0
M108 R30.0
M101
G1 X-40.45 Y7.92 Z0.46 F1800.0
M108 R2.141
G1 X-40.45 Y5.95 Z0.46 F1080.0
G1 X-40.84 Y6.61 Z0.46 F1080.0
G1 X-40.84 Y6.34 Z0.46 F1080.0
M108 R30.0
M102
G1 X-40.84 Y6.07 Z0.46 F1080.0
M108 R2.141
M103
G1 X-40.12 Y5.86 Z0.46 F1800.0
M108 R30.0
M101
G1 X-39.66 Y5.72 Z0.46 F1800.0
M108 R2.141
G1 X-39.66 Y9.35 Z0.46 F1080.0
G1 X-40.06 Y9.23 Z0.46 F1080.0
G1 X-40.06 Y6.11 Z0.46 F1080.0
M108 R30.0
M102
G1 X-40.06 Y5.84 Z0.46 F1080.0
M108 R2.141
M103
(</surroundingLoop>)
(<surroundingLoop>)
(<boundaryPerimeter>)
(<boundaryPoint> X-22.66 Y19.015 Z0.46 </boundaryPoint>)
(<boundaryPoint> X-22.662 Y16.432 Z0.46 </boundaryPoint>)
(<boundaryPoint> X-38.77 Y16.443 Z0.46 </boundaryPoint>)
(<boundaryPoint> X-40.378 Y11.088 Z0.46 </boundaryPoint>)
(<boundaryPoint> X-40.4 Y10.782 Z0.46 </boundaryPoint>)
(<boundaryPoint> X-40.101 Y10.715 Z0.46 </boundaryPoint>)
(<boundaryPoint> X40.391 Y10.661 Z0.46 </boundaryPoint>)
(<boundaryPoint> X41.999 Y16.016 Z0.46 </boundaryPoint>)
(<boundaryPoint> X42.021 Y16.322 Z0.46 </boundaryPoint>)
(<boundaryPoint> X41.722 Y16.389 Z0.46 </boundaryPoint>)
(<boundaryPoint> X23.967 Y16.401 Z0.46 </boundaryPoint>)
(<boundaryPoint> X23.968 Y18.984 Z0.46 </boundaryPoint>)
(<boundaryPoint> X42.886 Y18.971 Z0.46 </boundaryPoint>)
(<boundaryPoint> X43.147 Y19.842 Z0.46 </boundaryPoint>)
(<boundaryPoint> X43.169 Y20.148 Z0.46 </boundaryPoint>)
(<boundaryPoint> X42.87 Y20.215 Z0.46 </boundaryPoint>)
(<boundaryPoint> X-37.622 Y20.269 Z0.46 </boundaryPoint>)
(<boundaryPoint> X-37.883 Y19.398 Z0.46 </boundaryPoint>)
(<boundaryPoint> X-37.905 Y19.092 Z0.46 </boundaryPoint>)
(<boundaryPoint> X-37.606 Y19.025 Z0.46 </boundaryPoint>)
(<loop> outer )
G1 X-39.67 Y10.51 Z0.46 F3000.0
M108 R30.0
M101
G1 X-39.6 Y11.3 Z0.46 F3000.0
M108 R2.141
G1 X39.95 Y11.25 Z0.46 F1080.0
G1 X41.32 Y15.8 Z0.46 F1080.0
G1 X23.38 Y15.81 Z0.46 F1080.0
G1 X23.38 Y19.06 Z0.46 F1080.0
G1 X22.99 Y19.64 Z0.46 F1080.0
G1 X-21.62 Y19.67 Z0.46 F1080.0
G1 X-22.07 Y19.08 Z0.46 F1080.0
G1 X-22.07 Y15.84 Z0.46 F1080.0
G1 X-38.33 Y15.85 Z0.46 F1080.0
G1 X-39.7 Y11.3 Z0.46 F1080.0
G1 X-39.6 Y11.3 Z0.46 F1080.0
M103
(</loop>)
(<perimeter> outer )
G1 X-39.6 Y10.91 Z0.46 F3000.0
M101
G1 X40.24 Y10.86 Z0.46 F1080.0
G1 X41.82 Y16.1 Z0.46 F1080.0
G1 X41.92 Y16.25 Z0.46 F1080.0
G1 X41.75 Y16.19 Z0.46 F1080.0
G1 X23.77 Y16.2 Z0.46 F1080.0
G1 X23.77 Y19.18 Z0.46 F1080.0
G1 X42.74 Y19.17 Z0.46 F1080.0
G1 X42.97 Y19.93 Z0.46 F1080.0
G1 X43.07 Y20.08 Z0.46 F1080.0
G1 X42.9 Y20.02 Z0.46 F1080.0
G1 X-37.48 Y20.07 Z0.46 F1080.0
G1 X-37.7 Y19.31 Z0.46 F1080.0
G1 X-37.81 Y19.17 Z0.46 F1080.0
G1 X-37.64 Y19.22 Z0.46 F1080.0
G1 X-22.46 Y19.21 Z0.46 F1080.0
G1 X-22.47 Y16.24 Z0.46 F1080.0
G1 X-38.62 Y16.25 Z0.46 F1080.0
G1 X-40.07 Y11.42 Z0.46 F1080.0
G1 X-40.2 Y11.0 Z0.46 F1080.0
G1 X-40.3 Y10.86 Z0.46 F1080.0
G1 X-40.13 Y10.91 Z0.46 F1080.0
G1 X-39.88 Y10.91 Z0.46 F1080.0
M108 R30.0
M102
G1 X-39.6 Y10.91 Z0.46 F1080.0
M108 R2.141
M103
(</perimeter>)
(</boundaryPerimeter>)
G1 X-39.03 Y12.69 Z0.46 F1800.0
M108 R30.0
M101
G1 X-38.88 Y13.15 Z0.46 F1800.0
M108 R2.141
G1 X-38.88 Y11.56 Z0.46 F1080.0
G1 X-39.27 Y11.84 Z0.46 F1080.0
G1 X-39.27 Y11.55 Z0.46 F1080.0
M103
G1 X-38.49 Y11.56 Z0.46 F1800.0
M101
G1 X-38.49 Y14.19 Z0.46 F1080.0
M108 R30.0
M102
G1 X-38.49 Y14.46 Z0.46 F1080.0
M108 R2.141
M103
G1 X-37.83 Y12.02 Z0.46 F1800.0
M108 R30.0
M101
G1 X-37.7 Y11.56 Z0.46 F1800.0
M108 R2.141
G1 X-37.7 Y15.6 Z0.46 F1080.0
G1 X-38.09 Y15.6 Z0.46 F1080.0
G1 X-38.09 Y11.83 Z0.46 F1080.0
M108 R30.0
M102
G1 X-38.09 Y11.56 Z0.46 F1080.0
M108 R2.141
M103
G1 X-37.39 Y11.56 Z0.46 F1800.0
M108 R30.0
M101
G1 X-36.91 Y11.56 Z0.46 F1800.0
M108 R2.141
G1 X-36.91 Y15.6 Z0.46 F1080.0
G1 X-37.31 Y15.6 Z0.46 F1080.0
G1 X-37.31 Y11.83 Z0.46 F1080.0
M108 R30.0
M102
G1 X-37.31 Y11.56 Z0.46 F1080.0
M108 R2.141
M103
G1 X-36.61 Y11.56 Z0.46 F1800.0
M108 R30.0
M101
G1 X-36.13 Y11.56 Z0.46 F1800.0
M108 R2.141
G1 X-36.13 Y15.6 Z0.46 F1080.0
G1 X-36.52 Y15.6 Z0.46 F1080.0
G1 X-36.52 Y11.83 Z0.46 F1080.0
M108 R30.0
M102
G1 X-36.52 Y11.56 Z0.46 F1080.0
M108 R2.141
M103
G1 X-35.82 Y11.56 Z0.46 F1800.0
M108 R30.0
M101
G1 X-35.34 Y11.56 Z0.46 F1800.0
M108 R2.141
G1 X-35.34 Y15.6 Z0.46 F1080.0
G1 X-35.74 Y15.6 Z0.46 F1080.0
G1 X-35.74 Y11.83 Z0.46 F1080.0
M108 R30.0
M102
G1 X-35.74 Y11.56 Z0.46 F1080.0
M108 R2.141
M103
G1 X-35.04 Y11.56 Z0.46 F1800.0
M108 R30.0
M101
G1 X-34.56 Y11.56 Z0.46 F1800.0
M108 R2.141
G1 X-34.56 Y15.6 Z0.46 F1080.0
G1 X-34.95 Y15.6 Z0.46 F1080.0
G1 X-34.95 Y11.83 Z0.46 F1080.0
M108 R30.0
M102
G1 X-34.95 Y11.56 Z0.46 F1080.0
M108 R2.141
M103
G1 X-34.25 Y11.56 Z0.46 F1800.0
M108 R30.0
M101
G1 X-33.77 Y11.56 Z0.46 F1800.0
M108 R2.141
G1 X-33.77 Y15.6 Z0.46 F1080.0
G1 X-34.17 Y15.6 Z0.46 F1080.0
G1 X-34.17 Y11.83 Z0.46 F1080.0
M108 R30.0
M102
G1 X-34.17 Y11.56 Z0.46 F1080.0
M108 R2.141
M103
G1 X-33.47 Y11.56 Z0.46 F1800.0
M108 R30.0
M101
G1 X-32.99 Y11.56 Z0.46 F1800.0
M108 R2.141
G1 X-32.99 Y15.59 Z0.46 F1080.0
G1 X-33.38 Y15.6 Z0.46 F1080.0
G1 X-33.38 Y11.83 Z0.46 F1080.0
M108 R30.0
M102
G1 X-33.38 Y11.56 Z0.46 F1080.0
M108 R2.141
M103
G1 X-32.68 Y11.55 Z0.46 F1800.0
M108 R30.0
M101
G1 X-32.2 Y11.55 Z0.46 F1800.0
M108 R2.141
G1 X-32.2 Y15.59 Z0.46 F1080.0
G1 X-32.59 Y15.59 Z0.46 F1080.0
G1 X-32.59 Y11.83 Z0.46 F1080.0
M108 R30.0
M102
G1 X-32.59 Y11.56 Z0.46 F1080.0
M108 R2.141
M103
G1 X-31.9 Y11.55 Z0.46 F1800.0
M108 R30.0
M101
G1 X-31.42 Y11.55 Z0.46 F1800.0
M108 R2.141
G1 X-31.42 Y15.59 Z0.46 F1080.0
G1 X-31.81 Y15.59 Z0.46 F1080.0
G1 X-31.81 Y11.82 Z0.46 F1080.0
M108 R30.0
M102
G1 X-31.81 Y11.55 Z0.46 F1080.0
M108 R2.141
M103
G1 X-31.11 Y11.55 Z0.46 F1800.0
M108 R30.0
M101
G1 X-30.63 Y11.55 Z0.46 F1800.0
M108 R2.141
G1 X-30.63 Y15.59 Z0.46 F1080.0
G1 X-31.02 Y15.59 Z0.46 F1080.0
G1 X-31.02 Y11.82 Z0.46 F1080.0
M108 R30.0
M102
G1 X-31.02 Y11.55 Z0.46 F1080.0
M108 R2.141
M103
G1 X-30.33 Y11.55 Z0.46 F1800.0
M108 R30.0
M101
G1 X-29.85 Y11.55 Z0.46 F1800.0
M108 R2.141
G1 X-29.85 Y15.59 Z0.46 F1080.0
G1 X-30.24 Y15.59 Z0.46 F1080.0
G1 X-30.24 Y11.82 Z0.46 F1080.0
M108 R30.0
M102
G1 X-30.24 Y11.55 Z0.46 F1080.0
M108 R2.141
M103
G1 X-29.54 Y11.55 Z0.46 F1800.0
M108 R30.0
M101
G1 X-29.06 Y11.55 Z0.46 F1800.0
M108 R2.141
G1 X-29.06 Y15.59 Z0.46 F1080.0
G1 X-29.45 Y15.59 Z0.46 F1080.0
G1 X-29.45 Y11.82 Z0.46 F1080.0
M108 R30.0
M102
G1 X-29.45 Y11.55 Z0.46 F1080.0
M108 R2.141
M103
G1 X-28.75 Y11.55 Z0.46 F1800.0
M108 R30.0
M101
G1 X-28.27 Y11.55 Z0.46 F1800.0
M108 R2.141
G1 X-28.27 Y15.59 Z0.46 F1080.0
G1 X-28.67 Y15.59 Z0.46 F1080.0
G1 X-28.67 Y11.82 Z0.46 F1080.0
M108 R30.0
M102
G1 X-28.67 Y11.55 Z0.46 F1080.0
M108 R2.141
M103
G1 X-27.97 Y11.55 Z0.46 F1800.0
M108 R30.0
M101
G1 X-27.49 Y11.55 Z0.46 F1800.0
M108 R2.141
G1 X-27.49 Y15.59 Z0.46 F1080.0
G1 X-27.88 Y15.59 Z0.46 F1080.0
G1 X-27.88 Y11.82 Z0.46 F1080.0
M108 R30.0
M102
G1 X-27.88 Y11.55 Z0.46 F1080.0
M108 R2.141
M103
G1 X-27.18 Y11.55 Z0.46 F1800.0
M108 R30.0
M101
G1 X-26.7 Y11.55 Z0.46 F1800.0
M108 R2.141
G1 X-26.7 Y15.59 Z0.46 F1080.0
G1 X-27.1 Y15.59 Z0.46 F1080.0
G1 X-27.1 Y11.82 Z0.46 F1080.0
M108 R30.0
M102
G1 X-27.1 Y11.55 Z0.46 F1080.0
M108 R2.141
M103
G1 X-26.4 Y11.55 Z0.46 F1800.0
M108 R30.0
M101
G1 X-25.92 Y11.55 Z0.46 F1800.0
M108 R2.141
G1 X-25.92 Y15.59 Z0.46 F1080.0
G1 X-26.31 Y15.59 Z0.46 F1080.0
G1 X-26.31 Y11.82 Z0.46 F1080.0
M108 R30.0
M102
G1 X-26.31 Y11.55 Z0.46 F1080.0
M108 R2.141
M103
G1 X-25.61 Y11.55 Z0.46 F1800.0
M108 R30.0
M101
G1 X-25.13 Y11.55 Z0.46 F1800.0
M108 R2.141
G1 X-25.13 Y15.59 Z0.46 F1080.0
G1 X-25.53 Y15.59 Z0.46 F1080.0
G1 X-25.53 Y11.82 Z0.46 F1080.0
M108 R30.0
M102
G1 X-25.53 Y11.55 Z0.46 F1080.0
M108 R2.141
M103
G1 X-24.83 Y11.55 Z0.46 F1800.0
M108 R30.0
M101
G1 X-24.35 Y11.55 Z0.46 F1800.0
M108 R2.141
G1 X-24.35 Y15.59 Z0.46 F1080.0
G1 X-24.74 Y15.59 Z0.46 F1080.0
G1 X-24.74 Y11.82 Z0.46 F1080.0
M108 R30.0
M102
G1 X-24.74 Y11.55 Z0.46 F1080.0
M108 R2.141
M103
G1 X-24.04 Y11.55 Z0.46 F1800.0
M108 R30.0
M101
G1 X-23.56 Y11.55 Z0.46 F1800.0
M108 R2.141
G1 X-23.56 Y15.59 Z0.46 F1080.0
G1 X-23.96 Y15.59 Z0.46 F1080.0
G1 X-23.96 Y11.82 Z0.46 F1080.0
M108 R30.0
M102
G1 X-23.96 Y11.55 Z0.46 F1080.0
M108 R2.141
M103
G1 X-23.26 Y11.55 Z0.46 F1800.0
M108 R30.0
M101
G1 X-22.78 Y11.55 Z0.46 F1800.0
M108 R2.141
G1 X-22.78 Y15.59 Z0.46 F1080.0
G1 X-23.17 Y15.59 Z0.46 F1080.0
G1 X-23.17 Y11.82 Z0.46 F1080.0
M108 R30.0
M102
G1 X-23.17 Y11.55 Z0.46 F1080.0
M108 R2.141
M103
G1 X-22.47 Y11.55 Z0.46 F1800.0
M108 R30.0
M101
G1 X-21.99 Y11.55 Z0.46 F1800.0
M108 R2.141
G1 X-21.99 Y15.59 Z0.46 F1080.0
G1 X-22.38 Y15.59 Z0.46 F1080.0
G1 X-22.38 Y11.82 Z0.46 F1080.0
M108 R30.0
M102
G1 X-22.38 Y11.55 Z0.46 F1080.0
M108 R2.141
M103
G1 X-21.69 Y11.55 Z0.46 F1800.0
M108 R30.0
M101
G1 X-21.21 Y11.55 Z0.46 F1800.0
M108 R2.141
G1 X-21.21 Y19.41 Z0.46 F1080.0
G1 X-21.6 Y19.27 Z0.46 F1080.0
G1 X-21.6 Y11.82 Z0.46 F1080.0
M108 R30.0
M102
G1 X-21.6 Y11.55 Z0.46 F1080.0
M108 R2.141
M103
G1 X-20.9 Y11.55 Z0.46 F1800.0
M108 R30.0
M101
G1 X-20.42 Y11.55 Z0.46 F1800.0
M108 R2.141
G1 X-20.42 Y19.41 Z0.46 F1080.0
G1 X-20.81 Y19.41 Z0.46 F1080.0
G1 X-20.81 Y11.82 Z0.46 F1080.0
M108 R30.0
M102
G1 X-20.81 Y11.55 Z0.46 F1080.0
M108 R2.141
M103
G1 X-20.11 Y11.55 Z0.46 F1800.0
M108 R30.0
M101
G1 X-19.64 Y11.55 Z0.46 F1800.0
M108 R2.141
G1 X-19.64 Y19.41 Z0.46 F1080.0
G1 X-20.03 Y19.41 Z0.46 F1080.0
G1 X-20.03 Y11.82 Z0.46 F1080.0
M108 R30.0
M102
G1 X-20.03 Y11.55 Z0.46 F1080.0
M108 R2.141
M103
G1 X32.12 Y15.52 Z0.46 F1800.0
M108 R30.0
M101
G1 X32.59 Y15.55 Z0.46 F1800.0
M108 R2.141
G1 X32.59 Y11.51 Z0.46 F1080.0
G1 X32.2 Y11.51 Z0.46 F1080.0
G1 X32.2 Y15.55 Z0.46 F1080.0
G1 X31.81 Y15.55 Z0.46 F1080.0
G1 X31.81 Y11.51 Z0.46 F1080.0
G1 X31.42 Y11.51 Z0.46 F1080.0
G1 X31.42 Y15.55 Z0.46 F1080.0
G1 X31.02 Y15.55 Z0.46 F1080.0
G1 X31.02 Y11.51 Z0.46 F1080.0
G1 X30.63 Y11.51 Z0.46 F1080.0
G1 X30.63 Y15.55 Z0.46 F1080.0
G1 X30.24 Y15.55 Z0.46 F1080.0
G1 X30.24 Y11.51 Z0.46 F1080.0
G1 X29.85 Y11.51 Z0.46 F1080.0
G1 X29.85 Y15.55 Z0.46 F1080.0
G1 X29.45 Y15.55 Z0.46 F1080.0
G1 X29.45 Y11.51 Z0.46 F1080.0
G1 X29.06 Y11.51 Z0.46 F1080.0
G1 X29.06 Y15.55 Z0.46 F1080.0
G1 X28.67 Y15.55 Z0.46 F1080.0
G1 X28.67 Y11.51 Z0.46 F1080.0
G1 X28.27 Y11.51 Z0.46 F1080.0
G1 X28.27 Y15.55 Z0.46 F1080.0
G1 X27.88 Y15.55 Z0.46 F1080.0
G1 X27.88 Y11.51 Z0.46 F1080.0
G1 X27.49 Y11.51 Z0.46 F1080.0
G1 X27.49 Y15.55 Z0.46 F1080.0
G1 X27.1 Y15.55 Z0.46 F1080.0
G1 X27.1 Y11.52 Z0.46 F1080.0
G1 X26.7 Y11.52 Z0.46 F1080.0
G1 X26.7 Y15.56 Z0.46 F1080.0
G1 X26.31 Y15.56 Z0.46 F1080.0
G1 X26.31 Y11.52 Z0.46 F1080.0
G1 X25.92 Y11.52 Z0.46 F1080.0
G1 X25.92 Y15.56 Z0.46 F1080.0
G1 X25.53 Y15.56 Z0.46 F1080.0
G1 X25.53 Y11.52 Z0.46 F1080.0
G1 X25.13 Y11.52 Z0.46 F1080.0
G1 X25.13 Y15.56 Z0.46 F1080.0
G1 X24.74 Y15.56 Z0.46 F1080.0
G1 X24.74 Y11.52 Z0.46 F1080.0
G1 X24.35 Y11.52 Z0.46 F1080.0
G1 X24.35 Y15.56 Z0.46 F1080.0
G1 X23.96 Y15.56 Z0.46 F1080.0
G1 X23.96 Y11.52 Z0.46 F1080.0
G1 X23.56 Y11.52 Z0.46 F1080.0
G1 X23.56 Y15.56 Z0.46 F1080.0
G1 X23.17 Y15.56 Z0.46 F1080.0
G1 X23.17 Y11.52 Z0.46 F1080.0
G1 X22.78 Y11.52 Z0.46 F1080.0
G1 X22.78 Y19.38 Z0.46 F1080.0
G1 X22.38 Y19.38 Z0.46 F1080.0
G1 X22.38 Y11.52 Z0.46 F1080.0
G1 X21.99 Y11.52 Z0.46 F1080.0
G1 X21.99 Y19.38 Z0.46 F1080.0
G1 X21.6 Y19.39 Z0.46 F1080.0
G1 X21.6 Y11.52 Z0.46 F1080.0
G1 X21.21 Y11.52 Z0.46 F1080.0
G1 X21.21 Y19.39 Z0.46 F1080.0
G1 X20.81 Y19.39 Z0.46 F1080.0
G1 X20.81 Y11.52 Z0.46 F1080.0
G1 X20.42 Y11.52 Z0.46 F1080.0
G1 X20.42 Y19.39 Z0.46 F1080.0
G1 X20.03 Y19.39 Z0.46 F1080.0
G1 X20.03 Y11.52 Z0.46 F1080.0
G1 X19.64 Y11.52 Z0.46 F1080.0
G1 X19.64 Y19.39 Z0.46 F1080.0
G1 X19.24 Y19.39 Z0.46 F1080.0
G1 X19.24 Y11.52 Z0.46 F1080.0
G1 X18.85 Y11.52 Z0.46 F1080.0
G1 X18.85 Y19.39 Z0.46 F1080.0
G1 X18.46 Y19.39 Z0.46 F1080.0
G1 X18.46 Y11.52 Z0.46 F1080.0
G1 X18.06 Y11.52 Z0.46 F1080.0
G1 X18.06 Y19.39 Z0.46 F1080.0
G1 X17.67 Y19.39 Z0.46 F1080.0
G1 X17.67 Y11.52 Z0.46 F1080.0
G1 X17.28 Y11.52 Z0.46 F1080.0
G1 X17.28 Y19.39 Z0.46 F1080.0
G1 X16.89 Y19.39 Z0.46 F1080.0
G1 X16.89 Y11.52 Z0.46 F1080.0
G1 X16.49 Y11.52 Z0.46 F1080.0
G1 X16.49 Y19.39 Z0.46 F1080.0
G1 X16.1 Y19.39 Z0.46 F1080.0
G1 X16.1 Y11.52 Z0.46 F1080.0
G1 X15.71 Y11.52 Z0.46 F1080.0
G1 X15.71 Y19.39 Z0.46 F1080.0
G1 X15.32 Y19.39 Z0.46 F1080.0
G1 X15.32 Y11.52 Z0.46 F1080.0
G1 X14.92 Y11.52 Z0.46 F1080.0
G1 X14.92 Y19.39 Z0.46 F1080.0
G1 X14.53 Y19.39 Z0.46 F1080.0
G1 X14.53 Y11.52 Z0.46 F1080.0
G1 X14.14 Y11.52 Z0.46 F1080.0
G1 X14.14 Y19.39 Z0.46 F1080.0
G1 X13.74 Y19.39 Z0.46 F1080.0
G1 X13.74 Y11.52 Z0.46 F1080.0
G1 X13.35 Y11.52 Z0.46 F1080.0
G1 X13.35 Y19.39 Z0.46 F1080.0
G1 X12.96 Y19.39 Z0.46 F1080.0
G1 X12.96 Y11.52 Z0.46 F1080.0
G1 X12.57 Y11.52 Z0.46 F1080.0
G1 X12.57 Y19.39 Z0.46 F1080.0
G1 X12.17 Y19.39 Z0.46 F1080.0
G1 X12.17 Y11.53 Z0.46 F1080.0
G1 X11.78 Y11.53 Z0.46 F1080.0
G1 X11.78 Y19.39 Z0.46 F1080.0
G1 X11.39 Y19.39 Z0.46 F1080.0
G1 X11.39 Y11.53 Z0.46 F1080.0
G1 X11.0 Y11.53 Z0.46 F1080.0
G1 X11.0 Y19.39 Z0.46 F1080.0
G1 X10.6 Y19.39 Z0.46 F1080.0
G1 X10.6 Y11.53 Z0.46 F1080.0
G1 X10.21 Y11.53 Z0.46 F1080.0
G1 X10.21 Y19.39 Z0.46 F1080.0
G1 X9.82 Y19.39 Z0.46 F1080.0
G1 X9.82 Y11.53 Z0.46 F1080.0
G1 X9.43 Y11.53 Z0.46 F1080.0
G1 X9.43 Y19.39 Z0.46 F1080.0
G1 X9.03 Y19.39 Z0.46 F1080.0
G1 X9.03 Y11.53 Z0.46 F1080.0
G1 X8.64 Y11.53 Z0.46 F1080.0
G1 X8.64 Y19.39 Z0.46 F1080.0
G1 X8.25 Y19.39 Z0.46 F1080.0
G1 X8.25 Y11.53 Z0.46 F1080.0
G1 X7.85 Y11.53 Z0.46 F1080.0
G1 X7.85 Y19.39 Z0.46 F1080.0
G1 X7.46 Y19.39 Z0.46 F1080.0
G1 X7.46 Y11.53 Z0.46 F1080.0
G1 X7.07 Y11.53 Z0.46 F1080.0
G1 X7.07 Y19.39 Z0.46 F1080.0
G1 X6.68 Y19.4 Z0.46 F1080.0
G1 X6.68 Y11.53 Z0.46 F1080.0
G1 X6.28 Y11.53 Z0.46 F1080.0
G1 X6.28 Y19.4 Z0.46 F1080.0
G1 X5.89 Y19.4 Z0.46 F1080.0
G1 X5.89 Y11.53 Z0.46 F1080.0
G1 X5.5 Y11.53 Z0.46 F1080.0
G1 X5.5 Y19.4 Z0.46 F1080.0
G1 X5.11 Y19.4 Z0.46 F1080.0
G1 X5.11 Y11.53 Z0.46 F1080.0
G1 X4.71 Y11.53 Z0.46 F1080.0
G1 X4.71 Y19.4 Z0.46 F1080.0
G1 X4.32 Y19.4 Z0.46 F1080.0
G1 X4.32 Y11.53 Z0.46 F1080.0
G1 X3.93 Y11.53 Z0.46 F1080.0
G1 X3.93 Y19.4 Z0.46 F1080.0
G1 X3.53 Y19.4 Z0.46 F1080.0
G1 X3.53 Y11.53 Z0.46 F1080.0
G1 X3.14 Y11.53 Z0.46 F1080.0
G1 X3.14 Y19.4 Z0.46 F1080.0
G1 X2.75 Y19.4 Z0.46 F1080.0
G1 X2.75 Y11.53 Z0.46 F1080.0
G1 X2.36 Y11.53 Z0.46 F1080.0
G1 X2.36 Y19.4 Z0.46 F1080.0
G1 X1.96 Y19.4 Z0.46 F1080.0
G1 X1.96 Y11.53 Z0.46 F1080.0
G1 X1.57 Y11.53 Z0.46 F1080.0
G1 X1.57 Y19.4 Z0.46 F1080.0
G1 X1.18 Y19.4 Z0.46 F1080.0
G1 X1.18 Y11.53 Z0.46 F1080.0
G1 X0.79 Y11.53 Z0.46 F1080.0
G1 X0.79 Y19.4 Z0.46 F1080.0
G1 X0.39 Y19.4 Z0.46 F1080.0
G1 X0.39 Y11.53 Z0.46 F1080.0
G1 X0.0 Y11.53 Z0.46 F1080.0
G1 X0.0 Y19.4 Z0.46 F1080.0
G1 X-0.39 Y19.4 Z0.46 F1080.0
G1 X-0.39 Y11.53 Z0.46 F1080.0
G1 X-0.79 Y11.53 Z0.46 F1080.0
G1 X-0.79 Y19.4 Z0.46 F1080.0
G1 X-1.18 Y19.4 Z0.46 F1080.0
G1 X-1.18 Y11.53 Z0.46 F1080.0
G1 X-1.57 Y11.53 Z0.46 F1080.0
G1 X-1.57 Y19.4 Z0.46 F1080.0
G1 X-1.96 Y19.4 Z0.46 F1080.0
G1 X-1.96 Y11.53 Z0.46 F1080.0
G1 X-2.36 Y11.53 Z0.46 F1080.0
G1 X-2.36 Y19.4 Z0.46 F1080.0
G1 X-2.75 Y19.4 Z0.46 F1080.0
G1 X-2.75 Y11.54 Z0.46 F1080.0
G1 X-3.14 Y11.54 Z0.46 F1080.0
G1 X-3.14 Y19.4 Z0.46 F1080.0
G1 X-3.53 Y19.4 Z0.46 F1080.0
G1 X-3.53 Y11.54 Z0.46 F1080.0
G1 X-3.93 Y11.54 Z0.46 F1080.0
G1 X-3.93 Y19.4 Z0.46 F1080.0
G1 X-4.32 Y19.4 Z0.46 F1080.0
G1 X-4.32 Y11.54 Z0.46 F1080.0
G1 X-4.71 Y11.54 Z0.46 F1080.0
G1 X-4.71 Y19.4 Z0.46 F1080.0
G1 X-5.11 Y19.4 Z0.46 F1080.0
G1 X-5.11 Y11.54 Z0.46 F1080.0
G1 X-5.5 Y11.54 Z0.46 F1080.0
G1 X-5.5 Y19.4 Z0.46 F1080.0
G1 X-5.89 Y19.4 Z0.46 F1080.0
G1 X-5.89 Y11.54 Z0.46 F1080.0
G1 X-6.28 Y11.54 Z0.46 F1080.0
G1 X-6.28 Y19.4 Z0.46 F1080.0
G1 X-6.68 Y19.4 Z0.46 F1080.0
G1 X-6.68 Y11.54 Z0.46 F1080.0
G1 X-7.07 Y11.54 Z0.46 F1080.0
G1 X-7.07 Y19.4 Z0.46 F1080.0
G1 X-7.46 Y19.4 Z0.46 F1080.0
G1 X-7.46 Y11.54 Z0.46 F1080.0
G1 X-7.85 Y11.54 Z0.46 F1080.0
G1 X-7.85 Y19.4 Z0.46 F1080.0
G1 X-8.25 Y19.41 Z0.46 F1080.0
G1 X-8.25 Y11.54 Z0.46 F1080.0
G1 X-8.64 Y11.54 Z0.46 F1080.0
G1 X-8.64 Y19.41 Z0.46 F1080.0
G1 X-9.03 Y19.41 Z0.46 F1080.0
G1 X-9.03 Y11.54 Z0.46 F1080.0
G1 X-9.43 Y11.54 Z0.46 F1080.0
G1 X-9.43 Y19.41 Z0.46 F1080.0
G1 X-9.82 Y19.41 Z0.46 F1080.0
G1 X-9.82 Y11.54 Z0.46 F1080.0
G1 X-10.21 Y11.54 Z0.46 F1080.0
G1 X-10.21 Y19.41 Z0.46 F1080.0
G1 X-10.6 Y19.41 Z0.46 F1080.0
G1 X-10.6 Y11.54 Z0.46 F1080.0
G1 X-11.0 Y11.54 Z0.46 F1080.0
G1 X-11.0 Y19.41 Z0.46 F1080.0
G1 X-11.39 Y19.41 Z0.46 F1080.0
G1 X-11.39 Y11.54 Z0.46 F1080.0
G1 X-11.78 Y11.54 Z0.46 F1080.0
G1 X-11.78 Y19.41 Z0.46 F1080.0
G1 X-12.17 Y19.41 Z0.46 F1080.0
G1 X-12.17 Y11.54 Z0.46 F1080.0
G1 X-12.57 Y11.54 Z0.46 F1080.0
G1 X-12.57 Y19.41 Z0.46 F1080.0
G1 X-12.96 Y19.41 Z0.46 F1080.0
G1 X-12.96 Y11.54 Z0.46 F1080.0
G1 X-13.35 Y11.54 Z0.46 F1080.0
G1 X-13.35 Y19.41 Z0.46 F1080.0
G1 X-13.74 Y19.41 Z0.46 F1080.0
G1 X-13.74 Y11.54 Z0.46 F1080.0
G1 X-14.14 Y11.54 Z0.46 F1080.0
G1 X-14.14 Y19.41 Z0.46 F1080.0
G1 X-14.53 Y19.41 Z0.46 F1080.0
G1 X-14.53 Y11.54 Z0.46 F1080.0
G1 X-14.92 Y11.54 Z0.46 F1080.0
G1 X-14.92 Y19.41 Z0.46 F1080.0
G1 X-15.32 Y19.41 Z0.46 F1080.0
G1 X-15.32 Y11.54 Z0.46 F1080.0
G1 X-15.71 Y11.54 Z0.46 F1080.0
G1 X-15.71 Y19.41 Z0.46 F1080.0
G1 X-16.1 Y19.41 Z0.46 F1080.0
G1 X-16.1 Y11.54 Z0.46 F1080.0
G1 X-16.49 Y11.54 Z0.46 F1080.0
G1 X-16.49 Y19.41 Z0.46 F1080.0
G1 X-16.89 Y19.41 Z0.46 F1080.0
G1 X-16.89 Y11.54 Z0.46 F1080.0
G1 X-17.28 Y11.54 Z0.46 F1080.0
G1 X-17.28 Y19.41 Z0.46 F1080.0
G1 X-17.67 Y19.41 Z0.46 F1080.0
G1 X-17.67 Y11.55 Z0.46 F1080.0
G1 X-18.06 Y11.55 Z0.46 F1080.0
G1 X-18.06 Y19.41 Z0.46 F1080.0
G1 X-18.46 Y19.41 Z0.46 F1080.0
G1 X-18.46 Y11.55 Z0.46 F1080.0
G1 X-18.85 Y11.55 Z0.46 F1080.0
G1 X-18.85 Y19.41 Z0.46 F1080.0
G1 X-19.24 Y19.41 Z0.46 F1080.0
G1 X-19.24 Y11.82 Z0.46 F1080.0
M108 R30.0
M102
G1 X-19.24 Y11.55 Z0.46 F1080.0
M108 R2.141
M103
G1 X32.9 Y15.51 Z0.46 F1800.0
M108 R30.0
M101
G1 X33.38 Y15.55 Z0.46 F1800.0
M108 R2.141
G1 X33.38 Y11.51 Z0.46 F1080.0
G1 X32.99 Y11.51 Z0.46 F1080.0
G1 X32.99 Y15.28 Z0.46 F1080.0
M108 R30.0
M102
G1 X32.99 Y15.55 Z0.46 F1080.0
M108 R2.141
M103
G1 X33.69 Y15.55 Z0.46 F1800.0
M108 R30.0
M101
G1 X34.17 Y15.55 Z0.46 F1800.0
M108 R2.141
G1 X34.17 Y11.51 Z0.46 F1080.0
G1 X33.77 Y11.51 Z0.46 F1080.0
G1 X33.77 Y15.28 Z0.46 F1080.0
M108 R30.0
M102
G1 X33.77 Y15.55 Z0.46 F1080.0
M108 R2.141
M103
G1 X34.47 Y15.55 Z0.46 F1800.0
M108 R30.0
M101
G1 X34.95 Y15.55 Z0.46 F1800.0
M108 R2.141
G1 X34.95 Y11.51 Z0.46 F1080.0
G1 X34.56 Y11.51 Z0.46 F1080.0
G1 X34.56 Y15.28 Z0.46 F1080.0
M108 R30.0
M102
G1 X34.56 Y15.55 Z0.46 F1080.0
M108 R2.141
M103
G1 X35.26 Y15.55 Z0.46 F1800.0
M108 R30.0
M101
G1 X35.74 Y15.55 Z0.46 F1800.0
M108 R2.141
G1 X35.74 Y11.51 Z0.46 F1080.0
G1 X35.34 Y11.51 Z0.46 F1080.0
G1 X35.34 Y15.28 Z0.46 F1080.0
M108 R30.0
M102
G1 X35.34 Y15.55 Z0.46 F1080.0
M108 R2.141
M103
G1 X36.04 Y15.55 Z0.46 F1800.0
M108 R30.0
M101
G1 X36.52 Y15.55 Z0.46 F1800.0
M108 R2.141
G1 X36.52 Y11.51 Z0.46 F1080.0
G1 X36.13 Y11.51 Z0.46 F1080.0
G1 X36.13 Y15.28 Z0.46 F1080.0
M108 R30.0
M102
G1 X36.13 Y15.55 Z0.46 F1080.0
M108 R2.141
M103
G1 X36.83 Y15.55 Z0.46 F1800.0
M108 R30.0
M101
G1 X37.31 Y15.55 Z0.46 F1800.0
M108 R2.141
G1 X37.31 Y11.51 Z0.46 F1080.0
G1 X36.91 Y11.51 Z0.46 F1080.0
G1 X36.91 Y15.28 Z0.46 F1080.0
M108 R30.0
M102
G1 X36.91 Y15.55 Z0.46 F1080.0
M108 R2.141
M103
G1 X37.61 Y15.55 Z0.46 F1800.0
M108 R30.0
M101
G1 X38.09 Y15.55 Z0.46 F1800.0
M108 R2.141
G1 X38.09 Y11.51 Z0.46 F1080.0
G1 X37.7 Y11.51 Z0.46 F1080.0
G1 X37.7 Y15.28 Z0.46 F1080.0
M108 R30.0
M102
G1 X37.7 Y15.55 Z0.46 F1080.0
M108 R2.141
M103
G1 X38.4 Y15.55 Z0.46 F1800.0
M108 R30.0
M101
G1 X38.88 Y15.55 Z0.46 F1800.0
M108 R2.141
G1 X38.88 Y11.51 Z0.46 F1080.0
G1 X38.49 Y11.51 Z0.46 F1080.0
G1 X38.49 Y15.28 Z0.46 F1080.0
M108 R30.0
M102
G1 X38.49 Y15.55 Z0.46 F1080.0
M108 R2.141
M103
G1 X39.18 Y15.55 Z0.46 F1800.0
M108 R30.0
M101
G1 X39.66 Y15.55 Z0.46 F1800.0
M108 R2.141
G1 X39.66 Y11.51 Z0.46 F1080.0
G1 X39.27 Y11.51 Z0.46 F1080.0
G1 X39.27 Y15.28 Z0.46 F1080.0
M108 R30.0
M102
G1 X39.27 Y15.55 Z0.46 F1080.0
M108 R2.141
M103
G1 X39.94 Y12.95 Z0.46 F1800.0
M108 R30.0
M101
G1 X40.06 Y12.48 Z0.46 F1800.0
M108 R2.141
G1 X40.06 Y15.55 Z0.46 F1080.0
M103
G1 X40.84 Y15.55 Z0.46 F1800.0
M101
G1 X40.84 Y15.1 Z0.46 F1080.0
G1 X40.45 Y15.55 Z0.46 F1080.0
G1 X40.45 Y13.79 Z0.46 F1080.0
M103
(</surroundingLoop>)
(</layer>)
(<layer> 0.78 )
(<surroundingLoop>)
(<boundaryPerimeter>)
(<boundaryPoint> X-22.66 Y19.015 Z0.78 </boundaryPoint>)
(<boundaryPoint> X-22.662 Y16.432 Z0.78 </boundaryPoint>)
(<boundaryPoint> X-38.77 Y16.443 Z0.78 </boundaryPoint>)
(<boundaryPoint> X-40.378 Y11.088 Z0.78 </boundaryPoint>)
(<boundaryPoint> X-40.4 Y10.782 Z0.78 </boundaryPoint>)
(<boundaryPoint> X-40.101 Y10.715 Z0.78 </boundaryPoint>)
(<boundaryPoint> X40.391 Y10.661 Z0.78 </boundaryPoint>)
(<boundaryPoint> X41.999 Y16.016 Z0.78 </boundaryPoint>)
(<boundaryPoint> X42.021 Y16.322 Z0.78 </boundaryPoint>)
(<boundaryPoint> X41.722 Y16.389 Z0.78 </boundaryPoint>)
(<boundaryPoint> X23.967 Y16.401 Z0.78 </boundaryPoint>)
(<boundaryPoint> X23.968 Y18.984 Z0.78 </boundaryPoint>)
(<boundaryPoint> X42.886 Y18.971 Z0.78 </boundaryPoint>)
(<boundaryPoint> X43.147 Y19.842 Z0.78 </boundaryPoint>)
(<boundaryPoint> X43.169 Y20.148 Z0.78 </boundaryPoint>)
(<boundaryPoint> X42.87 Y20.215 Z0.78 </boundaryPoint>)
(<boundaryPoint> X-37.622 Y20.269 Z0.78 </boundaryPoint>)
(<boundaryPoint> X-37.883 Y19.398 Z0.78 </boundaryPoint>)
(<boundaryPoint> X-37.905 Y19.092 Z0.78 </boundaryPoint>)
(<boundaryPoint> X-37.606 Y19.025 Z0.78 </boundaryPoint>)
(<loop> outer )
M108 R3.569
G1 X40.63 Y13.52 Z0.78 F3000.0
M101
G1 X40.69 Y13.71 Z0.78 F1800.0
G1 X41.32 Y15.8 Z0.78 F1800.0
G1 X23.38 Y15.81 Z0.78 F1800.0
G1 X23.38 Y19.06 Z0.78 F1800.0
G1 X22.99 Y19.64 Z0.78 F1800.0
G1 X-21.62 Y19.67 Z0.78 F1800.0
G1 X-22.07 Y19.08 Z0.78 F1800.0
G1 X-22.07 Y15.84 Z0.78 F1800.0
G1 X-38.33 Y15.85 Z0.78 F1800.0
G1 X-39.7 Y11.3 Z0.78 F1800.0
G1 X39.95 Y11.25 Z0.78 F1800.0
G1 X40.63 Y13.52 Z0.78 F1800.0
M103
(</loop>)
(<perimeter> outer )
G1 X41.01 Y13.4 Z0.78 F3000.0
M101
G1 X41.07 Y13.6 Z0.78 F1800.0
G1 X41.82 Y16.1 Z0.78 F1800.0
G1 X41.92 Y16.25 Z0.78 F1800.0
G1 X41.75 Y16.19 Z0.78 F1800.0
G1 X23.77 Y16.2 Z0.78 F1800.0
G1 X23.77 Y19.18 Z0.78 F1800.0
G1 X42.74 Y19.17 Z0.78 F1800.0
G1 X42.97 Y19.93 Z0.78 F1800.0
G1 X43.07 Y20.08 Z0.78 F1800.0
G1 X42.9 Y20.02 Z0.78 F1800.0
G1 X-37.48 Y20.07 Z0.78 F1800.0
G1 X-37.7 Y19.31 Z0.78 F1800.0
G1 X-37.81 Y19.17 Z0.78 F1800.0
G1 X-37.64 Y19.22 Z0.78 F1800.0
G1 X-22.46 Y19.21 Z0.78 F1800.0
G1 X-22.47 Y16.24 Z0.78 F1800.0
G1 X-38.62 Y16.25 Z0.78 F1800.0
G1 X-40.2 Y11.0 Z0.78 F1800.0
G1 X-40.3 Y10.86 Z0.78 F1800.0
G1 X-40.13 Y10.91 Z0.78 F1800.0
G1 X40.24 Y10.86 Z0.78 F1800.0
G1 X40.88 Y12.97 Z0.78 F1800.0
M108 R30.0
M102
G1 X41.01 Y13.4 Z0.78 F1800.0
M108 R3.569
M103
(</perimeter>)
(</boundaryPerimeter>)
G1 X-37.9 Y13.74 Z0.78 F3000.0
M108 R30.0
M101
G1 X-38.7 Y13.74 Z0.78 F3000.0
M108 R3.569
G1 X40.44 Y13.74 Z0.78 F1800.0
M103
G1 X40.32 Y13.35 Z0.78 F3000.0
M101
G1 X-38.82 Y13.35 Z0.78 F1800.0
M103
G1 X-38.93 Y12.96 Z0.78 F3000.0
M101
G1 X39.75 Y12.96 Z0.78 F1800.0
M108 R30.0
M102
G1 X40.2 Y12.96 Z0.78 F1800.0
M108 R3.569
M103
G1 X40.08 Y12.55 Z0.78 F3000.0
M108 R30.0
M101
G1 X39.85 Y11.78 Z0.78 F3000.0
M108 R3.569
G1 X-39.29 Y11.78 Z0.78 F1800.0
M103
G1 X-39.17 Y12.17 Z0.78 F3000.0
M101
G1 X39.96 Y12.17 Z0.78 F1800.0
G1 X40.08 Y12.57 Z0.78 F1800.0
G1 X-38.6 Y12.57 Z0.78 F1800.0
M108 R30.0
M102
G1 X-39.05 Y12.57 Z0.78 F1800.0
M108 R3.569
M103
G1 X-38.81 Y13.37 Z0.78 F3000.0
M108 R30.0
M101
G1 X-38.58 Y14.14 Z0.78 F3000.0
M108 R3.569
G1 X40.55 Y14.14 Z0.78 F1800.0
G1 X40.67 Y14.53 Z0.78 F1800.0
G1 X-38.01 Y14.53 Z0.78 F1800.0
M108 R30.0
M102
G1 X-38.46 Y14.53 Z0.78 F1800.0
M108 R3.569
M103
G1 X39.99 Y14.92 Z0.78 F3000.0
M108 R30.0
M101
G1 X40.79 Y14.92 Z0.78 F3000.0
M108 R3.569
G1 X-38.35 Y14.92 Z0.78 F1800.0
M103
G1 X-38.23 Y15.32 Z0.78 F3000.0
M101
G1 X40.46 Y15.32 Z0.78 F1800.0
M108 R30.0
M102
G1 X40.91 Y15.32 Z0.78 F1800.0
M108 R3.569
M103
G1 X-21.02 Y15.7 Z0.78 F3000.0
M108 R30.0
M101
G1 X-21.82 Y15.71 Z0.78 F3000.0
M108 R3.569
G1 X22.67 Y15.71 Z0.78 F1800.0
M108 R30.0
M102
G1 X23.12 Y15.71 Z0.78 F1800.0
M108 R3.569
M103
G1 X22.99 Y18.44 Z0.78 F3000.0
M108 R30.0
M101
G1 X22.95 Y19.24 Z0.78 F3000.0
M108 R3.569
G1 X-21.62 Y19.24 Z0.78 F1800.0
G1 X-21.82 Y18.85 Z0.78 F1800.0
G1 X23.12 Y18.85 Z0.78 F1800.0
G1 X23.12 Y18.46 Z0.78 F1800.0
G1 X-21.82 Y18.46 Z0.78 F1800.0
M103
G1 X-21.82 Y18.06 Z0.78 F3000.0
M101
G1 X23.12 Y18.06 Z0.78 F1800.0
G1 X23.12 Y17.67 Z0.78 F1800.0
G1 X-21.82 Y17.67 Z0.78 F1800.0
M103
G1 X-21.82 Y17.28 Z0.78 F3000.0
M101
G1 X23.12 Y17.28 Z0.78 F1800.0
G1 X23.12 Y16.89 Z0.78 F1800.0
G1 X-21.82 Y16.89 Z0.78 F1800.0
M103
G1 X-21.82 Y16.49 Z0.78 F3000.0
M101
G1 X23.12 Y16.49 Z0.78 F1800.0
G1 X23.12 Y16.1 Z0.78 F1800.0
G1 X-21.37 Y16.1 Z0.78 F1800.0
M108 R30.0
M102
G1 X-21.82 Y16.1 Z0.78 F1800.0
M108 R3.569
M103
(</surroundingLoop>)
(<surroundingLoop>)
(<boundaryPerimeter>)
(<boundaryPoint> X32.172 Y-16.724 Z0.78 </boundaryPoint>)
(<boundaryPoint> X33.657 Y-11.777 Z0.78 </boundaryPoint>)
(<boundaryPoint> X-40.555 Y10.498 Z0.78 </boundaryPoint>)
(<boundaryPoint> X-42.04 Y5.55 Z0.78 </boundaryPoint>)
(<loop> outer )
G1 X-24.66 Y5.95 Z0.78 F3000.0
M108 R30.0
M101
G1 X-24.88 Y5.18 Z0.78 F3000.0
M108 R3.569
G1 X-25.08 Y5.24 Z0.78 F1800.0
G1 X-40.16 Y9.76 Z0.78 F1800.0
G1 X-41.31 Y5.95 Z0.78 F1800.0
G1 X31.78 Y-15.99 Z0.78 F1800.0
G1 X32.92 Y-12.17 Z0.78 F1800.0
G1 X-24.88 Y5.18 Z0.78 F1800.0
M103
(</loop>)
(<perimeter> outer )
G1 X-24.77 Y5.55 Z0.78 F3000.0
M101
G1 X-24.97 Y5.61 Z0.78 F1800.0
G1 X-40.42 Y10.25 Z0.78 F1800.0
G1 X-41.8 Y5.68 Z0.78 F1800.0
G1 X32.04 Y-16.48 Z0.78 F1800.0
G1 X33.41 Y-11.91 Z0.78 F1800.0
G1 X-24.77 Y5.55 Z0.78 F1800.0
M103
(</perimeter>)
(</boundaryPerimeter>)
G1 X-25.53 Y5.11 Z0.78 F3000.0
M101
G1 X-37.17 Y5.11 Z0.78 F1800.0
M108 R30.0
M102
G1 X-37.62 Y5.11 Z0.78 F1800.0
M108 R3.569
M103
G1 X-37.08 Y4.94 Z0.78 F3000.0
M108 R30.0
M101
G1 X-36.31 Y4.71 Z0.78 F3000.0
M108 R3.569
G1 X-24.67 Y4.71 Z0.78 F1800.0
M108 R30.0
M102
G1 X-24.22 Y4.71 Z0.78 F1800.0
M108 R3.569
M103
G1 X-23.68 Y4.55 Z0.78 F3000.0
M108 R30.0
M101
G1 X-22.91 Y4.32 Z0.78 F3000.0
M108 R3.569
G1 X-34.55 Y4.32 Z0.78 F1800.0
M108 R30.0
M102
G1 X-35.0 Y4.32 Z0.78 F1800.0
M108 R3.569
M103
G1 X-34.46 Y4.16 Z0.78 F3000.0
M108 R30.0
M101
G1 X-33.69 Y3.93 Z0.78 F3000.0
M108 R3.569
G1 X-22.05 Y3.93 Z0.78 F1800.0
M108 R30.0
M102
G1 X-21.6 Y3.93 Z0.78 F1800.0
M108 R3.569
M103
G1 X-21.06 Y3.76 Z0.78 F3000.0
M108 R30.0
M101
G1 X-20.29 Y3.53 Z0.78 F3000.0
M108 R3.569
G1 X-31.94 Y3.53 Z0.78 F1800.0
M108 R30.0
M102
G1 X-32.39 Y3.53 Z0.78 F1800.0
M108 R3.569
M103
G1 X-31.84 Y3.37 Z0.78 F3000.0
M108 R30.0
M101
G1 X-31.08 Y3.14 Z0.78 F3000.0
M108 R3.569
G1 X-19.43 Y3.14 Z0.78 F1800.0
M108 R30.0
M102
G1 X-18.98 Y3.14 Z0.78 F1800.0
M108 R3.569
M103
G1 X-18.44 Y2.98 Z0.78 F3000.0
M108 R30.0
M101
G1 X-17.68 Y2.75 Z0.78 F3000.0
M108 R3.569
G1 X-29.32 Y2.75 Z0.78 F1800.0
M108 R30.0
M102
G1 X-29.77 Y2.75 Z0.78 F1800.0
M108 R3.569
M103
G1 X-29.23 Y2.59 Z0.78 F3000.0
M108 R30.0
M101
G1 X-28.46 Y2.36 Z0.78 F3000.0
M108 R3.569
G1 X-16.82 Y2.36 Z0.78 F1800.0
M108 R30.0
M102
G1 X-16.37 Y2.36 Z0.78 F1800.0
M108 R3.569
M103
G1 X-15.83 Y2.19 Z0.78 F3000.0
M108 R30.0
M101
G1 X-15.06 Y1.96 Z0.78 F3000.0
M108 R3.569
G1 X-26.7 Y1.96 Z0.78 F1800.0
M108 R30.0
M102
G1 X-27.15 Y1.96 Z0.78 F1800.0
M108 R3.569
M103
G1 X-26.61 Y1.8 Z0.78 F3000.0
M108 R30.0
M101
G1 X-25.84 Y1.57 Z0.78 F3000.0
M108 R3.569
G1 X-14.2 Y1.57 Z0.78 F1800.0
M108 R30.0
M102
G1 X-13.75 Y1.57 Z0.78 F1800.0
M108 R3.569
M103
G1 X-13.21 Y1.41 Z0.78 F3000.0
M108 R30.0
M101
G1 X-12.44 Y1.18 Z0.78 F3000.0
M108 R3.569
G1 X-24.09 Y1.18 Z0.78 F1800.0
M108 R30.0
M102
G1 X-24.54 Y1.18 Z0.78 F1800.0
M108 R3.569
M103
G1 X-23.99 Y1.01 Z0.78 F3000.0
M108 R30.0
M101
G1 X-23.23 Y0.79 Z0.78 F3000.0
M108 R3.569
G1 X-11.58 Y0.79 Z0.78 F1800.0
M108 R30.0
M102
G1 X-11.13 Y0.79 Z0.78 F1800.0
M108 R3.569
M103
G1 X-10.59 Y0.62 Z0.78 F3000.0
M108 R30.0
M101
G1 X-9.83 Y0.39 Z0.78 F3000.0
M108 R3.569
G1 X-21.47 Y0.39 Z0.78 F1800.0
M108 R30.0
M102
G1 X-21.92 Y0.39 Z0.78 F1800.0
M108 R3.569
M103
G1 X-21.38 Y0.23 Z0.78 F3000.0
M108 R30.0
M101
G1 X-20.61 Y0.0 Z0.78 F3000.0
M108 R3.569
G1 X-8.97 Y0.0 Z0.78 F1800.0
M108 R30.0
M102
G1 X-8.52 Y0.0 Z0.78 F1800.0
M108 R3.569
M103
G1 X-7.98 Y-0.16 Z0.78 F3000.0
M108 R30.0
M101
G1 X-7.21 Y-0.39 Z0.78 F3000.0
M108 R3.569
G1 X-18.85 Y-0.39 Z0.78 F1800.0
M108 R30.0
M102
G1 X-19.3 Y-0.39 Z0.78 F1800.0
M108 R3.569
M103
G1 X-18.76 Y-0.56 Z0.78 F3000.0
M108 R30.0
M101
G1 X-17.99 Y-0.79 Z0.78 F3000.0
M108 R3.569
G1 X-6.35 Y-0.79 Z0.78 F1800.0
M108 R30.0
M102
G1 X-5.9 Y-0.79 Z0.78 F1800.0
M108 R3.569
M103
G1 X-5.36 Y-0.95 Z0.78 F3000.0
M108 R30.0
M101
G1 X-4.59 Y-1.18 Z0.78 F3000.0
M108 R3.569
G1 X-16.24 Y-1.18 Z0.78 F1800.0
M108 R30.0
M102
G1 X-16.68 Y-1.18 Z0.78 F1800.0
M108 R3.569
M103
G1 X-16.14 Y-1.34 Z0.78 F3000.0
M108 R30.0
M101
G1 X-15.38 Y-1.57 Z0.78 F3000.0
M108 R3.569
G1 X-3.73 Y-1.57 Z0.78 F1800.0
M108 R30.0
M102
G1 X-3.28 Y-1.57 Z0.78 F1800.0
M108 R3.569
M103
G1 X-2.74 Y-1.73 Z0.78 F3000.0
M108 R30.0
M101
G1 X-1.98 Y-1.96 Z0.78 F3000.0
M108 R3.569
G1 X-13.62 Y-1.96 Z0.78 F1800.0
M108 R30.0
M102
G1 X-14.07 Y-1.96 Z0.78 F1800.0
M108 R3.569
M103
G1 X-13.53 Y-2.13 Z0.78 F3000.0
M108 R30.0
M101
G1 X-12.76 Y-2.36 Z0.78 F3000.0
M108 R3.569
G1 X-1.12 Y-2.36 Z0.78 F1800.0
M108 R30.0
M102
G1 X-0.67 Y-2.36 Z0.78 F1800.0
M108 R3.569
M103
G1 X-0.13 Y-2.52 Z0.78 F3000.0
M108 R30.0
M101
G1 X0.64 Y-2.75 Z0.78 F3000.0
M108 R3.569
G1 X-11.0 Y-2.75 Z0.78 F1800.0
M108 R30.0
M102
G1 X-11.45 Y-2.75 Z0.78 F1800.0
M108 R3.569
M103
G1 X-10.91 Y-2.91 Z0.78 F3000.0
M108 R30.0
M101
G1 X-10.14 Y-3.14 Z0.78 F3000.0
M108 R3.569
G1 X1.5 Y-3.14 Z0.78 F1800.0
M108 R30.0
M102
G1 X1.95 Y-3.14 Z0.78 F1800.0
M108 R3.569
M103
G1 X2.49 Y-3.3 Z0.78 F3000.0
M108 R30.0
M101
G1 X3.26 Y-3.53 Z0.78 F3000.0
M108 R3.569
G1 X-8.39 Y-3.53 Z0.78 F1800.0
M108 R30.0
M102
G1 X-8.84 Y-3.53 Z0.78 F1800.0
M108 R3.569
M103
G1 X-8.29 Y-3.7 Z0.78 F3000.0
M108 R30.0
M101
G1 X-7.53 Y-3.93 Z0.78 F3000.0
M108 R3.569
G1 X4.12 Y-3.93 Z0.78 F1800.0
M108 R30.0
M102
G1 X4.57 Y-3.93 Z0.78 F1800.0
M108 R3.569
M103
G1 X5.11 Y-4.09 Z0.78 F3000.0
M108 R30.0
M101
G1 X5.87 Y-4.32 Z0.78 F3000.0
M108 R3.569
G1 X-5.77 Y-4.32 Z0.78 F1800.0
M108 R30.0
M102
G1 X-6.22 Y-4.32 Z0.78 F1800.0
M108 R3.569
M103
G1 X-5.68 Y-4.48 Z0.78 F3000.0
M108 R30.0
M101
G1 X-4.91 Y-4.71 Z0.78 F3000.0
M108 R3.569
G1 X6.73 Y-4.71 Z0.78 F1800.0
M108 R30.0
M102
G1 X7.18 Y-4.71 Z0.78 F1800.0
M108 R3.569
M103
G1 X7.73 Y-4.88 Z0.78 F3000.0
M108 R30.0
M101
G1 X8.49 Y-5.11 Z0.78 F3000.0
M108 R3.569
G1 X-3.15 Y-5.11 Z0.78 F1800.0
M108 R30.0
M102
G1 X-3.6 Y-5.11 Z0.78 F1800.0
M108 R3.569
M103
G1 X-3.06 Y-5.27 Z0.78 F3000.0
M108 R30.0
M101
G1 X-2.29 Y-5.5 Z0.78 F3000.0
M108 R3.569
G1 X9.35 Y-5.5 Z0.78 F1800.0
M108 R30.0
M102
G1 X9.8 Y-5.5 Z0.78 F1800.0
M108 R3.569
M103
G1 X10.34 Y-5.66 Z0.78 F3000.0
M108 R30.0
M101
G1 X11.11 Y-5.89 Z0.78 F3000.0
M108 R3.569
G1 X-0.54 Y-5.89 Z0.78 F1800.0
M108 R30.0
M102
G1 X-0.99 Y-5.89 Z0.78 F1800.0
M108 R3.569
M103
G1 X-0.44 Y-6.05 Z0.78 F3000.0
M108 R30.0
M101
G1 X0.32 Y-6.28 Z0.78 F3000.0
M108 R3.569
G1 X11.97 Y-6.28 Z0.78 F1800.0
M108 R30.0
M102
G1 X12.42 Y-6.28 Z0.78 F1800.0
M108 R3.569
M103
G1 X12.96 Y-6.45 Z0.78 F3000.0
M108 R30.0
M101
G1 X13.72 Y-6.68 Z0.78 F3000.0
M108 R3.569
G1 X2.08 Y-6.68 Z0.78 F1800.0
M108 R30.0
M102
G1 X1.63 Y-6.68 Z0.78 F1800.0
M108 R3.569
M103
G1 X2.17 Y-6.84 Z0.78 F3000.0
M108 R30.0
M101
G1 X2.94 Y-7.07 Z0.78 F3000.0
M108 R3.569
G1 X14.58 Y-7.07 Z0.78 F1800.0
M108 R30.0
M102
G1 X15.03 Y-7.07 Z0.78 F1800.0
M108 R3.569
M103
G1 X15.58 Y-7.23 Z0.78 F3000.0
M108 R30.0
M101
G1 X16.34 Y-7.46 Z0.78 F3000.0
M108 R3.569
G1 X4.7 Y-7.46 Z0.78 F1800.0
M108 R30.0
M102
G1 X4.25 Y-7.46 Z0.78 F1800.0
M108 R3.569
M103
G1 X4.79 Y-7.62 Z0.78 F3000.0
M108 R30.0
M101
G1 X5.56 Y-7.85 Z0.78 F3000.0
M108 R3.569
G1 X17.2 Y-7.85 Z0.78 F1800.0
M108 R30.0
M102
G1 X17.65 Y-7.85 Z0.78 F1800.0
M108 R3.569
M103
G1 X18.19 Y-8.02 Z0.78 F3000.0
M108 R30.0
M101
G1 X18.96 Y-8.25 Z0.78 F3000.0
M108 R3.569
G1 X7.32 Y-8.25 Z0.78 F1800.0
M108 R30.0
M102
G1 X6.87 Y-8.25 Z0.78 F1800.0
M108 R3.569
M103
G1 X7.41 Y-8.41 Z0.78 F3000.0
M108 R30.0
M101
G1 X8.17 Y-8.64 Z0.78 F3000.0
M108 R3.569
G1 X19.82 Y-8.64 Z0.78 F1800.0
M108 R30.0
M102
G1 X20.27 Y-8.64 Z0.78 F1800.0
M108 R3.569
M103
G1 X20.81 Y-8.8 Z0.78 F3000.0
M108 R30.0
M101
G1 X21.57 Y-9.03 Z0.78 F3000.0
M108 R3.569
G1 X9.93 Y-9.03 Z0.78 F1800.0
M108 R30.0
M102
G1 X9.48 Y-9.03 Z0.78 F1800.0
M108 R3.569
M103
G1 X10.03 Y-9.2 Z0.78 F3000.0
M108 R30.0
M101
G1 X10.79 Y-9.43 Z0.78 F3000.0
M108 R3.569
G1 X22.43 Y-9.43 Z0.78 F1800.0
M108 R30.0
M102
G1 X22.88 Y-9.43 Z0.78 F1800.0
M108 R3.569
M103
G1 X23.43 Y-9.59 Z0.78 F3000.0
M108 R30.0
M101
G1 X24.19 Y-9.82 Z0.78 F3000.0
M108 R3.569
G1 X12.55 Y-9.82 Z0.78 F1800.0
M108 R30.0
M102
G1 X12.1 Y-9.82 Z0.78 F1800.0
M108 R3.569
M103
G1 X12.64 Y-9.98 Z0.78 F3000.0
M108 R30.0
M101
G1 X13.41 Y-10.21 Z0.78 F3000.0
M108 R3.569
G1 X25.05 Y-10.21 Z0.78 F1800.0
M108 R30.0
M102
G1 X25.5 Y-10.21 Z0.78 F1800.0
M108 R3.569
M103
G1 X26.04 Y-10.37 Z0.78 F3000.0
M108 R30.0
M101
G1 X26.81 Y-10.6 Z0.78 F3000.0
M108 R3.569
G1 X15.17 Y-10.6 Z0.78 F1800.0
M108 R30.0
M102
G1 X14.72 Y-10.6 Z0.78 F1800.0
M108 R3.569
M103
G1 X15.26 Y-10.77 Z0.78 F3000.0
M108 R30.0
M101
G1 X16.02 Y-11.0 Z0.78 F3000.0
M108 R3.569
G1 X27.67 Y-11.0 Z0.78 F1800.0
M108 R30.0
M102
G1 X28.12 Y-11.0 Z0.78 F1800.0
M108 R3.569
M103
G1 X28.66 Y-11.16 Z0.78 F3000.0
M108 R30.0
M101
G1 X29.42 Y-11.39 Z0.78 F3000.0
M108 R3.569
G1 X17.78 Y-11.39 Z0.78 F1800.0
M108 R30.0
M102
G1 X17.33 Y-11.39 Z0.78 F1800.0
M108 R3.569
M103
G1 X17.88 Y-11.55 Z0.78 F3000.0
M108 R30.0
M101
G1 X18.64 Y-11.78 Z0.78 F3000.0
M108 R3.569
G1 X30.28 Y-11.78 Z0.78 F1800.0
M108 R30.0
M102
G1 X30.73 Y-11.78 Z0.78 F1800.0
M108 R3.569
M103
G1 X31.71 Y-13.1 Z0.78 F3000.0
M108 R30.0
M101
G1 X32.19 Y-13.74 Z0.78 F3000.0
M108 R3.569
G1 X25.63 Y-13.74 Z0.78 F1800.0
M108 R30.0
M102
G1 X25.18 Y-13.74 Z0.78 F1800.0
M108 R3.569
M103
G1 X23.33 Y-13.19 Z0.78 F3000.0
M108 R30.0
M101
G1 X22.57 Y-12.96 Z0.78 F3000.0
M108 R3.569
G1 X32.42 Y-12.96 Z0.78 F1800.0
G1 X32.3 Y-13.35 Z0.78 F1800.0
G1 X24.33 Y-13.35 Z0.78 F1800.0
M108 R30.0
M102
G1 X23.88 Y-13.35 Z0.78 F1800.0
M108 R3.569
M103
G1 X25.73 Y-13.91 Z0.78 F3000.0
M108 R30.0
M101
G1 X26.49 Y-14.14 Z0.78 F3000.0
M108 R3.569
G1 X32.07 Y-14.14 Z0.78 F1800.0
M103
G1 X31.95 Y-14.53 Z0.78 F3000.0
M101
G1 X28.25 Y-14.53 Z0.78 F1800.0
M108 R30.0
M102
G1 X27.8 Y-14.53 Z0.78 F1800.0
M108 R3.569
M103
G1 X28.34 Y-14.69 Z0.78 F3000.0
M108 R30.0
M101
G1 X29.11 Y-14.92 Z0.78 F3000.0
M108 R3.569
G1 X31.83 Y-14.92 Z0.78 F1800.0
M103
G1 X31.71 Y-15.32 Z0.78 F3000.0
M101
G1 X30.87 Y-15.32 Z0.78 F1800.0
M108 R30.0
M102
G1 X30.42 Y-15.32 Z0.78 F1800.0
M108 R3.569
M103
G1 X20.72 Y-12.4 Z0.78 F3000.0
M108 R30.0
M101
G1 X19.95 Y-12.17 Z0.78 F3000.0
M108 R3.569
G1 X32.04 Y-12.17 Z0.78 F1800.0
G1 X32.54 Y-12.57 Z0.78 F1800.0
G1 X21.71 Y-12.57 Z0.78 F1800.0
M108 R30.0
M102
G1 X21.26 Y-12.57 Z0.78 F1800.0
M108 R3.569
M103
G1 X-38.16 Y5.27 Z0.78 F3000.0
M108 R30.0
M101
G1 X-38.93 Y5.5 Z0.78 F3000.0
M108 R3.569
G1 X-27.28 Y5.5 Z0.78 F1800.0
M108 R30.0
M102
G1 X-26.83 Y5.5 Z0.78 F1800.0
M108 R3.569
M103
G1 X-27.38 Y5.66 Z0.78 F3000.0
M108 R30.0
M101
G1 X-28.14 Y5.89 Z0.78 F3000.0
M108 R3.569
G1 X-40.24 Y5.89 Z0.78 F1800.0
G1 X-40.94 Y6.28 Z0.78 F1800.0
G1 X-29.9 Y6.28 Z0.78 F1800.0
M108 R30.0
M102
G1 X-29.45 Y6.28 Z0.78 F1800.0
M108 R3.569
M103
G1 X-29.99 Y6.45 Z0.78 F3000.0
M108 R30.0
M101
G1 X-30.76 Y6.68 Z0.78 F3000.0
M108 R3.569
G1 X-40.82 Y6.68 Z0.78 F1800.0
M103
G1 X-40.7 Y7.07 Z0.78 F3000.0
M101
G1 X-32.52 Y7.07 Z0.78 F1800.0
M108 R30.0
M102
G1 X-32.07 Y7.07 Z0.78 F1800.0
M108 R3.569
M103
G1 X-32.61 Y7.23 Z0.78 F3000.0
M108 R30.0
M101
G1 X-33.38 Y7.46 Z0.78 F3000.0
M108 R3.569
G1 X-40.59 Y7.46 Z0.78 F1800.0
M103
G1 X-40.47 Y7.85 Z0.78 F3000.0
M101
G1 X-35.13 Y7.85 Z0.78 F1800.0
M108 R30.0
M102
G1 X-34.68 Y7.85 Z0.78 F1800.0
M108 R3.569
M103
G1 X-35.23 Y8.02 Z0.78 F3000.0
M108 R30.0
M101
G1 X-35.99 Y8.25 Z0.78 F3000.0
M108 R3.569
G1 X-40.35 Y8.25 Z0.78 F1800.0
M103
G1 X-40.23 Y8.64 Z0.78 F3000.0
M101
G1 X-37.75 Y8.64 Z0.78 F1800.0
M108 R30.0
M102
G1 X-37.3 Y8.64 Z0.78 F1800.0
M108 R3.569
M103
G1 X-37.84 Y8.8 Z0.78 F3000.0
M108 R30.0
M101
G1 X-38.61 Y9.03 Z0.78 F3000.0
M108 R3.569
G1 X-40.11 Y9.03 Z0.78 F1800.0
M103
G1 X-39.99 Y9.43 Z0.78 F3000.0
M101
G1 X-39.92 Y9.43 Z0.78 F1800.0
M103
(</surroundingLoop>)
(</layer>)
(<operatingLayerEnd> </operatingLayerEnd>)
(<layer> 1.1 )
(<surroundingLoop>)
(<boundaryPerimeter>)
(<boundaryPoint> X32.172 Y-16.724 Z1.1 </boundaryPoint>)
(<boundaryPoint> X33.657 Y-11.777 Z1.1 </boundaryPoint>)
(<boundaryPoint> X-40.555 Y10.498 Z1.1 </boundaryPoint>)
(<boundaryPoint> X-42.04 Y5.55 Z1.1 </boundaryPoint>)
(<loop> outer )
G1 X-40.11 Y9.75 Z1.1 F3000.0
M101
G1 X-40.16 Y9.76 Z1.1 F1800.0
G1 X-41.31 Y5.95 Z1.1 F1800.0
G1 X31.78 Y-15.99 Z1.1 F1800.0
G1 X32.92 Y-12.17 Z1.1 F1800.0
G1 X-39.84 Y9.67 Z1.1 F1800.0
G1 X-40.11 Y9.75 Z1.1 F1800.0
M103
(</loop>)
(<perimeter> outer )
G1 X-40.0 Y10.13 Z1.1 F3000.0
M101
G1 X-40.42 Y10.25 Z1.1 F1800.0
G1 X-41.8 Y5.68 Z1.1 F1800.0
G1 X32.04 Y-16.48 Z1.1 F1800.0
G1 X33.41 Y-11.91 Z1.1 F1800.0
G1 X-39.57 Y10.0 Z1.1 F1800.0
M108 R30.0
M102
G1 X-39.73 Y10.05 Z1.1 F1800.0
G1 X-40.0 Y10.13 Z1.1 F1800.0
M108 R3.569
M103
(</perimeter>)
(</boundaryPerimeter>)
G1 X-40.05 Y9.73 Z1.1 F3000.0
M108 R30.0
M101
G1 X-40.14 Y8.93 Z1.1 F3000.0
M108 R3.569
G1 X-39.71 Y9.36 Z1.1 F1800.0
G1 X-39.4 Y8.81 Z1.1 F1800.0
G1 X-38.83 Y9.1 Z1.1 F1800.0
G1 X-38.4 Y8.97 Z1.1 F1800.0
G1 X-38.27 Y5.76 Z1.1 F1800.0
G1 X-38.83 Y5.47 Z1.1 F1800.0
G1 X-40.14 Y5.86 Z1.1 F1800.0
G1 X-40.02 Y6.28 Z1.1 F1800.0
G1 X-40.58 Y7.48 Z1.1 F1800.0
G1 X-40.58 Y6.44 Z1.1 F1800.0
M108 R30.0
M102
G1 X-40.58 Y5.99 Z1.1 F1800.0
M108 R3.569
M103
G1 X-38.29 Y5.31 Z1.1 F3000.0
M108 R30.0
M101
G1 X-37.53 Y5.08 Z1.1 F3000.0
M108 R3.569
G1 X-36.96 Y5.36 Z1.1 F1800.0
G1 X-36.65 Y4.82 Z1.1 F1800.0
G1 X-36.22 Y4.68 Z1.1 F1800.0
G1 X-36.11 Y5.58 Z1.1 F1800.0
G1 X-38.06 Y7.51 Z1.1 F1800.0
G1 X-37.96 Y8.84 Z1.1 F1800.0
G1 X-37.52 Y8.71 Z1.1 F1800.0
M108 R30.0
M102
G1 X-37.09 Y8.58 Z1.1 F1800.0
M108 R3.569
M103
G1 X-36.55 Y8.41 Z1.1 F3000.0
M108 R30.0
M101
G1 X-35.78 Y8.18 Z1.1 F3000.0
M108 R3.569
G1 X-35.34 Y8.05 Z1.1 F1800.0
G1 X-35.03 Y7.5 Z1.1 F1800.0
G1 X-35.88 Y5.58 Z1.1 F1800.0
G1 X-35.88 Y5.33 Z1.1 F1800.0
G1 X-35.34 Y4.42 Z1.1 F1800.0
G1 X-34.91 Y4.29 Z1.1 F1800.0
G1 X-34.16 Y7.24 Z1.1 F1800.0
G1 X-33.72 Y7.11 Z1.1 F1800.0
G1 X-33.16 Y7.4 Z1.1 F1800.0
G1 X-32.85 Y6.85 Z1.1 F1800.0
G1 X-33.91 Y4.45 Z1.1 F1800.0
G1 X-33.6 Y3.9 Z1.1 F1800.0
G1 X-32.29 Y3.51 Z1.1 F1800.0
G1 X-31.73 Y3.79 Z1.1 F1800.0
G1 X-31.63 Y5.58 Z1.1 F1800.0
G1 X-31.98 Y6.59 Z1.1 F1800.0
G1 X-31.42 Y6.87 Z1.1 F1800.0
G1 X-30.11 Y6.48 Z1.1 F1800.0
G1 X-29.8 Y5.93 Z1.1 F1800.0
G1 X-29.57 Y3.15 Z1.1 F1800.0
G1 X-30.11 Y2.85 Z1.1 F1800.0
G1 X-30.42 Y3.4 Z1.1 F1800.0
G1 X-30.58 Y3.32 Z1.1 F1800.0
M108 R30.0
M102
G1 X-30.98 Y3.11 Z1.1 F1800.0
M108 R3.569
M103
G1 X-29.13 Y2.56 Z1.1 F3000.0
M108 R30.0
M101
G1 X-28.36 Y2.33 Z1.1 F3000.0
M108 R3.569
G1 X-28.8 Y2.46 Z1.1 F1800.0
G1 X-29.11 Y3.01 Z1.1 F1800.0
G1 X-29.34 Y3.15 Z1.1 F1800.0
G1 X-29.34 Y3.4 Z1.1 F1800.0
G1 X-28.49 Y5.54 Z1.1 F1800.0
G1 X-28.58 Y5.7 Z1.1 F1800.0
M108 R30.0
M102
G1 X-28.8 Y6.09 Z1.1 F1800.0
M108 R3.569
M103
G1 X-27.38 Y5.66 Z1.1 F3000.0
M108 R30.0
M101
G1 X-26.62 Y5.43 Z1.1 F3000.0
M108 R3.569
G1 X-26.18 Y5.3 Z1.1 F1800.0
G1 X-25.87 Y4.75 Z1.1 F1800.0
G1 X-27.36 Y2.48 Z1.1 F1800.0
G1 X-27.05 Y1.93 Z1.1 F1800.0
G1 X-26.18 Y1.67 Z1.1 F1800.0
G1 X-25.62 Y1.96 Z1.1 F1800.0
G1 X-25.09 Y3.27 Z1.1 F1800.0
G1 X-25.09 Y3.4 Z1.1 F1800.0
G1 X-25.43 Y4.62 Z1.1 F1800.0
G1 X-24.87 Y4.91 Z1.1 F1800.0
G1 X-24.0 Y4.65 Z1.1 F1800.0
G1 X-23.69 Y4.1 Z1.1 F1800.0
G1 X-25.18 Y1.83 Z1.1 F1800.0
G1 X-24.87 Y1.28 Z1.1 F1800.0
G1 X-24.44 Y1.15 Z1.1 F1800.0
G1 X-23.87 Y1.44 Z1.1 F1800.0
G1 X-23.25 Y3.97 Z1.1 F1800.0
G1 X-22.69 Y4.25 Z1.1 F1800.0
G1 X-22.25 Y4.12 Z1.1 F1800.0
G1 X-21.94 Y3.57 Z1.1 F1800.0
G1 X-23.0 Y1.17 Z1.1 F1800.0
G1 X-22.69 Y0.62 Z1.1 F1800.0
G1 X-22.68 Y0.62 Z1.1 F1800.0
M108 R30.0
M102
G1 X-22.25 Y0.49 Z1.1 F1800.0
M108 R3.569
M103
G1 X-21.71 Y0.33 Z1.1 F3000.0
M108 R30.0
M101
G1 X-20.94 Y0.1 Z1.1 F3000.0
M108 R3.569
G1 X-19.2 Y-0.42 Z1.1 F1800.0
G1 X-18.64 Y-0.14 Z1.1 F1800.0
G1 X-18.66 Y1.22 Z1.1 F1800.0
G1 X-18.33 Y2.94 Z1.1 F1800.0
G1 X-19.2 Y3.21 Z1.1 F1800.0
G1 X-19.76 Y2.92 Z1.1 F1800.0
G1 X-19.85 Y3.08 Z1.1 F1800.0
M108 R30.0
M102
G1 X-20.07 Y3.47 Z1.1 F1800.0
M108 R3.569
M103
G1 X-18.22 Y2.91 Z1.1 F3000.0
M108 R30.0
M101
G1 X-17.45 Y2.68 Z1.1 F3000.0
M108 R3.569
G1 X-17.89 Y2.81 Z1.1 F1800.0
G1 X-18.43 Y1.22 Z1.1 F1800.0
G1 X-18.43 Y0.96 Z1.1 F1800.0
G1 X-18.2 Y-0.27 Z1.1 F1800.0
G1 X-17.89 Y-0.82 Z1.1 F1800.0
G1 X-17.33 Y-0.53 Z1.1 F1800.0
G1 X-16.71 Y2.0 Z1.1 F1800.0
G1 X-16.14 Y2.29 Z1.1 F1800.0
G1 X-15.71 Y2.16 Z1.1 F1800.0
G1 X-15.4 Y1.61 Z1.1 F1800.0
G1 X-14.84 Y1.9 Z1.1 F1800.0
G1 X-14.4 Y1.77 Z1.1 F1800.0
G1 X-14.3 Y1.22 Z1.1 F1800.0
G1 X-14.3 Y0.96 Z1.1 F1800.0
G1 X-16.36 Y-0.96 Z1.1 F1800.0
G1 X-17.02 Y-1.08 Z1.1 F1800.0
G1 X-16.58 Y-1.21 Z1.1 F1800.0
G1 X-16.36 Y-1.22 Z1.1 F1800.0
G1 X-16.14 Y-1.34 Z1.1 F1800.0
G1 X-15.93 Y-0.96 Z1.1 F1800.0
G1 X-15.71 Y-1.47 Z1.1 F1800.0
G1 X-15.7 Y-1.47 Z1.1 F1800.0
M108 R30.0
M102
G1 X-15.27 Y-1.6 Z1.1 F1800.0
M108 R3.569
M103
G1 X-14.73 Y-1.77 Z1.1 F3000.0
M108 R30.0
M101
G1 X-13.96 Y-2.0 Z1.1 F3000.0
M108 R3.569
G1 X-12.65 Y-2.39 Z1.1 F1800.0
G1 X-12.09 Y-2.1 Z1.1 F1800.0
G1 X-12.11 Y-0.96 Z1.1 F1800.0
G1 X-14.07 Y0.96 Z1.1 F1800.0
G1 X-14.07 Y1.22 Z1.1 F1800.0
G1 X-13.92 Y1.29 Z1.1 F1800.0
M108 R30.0
M102
G1 X-13.53 Y1.5 Z1.1 F1800.0
M108 R3.569
M103
G1 X-12.98 Y1.34 Z1.1 F3000.0
M108 R30.0
M101
G1 X-12.22 Y1.11 Z1.1 F3000.0
M108 R3.569
G1 X-10.47 Y0.59 Z1.1 F1800.0
G1 X-10.16 Y0.04 Z1.1 F1800.0
G1 X-11.88 Y-0.96 Z1.1 F1800.0
G1 X-11.88 Y-1.22 Z1.1 F1800.0
G1 X-11.66 Y-2.23 Z1.1 F1800.0
G1 X-11.35 Y-2.78 Z1.1 F1800.0
G1 X-10.78 Y-2.49 Z1.1 F1800.0
G1 X-9.73 Y-0.09 Z1.1 F1800.0
G1 X-9.16 Y0.19 Z1.1 F1800.0
G1 X-8.29 Y-0.07 Z1.1 F1800.0
G1 X-7.75 Y-0.96 Z1.1 F1800.0
G1 X-7.75 Y-1.22 Z1.1 F1800.0
G1 X-8.16 Y-3.28 Z1.1 F1800.0
G1 X-8.73 Y-3.57 Z1.1 F1800.0
G1 X-8.73 Y-3.57 Z1.1 F1800.0
M108 R30.0
M102
G1 X-9.16 Y-3.44 Z1.1 F1800.0
M108 R3.569
M103
G1 X-8.18 Y-3.73 Z1.1 F3000.0
M108 R30.0
M101
G1 X-7.42 Y-3.96 Z1.1 F3000.0
M108 R3.569
G1 X-6.55 Y-4.22 Z1.1 F1800.0
G1 X-5.98 Y-3.94 Z1.1 F1800.0
G1 X-5.57 Y-3.4 Z1.1 F1800.0
G1 X-5.57 Y-3.15 Z1.1 F1800.0
G1 X-7.52 Y-1.22 Z1.1 F1800.0
G1 X-7.54 Y-0.75 Z1.1 F1800.0
G1 X-6.98 Y-0.46 Z1.1 F1800.0
G1 X-6.98 Y-0.46 Z1.1 F1800.0
M108 R30.0
M102
G1 X-6.55 Y-0.59 Z1.1 F1800.0
M108 R3.569
M103
G1 X-6.0 Y-0.76 Z1.1 F3000.0
M108 R30.0
M101
G1 X-5.24 Y-0.99 Z1.1 F3000.0
M108 R3.569
G1 X-4.36 Y-1.25 Z1.1 F1800.0
G1 X-4.05 Y-1.8 Z1.1 F1800.0
G1 X-5.34 Y-3.15 Z1.1 F1800.0
G1 X-5.34 Y-3.4 Z1.1 F1800.0
G1 X-5.55 Y-4.07 Z1.1 F1800.0
G1 X-5.24 Y-4.62 Z1.1 F1800.0
G1 X-4.8 Y-4.75 Z1.1 F1800.0
G1 X-4.24 Y-4.46 Z1.1 F1800.0
G1 X-3.62 Y-1.93 Z1.1 F1800.0
G1 X-3.05 Y-1.64 Z1.1 F1800.0
G1 X-2.62 Y-1.77 Z1.1 F1800.0
G1 X-2.31 Y-2.32 Z1.1 F1800.0
G1 X-3.37 Y-4.72 Z1.1 F1800.0
G1 X-2.93 Y-4.85 Z1.1 F1800.0
G1 X-2.62 Y-5.4 Z1.1 F1800.0
G1 X-2.06 Y-5.11 Z1.1 F1800.0
G1 X-1.09 Y-3.4 Z1.1 F1800.0
G1 X-1.09 Y-3.15 Z1.1 F1800.0
G1 X-1.43 Y-2.58 Z1.1 F1800.0
G1 X-1.0 Y-2.71 Z1.1 F1800.0
G1 X-0.44 Y-2.43 Z1.1 F1800.0
G1 X-0.13 Y-2.97 Z1.1 F1800.0
G1 X0.44 Y-2.69 Z1.1 F1800.0
G1 X0.87 Y-2.82 Z1.1 F1800.0
G1 X1.0 Y-6.03 Z1.1 F1800.0
G1 X0.44 Y-6.32 Z1.1 F1800.0
G1 X-0.88 Y-5.92 Z1.1 F1800.0
M108 R30.0
M102
G1 X-1.31 Y-5.79 Z1.1 F1800.0
M108 R3.569
M103
G1 X0.98 Y-6.48 Z1.1 F3000.0
M108 R30.0
M101
G1 X1.75 Y-6.71 Z1.1 F3000.0
M108 R3.569
G1 X1.43 Y-6.16 Z1.1 F1800.0
G1 X1.21 Y-5.58 Z1.1 F1800.0
G1 X1.21 Y-5.33 Z1.1 F1800.0
G1 X2.49 Y-3.76 Z1.1 F1800.0
G1 X2.18 Y-3.21 Z1.1 F1800.0
G1 X1.74 Y-3.08 Z1.1 F1800.0
M108 R30.0
M102
G1 X1.31 Y-2.95 Z1.1 F1800.0
M108 R3.569
M103
G1 X2.73 Y-3.37 Z1.1 F3000.0
M108 R30.0
M101
G1 X3.49 Y-3.6 Z1.1 F3000.0
M108 R3.569
G1 X3.93 Y-3.74 Z1.1 F1800.0
G1 X4.24 Y-4.28 Z1.1 F1800.0
G1 X2.62 Y-6.97 Z1.1 F1800.0
G1 X3.18 Y-6.69 Z1.1 F1800.0
G1 X3.62 Y-6.82 Z1.1 F1800.0
G1 X3.93 Y-7.37 Z1.1 F1800.0
G1 X4.36 Y-7.5 Z1.1 F1800.0
G1 X4.93 Y-7.21 Z1.1 F1800.0
G1 X5.45 Y-5.58 Z1.1 F1800.0
G1 X5.45 Y-5.33 Z1.1 F1800.0
G1 X5.11 Y-4.55 Z1.1 F1800.0
G1 X5.55 Y-4.68 Z1.1 F1800.0
G1 X6.11 Y-4.39 Z1.1 F1800.0
G1 X6.42 Y-4.94 Z1.1 F1800.0
G1 X6.98 Y-4.65 Z1.1 F1800.0
G1 X7.42 Y-4.78 Z1.1 F1800.0
G1 X7.52 Y-7.76 Z1.1 F1800.0
G1 X7.42 Y-8.41 Z1.1 F1800.0
G1 X7.11 Y-7.86 Z1.1 F1800.0
G1 X6.55 Y-8.15 Z1.1 F1800.0
G1 X6.1 Y-8.02 Z1.1 F1800.0
M108 R30.0
M102
G1 X5.67 Y-7.89 Z1.1 F1800.0
M108 R3.569
M103
G1 X7.52 Y-8.44 Z1.1 F3000.0
M108 R30.0
M101
G1 X8.29 Y-8.67 Z1.1 F3000.0
M108 R3.569
G1 X7.75 Y-7.76 Z1.1 F1800.0
G1 X7.75 Y-7.51 Z1.1 F1800.0
G1 X9.47 Y-5.86 Z1.1 F1800.0
G1 X9.16 Y-5.31 Z1.1 F1800.0
G1 X8.29 Y-5.04 Z1.1 F1800.0
M108 R30.0
M102
G1 X7.85 Y-4.91 Z1.1 F1800.0
M108 R3.569
M103
G1 X10.58 Y-5.73 Z1.1 F3000.0
M108 R30.0
M101
G1 X11.35 Y-5.96 Z1.1 F3000.0
M108 R3.569
G1 X10.47 Y-5.7 Z1.1 F1800.0
G1 X9.91 Y-5.99 Z1.1 F1800.0
G1 X9.16 Y-8.94 Z1.1 F1800.0
G1 X9.73 Y-8.65 Z1.1 F1800.0
G1 X10.16 Y-8.78 Z1.1 F1800.0
G1 X10.47 Y-9.33 Z1.1 F1800.0
G1 X11.03 Y-9.04 Z1.1 F1800.0
G1 X12.0 Y-7.76 Z1.1 F1800.0
G1 X12.09 Y-6.64 Z1.1 F1800.0
G1 X12.65 Y-6.36 Z1.1 F1800.0
G1 X13.09 Y-6.49 Z1.1 F1800.0
G1 X13.4 Y-7.03 Z1.1 F1800.0
G1 X13.96 Y-6.75 Z1.1 F1800.0
G1 X14.27 Y-7.3 Z1.1 F1800.0
G1 X14.07 Y-9.95 Z1.1 F1800.0
G1 X14.4 Y-10.51 Z1.1 F1800.0
G1 X13.96 Y-10.38 Z1.1 F1800.0
G1 X13.65 Y-9.83 Z1.1 F1800.0
G1 X13.09 Y-10.12 Z1.1 F1800.0
G1 X12.65 Y-9.98 Z1.1 F1800.0
M108 R30.0
M102
G1 X12.22 Y-9.85 Z1.1 F1800.0
M108 R3.569
M103
G1 X14.07 Y-10.41 Z1.1 F3000.0
M108 R30.0
M101
G1 X14.84 Y-10.64 Z1.1 F3000.0
M108 R3.569
G1 X14.3 Y-9.95 Z1.1 F1800.0
G1 X14.3 Y-9.69 Z1.1 F1800.0
G1 X15.58 Y-7.69 Z1.1 F1800.0
G1 X15.27 Y-7.14 Z1.1 F1800.0
G1 X15.27 Y-7.14 Z1.1 F1800.0
M108 R30.0
M102
G1 X14.84 Y-7.01 Z1.1 F1800.0
M108 R3.569
M103
G1 X15.82 Y-7.3 Z1.1 F3000.0
M108 R30.0
M101
G1 X16.58 Y-7.53 Z1.1 F3000.0
M108 R3.569
G1 X17.02 Y-7.66 Z1.1 F1800.0
G1 X17.33 Y-8.21 Z1.1 F1800.0
G1 X15.71 Y-10.9 Z1.1 F1800.0
G1 X16.27 Y-10.61 Z1.1 F1800.0
G1 X16.71 Y-10.75 Z1.1 F1800.0
G1 X17.02 Y-11.29 Z1.1 F1800.0
G1 X17.58 Y-11.01 Z1.1 F1800.0
G1 X18.2 Y-8.48 Z1.1 F1800.0
G1 X18.64 Y-8.61 Z1.1 F1800.0
G1 X19.2 Y-8.32 Z1.1 F1800.0
G1 X19.51 Y-8.87 Z1.1 F1800.0
G1 X18.02 Y-11.14 Z1.1 F1800.0
G1 X18.33 Y-11.69 Z1.1 F1800.0
G1 X20.07 Y-12.21 Z1.1 F1800.0
G1 X19.95 Y-9.0 Z1.1 F1800.0
G1 X20.51 Y-8.71 Z1.1 F1800.0
G1 X21.82 Y-9.11 Z1.1 F1800.0
G1 X22.13 Y-9.65 Z1.1 F1800.0
G1 X20.73 Y-12.0 Z1.1 F1800.0
G1 X20.73 Y-12.13 Z1.1 F1800.0
G1 X20.94 Y-12.47 Z1.1 F1800.0
G1 X21.31 Y-12.24 Z1.1 F1800.0
G1 X21.38 Y-12.6 Z1.1 F1800.0
G1 X21.82 Y-12.74 Z1.1 F1800.0
M108 R30.0
M102
G1 X22.25 Y-12.87 Z1.1 F1800.0
M108 R3.569
M103
G1 X22.8 Y-13.03 Z1.1 F3000.0
M108 R30.0
M101
G1 X23.56 Y-13.26 Z1.1 F3000.0
M108 R3.569
G1 X24.0 Y-13.39 Z1.1 F1800.0
G1 X24.56 Y-13.1 Z1.1 F1800.0
G1 X24.97 Y-12.13 Z1.1 F1800.0
G1 X24.75 Y-10.44 Z1.1 F1800.0
G1 X24.44 Y-9.89 Z1.1 F1800.0
G1 X23.87 Y-10.18 Z1.1 F1800.0
G1 X23.56 Y-9.63 Z1.1 F1800.0
G1 X23.56 Y-9.63 Z1.1 F1800.0
M108 R30.0
M102
G1 X23.13 Y-9.5 Z1.1 F1800.0
M108 R3.569
M103
G1 X24.98 Y-10.05 Z1.1 F3000.0
M108 R30.0
M101
G1 X25.74 Y-10.28 Z1.1 F3000.0
M108 R3.569
G1 X25.2 Y-11.87 Z1.1 F1800.0
G1 X25.2 Y-12.13 Z1.1 F1800.0
G1 X25.0 Y-13.23 Z1.1 F1800.0
G1 X25.31 Y-13.78 Z1.1 F1800.0
G1 X26.18 Y-14.04 Z1.1 F1800.0
G1 X26.74 Y-13.76 Z1.1 F1800.0
G1 X27.36 Y-11.23 Z1.1 F1800.0
G1 X27.93 Y-10.94 Z1.1 F1800.0
G1 X28.36 Y-11.07 Z1.1 F1800.0
G1 X28.67 Y-11.62 Z1.1 F1800.0
G1 X27.18 Y-13.89 Z1.1 F1800.0
G1 X27.49 Y-14.44 Z1.1 F1800.0
G1 X27.49 Y-14.44 Z1.1 F1800.0
M108 R30.0
M102
G1 X27.93 Y-14.57 Z1.1 F1800.0
M108 R3.569
M103
G1 X31.05 Y-14.79 Z1.1 F3000.0
M108 R30.0
M101
G1 X31.85 Y-14.85 Z1.1 F3000.0
M108 R3.569
G1 X31.42 Y-15.62 Z1.1 F1800.0
G1 X30.98 Y-15.48 Z1.1 F1800.0
G1 X30.67 Y-14.94 Z1.1 F1800.0
G1 X30.11 Y-15.22 Z1.1 F1800.0
G1 X29.8 Y-14.67 Z1.1 F1800.0
G1 X29.36 Y-14.54 Z1.1 F1800.0
G1 X28.8 Y-14.83 Z1.1 F1800.0
G1 X28.49 Y-14.28 Z1.1 F1800.0
G1 X29.55 Y-11.88 Z1.1 F1800.0
G1 X30.11 Y-11.59 Z1.1 F1800.0
G1 X30.98 Y-11.86 Z1.1 F1800.0
G1 X31.29 Y-12.4 Z1.1 F1800.0
G1 X32.29 Y-13.4 Z1.1 F1800.0
G1 X32.29 Y-12.7 Z1.1 F1800.0
M108 R30.0
M102
G1 X32.29 Y-12.25 Z1.1 F1800.0
M108 R3.569
M103
(</surroundingLoop>)
(<surroundingLoop>)
(<boundaryPerimeter>)
(<boundaryPoint> X-22.66 Y19.015 Z1.1 </boundaryPoint>)
(<boundaryPoint> X-22.662 Y16.432 Z1.1 </boundaryPoint>)
(<boundaryPoint> X-38.77 Y16.443 Z1.1 </boundaryPoint>)
(<boundaryPoint> X-40.378 Y11.088 Z1.1 </boundaryPoint>)
(<boundaryPoint> X-40.4 Y10.782 Z1.1 </boundaryPoint>)
(<boundaryPoint> X-40.101 Y10.715 Z1.1 </boundaryPoint>)
(<boundaryPoint> X40.391 Y10.661 Z1.1 </boundaryPoint>)
(<boundaryPoint> X41.999 Y16.016 Z1.1 </boundaryPoint>)
(<boundaryPoint> X42.021 Y16.322 Z1.1 </boundaryPoint>)
(<boundaryPoint> X41.722 Y16.389 Z1.1 </boundaryPoint>)
(<boundaryPoint> X23.967 Y16.401 Z1.1 </boundaryPoint>)
(<boundaryPoint> X23.968 Y18.984 Z1.1 </boundaryPoint>)
(<boundaryPoint> X42.886 Y18.971 Z1.1 </boundaryPoint>)
(<boundaryPoint> X43.147 Y19.842 Z1.1 </boundaryPoint>)
(<boundaryPoint> X43.169 Y20.148 Z1.1 </boundaryPoint>)
(<boundaryPoint> X42.87 Y20.215 Z1.1 </boundaryPoint>)
(<boundaryPoint> X-37.622 Y20.269 Z1.1 </boundaryPoint>)
(<boundaryPoint> X-37.883 Y19.398 Z1.1 </boundaryPoint>)
(<boundaryPoint> X-37.905 Y19.092 Z1.1 </boundaryPoint>)
(<boundaryPoint> X-37.606 Y19.025 Z1.1 </boundaryPoint>)
(<loop> outer )
G1 X32.57 Y10.46 Z1.1 F3000.0
M108 R30.0
M101
G1 X32.58 Y11.26 Z1.1 F3000.0
M108 R3.569
G1 X39.95 Y11.25 Z1.1 F1800.0
G1 X41.32 Y15.8 Z1.1 F1800.0
G1 X23.38 Y15.81 Z1.1 F1800.0
G1 X23.38 Y19.06 Z1.1 F1800.0
G1 X22.99 Y19.64 Z1.1 F1800.0
G1 X-21.62 Y19.67 Z1.1 F1800.0
G1 X-22.07 Y19.08 Z1.1 F1800.0
G1 X-22.07 Y15.84 Z1.1 F1800.0
G1 X-38.33 Y15.85 Z1.1 F1800.0
G1 X-39.7 Y11.3 Z1.1 F1800.0
G1 X32.3 Y11.26 Z1.1 F1800.0
G1 X32.58 Y11.26 Z1.1 F1800.0
M103
(</loop>)
(<perimeter> outer )
G1 X32.58 Y10.86 Z1.1 F3000.0
M101
G1 X40.24 Y10.86 Z1.1 F1800.0
G1 X41.82 Y16.1 Z1.1 F1800.0
G1 X41.92 Y16.25 Z1.1 F1800.0
G1 X41.75 Y16.19 Z1.1 F1800.0
G1 X23.77 Y16.2 Z1.1 F1800.0
G1 X23.77 Y19.18 Z1.1 F1800.0
G1 X42.74 Y19.17 Z1.1 F1800.0
G1 X42.97 Y19.93 Z1.1 F1800.0
G1 X43.07 Y20.08 Z1.1 F1800.0
G1 X42.9 Y20.02 Z1.1 F1800.0
G1 X-37.48 Y20.07 Z1.1 F1800.0
G1 X-37.7 Y19.31 Z1.1 F1800.0
G1 X-37.81 Y19.17 Z1.1 F1800.0
G1 X-37.64 Y19.22 Z1.1 F1800.0
G1 X-22.46 Y19.21 Z1.1 F1800.0
G1 X-22.47 Y16.24 Z1.1 F1800.0
G1 X-38.62 Y16.25 Z1.1 F1800.0
G1 X-40.2 Y11.0 Z1.1 F1800.0
G1 X-40.3 Y10.86 Z1.1 F1800.0
G1 X-40.13 Y10.91 Z1.1 F1800.0
G1 X32.13 Y10.86 Z1.1 F1800.0
M108 R30.0
M102
G1 X32.3 Y10.86 Z1.1 F1800.0
G1 X32.58 Y10.86 Z1.1 F1800.0
M108 R3.569
M103
(</perimeter>)
(</boundaryPerimeter>)
G1 X34.17 Y14.81 Z1.1 F3000.0
M108 R30.0
M101
G1 X34.47 Y15.55 Z1.1 F3000.0
M108 R3.569
G1 X34.03 Y15.11 Z1.1 F1800.0
G1 X33.93 Y14.05 Z1.1 F1800.0
G1 X35.88 Y12.13 Z1.1 F1800.0
G1 X35.88 Y11.87 Z1.1 F1800.0
G1 X35.78 Y11.51 Z1.1 F1800.0
G1 X31.85 Y11.51 Z1.1 F1800.0
G1 X31.75 Y11.87 Z1.1 F1800.0
G1 X31.75 Y12.13 Z1.1 F1800.0
G1 X33.7 Y14.05 Z1.1 F1800.0
G1 X33.6 Y15.11 Z1.1 F1800.0
G1 X33.16 Y15.55 Z1.1 F1800.0
G1 X32.73 Y15.11 Z1.1 F1800.0
G1 X32.29 Y15.55 Z1.1 F1800.0
M103
G1 X31.85 Y15.55 Z1.1 F3000.0
M101
G1 X29.67 Y15.55 Z1.1 F1800.0
G1 X29.57 Y14.05 Z1.1 F1800.0
G1 X31.52 Y12.13 Z1.1 F1800.0
G1 X31.52 Y11.87 Z1.1 F1800.0
G1 X31.42 Y11.51 Z1.1 F1800.0
G1 X27.49 Y11.51 Z1.1 F1800.0
G1 X27.39 Y11.87 Z1.1 F1800.0
G1 X27.39 Y12.13 Z1.1 F1800.0
G1 X29.34 Y14.05 Z1.1 F1800.0
G1 X29.23 Y15.55 Z1.1 F1800.0
G1 X25.31 Y15.56 Z1.1 F1800.0
G1 X25.2 Y14.05 Z1.1 F1800.0
G1 X27.16 Y12.13 Z1.1 F1800.0
G1 X27.16 Y11.87 Z1.1 F1800.0
G1 X27.05 Y11.52 Z1.1 F1800.0
G1 X23.13 Y11.52 Z1.1 F1800.0
G1 X23.02 Y11.87 Z1.1 F1800.0
G1 X23.02 Y12.13 Z1.1 F1800.0
G1 X24.97 Y14.05 Z1.1 F1800.0
G1 X24.87 Y15.56 Z1.1 F1800.0
G1 X23.13 Y15.56 Z1.1 F1800.0
G1 X22.69 Y19.38 Z1.1 F1800.0
G1 X20.94 Y19.39 Z1.1 F1800.0
G1 X20.84 Y18.67 Z1.1 F1800.0
G1 X20.84 Y14.05 Z1.1 F1800.0
G1 X22.79 Y12.13 Z1.1 F1800.0
G1 X22.79 Y11.87 Z1.1 F1800.0
G1 X22.69 Y11.52 Z1.1 F1800.0
G1 X18.76 Y11.52 Z1.1 F1800.0
G1 X18.66 Y11.87 Z1.1 F1800.0
G1 X18.66 Y12.13 Z1.1 F1800.0
G1 X20.61 Y14.05 Z1.1 F1800.0
G1 X20.61 Y14.31 Z1.1 F1800.0
G1 X18.66 Y16.24 Z1.1 F1800.0
G1 X18.66 Y16.49 Z1.1 F1800.0
G1 X20.61 Y18.42 Z1.1 F1800.0
G1 X20.51 Y19.39 Z1.1 F1800.0
G1 X16.58 Y19.39 Z1.1 F1800.0
G1 X16.48 Y18.42 Z1.1 F1800.0
G1 X18.43 Y16.49 Z1.1 F1800.0
G1 X18.43 Y16.24 Z1.1 F1800.0
G1 X16.48 Y14.31 Z1.1 F1800.0
G1 X16.48 Y14.05 Z1.1 F1800.0
G1 X18.43 Y12.13 Z1.1 F1800.0
G1 X18.43 Y11.87 Z1.1 F1800.0
G1 X18.33 Y11.52 Z1.1 F1800.0
G1 X14.4 Y11.52 Z1.1 F1800.0
G1 X14.3 Y11.87 Z1.1 F1800.0
G1 X14.3 Y12.13 Z1.1 F1800.0
G1 X16.25 Y14.05 Z1.1 F1800.0
G1 X16.25 Y14.31 Z1.1 F1800.0
G1 X14.3 Y16.24 Z1.1 F1800.0
G1 X14.3 Y16.49 Z1.1 F1800.0
G1 X16.25 Y18.42 Z1.1 F1800.0
G1 X16.14 Y19.39 Z1.1 F1800.0
G1 X12.22 Y19.39 Z1.1 F1800.0
G1 X12.11 Y18.42 Z1.1 F1800.0
G1 X14.07 Y16.49 Z1.1 F1800.0
G1 X14.07 Y16.24 Z1.1 F1800.0
G1 X12.11 Y14.31 Z1.1 F1800.0
G1 X12.11 Y14.05 Z1.1 F1800.0
G1 X14.07 Y12.13 Z1.1 F1800.0
G1 X14.07 Y11.87 Z1.1 F1800.0
G1 X13.96 Y11.52 Z1.1 F1800.0
G1 X10.04 Y11.53 Z1.1 F1800.0
G1 X9.93 Y11.87 Z1.1 F1800.0
G1 X9.93 Y12.13 Z1.1 F1800.0
G1 X11.88 Y14.05 Z1.1 F1800.0
G1 X11.88 Y14.31 Z1.1 F1800.0
G1 X9.93 Y16.24 Z1.1 F1800.0
G1 X9.93 Y16.49 Z1.1 F1800.0
G1 X11.88 Y18.42 Z1.1 F1800.0
G1 X11.78 Y19.39 Z1.1 F1800.0
G1 X7.85 Y19.39 Z1.1 F1800.0
G1 X7.75 Y18.42 Z1.1 F1800.0
G1 X9.7 Y16.49 Z1.1 F1800.0
G1 X9.7 Y16.24 Z1.1 F1800.0
G1 X7.75 Y14.31 Z1.1 F1800.0
G1 X7.75 Y14.05 Z1.1 F1800.0
G1 X9.7 Y12.13 Z1.1 F1800.0
G1 X9.7 Y11.87 Z1.1 F1800.0
G1 X9.6 Y11.53 Z1.1 F1800.0
G1 X5.67 Y11.53 Z1.1 F1800.0
G1 X5.57 Y11.87 Z1.1 F1800.0
G1 X5.57 Y12.13 Z1.1 F1800.0
G1 X7.52 Y14.05 Z1.1 F1800.0
G1 X7.52 Y14.31 Z1.1 F1800.0
G1 X5.57 Y16.24 Z1.1 F1800.0
G1 X5.57 Y16.49 Z1.1 F1800.0
G1 X7.52 Y18.42 Z1.1 F1800.0
G1 X7.42 Y19.39 Z1.1 F1800.0
G1 X3.49 Y19.4 Z1.1 F1800.0
G1 X3.39 Y18.42 Z1.1 F1800.0
G1 X5.34 Y16.49 Z1.1 F1800.0
G1 X5.34 Y16.24 Z1.1 F1800.0
G1 X3.39 Y14.31 Z1.1 F1800.0
G1 X3.39 Y14.05 Z1.1 F1800.0
G1 X5.34 Y12.13 Z1.1 F1800.0
G1 X5.34 Y11.87 Z1.1 F1800.0
G1 X5.24 Y11.53 Z1.1 F1800.0
G1 X1.31 Y11.53 Z1.1 F1800.0
G1 X1.21 Y11.87 Z1.1 F1800.0
G1 X1.21 Y12.13 Z1.1 F1800.0
G1 X3.16 Y14.05 Z1.1 F1800.0
G1 X3.16 Y14.31 Z1.1 F1800.0
G1 X1.21 Y16.24 Z1.1 F1800.0
G1 X1.21 Y16.49 Z1.1 F1800.0
G1 X3.16 Y18.42 Z1.1 F1800.0
G1 X3.05 Y19.4 Z1.1 F1800.0
G1 X-0.87 Y19.4 Z1.1 F1800.0
G1 X-0.98 Y18.42 Z1.1 F1800.0
G1 X0.98 Y16.49 Z1.1 F1800.0
G1 X0.98 Y16.24 Z1.1 F1800.0
G1 X-0.98 Y14.31 Z1.1 F1800.0
G1 X-0.98 Y14.05 Z1.1 F1800.0
G1 X0.98 Y12.13 Z1.1 F1800.0
G1 X0.98 Y11.87 Z1.1 F1800.0
G1 X0.87 Y11.53 Z1.1 F1800.0
G1 X-3.05 Y11.54 Z1.1 F1800.0
G1 X-3.16 Y11.87 Z1.1 F1800.0
G1 X-3.16 Y12.13 Z1.1 F1800.0
G1 X-1.21 Y14.05 Z1.1 F1800.0
G1 X-1.21 Y14.31 Z1.1 F1800.0
G1 X-3.16 Y16.24 Z1.1 F1800.0
G1 X-3.16 Y16.49 Z1.1 F1800.0
G1 X-1.21 Y18.42 Z1.1 F1800.0
G1 X-1.31 Y19.4 Z1.1 F1800.0
G1 X-5.24 Y19.4 Z1.1 F1800.0
G1 X-5.34 Y18.42 Z1.1 F1800.0
G1 X-3.39 Y16.49 Z1.1 F1800.0
G1 X-3.39 Y16.24 Z1.1 F1800.0
G1 X-5.34 Y14.31 Z1.1 F1800.0
G1 X-5.34 Y14.05 Z1.1 F1800.0
G1 X-3.39 Y12.13 Z1.1 F1800.0
G1 X-3.39 Y11.87 Z1.1 F1800.0
G1 X-3.49 Y11.54 Z1.1 F1800.0
G1 X-7.42 Y11.54 Z1.1 F1800.0
G1 X-7.52 Y11.87 Z1.1 F1800.0
G1 X-7.52 Y12.13 Z1.1 F1800.0
G1 X-5.57 Y14.05 Z1.1 F1800.0
G1 X-5.57 Y14.31 Z1.1 F1800.0
G1 X-7.52 Y16.24 Z1.1 F1800.0
G1 X-7.52 Y16.49 Z1.1 F1800.0
G1 X-5.57 Y18.42 Z1.1 F1800.0
G1 X-5.67 Y19.4 Z1.1 F1800.0
G1 X-9.6 Y19.41 Z1.1 F1800.0
G1 X-9.7 Y18.42 Z1.1 F1800.0
G1 X-7.75 Y16.49 Z1.1 F1800.0
G1 X-7.75 Y16.24 Z1.1 F1800.0
G1 X-9.7 Y14.31 Z1.1 F1800.0
G1 X-9.7 Y14.05 Z1.1 F1800.0
G1 X-7.75 Y12.13 Z1.1 F1800.0
G1 X-7.75 Y11.87 Z1.1 F1800.0
G1 X-7.85 Y11.54 Z1.1 F1800.0
G1 X-11.78 Y11.54 Z1.1 F1800.0
G1 X-11.88 Y11.87 Z1.1 F1800.0
G1 X-11.88 Y12.13 Z1.1 F1800.0
G1 X-9.93 Y14.05 Z1.1 F1800.0
G1 X-9.93 Y14.31 Z1.1 F1800.0
G1 X-11.88 Y16.24 Z1.1 F1800.0
G1 X-11.88 Y16.49 Z1.1 F1800.0
G1 X-9.93 Y18.42 Z1.1 F1800.0
G1 X-10.04 Y19.41 Z1.1 F1800.0
G1 X-13.96 Y19.41 Z1.1 F1800.0
G1 X-14.07 Y18.42 Z1.1 F1800.0
G1 X-12.11 Y16.49 Z1.1 F1800.0
G1 X-12.11 Y16.24 Z1.1 F1800.0
G1 X-14.07 Y14.31 Z1.1 F1800.0
G1 X-14.07 Y14.05 Z1.1 F1800.0
G1 X-12.11 Y12.13 Z1.1 F1800.0
G1 X-12.11 Y11.87 Z1.1 F1800.0
G1 X-12.22 Y11.54 Z1.1 F1800.0
G1 X-16.14 Y11.54 Z1.1 F1800.0
G1 X-16.25 Y11.87 Z1.1 F1800.0
G1 X-16.25 Y12.13 Z1.1 F1800.0
G1 X-14.3 Y14.05 Z1.1 F1800.0
G1 X-14.3 Y14.31 Z1.1 F1800.0
G1 X-16.25 Y16.24 Z1.1 F1800.0
G1 X-16.25 Y16.49 Z1.1 F1800.0
G1 X-14.3 Y18.42 Z1.1 F1800.0
G1 X-14.4 Y19.41 Z1.1 F1800.0
G1 X-17.89 Y19.41 Z1.1 F1800.0
G1 X-18.43 Y18.67 Z1.1 F1800.0
G1 X-18.43 Y18.42 Z1.1 F1800.0
G1 X-16.48 Y16.49 Z1.1 F1800.0
G1 X-16.48 Y16.24 Z1.1 F1800.0
G1 X-18.43 Y14.31 Z1.1 F1800.0
G1 X-18.43 Y14.05 Z1.1 F1800.0
G1 X-16.48 Y12.13 Z1.1 F1800.0
G1 X-16.48 Y11.87 Z1.1 F1800.0
G1 X-16.58 Y11.54 Z1.1 F1800.0
G1 X-18.31 Y11.55 Z1.1 F1800.0
M108 R30.0
M102
G1 X-18.76 Y11.55 Z1.1 F1800.0
M108 R3.569
M103
G1 X-19.27 Y11.55 Z1.1 F3000.0
M108 R30.0
M101
G1 X-20.07 Y11.55 Z1.1 F3000.0
M108 R3.569
G1 X-20.09 Y11.68 Z1.1 F1800.0
G1 X-20.61 Y11.87 Z1.1 F1800.0
G1 X-20.61 Y12.13 Z1.1 F1800.0
G1 X-18.66 Y14.05 Z1.1 F1800.0
G1 X-18.66 Y14.31 Z1.1 F1800.0
G1 X-20.73 Y16.24 Z1.1 F1800.0
G1 X-20.73 Y16.49 Z1.1 F1800.0
G1 X-21.82 Y17.45 Z1.1 F1800.0
G1 X-18.66 Y18.42 Z1.1 F1800.0
G1 X-18.66 Y18.67 Z1.1 F1800.0
G1 X-18.33 Y19.41 Z1.1 F1800.0
G1 X-20.93 Y19.41 Z1.1 F1800.0
M108 R30.0
M102
G1 X-21.38 Y19.41 Z1.1 F1800.0
M108 R3.569
M103
G1 X-22.08 Y16.37 Z1.1 F3000.0
M108 R30.0
M101
G1 X-22.25 Y15.59 Z1.1 F3000.0
M108 R3.569
G1 X-22.79 Y14.31 Z1.1 F1800.0
G1 X-22.79 Y14.05 Z1.1 F1800.0
G1 X-20.84 Y12.13 Z1.1 F1800.0
G1 X-20.84 Y11.87 Z1.1 F1800.0
G1 X-21.38 Y11.55 Z1.1 F1800.0
G1 X-21.61 Y11.92 Z1.1 F1800.0
G1 X-21.82 Y11.55 Z1.1 F1800.0
G1 X-22.0 Y11.65 Z1.1 F1800.0
M108 R30.0
M102
G1 X-22.2 Y11.76 Z1.1 F1800.0
G1 X-22.25 Y11.55 Z1.1 F1800.0
M108 R3.569
M103
G1 X-23.64 Y11.55 Z1.1 F3000.0
M108 R30.0
M101
G1 X-24.44 Y11.55 Z1.1 F3000.0
M108 R3.569
G1 X-24.46 Y11.68 Z1.1 F1800.0
G1 X-24.97 Y11.87 Z1.1 F1800.0
G1 X-24.97 Y12.13 Z1.1 F1800.0
G1 X-23.02 Y14.05 Z1.1 F1800.0
G1 X-23.02 Y14.31 Z1.1 F1800.0
G1 X-22.69 Y15.59 Z1.1 F1800.0
G1 X-27.05 Y15.59 Z1.1 F1800.0
G1 X-27.16 Y14.05 Z1.1 F1800.0
G1 X-25.2 Y12.13 Z1.1 F1800.0
G1 X-25.2 Y11.87 Z1.1 F1800.0
G1 X-25.31 Y11.55 Z1.1 F1800.0
G1 X-25.72 Y11.68 Z1.1 F1800.0
G1 X-25.74 Y11.55 Z1.1 F1800.0
G1 X-26.18 Y11.99 Z1.1 F1800.0
G1 X-26.3 Y11.87 Z1.1 F1800.0
M108 R30.0
M102
G1 X-26.62 Y11.55 Z1.1 F1800.0
M108 R3.569
M103
G1 X-28.0 Y11.55 Z1.1 F3000.0
M108 R30.0
M101
G1 X-28.8 Y11.55 Z1.1 F3000.0
M108 R3.569
G1 X-28.82 Y11.69 Z1.1 F1800.0
G1 X-29.34 Y11.87 Z1.1 F1800.0
G1 X-29.34 Y12.13 Z1.1 F1800.0
G1 X-27.39 Y14.05 Z1.1 F1800.0
G1 X-27.49 Y15.59 Z1.1 F1800.0
G1 X-30.98 Y15.59 Z1.1 F1800.0
G1 X-31.52 Y14.31 Z1.1 F1800.0
G1 X-31.52 Y14.05 Z1.1 F1800.0
G1 X-29.57 Y12.13 Z1.1 F1800.0
G1 X-29.57 Y11.87 Z1.1 F1800.0
G1 X-30.09 Y11.69 Z1.1 F1800.0
G1 X-30.11 Y11.55 Z1.1 F1800.0
G1 X-30.33 Y11.93 Z1.1 F1800.0
G1 X-30.54 Y11.55 Z1.1 F1800.0
G1 X-30.73 Y11.66 Z1.1 F1800.0
M108 R30.0
M102
G1 X-30.92 Y11.77 Z1.1 F1800.0
G1 X-30.98 Y11.55 Z1.1 F1800.0
M108 R3.569
M103
G1 X-32.36 Y11.55 Z1.1 F3000.0
M108 R30.0
M101
G1 X-33.16 Y11.56 Z1.1 F3000.0
M108 R3.569
G1 X-33.18 Y11.69 Z1.1 F1800.0
G1 X-33.7 Y11.87 Z1.1 F1800.0
G1 X-33.7 Y12.13 Z1.1 F1800.0
G1 X-31.75 Y14.05 Z1.1 F1800.0
G1 X-31.75 Y14.31 Z1.1 F1800.0
G1 X-31.42 Y15.59 Z1.1 F1800.0
G1 X-35.78 Y15.6 Z1.1 F1800.0
G1 X-35.88 Y14.05 Z1.1 F1800.0
G1 X-33.93 Y12.13 Z1.1 F1800.0
G1 X-33.93 Y11.87 Z1.1 F1800.0
G1 X-34.03 Y11.56 Z1.1 F1800.0
G1 X-34.45 Y11.69 Z1.1 F1800.0
G1 X-34.47 Y11.56 Z1.1 F1800.0
G1 X-34.91 Y11.99 Z1.1 F1800.0
G1 X-35.02 Y11.87 Z1.1 F1800.0
M108 R30.0
M102
G1 X-35.34 Y11.56 Z1.1 F1800.0
M108 R3.569
M103
G1 X-36.73 Y11.56 Z1.1 F3000.0
M108 R30.0
M101
G1 X-37.53 Y11.56 Z1.1 F3000.0
M108 R3.569
G1 X-37.6 Y11.81 Z1.1 F1800.0
G1 X-38.4 Y11.56 Z1.1 F1800.0
G1 X-38.83 Y12.0 Z1.1 F1800.0
G1 X-38.18 Y11.87 Z1.1 F1800.0
G1 X-38.18 Y12.13 Z1.1 F1800.0
G1 X-38.83 Y13.29 Z1.1 F1800.0
G1 X-37.98 Y14.62 Z1.1 F1800.0
G1 X-36.11 Y14.05 Z1.1 F1800.0
G1 X-36.22 Y15.6 Z1.1 F1800.0
G1 X-37.51 Y15.6 Z1.1 F1800.0
M108 R30.0
M102
G1 X-37.96 Y15.6 Z1.1 F1800.0
M108 R3.569
M103
G1 X-39.27 Y11.84 Z1.1 F3000.0
M101
G1 X-39.27 Y11.55 Z1.1 F1800.0
M103
G1 X38.03 Y15.51 Z1.1 F3000.0
M108 R30.0
M101
G1 X38.83 Y15.55 Z1.1 F3000.0
M108 R3.569
G1 X38.4 Y15.11 Z1.1 F1800.0
G1 X38.29 Y14.05 Z1.1 F1800.0
G1 X39.73 Y12.91 Z1.1 F1800.0
G1 X39.71 Y11.51 Z1.1 F1800.0
G1 X36.22 Y11.51 Z1.1 F1800.0
G1 X36.11 Y11.87 Z1.1 F1800.0
G1 X36.11 Y12.13 Z1.1 F1800.0
G1 X38.06 Y14.05 Z1.1 F1800.0
G1 X37.96 Y15.11 Z1.1 F1800.0
G1 X37.53 Y15.55 Z1.1 F1800.0
G1 X37.09 Y15.11 Z1.1 F1800.0
G1 X36.97 Y15.23 Z1.1 F1800.0
M108 R30.0
M102
G1 X36.65 Y15.55 Z1.1 F1800.0
M108 R3.569
M103
G1 X41.02 Y15.53 Z1.1 F3000.0
M101
G1 X41.02 Y15.6 Z1.1 F1800.0
M103
(</surroundingLoop>)
(</layer>)
(<layer> 1.42 )
(<surroundingLoop>)
(<boundaryPerimeter>)
(<boundaryPoint> X-22.66 Y19.015 Z1.42 </boundaryPoint>)
(<boundaryPoint> X-22.662 Y16.432 Z1.42 </boundaryPoint>)
(<boundaryPoint> X-38.77 Y16.443 Z1.42 </boundaryPoint>)
(<boundaryPoint> X-40.378 Y11.088 Z1.42 </boundaryPoint>)
(<boundaryPoint> X-40.4 Y10.782 Z1.42 </boundaryPoint>)
(<boundaryPoint> X-40.101 Y10.715 Z1.42 </boundaryPoint>)
(<boundaryPoint> X40.391 Y10.661 Z1.42 </boundaryPoint>)
(<boundaryPoint> X41.999 Y16.016 Z1.42 </boundaryPoint>)
(<boundaryPoint> X42.021 Y16.322 Z1.42 </boundaryPoint>)
(<boundaryPoint> X41.722 Y16.389 Z1.42 </boundaryPoint>)
(<boundaryPoint> X23.967 Y16.401 Z1.42 </boundaryPoint>)
(<boundaryPoint> X23.968 Y18.984 Z1.42 </boundaryPoint>)
(<boundaryPoint> X42.886 Y18.971 Z1.42 </boundaryPoint>)
(<boundaryPoint> X43.147 Y19.842 Z1.42 </boundaryPoint>)
(<boundaryPoint> X43.169 Y20.148 Z1.42 </boundaryPoint>)
(<boundaryPoint> X42.87 Y20.215 Z1.42 </boundaryPoint>)
(<boundaryPoint> X-37.622 Y20.269 Z1.42 </boundaryPoint>)
(<boundaryPoint> X-37.883 Y19.398 Z1.42 </boundaryPoint>)
(<boundaryPoint> X-37.905 Y19.092 Z1.42 </boundaryPoint>)
(<boundaryPoint> X-37.606 Y19.025 Z1.42 </boundaryPoint>)
(<loop> outer )
M108 R30.0
M101
G1 X41.04 Y15.8 Z1.42 F1421.483
M108 R3.569
G1 X41.02 Y15.8 Z1.42 F1800.0
G1 X23.38 Y15.81 Z1.42 F1800.0
G1 X23.38 Y19.06 Z1.42 F1800.0
G1 X22.99 Y19.64 Z1.42 F1800.0
G1 X-21.62 Y19.67 Z1.42 F1800.0
G1 X-22.07 Y19.08 Z1.42 F1800.0
G1 X-22.07 Y15.84 Z1.42 F1800.0
G1 X-38.33 Y15.85 Z1.42 F1800.0
G1 X-39.7 Y11.3 Z1.42 F1800.0
G1 X39.95 Y11.25 Z1.42 F1800.0
G1 X41.32 Y15.8 Z1.42 F1800.0
G1 X41.04 Y15.8 Z1.42 F1800.0
M103
(</loop>)
(<perimeter> outer )
G1 X41.02 Y16.19 Z1.42 F3000.0
M101
G1 X23.77 Y16.2 Z1.42 F1800.0
G1 X23.77 Y19.18 Z1.42 F1800.0
G1 X42.74 Y19.17 Z1.42 F1800.0
G1 X42.97 Y19.93 Z1.42 F1800.0
G1 X43.07 Y20.08 Z1.42 F1800.0
G1 X42.9 Y20.02 Z1.42 F1800.0
G1 X-37.48 Y20.07 Z1.42 F1800.0
G1 X-37.7 Y19.31 Z1.42 F1800.0
G1 X-37.81 Y19.17 Z1.42 F1800.0
G1 X-37.64 Y19.22 Z1.42 F1800.0
G1 X-22.46 Y19.21 Z1.42 F1800.0
G1 X-22.47 Y16.24 Z1.42 F1800.0
G1 X-38.62 Y16.25 Z1.42 F1800.0
G1 X-40.2 Y11.0 Z1.42 F1800.0
G1 X-40.3 Y10.86 Z1.42 F1800.0
G1 X-40.13 Y10.91 Z1.42 F1800.0
G1 X40.24 Y10.86 Z1.42 F1800.0
G1 X41.82 Y16.1 Z1.42 F1800.0
G1 X41.92 Y16.25 Z1.42 F1800.0
G1 X41.75 Y16.19 Z1.42 F1800.0
G1 X41.47 Y16.19 Z1.42 F1800.0
M108 R30.0
M102
G1 X41.02 Y16.19 Z1.42 F1800.0
M108 R3.569
M103
(</perimeter>)
(</boundaryPerimeter>)
G1 X40.91 Y15.62 Z1.42 F3000.0
M108 R30.0
M101
G1 X40.76 Y14.84 Z1.42 F3000.0
M108 R3.569
G1 X40.21 Y14.52 Z1.42 F1800.0
G1 X38.31 Y14.3 Z1.42 F1800.0
G1 X20.6 Y14.3 Z1.42 F1800.0
G1 X18.67 Y16.25 Z1.42 F1800.0
G1 X18.42 Y16.25 Z1.42 F1800.0
G1 X16.49 Y14.3 Z1.42 F1800.0
G1 X16.24 Y14.3 Z1.42 F1800.0
G1 X14.31 Y16.25 Z1.42 F1800.0
G1 X14.05 Y16.25 Z1.42 F1800.0
G1 X12.13 Y14.3 Z1.42 F1800.0
G1 X11.87 Y14.3 Z1.42 F1800.0
G1 X9.95 Y16.25 Z1.42 F1800.0
G1 X9.69 Y16.25 Z1.42 F1800.0
G1 X7.76 Y14.3 Z1.42 F1800.0
G1 X7.51 Y14.3 Z1.42 F1800.0
G1 X5.58 Y16.25 Z1.42 F1800.0
G1 X5.33 Y16.25 Z1.42 F1800.0
G1 X3.4 Y14.3 Z1.42 F1800.0
G1 X3.15 Y14.3 Z1.42 F1800.0
G1 X1.22 Y16.25 Z1.42 F1800.0
G1 X0.96 Y16.25 Z1.42 F1800.0
G1 X-0.96 Y14.3 Z1.42 F1800.0
G1 X-1.22 Y14.3 Z1.42 F1800.0
G1 X-3.15 Y16.25 Z1.42 F1800.0
G1 X-3.4 Y16.25 Z1.42 F1800.0
G1 X-5.33 Y14.3 Z1.42 F1800.0
G1 X-5.58 Y14.3 Z1.42 F1800.0
G1 X-7.51 Y16.25 Z1.42 F1800.0
G1 X-7.76 Y16.25 Z1.42 F1800.0
G1 X-9.69 Y14.3 Z1.42 F1800.0
G1 X-9.95 Y14.3 Z1.42 F1800.0
G1 X-11.87 Y16.25 Z1.42 F1800.0
G1 X-12.13 Y16.25 Z1.42 F1800.0
G1 X-14.05 Y14.3 Z1.42 F1800.0
G1 X-14.31 Y14.3 Z1.42 F1800.0
G1 X-16.24 Y16.25 Z1.42 F1800.0
G1 X-16.49 Y16.25 Z1.42 F1800.0
G1 X-18.42 Y14.3 Z1.42 F1800.0
G1 X-18.67 Y14.3 Z1.42 F1800.0
G1 X-20.6 Y16.25 Z1.42 F1800.0
G1 X-20.85 Y16.25 Z1.42 F1800.0
G1 X-21.38 Y16.14 Z1.42 F1800.0
G1 X-21.82 Y15.71 Z1.42 F1800.0
G1 X-22.78 Y14.3 Z1.42 F1800.0
G1 X-36.13 Y14.3 Z1.42 F1800.0
G1 X-38.24 Y15.27 Z1.42 F1800.0
G1 X-38.37 Y14.83 Z1.42 F1800.0
M108 R30.0
M102
G1 X-38.5 Y14.4 Z1.42 F1800.0
M108 R3.569
M103
G1 X-38.67 Y13.86 Z1.42 F3000.0
M108 R30.0
M101
G1 X-38.9 Y13.09 Z1.42 F3000.0
M108 R3.569
G1 X-39.16 Y12.22 Z1.42 F1800.0
G1 X-38.05 Y12.11 Z1.42 F1800.0
G1 X-36.13 Y14.07 Z1.42 F1800.0
G1 X-0.96 Y14.07 Z1.42 F1800.0
G1 X0.96 Y12.11 Z1.42 F1800.0
G1 X1.22 Y12.11 Z1.42 F1800.0
G1 X3.15 Y14.07 Z1.42 F1800.0
G1 X3.4 Y14.07 Z1.42 F1800.0
G1 X5.33 Y12.11 Z1.42 F1800.0
G1 X5.58 Y12.11 Z1.42 F1800.0
G1 X7.51 Y14.07 Z1.42 F1800.0
G1 X7.76 Y14.07 Z1.42 F1800.0
G1 X9.69 Y12.11 Z1.42 F1800.0
G1 X9.95 Y12.11 Z1.42 F1800.0
G1 X11.87 Y14.07 Z1.42 F1800.0
G1 X12.13 Y14.07 Z1.42 F1800.0
G1 X14.05 Y12.11 Z1.42 F1800.0
G1 X14.31 Y12.11 Z1.42 F1800.0
G1 X16.24 Y14.07 Z1.42 F1800.0
G1 X16.49 Y14.07 Z1.42 F1800.0
G1 X18.42 Y12.11 Z1.42 F1800.0
G1 X18.67 Y12.11 Z1.42 F1800.0
G1 X20.6 Y14.07 Z1.42 F1800.0
G1 X20.85 Y14.07 Z1.42 F1800.0
G1 X22.78 Y12.11 Z1.42 F1800.0
G1 X23.04 Y12.11 Z1.42 F1800.0
G1 X24.96 Y14.07 Z1.42 F1800.0
G1 X25.22 Y14.07 Z1.42 F1800.0
G1 X27.14 Y12.11 Z1.42 F1800.0
G1 X27.4 Y12.11 Z1.42 F1800.0
G1 X29.33 Y14.07 Z1.42 F1800.0
G1 X29.58 Y14.07 Z1.42 F1800.0
G1 X31.51 Y12.11 Z1.42 F1800.0
G1 X31.76 Y12.11 Z1.42 F1800.0
G1 X33.69 Y14.07 Z1.42 F1800.0
G1 X33.94 Y14.07 Z1.42 F1800.0
G1 X35.87 Y12.11 Z1.42 F1800.0
G1 X36.13 Y12.11 Z1.42 F1800.0
G1 X38.05 Y14.07 Z1.42 F1800.0
G1 X40.08 Y14.09 Z1.42 F1800.0
G1 X40.37 Y13.53 Z1.42 F1800.0
G1 X39.98 Y12.22 Z1.42 F1800.0
M103
G1 X39.85 Y11.78 Z1.42 F3000.0
M101
G1 X-38.31 Y11.88 Z1.42 F1800.0
G1 X-38.84 Y11.83 Z1.42 F1800.0
M108 R30.0
M102
G1 X-39.29 Y11.78 Z1.42 F1800.0
M108 R3.569
M103
G1 X-23.77 Y16.16 Z1.42 F3000.0
G1 X-22.53 Y16.29 Z1.42 F3000.0
G1 X-22.44 Y16.6 Z1.42 F3000.0
M108 R30.0
M101
G1 X-22.39 Y16.76 Z1.42 F3000.0
G1 X-21.82 Y17.02 Z1.42 F3000.0
M108 R3.569
G1 X-21.38 Y16.58 Z1.42 F1800.0
G1 X-20.85 Y16.48 Z1.42 F1800.0
G1 X-20.6 Y16.48 Z1.42 F1800.0
G1 X-18.67 Y18.43 Z1.42 F1800.0
G1 X-18.42 Y18.43 Z1.42 F1800.0
G1 X-16.49 Y16.48 Z1.42 F1800.0
G1 X-16.24 Y16.48 Z1.42 F1800.0
G1 X-14.31 Y18.43 Z1.42 F1800.0
G1 X-14.05 Y18.43 Z1.42 F1800.0
G1 X-12.13 Y16.48 Z1.42 F1800.0
G1 X-11.87 Y16.48 Z1.42 F1800.0
G1 X-9.95 Y18.43 Z1.42 F1800.0
G1 X-9.69 Y18.43 Z1.42 F1800.0
G1 X-7.76 Y16.48 Z1.42 F1800.0
G1 X-7.51 Y16.48 Z1.42 F1800.0
G1 X-5.58 Y18.43 Z1.42 F1800.0
G1 X-5.33 Y18.43 Z1.42 F1800.0
G1 X-3.4 Y16.48 Z1.42 F1800.0
G1 X-3.15 Y16.48 Z1.42 F1800.0
G1 X-1.22 Y18.43 Z1.42 F1800.0
G1 X-0.96 Y18.43 Z1.42 F1800.0
G1 X0.96 Y16.48 Z1.42 F1800.0
G1 X1.22 Y16.48 Z1.42 F1800.0
G1 X3.15 Y18.43 Z1.42 F1800.0
G1 X3.4 Y18.43 Z1.42 F1800.0
G1 X5.33 Y16.48 Z1.42 F1800.0
G1 X5.58 Y16.48 Z1.42 F1800.0
G1 X7.51 Y18.43 Z1.42 F1800.0
G1 X7.76 Y18.43 Z1.42 F1800.0
G1 X9.69 Y16.48 Z1.42 F1800.0
G1 X9.95 Y16.48 Z1.42 F1800.0
G1 X11.87 Y18.43 Z1.42 F1800.0
G1 X12.13 Y18.43 Z1.42 F1800.0
G1 X14.05 Y16.48 Z1.42 F1800.0
G1 X14.31 Y16.48 Z1.42 F1800.0
G1 X16.24 Y18.43 Z1.42 F1800.0
G1 X16.49 Y18.43 Z1.42 F1800.0
G1 X18.42 Y16.48 Z1.42 F1800.0
G1 X18.67 Y16.48 Z1.42 F1800.0
G1 X20.6 Y18.43 Z1.42 F1800.0
G1 X23.12 Y18.76 Z1.42 F1800.0
G1 X23.12 Y16.16 Z1.42 F1800.0
M108 R30.0
M102
G1 X23.12 Y15.71 Z1.42 F1800.0
M108 R3.569
M103
G1 X23.01 Y18.4 Z1.42 F3000.0
M108 R30.0
M101
G1 X22.98 Y19.2 Z1.42 F3000.0
M108 R3.569
G1 X20.85 Y18.66 Z1.42 F1800.0
G1 X-18.67 Y18.66 Z1.42 F1800.0
G1 X-21.66 Y19.2 Z1.42 F1800.0
G1 X-21.38 Y18.76 Z1.42 F1800.0
G1 X-21.5 Y18.64 Z1.42 F1800.0
M108 R30.0
M102
G1 X-21.82 Y18.33 Z1.42 F1800.0
M108 R3.569
M103
(</surroundingLoop>)
(<surroundingLoop>)
(<boundaryPerimeter>)
(<boundaryPoint> X32.172 Y-16.724 Z1.42 </boundaryPoint>)
(<boundaryPoint> X33.657 Y-11.777 Z1.42 </boundaryPoint>)
(<boundaryPoint> X-40.555 Y10.498 Z1.42 </boundaryPoint>)
(<boundaryPoint> X-42.04 Y5.55 Z1.42 </boundaryPoint>)
(<loop> outer )
G1 X-25.44 Y6.18 Z1.42 F3000.0
M108 R30.0
M101
G1 X-25.67 Y5.42 Z1.42 F3000.0
M108 R3.569
G1 X-25.69 Y5.42 Z1.42 F1800.0
G1 X-40.16 Y9.76 Z1.42 F1800.0
G1 X-41.31 Y5.95 Z1.42 F1800.0
G1 X31.78 Y-15.99 Z1.42 F1800.0
G1 X32.92 Y-12.17 Z1.42 F1800.0
G1 X-25.67 Y5.42 Z1.42 F1800.0
M103
(</loop>)
(<perimeter> outer )
G1 X-25.58 Y5.8 Z1.42 F3000.0
M101
G1 X-40.42 Y10.25 Z1.42 F1800.0
G1 X-41.8 Y5.68 Z1.42 F1800.0
G1 X32.04 Y-16.48 Z1.42 F1800.0
G1 X33.41 Y-11.91 Z1.42 F1800.0
G1 X-25.15 Y5.67 Z1.42 F1800.0
M108 R30.0
M102
G1 X-25.58 Y5.8 Z1.42 F1800.0
M108 R3.569
M103
(</perimeter>)
(</boundaryPerimeter>)
G1 X-28.07 Y6.03 Z1.42 F3000.0
M108 R30.0
M101
G1 X-28.87 Y6.11 Z1.42 F3000.0
M108 R3.569
G1 X-30.45 Y6.13 Z1.42 F1800.0
G1 X-31.78 Y6.98 Z1.42 F1800.0
G1 X-31.51 Y5.57 Z1.42 F1800.0
G1 X-31.76 Y5.57 Z1.42 F1800.0
G1 X-33.23 Y7.42 Z1.42 F1800.0
G1 X-35.15 Y4.36 Z1.42 F1800.0
G1 X-35.87 Y5.45 Z1.42 F1800.0
G1 X-36.13 Y5.45 Z1.42 F1800.0
G1 X-36.6 Y4.8 Z1.42 F1800.0
G1 X-37.93 Y5.65 Z1.42 F1800.0
G1 X-38.05 Y7.52 Z1.42 F1800.0
G1 X-38.31 Y7.52 Z1.42 F1800.0
G1 X-39.38 Y6.09 Z1.42 F1800.0
G1 X-40.31 Y6.86 Z1.42 F1800.0
G1 X-40.86 Y6.55 Z1.42 F1800.0
M108 R30.0
M102
G1 X-40.86 Y6.55 Z1.42 F1800.0
G1 X-40.96 Y6.11 Z1.42 F1800.0
M108 R3.569
M103
G1 X-40.69 Y7.08 Z1.42 F3000.0
M108 R30.0
M101
G1 X-40.47 Y7.85 Z1.42 F3000.0
M108 R3.569
G1 X-40.34 Y8.29 Z1.42 F1800.0
G1 X-39.79 Y8.6 Z1.42 F1800.0
G1 X-38.31 Y7.75 Z1.42 F1800.0
G1 X-38.05 Y7.75 Z1.42 F1800.0
G1 X-36.57 Y8.17 Z1.42 F1800.0
M108 R30.0
M102
G1 X-36.14 Y8.29 Z1.42 F1800.0
M108 R3.569
M103
G1 X-38.28 Y8.93 Z1.42 F3000.0
M108 R30.0
M101
G1 X-39.05 Y9.16 Z1.42 F3000.0
M108 R3.569
G1 X-39.62 Y9.16 Z1.42 F1800.0
M108 R30.0
M102
G1 X-40.07 Y9.16 Z1.42 F1800.0
M108 R3.569
M103
G1 X-34.31 Y4.43 Z1.42 F3000.0
M108 R30.0
M101
G1 X-33.69 Y3.93 Z1.42 F3000.0
M108 R3.569
G1 X-32.12 Y3.91 Z1.42 F1800.0
G1 X-31.76 Y5.34 Z1.42 F1800.0
G1 X-31.51 Y5.34 Z1.42 F1800.0
G1 X-30.79 Y3.05 Z1.42 F1800.0
G1 X-29.33 Y3.27 Z1.42 F1800.0
G1 X-29.33 Y2.62 Z1.42 F1800.0
G1 X-27.75 Y2.6 Z1.42 F1800.0
G1 X-27.54 Y5.25 Z1.42 F1800.0
G1 X-25.96 Y5.24 Z1.42 F1800.0
G1 X-25.22 Y3.39 Z1.42 F1800.0
G1 X-24.96 Y3.39 Z1.42 F1800.0
G1 X-24.51 Y4.8 Z1.42 F1800.0
G1 X-23.18 Y3.95 Z1.42 F1800.0
G1 X-22.05 Y3.93 Z1.42 F1800.0
M108 R30.0
M102
G1 X-21.6 Y3.93 Z1.42 F1800.0
M108 R3.569
M103
G1 X-19.55 Y0.26 Z1.42 F3000.0
M108 R30.0
M101
G1 X-19.16 Y-0.44 Z1.42 F3000.0
M108 R3.569
G1 X-18.67 Y0.98 Z1.42 F1800.0
G1 X-18.42 Y0.98 Z1.42 F1800.0
G1 X-17.58 Y-0.46 Z1.42 F1800.0
G1 X-16.25 Y-1.31 Z1.42 F1800.0
G1 X-14.31 Y1.09 Z1.42 F1800.0
G1 X-14.05 Y1.09 Z1.42 F1800.0
G1 X-12.88 Y1.31 Z1.42 F1800.0
G1 X-14.8 Y-1.75 Z1.42 F1800.0
G1 X-13.22 Y-1.76 Z1.42 F1800.0
G1 X-12.13 Y-1.09 Z1.42 F1800.0
G1 X-11.87 Y-1.09 Z1.42 F1800.0
G1 X-11.43 Y0.87 Z1.42 F1800.0
G1 X-10.1 Y0.02 Z1.42 F1800.0
G1 X-8.52 Y0.0 Z1.42 F1800.0
G1 X-7.76 Y-0.98 Z1.42 F1800.0
G1 X-7.51 Y-0.98 Z1.42 F1800.0
G1 X-7.35 Y-0.78 Z1.42 F1800.0
M108 R30.0
M102
G1 X-7.06 Y-0.44 Z1.42 F1800.0
M108 R3.569
M103
G1 X-5.01 Y-4.1 Z1.42 F3000.0
M108 R30.0
M101
G1 X-4.62 Y-4.8 Z1.42 F3000.0
M108 R3.569
G1 X-3.04 Y-4.82 Z1.42 F1800.0
G1 X-1.22 Y-3.39 Z1.42 F1800.0
G1 X-0.96 Y-3.39 Z1.42 F1800.0
G1 X-1.59 Y-5.25 Z1.42 F1800.0
G1 X-0.26 Y-6.11 Z1.42 F1800.0
G1 X0.96 Y-5.45 Z1.42 F1800.0
G1 X1.22 Y-5.45 Z1.42 F1800.0
G1 X1.2 Y-6.55 Z1.42 F1800.0
G1 X4.57 Y-3.93 Z1.42 F1800.0
G1 X5.33 Y-5.34 Z1.42 F1800.0
G1 X5.58 Y-5.34 Z1.42 F1800.0
G1 X6.02 Y-4.36 Z1.42 F1800.0
G1 X6.42 Y-4.54 Z1.42 F1800.0
G1 X7.04 Y-4.69 Z1.42 F1800.0
M108 R30.0
M102
G1 X7.47 Y-4.8 Z1.42 F1800.0
M108 R3.569
M103
G1 X9.53 Y-8.47 Z1.42 F3000.0
M108 R30.0
M101
G1 X9.92 Y-9.16 Z1.42 F3000.0
M108 R3.569
G1 X11.5 Y-9.18 Z1.42 F1800.0
G1 X11.87 Y-7.75 Z1.42 F1800.0
G1 X12.13 Y-7.75 Z1.42 F1800.0
G1 X12.83 Y-10.04 Z1.42 F1800.0
G1 X14.31 Y-9.82 Z1.42 F1800.0
G1 X14.28 Y-10.47 Z1.42 F1800.0
G1 X17.65 Y-7.85 Z1.42 F1800.0
G1 X18.42 Y-9.7 Z1.42 F1800.0
G1 X18.67 Y-9.7 Z1.42 F1800.0
G1 X19.1 Y-8.29 Z1.42 F1800.0
G1 X20.43 Y-9.15 Z1.42 F1800.0
G1 X21.56 Y-9.16 Z1.42 F1800.0
M108 R30.0
M102
G1 X22.01 Y-9.16 Z1.42 F1800.0
M108 R3.569
M103
G1 X24.07 Y-12.83 Z1.42 F3000.0
M108 R30.0
M101
G1 X24.46 Y-13.53 Z1.42 F3000.0
M108 R3.569
G1 X24.96 Y-12.11 Z1.42 F1800.0
G1 X25.22 Y-12.11 Z1.42 F1800.0
G1 X25.91 Y-13.96 Z1.42 F1800.0
G1 X27.49 Y-13.98 Z1.42 F1800.0
G1 X32.19 Y-12.22 Z1.42 F1800.0
G1 X32.51 Y-12.65 Z1.42 F1800.0
G1 X32.12 Y-13.96 Z1.42 F1800.0
G1 X31.57 Y-14.27 Z1.42 F1800.0
G1 X30.27 Y-15.27 Z1.42 F1800.0
G1 X31.28 Y-15.27 Z1.42 F1800.0
M108 R30.0
M102
G1 X31.73 Y-15.27 Z1.42 F1800.0
M108 R3.569
M103
G1 X29.7 Y-12.02 Z1.42 F3000.0
M108 R30.0
M101
G1 X29.28 Y-11.35 Z1.42 F3000.0
M108 R3.569
G1 X27.7 Y-11.33 Z1.42 F1800.0
G1 X26.37 Y-10.47 Z1.42 F1800.0
G1 X24.79 Y-10.45 Z1.42 F1800.0
G1 X25.22 Y-11.88 Z1.42 F1800.0
G1 X24.96 Y-11.88 Z1.42 F1800.0
G1 X21.55 Y-12.65 Z1.42 F1800.0
G1 X20.85 Y-12.0 Z1.42 F1800.0
G1 X20.6 Y-12.0 Z1.42 F1800.0
G1 X20.1 Y-12.22 Z1.42 F1800.0
G1 X18.77 Y-11.36 Z1.42 F1800.0
G1 X18.67 Y-9.93 Z1.42 F1800.0
G1 X18.42 Y-9.93 Z1.42 F1800.0
G1 X17.48 Y-11.01 Z1.42 F1800.0
M108 R30.0
M102
G1 X17.19 Y-11.35 Z1.42 F1800.0
M108 R3.569
M103
G1 X15.13 Y-7.68 Z1.42 F3000.0
M108 R30.0
M101
G1 X14.74 Y-6.98 Z1.42 F3000.0
M108 R3.569
G1 X13.57 Y-6.88 Z1.42 F1800.0
G1 X11.83 Y-6.11 Z1.42 F1800.0
G1 X12.13 Y-7.52 Z1.42 F1800.0
G1 X11.87 Y-7.52 Z1.42 F1800.0
G1 X10.38 Y-5.67 Z1.42 F1800.0
G1 X8.47 Y-8.73 Z1.42 F1800.0
G1 X7.76 Y-7.64 Z1.42 F1800.0
G1 X7.51 Y-7.64 Z1.42 F1800.0
G1 X7.01 Y-8.29 Z1.42 F1800.0
G1 X5.68 Y-7.44 Z1.42 F1800.0
G1 X5.58 Y-5.57 Z1.42 F1800.0
G1 X5.33 Y-5.57 Z1.42 F1800.0
G1 X4.23 Y-7.0 Z1.42 F1800.0
G1 X3.1 Y-6.99 Z1.42 F1800.0
M108 R30.0
M102
G1 X2.65 Y-6.98 Z1.42 F1800.0
M108 R3.569
M103
G1 X0.6 Y-3.32 Z1.42 F3000.0
M108 R30.0
M101
G1 X0.21 Y-2.62 Z1.42 F3000.0
M108 R3.569
G1 X-0.96 Y-3.16 Z1.42 F1800.0
G1 X-1.22 Y-3.16 Z1.42 F1800.0
G1 X-1.25 Y-2.18 Z1.42 F1800.0
G1 X-2.83 Y-2.16 Z1.42 F1800.0
G1 X-4.16 Y-1.31 Z1.42 F1800.0
G1 X-5.33 Y-3.27 Z1.42 F1800.0
G1 X-5.58 Y-3.27 Z1.42 F1800.0
G1 X-6.07 Y-4.36 Z1.42 F1800.0
G1 X-7.4 Y-3.51 Z1.42 F1800.0
G1 X-7.51 Y-1.21 Z1.42 F1800.0
G1 X-7.76 Y-1.21 Z1.42 F1800.0
G1 X-8.98 Y-3.49 Z1.42 F1800.0
G1 X-10.31 Y-2.64 Z1.42 F1800.0
G1 X-11.44 Y-2.62 Z1.42 F1800.0
M108 R30.0
M102
G1 X-11.89 Y-2.62 Z1.42 F1800.0
M108 R3.569
M103
G1 X-13.94 Y1.05 Z1.42 F3000.0
M108 R30.0
M101
G1 X-14.33 Y1.75 Z1.42 F3000.0
M108 R3.569
G1 X-15.91 Y1.76 Z1.42 F1800.0
G1 X-17.24 Y2.62 Z1.42 F1800.0
G1 X-18.82 Y2.64 Z1.42 F1800.0
G1 X-18.42 Y1.21 Z1.42 F1800.0
G1 X-18.67 Y1.21 Z1.42 F1800.0
G1 X-20.49 Y0.42 Z1.42 F1800.0
G1 X-22.06 Y0.44 Z1.42 F1800.0
G1 X-22.78 Y1.09 Z1.42 F1800.0
G1 X-23.04 Y1.09 Z1.42 F1800.0
G1 X-23.52 Y0.87 Z1.42 F1800.0
G1 X-24.85 Y1.73 Z1.42 F1800.0
G1 X-24.96 Y3.16 Z1.42 F1800.0
G1 X-25.22 Y3.16 Z1.42 F1800.0
G1 X-26.43 Y1.75 Z1.42 F1800.0
M103
(</surroundingLoop>)
(</layer>)
(<layer> 1.74 )
(<surroundingLoop>)
(<boundaryPerimeter>)
(<boundaryPoint> X32.172 Y-16.724 Z1.74 </boundaryPoint>)
(<boundaryPoint> X33.657 Y-11.777 Z1.74 </boundaryPoint>)
(<boundaryPoint> X-40.555 Y10.498 Z1.74 </boundaryPoint>)
(<boundaryPoint> X-42.04 Y5.55 Z1.74 </boundaryPoint>)
(<loop> outer )
G1 X-26.81 Y1.59 Z1.74 F3000.0
M101
G1 X-26.5 Y1.5 Z1.74 F1800.0
G1 X31.78 Y-15.99 Z1.74 F1800.0
G1 X32.92 Y-12.17 Z1.74 F1800.0
G1 X-40.16 Y9.76 Z1.74 F1800.0
G1 X-41.31 Y5.95 Z1.74 F1800.0
G1 X-26.81 Y1.59 Z1.74 F1800.0
M103
(</loop>)
(<perimeter> outer )
G1 X-26.92 Y1.22 Z1.74 F3000.0
M101
G1 X-26.61 Y1.13 Z1.74 F1800.0
G1 X32.04 Y-16.48 Z1.74 F1800.0
G1 X33.41 Y-11.91 Z1.74 F1800.0
G1 X-40.42 Y10.25 Z1.74 F1800.0
G1 X-41.8 Y5.68 Z1.74 F1800.0
G1 X-27.35 Y1.35 Z1.74 F1800.0
M108 R30.0
M102
G1 X-26.92 Y1.22 Z1.74 F1800.0
M108 R3.569
M103
(</perimeter>)
(</boundaryPerimeter>)
G1 X-26.43 Y4.55 Z1.74 F3000.0
M108 R30.0
M101
G1 X-26.31 Y5.34 Z1.74 F3000.0
M108 R3.569
G1 X-26.31 Y1.71 Z1.74 F1800.0
M103
G1 X-26.7 Y1.83 Z1.74 F3000.0
M101
G1 X-26.7 Y5.46 Z1.74 F1800.0
M103
G1 X-27.1 Y5.58 Z1.74 F3000.0
M101
G1 X-27.1 Y1.95 Z1.74 F1800.0
M103
G1 X-27.49 Y2.06 Z1.74 F3000.0
M101
G1 X-27.49 Y5.69 Z1.74 F1800.0
M103
G1 X-27.88 Y5.81 Z1.74 F3000.0
M101
G1 X-27.88 Y2.18 Z1.74 F1800.0
M103
G1 X-28.27 Y2.3 Z1.74 F3000.0
M101
G1 X-28.27 Y5.93 Z1.74 F1800.0
M103
G1 X-28.67 Y6.05 Z1.74 F3000.0
M101
G1 X-28.67 Y2.42 Z1.74 F1800.0
M103
G1 X-29.06 Y2.54 Z1.74 F3000.0
M101
G1 X-29.06 Y6.17 Z1.74 F1800.0
M103
G1 X-29.45 Y6.28 Z1.74 F3000.0
M101
G1 X-29.45 Y2.65 Z1.74 F1800.0
M103
G1 X-29.85 Y2.77 Z1.74 F3000.0
M101
G1 X-29.85 Y6.4 Z1.74 F1800.0
M103
G1 X-30.24 Y6.52 Z1.74 F3000.0
M101
G1 X-30.24 Y2.89 Z1.74 F1800.0
M103
G1 X-30.63 Y3.01 Z1.74 F3000.0
M101
G1 X-30.63 Y6.64 Z1.74 F1800.0
M103
G1 X-31.02 Y6.76 Z1.74 F3000.0
M101
G1 X-31.02 Y3.13 Z1.74 F1800.0
M103
G1 X-31.42 Y3.24 Z1.74 F3000.0
M101
G1 X-31.42 Y6.87 Z1.74 F1800.0
M103
G1 X-31.81 Y6.99 Z1.74 F3000.0
M101
G1 X-31.81 Y3.36 Z1.74 F1800.0
M103
G1 X-32.2 Y3.48 Z1.74 F3000.0
M101
G1 X-32.2 Y7.11 Z1.74 F1800.0
M103
G1 X-32.59 Y7.23 Z1.74 F3000.0
M101
G1 X-32.59 Y3.6 Z1.74 F1800.0
M103
G1 X-32.99 Y3.72 Z1.74 F3000.0
M101
G1 X-32.99 Y7.35 Z1.74 F1800.0
M103
G1 X-33.38 Y7.46 Z1.74 F3000.0
M101
G1 X-33.38 Y3.83 Z1.74 F1800.0
M103
G1 X-33.77 Y3.95 Z1.74 F3000.0
M101
G1 X-33.77 Y7.58 Z1.74 F1800.0
M103
G1 X-34.17 Y7.7 Z1.74 F3000.0
M101
G1 X-34.17 Y4.07 Z1.74 F1800.0
M103
G1 X-34.56 Y4.19 Z1.74 F3000.0
M101
G1 X-34.56 Y7.82 Z1.74 F1800.0
M103
G1 X-34.95 Y7.93 Z1.74 F3000.0
M101
G1 X-34.95 Y4.3 Z1.74 F1800.0
M103
G1 X-35.34 Y4.42 Z1.74 F3000.0
M101
G1 X-35.34 Y8.05 Z1.74 F1800.0
M103
G1 X-35.74 Y8.17 Z1.74 F3000.0
M101
G1 X-35.74 Y4.54 Z1.74 F1800.0
M103
G1 X-36.13 Y4.66 Z1.74 F3000.0
M101
G1 X-36.13 Y8.29 Z1.74 F1800.0
M103
G1 X-36.52 Y8.4 Z1.74 F3000.0
M101
G1 X-36.52 Y4.78 Z1.74 F1800.0
M103
G1 X-36.91 Y4.89 Z1.74 F3000.0
M101
G1 X-36.91 Y8.52 Z1.74 F1800.0
M103
G1 X-37.31 Y8.64 Z1.74 F3000.0
M101
G1 X-37.31 Y5.01 Z1.74 F1800.0
M103
G1 X-37.7 Y5.13 Z1.74 F3000.0
M101
G1 X-37.7 Y8.76 Z1.74 F1800.0
M103
G1 X-38.09 Y8.88 Z1.74 F3000.0
M101
G1 X-38.09 Y5.25 Z1.74 F1800.0
M103
G1 X-38.49 Y5.37 Z1.74 F3000.0
M101
G1 X-38.49 Y8.99 Z1.74 F1800.0
M103
G1 X-38.88 Y9.11 Z1.74 F3000.0
M101
G1 X-38.88 Y5.48 Z1.74 F1800.0
M103
G1 X-39.27 Y5.6 Z1.74 F3000.0
M101
G1 X-39.27 Y8.78 Z1.74 F1800.0
M108 R30.0
M102
G1 X-39.27 Y9.23 Z1.74 F1800.0
M108 R3.569
M103
G1 X-39.91 Y8.51 Z1.74 F3000.0
M108 R30.0
M101
G1 X-40.45 Y7.92 Z1.74 F3000.0
M108 R3.569
G1 X-40.45 Y5.95 Z1.74 F1800.0
G1 X-40.84 Y6.61 Z1.74 F1800.0
G1 X-40.84 Y6.52 Z1.74 F1800.0
M108 R30.0
M102
G1 X-40.84 Y6.07 Z1.74 F1800.0
M108 R3.569
M103
G1 X-40.43 Y5.95 Z1.74 F3000.0
M108 R30.0
M101
G1 X-39.66 Y5.72 Z1.74 F3000.0
M108 R3.569
G1 X-39.66 Y9.35 Z1.74 F1800.0
G1 X-40.06 Y9.23 Z1.74 F1800.0
G1 X-40.06 Y6.29 Z1.74 F1800.0
M108 R30.0
M102
G1 X-40.06 Y5.84 Z1.74 F1800.0
M108 R3.569
M103
G1 X-26.68 Y1.82 Z1.74 F3000.0
M108 R30.0
M101
G1 X-25.92 Y1.59 Z1.74 F3000.0
M108 R3.569
G1 X-25.92 Y5.22 Z1.74 F1800.0
M103
G1 X-25.53 Y5.11 Z1.74 F3000.0
M101
G1 X-25.53 Y1.48 Z1.74 F1800.0
M103
G1 X-25.13 Y1.36 Z1.74 F3000.0
M101
G1 X-25.13 Y4.99 Z1.74 F1800.0
M103
G1 X-24.74 Y4.87 Z1.74 F3000.0
M101
G1 X-24.74 Y1.24 Z1.74 F1800.0
M103
G1 X-24.35 Y1.12 Z1.74 F3000.0
M101
G1 X-24.35 Y4.75 Z1.74 F1800.0
M103
G1 X-23.96 Y4.63 Z1.74 F3000.0
M101
G1 X-23.96 Y1.0 Z1.74 F1800.0
M103
G1 X-23.56 Y0.89 Z1.74 F3000.0
M101
G1 X-23.56 Y4.52 Z1.74 F1800.0
M103
G1 X-23.17 Y4.4 Z1.74 F3000.0
M101
G1 X-23.17 Y0.77 Z1.74 F1800.0
M103
G1 X-22.78 Y0.65 Z1.74 F3000.0
M101
G1 X-22.78 Y4.28 Z1.74 F1800.0
M103
G1 X-22.38 Y4.16 Z1.74 F3000.0
M101
G1 X-22.38 Y0.53 Z1.74 F1800.0
M103
G1 X-21.99 Y0.41 Z1.74 F3000.0
M101
G1 X-21.99 Y4.04 Z1.74 F1800.0
M103
G1 X-21.6 Y3.93 Z1.74 F3000.0
M101
G1 X-21.6 Y0.3 Z1.74 F1800.0
M103
G1 X-21.21 Y0.18 Z1.74 F3000.0
M101
G1 X-21.21 Y3.81 Z1.74 F1800.0
M103
G1 X-20.81 Y3.69 Z1.74 F3000.0
M101
G1 X-20.81 Y0.06 Z1.74 F1800.0
M103
G1 X-20.42 Y-0.06 Z1.74 F3000.0
M101
G1 X-20.42 Y3.57 Z1.74 F1800.0
M103
G1 X-20.03 Y3.46 Z1.74 F3000.0
M101
G1 X-20.03 Y-0.18 Z1.74 F1800.0
M103
G1 X-19.64 Y-0.29 Z1.74 F3000.0
M101
G1 X-19.64 Y3.34 Z1.74 F1800.0
M103
G1 X-19.24 Y3.22 Z1.74 F3000.0
M101
G1 X-19.24 Y-0.41 Z1.74 F1800.0
M103
G1 X-18.85 Y-0.53 Z1.74 F3000.0
M101
G1 X-18.85 Y3.1 Z1.74 F1800.0
M103
G1 X-18.46 Y2.98 Z1.74 F3000.0
M101
G1 X-18.46 Y-0.65 Z1.74 F1800.0
M103
G1 X-18.06 Y-0.76 Z1.74 F3000.0
M101
G1 X-18.06 Y2.87 Z1.74 F1800.0
M103
G1 X-17.67 Y2.75 Z1.74 F3000.0
M101
G1 X-17.67 Y-0.88 Z1.74 F1800.0
M103
G1 X-17.28 Y-1.0 Z1.74 F3000.0
M101
G1 X-17.28 Y2.63 Z1.74 F1800.0
M103
G1 X-16.89 Y2.51 Z1.74 F3000.0
M101
G1 X-16.89 Y-1.12 Z1.74 F1800.0
M103
G1 X-16.49 Y-1.24 Z1.74 F3000.0
M101
G1 X-16.49 Y2.39 Z1.74 F1800.0
M103
G1 X-16.1 Y2.28 Z1.74 F3000.0
M101
G1 X-16.1 Y-1.35 Z1.74 F1800.0
M103
G1 X-15.71 Y-1.47 Z1.74 F3000.0
M101
