(** This GCode was generated by ReplicatorG 0034 **)
(*  using Skeinforge (35)  *)
(*  for a Single headed Thing-O-Matic  *)
(*  on 2012/04/17 18:28:03 (-0400) *)
(<alteration>)
(**** beginning of start.gcode ****)
(This file is for a MakerBot Thing-O-Matic)
(**** begin initialization commands ****)
G21 (set units to mm)
G90 (set positioning to absolute)
M108 R5.0 (set extruder speed)
M103 (Make sure extruder is off)
M104 S225 T0 (set extruder temperature)
M109 S120 T0 (set heated-build-platform temperature)
(**** end initialization commands ****)
(**** begin homing ****)
G162 Z F1000 (home Z axis maximum)
G92 Z10 (set Z to 0)
G1 Z0.0 (move z down 10)
G162 Z F150 (home Z axis maximum)
G161 X Y F2500 (home XY axes minimum)
M132 X Y Z A B (Recall stored home offsets for XYZAB axis)
(**** end homing ****)
(**** begin pre-wipe commands ****)
( Some people have had problems with the nozzle hitting )
( bolts or wipers during this pre-extrusion warmup.     )
( If this happens to you, you can change the values for )
( the X and Y positions in the following code.          )
( The goal is to have the toolhead wipe its initial     )
( extrusion near the edge of the platform, [anchor it]  )
( so as not to have it interfere with the print.        )
( This file can be found in:                            )
( replicatorg/skein_engines/skeinforge-##/skeinforge_application/ )
( prefs/<profile name [e.g. Thingomatic-ABP-Mk7]>/alterations )
G1 X25.0 Y-60.0 Z10.0 F3300.0 (move to waiting position)
M6 T0 (wait for toolhead parts, nozzle, HBP, etc., to reach temperature)
G0 X25 Y-57 (Position Nozzle)
G0 Z0.6     (Position Height)
M108 R4.0   (Set Extruder Speed)
M101        (Start Extruder)
G4 P1500    (Create Anchor)
(**** end pre-wipe commands ****)
(**** end of start.gcode ****)
(</alteration>)
(<creation> skeinforge </creation>)
(<version> 10.11.05 </version>)
(<extruderInitialization>)
(<craftTypeName> extrusion </craftTypeName>)
M105
(<bridgeWidthMultiplier> 1.0 </bridgeWidthMultiplier>)
(<decimalPlacesCarried> 3 </decimalPlacesCarried>)
(<layerThickness> 0.32 </layerThickness>)
(<threadSequenceString> loops perimeter infill </threadSequenceString>)
(<operatingFeedRatePerSecond> 30.0 </operatingFeedRatePerSecond>)
(<operatingFlowRate> 3.56914845556 </operatingFlowRate>)
(<orbitalFeedRatePerSecond> 15.0 </orbitalFeedRatePerSecond>)
(<travelFeedRatePerSecond> 50.0 </travelFeedRatePerSecond>)
(<perimeterWidth> 0.393 </perimeterWidth>)
(<profileName> ABS </profileName>)
(<procedureDone> carve,bottom </procedureDone>)
(<procedureDone> preface </procedureDone>)
(<procedureDone> inset </procedureDone>)
(<procedureDone> fill </procedureDone>)
(<procedureDone> speed </procedureDone>)
(<procedureDone> raft </procedureDone>)
(<procedureDone> jitter </procedureDone>)
(<procedureDone> comb </procedureDone>)
(<procedureDone> cool </procedureDone>)
(<procedureDone> outline </procedureDone>)
(<procedureDone> reversal </procedureDone>)
(<procedureDone> export </procedureDone>)
(</extruderInitialization>)
(<extrusion>)
;M113 S1.0
M108 R3.569
(<layer> 0.46 )
(<surroundingLoop>)
(<boundaryPerimeter>)
(<boundaryPoint> X44.766 Y10.715 Z0.46 </boundaryPoint>)
(<boundaryPoint> X-45.234 Y10.715 Z0.46 </boundaryPoint>)
(<boundaryPoint> X-45.234 Y8.915 Z0.46 </boundaryPoint>)
(<boundaryPoint> X21.467 Y8.915 Z0.46 </boundaryPoint>)
(<boundaryPoint> X21.527 Y8.886 Z0.46 </boundaryPoint>)
(<boundaryPoint> X21.528 Y8.872 Z0.46 </boundaryPoint>)
(<boundaryPoint> X21.476 Y8.831 Z0.46 </boundaryPoint>)
(<boundaryPoint> X-45.234 Y-5.348 Z0.46 </boundaryPoint>)
(<boundaryPoint> X-45.234 Y-10.334 Z0.46 </boundaryPoint>)
(<boundaryPoint> X-45.183 Y-10.652 Z0.46 </boundaryPoint>)
(<boundaryPoint> X-44.861 Y-10.636 Z0.46 </boundaryPoint>)
(<boundaryPoint> X45.234 Y8.514 Z0.46 </boundaryPoint>)
(<loop> outer )
M108 R2.141
G1 X47.0 Y-12.52 Z0.46 F1080.0
M101
G1 X-47.08 Y-12.52 Z0.46 F1080.0
G1 X-47.08 Y12.52 Z0.46 F1080.0
G1 X47.0 Y12.52 Z0.46 F1080.0
G1 X47.0 Y-12.25 Z0.46 F1080.0
M108 R30.0
M102
G1 X47.0 Y-12.52 Z0.46 F1080.0
M108 R2.141
M103
G1 X0.97 Y-0.66 Z0.46 F3000.0
M108 R30.0
M101
G1 X0.19 Y-0.46 Z0.46 F3000.0
M108 R2.141
G1 X44.54 Y8.97 Z0.46 F1080.0
G1 X44.29 Y10.13 Z0.46 F1080.0
G1 X-44.65 Y10.13 Z0.46 F1080.0
G1 X-44.65 Y9.5 Z0.46 F1080.0
G1 X21.6 Y9.5 Z0.46 F1080.0
G1 X22.09 Y9.27 Z0.46 F1080.0
G1 X22.14 Y8.6 Z0.46 F1080.0
G1 X21.73 Y8.28 Z0.46 F1080.0
G1 X-44.65 Y-5.83 Z0.46 F1080.0
G1 X-44.65 Y-9.99 Z0.46 F1080.0
G1 X0.1 Y-0.48 Z0.46 F1080.0
G1 X0.19 Y-0.46 Z0.46 F1080.0
M103
(</loop>)
(<perimeter> outer )
G1 X0.18 Y-0.86 Z0.46 F3000.0
M101
G1 X45.0 Y8.66 Z0.46 F1080.0
G1 X44.61 Y10.52 Z0.46 F1080.0
G1 X-45.04 Y10.52 Z0.46 F1080.0
G1 X-45.04 Y9.11 Z0.46 F1080.0
G1 X21.51 Y9.11 Z0.46 F1080.0
G1 X21.71 Y9.02 Z0.46 F1080.0
G1 X21.74 Y8.78 Z0.46 F1080.0
G1 X21.56 Y8.65 Z0.46 F1080.0
G1 X-45.04 Y-5.51 Z0.46 F1080.0
G1 X-45.04 Y-10.36 Z0.46 F1080.0
G1 X-45.08 Y-10.52 Z0.46 F1080.0
G1 X-44.93 Y-10.45 Z0.46 F1080.0
G1 X0.18 Y-0.86 Z0.46 F1080.0
M103
(</perimeter>)
(</boundaryPerimeter>)
G1 X-0.0 Y-0.24 Z0.46 F1800.0
M101
G1 X0.0 Y3.4 Z0.46 F1080.0
M103
G1 X-0.39 Y3.32 Z0.46 F1800.0
M101
G1 X-0.39 Y-0.32 Z0.46 F1080.0
G1 X-0.79 Y-0.4 Z0.46 F1080.0
G1 X-0.79 Y2.97 Z0.46 F1080.0
M108 R30.0
M102
G1 X-0.79 Y3.24 Z0.46 F1080.0
M108 R2.141
M103
G1 X-1.49 Y3.09 Z0.46 F1800.0
M108 R30.0
M101
G1 X-1.96 Y2.99 Z0.46 F1800.0
M108 R2.141
G1 X-1.96 Y-0.66 Z0.46 F1080.0
M103
G1 X-2.36 Y-0.74 Z0.46 F1800.0
M101
G1 X-2.36 Y2.9 Z0.46 F1080.0
M103
G1 X-2.75 Y2.82 Z0.46 F1800.0
M101
G1 X-2.75 Y-0.82 Z0.46 F1080.0
M103
G1 X-3.14 Y-0.91 Z0.46 F1800.0
M101
G1 X-3.14 Y2.74 Z0.46 F1080.0
M103
G1 X-3.53 Y2.65 Z0.46 F1800.0
M101
G1 X-3.53 Y-0.99 Z0.46 F1080.0
G1 X-3.93 Y-1.07 Z0.46 F1080.0
G1 X-3.93 Y2.57 Z0.46 F1080.0
G1 X-4.32 Y2.49 Z0.46 F1080.0
G1 X-4.32 Y-1.16 Z0.46 F1080.0
M103
G1 X-4.71 Y-1.24 Z0.46 F1800.0
M101
G1 X-4.71 Y2.4 Z0.46 F1080.0
M103
G1 X-5.11 Y2.32 Z0.46 F1800.0
M101
G1 X-5.11 Y-1.32 Z0.46 F1080.0
M103
G1 X-5.5 Y-1.41 Z0.46 F1800.0
M101
G1 X-5.5 Y2.23 Z0.46 F1080.0
M103
G1 X-5.89 Y2.15 Z0.46 F1800.0
M101
G1 X-5.89 Y-1.49 Z0.46 F1080.0
G1 X-6.28 Y-1.57 Z0.46 F1080.0
G1 X-6.28 Y2.07 Z0.46 F1080.0
G1 X-6.68 Y1.98 Z0.46 F1080.0
G1 X-6.68 Y-1.66 Z0.46 F1080.0
M103
G1 X-7.07 Y-1.74 Z0.46 F1800.0
M101
G1 X-7.07 Y1.9 Z0.46 F1080.0
M103
G1 X-7.46 Y1.82 Z0.46 F1800.0
M101
G1 X-7.46 Y-1.82 Z0.46 F1080.0
M103
G1 X-7.85 Y-1.91 Z0.46 F1800.0
M101
G1 X-7.85 Y1.73 Z0.46 F1080.0
M103
G1 X-8.25 Y1.65 Z0.46 F1800.0
M101
G1 X-8.25 Y-1.99 Z0.46 F1080.0
G1 X-8.64 Y-2.07 Z0.46 F1080.0
G1 X-8.64 Y1.3 Z0.46 F1080.0
M108 R30.0
M102
G1 X-8.64 Y1.57 Z0.46 F1080.0
M108 R2.141
M103
G1 X-9.35 Y1.42 Z0.46 F1800.0
M108 R30.0
M101
G1 X-9.82 Y1.32 Z0.46 F1800.0
M108 R2.141
G1 X-9.82 Y-2.32 Z0.46 F1080.0
M103
G1 X-10.21 Y-2.41 Z0.46 F1800.0
M101
G1 X-10.21 Y1.23 Z0.46 F1080.0
M103
G1 X-10.6 Y1.15 Z0.46 F1800.0
M101
G1 X-10.6 Y-2.49 Z0.46 F1080.0
M103
G1 X-11.0 Y-2.57 Z0.46 F1800.0
M101
G1 X-11.0 Y1.07 Z0.46 F1080.0
M103
G1 X-11.39 Y0.98 Z0.46 F1800.0
M101
G1 X-11.39 Y-2.66 Z0.46 F1080.0
G1 X-11.78 Y-2.74 Z0.46 F1080.0
G1 X-11.78 Y0.9 Z0.46 F1080.0
G1 X-12.17 Y0.82 Z0.46 F1080.0
G1 X-12.17 Y-2.83 Z0.46 F1080.0
M103
G1 X-12.57 Y-2.91 Z0.46 F1800.0
M101
G1 X-12.57 Y0.73 Z0.46 F1080.0
M103
G1 X-12.96 Y0.65 Z0.46 F1800.0
M101
G1 X-12.96 Y-2.99 Z0.46 F1080.0
M103
G1 X-13.35 Y-3.08 Z0.46 F1800.0
M101
G1 X-13.35 Y0.56 Z0.46 F1080.0
M103
G1 X-13.74 Y0.48 Z0.46 F1800.0
M101
G1 X-13.74 Y-3.16 Z0.46 F1080.0
G1 X-14.14 Y-3.24 Z0.46 F1080.0
G1 X-14.14 Y0.4 Z0.46 F1080.0
G1 X-14.53 Y0.32 Z0.46 F1080.0
G1 X-14.53 Y-3.33 Z0.46 F1080.0
M103
G1 X-14.92 Y-3.41 Z0.46 F1800.0
M101
G1 X-14.92 Y0.23 Z0.46 F1080.0
M103
G1 X-15.32 Y0.15 Z0.46 F1800.0
M101
G1 X-15.32 Y-3.49 Z0.46 F1080.0
M103
G1 X-15.71 Y-3.58 Z0.46 F1800.0
M101
G1 X-15.71 Y0.06 Z0.46 F1080.0
M103
G1 X-16.1 Y-0.02 Z0.46 F1800.0
M101
G1 X-16.1 Y-3.66 Z0.46 F1080.0
G1 X-16.49 Y-3.74 Z0.46 F1080.0
G1 X-16.49 Y-0.37 Z0.46 F1080.0
M108 R30.0
M102
G1 X-16.49 Y-0.1 Z0.46 F1080.0
M108 R2.141
M103
G1 X-17.2 Y-0.25 Z0.46 F1800.0
M108 R30.0
M101
G1 X-17.67 Y-0.35 Z0.46 F1800.0
M108 R2.141
G1 X-17.67 Y-3.99 Z0.46 F1080.0
M103
G1 X-18.06 Y-4.08 Z0.46 F1800.0
M101
G1 X-18.06 Y-0.44 Z0.46 F1080.0
M103
G1 X-18.46 Y-0.52 Z0.46 F1800.0
M101
G1 X-18.46 Y-4.16 Z0.46 F1080.0
M103
G1 X-18.85 Y-4.24 Z0.46 F1800.0
M101
G1 X-18.85 Y-0.6 Z0.46 F1080.0
M103
G1 X-19.24 Y-0.69 Z0.46 F1800.0
M101
G1 X-19.24 Y-4.33 Z0.46 F1080.0
G1 X-19.64 Y-4.41 Z0.46 F1080.0
G1 X-19.64 Y-0.77 Z0.46 F1080.0
G1 X-20.03 Y-0.85 Z0.46 F1080.0
G1 X-20.03 Y-4.49 Z0.46 F1080.0
M103
G1 X-20.42 Y-4.58 Z0.46 F1800.0
M101
G1 X-20.42 Y-0.94 Z0.46 F1080.0
M103
G1 X-20.81 Y-1.02 Z0.46 F1800.0
M101
G1 X-20.81 Y-4.66 Z0.46 F1080.0
M103
G1 X-21.21 Y-4.75 Z0.46 F1800.0
M101
G1 X-21.21 Y-1.1 Z0.46 F1080.0
M103
G1 X-21.6 Y-1.19 Z0.46 F1800.0
M101
G1 X-21.6 Y-4.83 Z0.46 F1080.0
G1 X-21.99 Y-4.91 Z0.46 F1080.0
G1 X-21.99 Y-1.27 Z0.46 F1080.0
G1 X-22.38 Y-1.36 Z0.46 F1080.0
G1 X-22.38 Y-5.0 Z0.46 F1080.0
M103
G1 X-22.78 Y-5.08 Z0.46 F1800.0
M101
G1 X-22.78 Y-1.44 Z0.46 F1080.0
M103
G1 X-23.17 Y-1.52 Z0.46 F1800.0
M101
G1 X-23.17 Y-5.16 Z0.46 F1080.0
M103
G1 X-23.56 Y-5.25 Z0.46 F1800.0
M101
G1 X-23.56 Y-1.61 Z0.46 F1080.0
M103
G1 X-23.96 Y-1.69 Z0.46 F1800.0
M101
G1 X-23.96 Y-5.33 Z0.46 F1080.0
G1 X-24.35 Y-5.41 Z0.46 F1080.0
G1 X-24.35 Y-2.04 Z0.46 F1080.0
M108 R30.0
M102
G1 X-24.35 Y-1.77 Z0.46 F1080.0
M108 R2.141
M103
G1 X-25.06 Y-1.92 Z0.46 F1800.0
M108 R30.0
M101
G1 X-25.53 Y-2.02 Z0.46 F1800.0
M108 R2.141
G1 X-25.53 Y-5.66 Z0.46 F1080.0
M103
G1 X-25.92 Y-5.75 Z0.46 F1800.0
M101
G1 X-25.92 Y-2.11 Z0.46 F1080.0
M103
G1 X-26.31 Y-2.19 Z0.46 F1800.0
M101
G1 X-26.31 Y-5.83 Z0.46 F1080.0
M103
G1 X-26.7 Y-5.91 Z0.46 F1800.0
M101
G1 X-26.7 Y-2.27 Z0.46 F1080.0
M103
G1 X-27.1 Y-2.36 Z0.46 F1800.0
M101
G1 X-27.1 Y-6.0 Z0.46 F1080.0
G1 X-27.49 Y-6.08 Z0.46 F1080.0
G1 X-27.49 Y-2.44 Z0.46 F1080.0
G1 X-27.88 Y-2.52 Z0.46 F1080.0
G1 X-27.88 Y-6.16 Z0.46 F1080.0
G1 X-28.27 Y-6.25 Z0.46 F1080.0
G1 X-28.27 Y-2.61 Z0.46 F1080.0
M103
G1 X-28.67 Y-2.69 Z0.46 F1800.0
M101
G1 X-28.67 Y-6.33 Z0.46 F1080.0
M103
G1 X-29.06 Y-6.41 Z0.46 F1800.0
M101
G1 X-29.06 Y-2.77 Z0.46 F1080.0
M103
G1 X-29.45 Y-2.86 Z0.46 F1800.0
M101
G1 X-29.45 Y-6.5 Z0.46 F1080.0
G1 X-29.85 Y-6.58 Z0.46 F1080.0
G1 X-29.85 Y-2.94 Z0.46 F1080.0
G1 X-30.24 Y-3.02 Z0.46 F1080.0
G1 X-30.24 Y-6.66 Z0.46 F1080.0
M103
G1 X-30.63 Y-6.75 Z0.46 F1800.0
M101
G1 X-30.63 Y-3.11 Z0.46 F1080.0
M103
G1 X-31.02 Y-3.19 Z0.46 F1800.0
M101
G1 X-31.02 Y-6.83 Z0.46 F1080.0
M103
G1 X-31.42 Y-6.92 Z0.46 F1800.0
M101
G1 X-31.42 Y-3.27 Z0.46 F1080.0
M103
G1 X-31.81 Y-3.36 Z0.46 F1800.0
M101
G1 X-31.81 Y-7.0 Z0.46 F1080.0
G1 X-32.2 Y-7.08 Z0.46 F1080.0
G1 X-32.2 Y-3.44 Z0.46 F1080.0
M103
G1 X-32.59 Y-3.53 Z0.46 F1800.0
M101
G1 X-32.59 Y-7.17 Z0.46 F1080.0
G1 X-32.99 Y-7.25 Z0.46 F1080.0
G1 X-32.99 Y-3.61 Z0.46 F1080.0
M103
G1 X-33.38 Y-3.69 Z0.46 F1800.0
M101
G1 X-33.38 Y-7.33 Z0.46 F1080.0
M103
G1 X-33.77 Y-7.42 Z0.46 F1800.0
M101
G1 X-33.77 Y-3.78 Z0.46 F1080.0
M103
G1 X-34.17 Y-3.86 Z0.46 F1800.0
M101
G1 X-34.17 Y-7.5 Z0.46 F1080.0
M103
G1 X-34.56 Y-7.58 Z0.46 F1800.0
M101
G1 X-34.56 Y-3.94 Z0.46 F1080.0
M103
G1 X-34.95 Y-4.03 Z0.46 F1800.0
M101
G1 X-34.95 Y-7.67 Z0.46 F1080.0
G1 X-35.34 Y-7.75 Z0.46 F1080.0
G1 X-35.34 Y-4.11 Z0.46 F1080.0
G1 X-35.74 Y-4.19 Z0.46 F1080.0
G1 X-35.74 Y-7.83 Z0.46 F1080.0
G1 X-36.13 Y-7.92 Z0.46 F1080.0
G1 X-36.13 Y-4.28 Z0.46 F1080.0
M103
G1 X-36.52 Y-4.36 Z0.46 F1800.0
M101
G1 X-36.52 Y-8.0 Z0.46 F1080.0
M103
G1 X-36.91 Y-8.08 Z0.46 F1800.0
M101
G1 X-36.91 Y-4.44 Z0.46 F1080.0
M103
G1 X-37.31 Y-4.53 Z0.46 F1800.0
M101
G1 X-37.31 Y-8.17 Z0.46 F1080.0
G1 X-37.7 Y-8.25 Z0.46 F1080.0
G1 X-37.7 Y-4.61 Z0.46 F1080.0
G1 X-38.09 Y-4.69 Z0.46 F1080.0
G1 X-38.09 Y-8.33 Z0.46 F1080.0
M103
G1 X-38.49 Y-8.42 Z0.46 F1800.0
M101
G1 X-38.49 Y-4.78 Z0.46 F1080.0
M103
G1 X-38.88 Y-4.86 Z0.46 F1800.0
M101
G1 X-38.88 Y-8.5 Z0.46 F1080.0
M103
G1 X-39.27 Y-8.58 Z0.46 F1800.0
M101
G1 X-39.27 Y-4.94 Z0.46 F1080.0
M103
G1 X-39.66 Y-5.03 Z0.46 F1800.0
M101
G1 X-39.66 Y-8.67 Z0.46 F1080.0
G1 X-40.06 Y-8.75 Z0.46 F1080.0
G1 X-40.06 Y-5.11 Z0.46 F1080.0
M103
G1 X-40.45 Y-5.19 Z0.46 F1800.0
M101
G1 X-40.45 Y-8.84 Z0.46 F1080.0
G1 X-40.84 Y-8.92 Z0.46 F1080.0
G1 X-40.84 Y-5.28 Z0.46 F1080.0
M103
G1 X-41.23 Y-5.36 Z0.46 F1800.0
M101
G1 X-41.23 Y-8.73 Z0.46 F1080.0
M108 R30.0
M102
G1 X-41.23 Y-9.0 Z0.46 F1080.0
M108 R2.141
M103
G1 X-41.94 Y-9.15 Z0.46 F1800.0
M108 R30.0
M101
G1 X-42.41 Y-9.25 Z0.46 F1800.0
M108 R2.141
G1 X-42.41 Y-5.61 Z0.46 F1080.0
M103
G1 X-42.8 Y-5.7 Z0.46 F1800.0
M101
G1 X-42.8 Y-9.34 Z0.46 F1080.0
G1 X-43.2 Y-9.42 Z0.46 F1080.0
G1 X-43.2 Y-5.78 Z0.46 F1080.0
G1 X-43.59 Y-5.86 Z0.46 F1080.0
G1 X-43.59 Y-9.5 Z0.46 F1080.0
M103
G1 X-43.98 Y-9.59 Z0.46 F1800.0
M101
G1 X-43.98 Y-5.95 Z0.46 F1080.0
M103
G1 X-44.38 Y-6.03 Z0.46 F1800.0
M101
G1 X-44.38 Y-9.44 Z0.46 F1080.0
M108 R30.0
M102
G1 X-44.38 Y-9.71 Z0.46 F1080.0
M108 R2.141
M103
G1 X-41.89 Y-5.85 Z0.46 F1800.0
M108 R30.0
M101
G1 X-41.63 Y-5.45 Z0.46 F1800.0
M108 R2.141
G1 X-41.63 Y-9.09 Z0.46 F1080.0
G1 X-42.02 Y-9.17 Z0.46 F1080.0
G1 X-42.02 Y-5.8 Z0.46 F1080.0
M108 R30.0
M102
G1 X-42.02 Y-5.53 Z0.46 F1080.0
M108 R2.141
M103
G1 X21.59 Y8.59 Z0.46 F3000.0
G1 X21.75 Y8.77 Z0.46 F3000.0
G1 X21.72 Y9.02 Z0.46 F3000.0
G1 X21.53 Y9.18 Z0.46 F3000.0
G1 X-43.9 Y9.76 Z0.46 F1800.0
M108 R30.0
M101
G1 X-44.38 Y9.76 Z0.46 F1800.0
M108 R2.141
G1 X-44.38 Y9.87 Z0.46 F1080.0
G1 X-43.98 Y9.87 Z0.46 F1080.0
G1 X-43.98 Y9.76 Z0.46 F1080.0
G1 X-43.59 Y9.76 Z0.46 F1080.0
G1 X-43.59 Y9.87 Z0.46 F1080.0
G1 X-43.2 Y9.87 Z0.46 F1080.0
G1 X-43.2 Y9.76 Z0.46 F1080.0
G1 X-42.8 Y9.76 Z0.46 F1080.0
G1 X-42.8 Y9.87 Z0.46 F1080.0
G1 X-42.41 Y9.87 Z0.46 F1080.0
G1 X-42.41 Y9.76 Z0.46 F1080.0
G1 X-42.02 Y9.76 Z0.46 F1080.0
G1 X-42.02 Y9.87 Z0.46 F1080.0
G1 X-41.63 Y9.87 Z0.46 F1080.0
G1 X-41.63 Y9.76 Z0.46 F1080.0
G1 X-41.23 Y9.76 Z0.46 F1080.0
G1 X-41.23 Y9.87 Z0.46 F1080.0
G1 X-40.84 Y9.87 Z0.46 F1080.0
G1 X-40.84 Y9.76 Z0.46 F1080.0
G1 X-40.45 Y9.76 Z0.46 F1080.0
G1 X-40.45 Y9.87 Z0.46 F1080.0
G1 X-40.06 Y9.87 Z0.46 F1080.0
G1 X-40.06 Y9.76 Z0.46 F1080.0
G1 X-39.66 Y9.76 Z0.46 F1080.0
G1 X-39.66 Y9.87 Z0.46 F1080.0
G1 X-39.27 Y9.87 Z0.46 F1080.0
G1 X-39.27 Y9.76 Z0.46 F1080.0
G1 X-38.88 Y9.76 Z0.46 F1080.0
G1 X-38.88 Y9.87 Z0.46 F1080.0
G1 X-38.49 Y9.87 Z0.46 F1080.0
G1 X-38.49 Y9.76 Z0.46 F1080.0
G1 X-38.09 Y9.76 Z0.46 F1080.0
G1 X-38.09 Y9.87 Z0.46 F1080.0
G1 X-37.7 Y9.87 Z0.46 F1080.0
G1 X-37.7 Y9.76 Z0.46 F1080.0
G1 X-37.31 Y9.76 Z0.46 F1080.0
G1 X-37.31 Y9.87 Z0.46 F1080.0
G1 X-36.91 Y9.87 Z0.46 F1080.0
G1 X-36.91 Y9.76 Z0.46 F1080.0
G1 X-36.52 Y9.76 Z0.46 F1080.0
G1 X-36.52 Y9.87 Z0.46 F1080.0
G1 X-36.13 Y9.87 Z0.46 F1080.0
G1 X-36.13 Y9.76 Z0.46 F1080.0
G1 X-35.74 Y9.76 Z0.46 F1080.0
G1 X-35.74 Y9.87 Z0.46 F1080.0
G1 X-35.34 Y9.87 Z0.46 F1080.0
G1 X-35.34 Y9.76 Z0.46 F1080.0
G1 X-34.95 Y9.76 Z0.46 F1080.0
G1 X-34.95 Y9.87 Z0.46 F1080.0
G1 X-34.56 Y9.87 Z0.46 F1080.0
G1 X-34.56 Y9.76 Z0.46 F1080.0
G1 X-34.17 Y9.76 Z0.46 F1080.0
G1 X-34.17 Y9.87 Z0.46 F1080.0
G1 X-33.77 Y9.87 Z0.46 F1080.0
G1 X-33.77 Y9.76 Z0.46 F1080.0
G1 X-33.38 Y9.76 Z0.46 F1080.0
G1 X-33.38 Y9.87 Z0.46 F1080.0
G1 X-32.99 Y9.87 Z0.46 F1080.0
G1 X-32.99 Y9.76 Z0.46 F1080.0
G1 X-32.59 Y9.76 Z0.46 F1080.0
G1 X-32.59 Y9.87 Z0.46 F1080.0
G1 X-32.2 Y9.87 Z0.46 F1080.0
G1 X-32.2 Y9.76 Z0.46 F1080.0
G1 X-31.81 Y9.76 Z0.46 F1080.0
G1 X-31.81 Y9.87 Z0.46 F1080.0
G1 X-31.42 Y9.87 Z0.46 F1080.0
G1 X-31.42 Y9.76 Z0.46 F1080.0
G1 X-31.02 Y9.76 Z0.46 F1080.0
G1 X-31.02 Y9.87 Z0.46 F1080.0
G1 X-30.63 Y9.87 Z0.46 F1080.0
G1 X-30.63 Y9.76 Z0.46 F1080.0
G1 X-30.24 Y9.76 Z0.46 F1080.0
G1 X-30.24 Y9.87 Z0.46 F1080.0
G1 X-29.85 Y9.87 Z0.46 F1080.0
G1 X-29.85 Y9.76 Z0.46 F1080.0
G1 X-29.45 Y9.76 Z0.46 F1080.0
G1 X-29.45 Y9.87 Z0.46 F1080.0
G1 X-29.06 Y9.87 Z0.46 F1080.0
G1 X-29.06 Y9.76 Z0.46 F1080.0
G1 X-28.67 Y9.76 Z0.46 F1080.0
G1 X-28.67 Y9.87 Z0.46 F1080.0
G1 X-28.27 Y9.87 Z0.46 F1080.0
G1 X-28.27 Y9.76 Z0.46 F1080.0
G1 X-27.88 Y9.76 Z0.46 F1080.0
G1 X-27.88 Y9.87 Z0.46 F1080.0
G1 X-27.49 Y9.87 Z0.46 F1080.0
G1 X-27.49 Y9.76 Z0.46 F1080.0
G1 X-27.1 Y9.76 Z0.46 F1080.0
G1 X-27.1 Y9.87 Z0.46 F1080.0
G1 X-26.7 Y9.87 Z0.46 F1080.0
G1 X-26.7 Y9.76 Z0.46 F1080.0
G1 X-26.31 Y9.76 Z0.46 F1080.0
G1 X-26.31 Y9.87 Z0.46 F1080.0
G1 X-25.92 Y9.87 Z0.46 F1080.0
G1 X-25.92 Y9.76 Z0.46 F1080.0
G1 X-25.53 Y9.76 Z0.46 F1080.0
G1 X-25.53 Y9.87 Z0.46 F1080.0
G1 X-25.13 Y9.87 Z0.46 F1080.0
G1 X-25.13 Y9.76 Z0.46 F1080.0
G1 X-24.74 Y9.76 Z0.46 F1080.0
G1 X-24.74 Y9.87 Z0.46 F1080.0
G1 X-24.35 Y9.87 Z0.46 F1080.0
G1 X-24.35 Y9.76 Z0.46 F1080.0
G1 X-23.96 Y9.76 Z0.46 F1080.0
G1 X-23.96 Y9.87 Z0.46 F1080.0
G1 X-23.56 Y9.87 Z0.46 F1080.0
G1 X-23.56 Y9.76 Z0.46 F1080.0
G1 X-23.17 Y9.76 Z0.46 F1080.0
G1 X-23.17 Y9.87 Z0.46 F1080.0
G1 X-22.78 Y9.87 Z0.46 F1080.0
G1 X-22.78 Y9.76 Z0.46 F1080.0
G1 X-22.38 Y9.76 Z0.46 F1080.0
G1 X-22.38 Y9.87 Z0.46 F1080.0
G1 X-21.99 Y9.87 Z0.46 F1080.0
G1 X-21.99 Y9.76 Z0.46 F1080.0
G1 X-21.6 Y9.76 Z0.46 F1080.0
G1 X-21.6 Y9.87 Z0.46 F1080.0
G1 X-21.21 Y9.87 Z0.46 F1080.0
G1 X-21.21 Y9.76 Z0.46 F1080.0
G1 X-20.81 Y9.76 Z0.46 F1080.0
G1 X-20.81 Y9.87 Z0.46 F1080.0
G1 X-20.42 Y9.87 Z0.46 F1080.0
G1 X-20.42 Y9.76 Z0.46 F1080.0
G1 X-20.03 Y9.76 Z0.46 F1080.0
G1 X-20.03 Y9.87 Z0.46 F1080.0
G1 X-19.64 Y9.87 Z0.46 F1080.0
G1 X-19.64 Y9.76 Z0.46 F1080.0
G1 X-19.24 Y9.76 Z0.46 F1080.0
G1 X-19.24 Y9.87 Z0.46 F1080.0
G1 X-18.85 Y9.87 Z0.46 F1080.0
G1 X-18.85 Y9.76 Z0.46 F1080.0
G1 X-18.46 Y9.76 Z0.46 F1080.0
G1 X-18.46 Y9.87 Z0.46 F1080.0
G1 X-18.06 Y9.87 Z0.46 F1080.0
G1 X-18.06 Y9.76 Z0.46 F1080.0
G1 X-17.67 Y9.76 Z0.46 F1080.0
G1 X-17.67 Y9.87 Z0.46 F1080.0
G1 X-17.28 Y9.87 Z0.46 F1080.0
G1 X-17.28 Y9.76 Z0.46 F1080.0
G1 X-16.89 Y9.76 Z0.46 F1080.0
G1 X-16.89 Y9.87 Z0.46 F1080.0
G1 X-16.49 Y9.87 Z0.46 F1080.0
G1 X-16.49 Y9.76 Z0.46 F1080.0
G1 X-16.1 Y9.76 Z0.46 F1080.0
G1 X-16.1 Y9.87 Z0.46 F1080.0
G1 X-15.71 Y9.87 Z0.46 F1080.0
G1 X-15.71 Y9.76 Z0.46 F1080.0
G1 X-15.32 Y9.76 Z0.46 F1080.0
G1 X-15.32 Y9.87 Z0.46 F1080.0
G1 X-14.92 Y9.87 Z0.46 F1080.0
G1 X-14.92 Y9.76 Z0.46 F1080.0
G1 X-14.53 Y9.76 Z0.46 F1080.0
G1 X-14.53 Y9.87 Z0.46 F1080.0
G1 X-14.14 Y9.87 Z0.46 F1080.0
G1 X-14.14 Y9.76 Z0.46 F1080.0
G1 X-13.74 Y9.76 Z0.46 F1080.0
G1 X-13.74 Y9.87 Z0.46 F1080.0
G1 X-13.35 Y9.87 Z0.46 F1080.0
G1 X-13.35 Y9.76 Z0.46 F1080.0
G1 X-12.96 Y9.76 Z0.46 F1080.0
G1 X-12.96 Y9.87 Z0.46 F1080.0
G1 X-12.57 Y9.87 Z0.46 F1080.0
G1 X-12.57 Y9.76 Z0.46 F1080.0
G1 X-12.17 Y9.76 Z0.46 F1080.0
G1 X-12.17 Y9.87 Z0.46 F1080.0
G1 X-11.78 Y9.87 Z0.46 F1080.0
G1 X-11.78 Y9.76 Z0.46 F1080.0
G1 X-11.39 Y9.76 Z0.46 F1080.0
G1 X-11.39 Y9.87 Z0.46 F1080.0
G1 X-11.0 Y9.87 Z0.46 F1080.0
G1 X-11.0 Y9.76 Z0.46 F1080.0
G1 X-10.6 Y9.76 Z0.46 F1080.0
G1 X-10.6 Y9.87 Z0.46 F1080.0
G1 X-10.21 Y9.87 Z0.46 F1080.0
G1 X-10.21 Y9.76 Z0.46 F1080.0
G1 X-9.82 Y9.76 Z0.46 F1080.0
G1 X-9.82 Y9.87 Z0.46 F1080.0
G1 X-9.43 Y9.87 Z0.46 F1080.0
G1 X-9.43 Y9.76 Z0.46 F1080.0
G1 X-9.03 Y9.76 Z0.46 F1080.0
G1 X-9.03 Y9.87 Z0.46 F1080.0
G1 X-8.64 Y9.87 Z0.46 F1080.0
G1 X-8.64 Y9.76 Z0.46 F1080.0
G1 X-8.25 Y9.76 Z0.46 F1080.0
G1 X-8.25 Y9.87 Z0.46 F1080.0
G1 X-7.85 Y9.87 Z0.46 F1080.0
G1 X-7.85 Y9.76 Z0.46 F1080.0
G1 X-7.46 Y9.76 Z0.46 F1080.0
G1 X-7.46 Y9.87 Z0.46 F1080.0
G1 X-7.07 Y9.87 Z0.46 F1080.0
G1 X-7.07 Y9.76 Z0.46 F1080.0
G1 X-6.68 Y9.76 Z0.46 F1080.0
G1 X-6.68 Y9.87 Z0.46 F1080.0
G1 X-6.28 Y9.87 Z0.46 F1080.0
G1 X-6.28 Y9.76 Z0.46 F1080.0
G1 X-5.89 Y9.76 Z0.46 F1080.0
G1 X-5.89 Y9.87 Z0.46 F1080.0
G1 X-5.5 Y9.87 Z0.46 F1080.0
G1 X-5.5 Y9.76 Z0.46 F1080.0
G1 X-5.11 Y9.76 Z0.46 F1080.0
G1 X-5.11 Y9.87 Z0.46 F1080.0
G1 X-4.71 Y9.87 Z0.46 F1080.0
G1 X-4.71 Y9.76 Z0.46 F1080.0
G1 X-4.32 Y9.76 Z0.46 F1080.0
G1 X-4.32 Y9.87 Z0.46 F1080.0
G1 X-3.93 Y9.87 Z0.46 F1080.0
G1 X-3.93 Y9.76 Z0.46 F1080.0
G1 X-3.53 Y9.76 Z0.46 F1080.0
G1 X-3.53 Y9.87 Z0.46 F1080.0
G1 X-3.14 Y9.87 Z0.46 F1080.0
G1 X-3.14 Y9.76 Z0.46 F1080.0
G1 X-2.75 Y9.76 Z0.46 F1080.0
G1 X-2.75 Y9.87 Z0.46 F1080.0
G1 X-2.36 Y9.87 Z0.46 F1080.0
G1 X-2.36 Y9.76 Z0.46 F1080.0
G1 X-1.96 Y9.76 Z0.46 F1080.0
G1 X-1.96 Y9.87 Z0.46 F1080.0
G1 X-1.57 Y9.87 Z0.46 F1080.0
G1 X-1.57 Y9.76 Z0.46 F1080.0
G1 X-1.18 Y9.76 Z0.46 F1080.0
G1 X-1.18 Y9.87 Z0.46 F1080.0
G1 X-0.79 Y9.87 Z0.46 F1080.0
G1 X-0.79 Y9.76 Z0.46 F1080.0
G1 X-0.39 Y9.76 Z0.46 F1080.0
G1 X-0.39 Y9.87 Z0.46 F1080.0
G1 X0.0 Y9.87 Z0.46 F1080.0
G1 X0.0 Y9.76 Z0.46 F1080.0
G1 X0.39 Y9.76 Z0.46 F1080.0
G1 X0.39 Y9.87 Z0.46 F1080.0
G1 X0.79 Y9.87 Z0.46 F1080.0
G1 X0.79 Y9.76 Z0.46 F1080.0
G1 X1.18 Y9.76 Z0.46 F1080.0
G1 X1.18 Y9.87 Z0.46 F1080.0
G1 X1.57 Y9.87 Z0.46 F1080.0
G1 X1.57 Y9.76 Z0.46 F1080.0
G1 X1.96 Y9.76 Z0.46 F1080.0
G1 X1.96 Y9.87 Z0.46 F1080.0
G1 X2.36 Y9.87 Z0.46 F1080.0
G1 X2.36 Y9.76 Z0.46 F1080.0
G1 X2.75 Y9.76 Z0.46 F1080.0
G1 X2.75 Y9.87 Z0.46 F1080.0
G1 X3.14 Y9.87 Z0.46 F1080.0
G1 X3.14 Y9.76 Z0.46 F1080.0
G1 X3.53 Y9.76 Z0.46 F1080.0
G1 X3.53 Y9.87 Z0.46 F1080.0
G1 X3.93 Y9.87 Z0.46 F1080.0
G1 X3.93 Y9.76 Z0.46 F1080.0
G1 X4.32 Y9.76 Z0.46 F1080.0
G1 X4.32 Y9.87 Z0.46 F1080.0
G1 X4.71 Y9.87 Z0.46 F1080.0
G1 X4.71 Y9.76 Z0.46 F1080.0
G1 X5.11 Y9.76 Z0.46 F1080.0
G1 X5.11 Y9.87 Z0.46 F1080.0
G1 X5.5 Y9.87 Z0.46 F1080.0
G1 X5.5 Y9.76 Z0.46 F1080.0
G1 X5.89 Y9.76 Z0.46 F1080.0
G1 X5.89 Y9.87 Z0.46 F1080.0
G1 X6.28 Y9.87 Z0.46 F1080.0
G1 X6.28 Y9.76 Z0.46 F1080.0
G1 X6.68 Y9.76 Z0.46 F1080.0
G1 X6.68 Y9.87 Z0.46 F1080.0
G1 X7.07 Y9.87 Z0.46 F1080.0
G1 X7.07 Y9.76 Z0.46 F1080.0
G1 X7.46 Y9.76 Z0.46 F1080.0
G1 X7.46 Y9.87 Z0.46 F1080.0
G1 X7.85 Y9.87 Z0.46 F1080.0
G1 X7.85 Y9.76 Z0.46 F1080.0
G1 X8.25 Y9.76 Z0.46 F1080.0
G1 X8.25 Y9.87 Z0.46 F1080.0
G1 X8.64 Y9.87 Z0.46 F1080.0
G1 X8.64 Y9.76 Z0.46 F1080.0
G1 X9.03 Y9.76 Z0.46 F1080.0
G1 X9.03 Y9.87 Z0.46 F1080.0
G1 X9.43 Y9.87 Z0.46 F1080.0
G1 X9.43 Y9.76 Z0.46 F1080.0
G1 X9.82 Y9.76 Z0.46 F1080.0
G1 X9.82 Y9.87 Z0.46 F1080.0
G1 X10.21 Y9.87 Z0.46 F1080.0
G1 X10.21 Y9.76 Z0.46 F1080.0
G1 X10.6 Y9.76 Z0.46 F1080.0
G1 X10.6 Y9.87 Z0.46 F1080.0
G1 X11.0 Y9.87 Z0.46 F1080.0
G1 X11.0 Y9.76 Z0.46 F1080.0
G1 X11.39 Y9.76 Z0.46 F1080.0
G1 X11.39 Y9.87 Z0.46 F1080.0
G1 X11.78 Y9.87 Z0.46 F1080.0
G1 X11.78 Y9.76 Z0.46 F1080.0
G1 X12.17 Y9.76 Z0.46 F1080.0
G1 X12.17 Y9.87 Z0.46 F1080.0
G1 X12.57 Y9.87 Z0.46 F1080.0
G1 X12.57 Y9.76 Z0.46 F1080.0
G1 X12.96 Y9.76 Z0.46 F1080.0
G1 X12.96 Y9.87 Z0.46 F1080.0
G1 X13.35 Y9.87 Z0.46 F1080.0
G1 X13.35 Y9.76 Z0.46 F1080.0
G1 X13.74 Y9.76 Z0.46 F1080.0
G1 X13.74 Y9.87 Z0.46 F1080.0
G1 X14.14 Y9.87 Z0.46 F1080.0
G1 X14.14 Y9.76 Z0.46 F1080.0
G1 X14.53 Y9.76 Z0.46 F1080.0
G1 X14.53 Y9.87 Z0.46 F1080.0
G1 X14.92 Y9.87 Z0.46 F1080.0
G1 X14.92 Y9.76 Z0.46 F1080.0
G1 X15.32 Y9.76 Z0.46 F1080.0
G1 X15.32 Y9.87 Z0.46 F1080.0
G1 X15.71 Y9.87 Z0.46 F1080.0
G1 X15.71 Y9.76 Z0.46 F1080.0
G1 X16.1 Y9.76 Z0.46 F1080.0
G1 X16.1 Y9.87 Z0.46 F1080.0
G1 X16.49 Y9.87 Z0.46 F1080.0
G1 X16.49 Y9.76 Z0.46 F1080.0
G1 X16.89 Y9.76 Z0.46 F1080.0
G1 X16.89 Y9.87 Z0.46 F1080.0
G1 X17.28 Y9.87 Z0.46 F1080.0
G1 X17.28 Y9.76 Z0.46 F1080.0
G1 X17.67 Y9.76 Z0.46 F1080.0
G1 X17.67 Y9.87 Z0.46 F1080.0
G1 X18.06 Y9.87 Z0.46 F1080.0
G1 X18.06 Y9.76 Z0.46 F1080.0
G1 X18.46 Y9.76 Z0.46 F1080.0
G1 X18.46 Y9.87 Z0.46 F1080.0
G1 X18.85 Y9.87 Z0.46 F1080.0
G1 X18.85 Y9.76 Z0.46 F1080.0
G1 X19.24 Y9.76 Z0.46 F1080.0
G1 X19.24 Y9.87 Z0.46 F1080.0
G1 X19.64 Y9.87 Z0.46 F1080.0
G1 X19.64 Y9.76 Z0.46 F1080.0
G1 X20.03 Y9.76 Z0.46 F1080.0
G1 X20.03 Y9.87 Z0.46 F1080.0
G1 X20.42 Y9.87 Z0.46 F1080.0
G1 X20.42 Y9.76 Z0.46 F1080.0
G1 X20.81 Y9.76 Z0.46 F1080.0
G1 X20.81 Y9.87 Z0.46 F1080.0
G1 X21.21 Y9.87 Z0.46 F1080.0
G1 X21.21 Y9.76 Z0.46 F1080.0
G1 X21.6 Y9.76 Z0.46 F1080.0
G1 X21.6 Y9.87 Z0.46 F1080.0
G1 X21.99 Y9.87 Z0.46 F1080.0
M108 R30.0
M102
G1 X21.99 Y9.87 Z0.46 F1080.0
G1 X21.99 Y9.6 Z0.46 F1080.0
M108 R2.141
M103
G1 X23.41 Y5.23 Z0.46 F1800.0
M108 R30.0
M101
G1 X23.56 Y4.77 Z0.46 F1800.0
M108 R2.141
G1 X23.56 Y9.87 Z0.46 F1080.0
G1 X23.17 Y9.87 Z0.46 F1080.0
G1 X23.17 Y4.69 Z0.46 F1080.0
G1 X22.78 Y4.6 Z0.46 F1080.0
G1 X22.78 Y9.87 Z0.46 F1080.0
G1 X22.38 Y9.87 Z0.46 F1080.0
G1 X22.38 Y9.02 Z0.46 F1080.0
M108 R30.0
M102
G1 X22.38 Y8.74 Z0.46 F1080.0
M108 R2.141
M103
G1 X21.95 Y8.33 Z0.46 F1800.0
M108 R30.0
M101
G1 X21.6 Y7.99 Z0.46 F1800.0
M108 R2.141
G1 X21.6 Y4.35 Z0.46 F1080.0
M103
G1 X21.21 Y4.27 Z0.46 F1800.0
M101
G1 X21.21 Y7.91 Z0.46 F1080.0
M103
G1 X20.81 Y7.83 Z0.46 F1800.0
M101
G1 X20.81 Y4.19 Z0.46 F1080.0
G1 X20.42 Y4.1 Z0.46 F1080.0
G1 X20.42 Y7.74 Z0.46 F1080.0
M103
G1 X20.03 Y7.66 Z0.46 F1800.0
M101
G1 X20.03 Y4.02 Z0.46 F1080.0
M103
G1 X19.64 Y3.94 Z0.46 F1800.0
M101
G1 X19.64 Y7.58 Z0.46 F1080.0
G1 X19.24 Y7.49 Z0.46 F1080.0
G1 X19.24 Y3.85 Z0.46 F1080.0
M103
G1 X18.85 Y3.77 Z0.46 F1800.0
M101
G1 X18.85 Y7.41 Z0.46 F1080.0
M103
G1 X18.46 Y7.33 Z0.46 F1800.0
M101
G1 X18.46 Y3.69 Z0.46 F1080.0
M103
G1 X18.06 Y3.6 Z0.46 F1800.0
M101
G1 X18.06 Y7.24 Z0.46 F1080.0
M103
G1 X17.67 Y7.16 Z0.46 F1800.0
M101
G1 X17.67 Y3.52 Z0.46 F1080.0
G1 X17.28 Y3.44 Z0.46 F1080.0
G1 X17.28 Y7.08 Z0.46 F1080.0
G1 X16.89 Y6.99 Z0.46 F1080.0
G1 X16.89 Y3.35 Z0.46 F1080.0
M103
G1 X16.49 Y3.27 Z0.46 F1800.0
M101
G1 X16.49 Y6.91 Z0.46 F1080.0
M103
G1 X16.1 Y6.83 Z0.46 F1800.0
M101
G1 X16.1 Y3.19 Z0.46 F1080.0
M103
G1 X15.71 Y3.1 Z0.46 F1800.0
M101
G1 X15.71 Y6.74 Z0.46 F1080.0
M103
G1 X15.32 Y6.66 Z0.46 F1800.0
M101
G1 X15.32 Y3.02 Z0.46 F1080.0
G1 X14.92 Y2.94 Z0.46 F1080.0
G1 X14.92 Y6.31 Z0.46 F1080.0
M108 R30.0
M102
G1 X14.92 Y6.58 Z0.46 F1080.0
M108 R2.141
M103
G1 X14.21 Y6.42 Z0.46 F1800.0
M108 R30.0
M101
G1 X13.74 Y6.32 Z0.46 F1800.0
M108 R2.141
G1 X13.74 Y2.68 Z0.46 F1080.0
M103
G1 X14.53 Y2.85 Z0.46 F1800.0
M101
G1 X14.53 Y6.49 Z0.46 F1080.0
G1 X14.14 Y6.41 Z0.46 F1080.0
G1 X14.14 Y2.77 Z0.46 F1080.0
M103
G1 X13.35 Y2.6 Z0.46 F1800.0
M101
G1 X13.35 Y6.24 Z0.46 F1080.0
M103
G1 X12.96 Y6.16 Z0.46 F1800.0
M101
G1 X12.96 Y2.52 Z0.46 F1080.0
G1 X12.57 Y2.43 Z0.46 F1080.0
G1 X12.57 Y6.07 Z0.46 F1080.0
M103
G1 X12.17 Y5.99 Z0.46 F1800.0
M101
G1 X12.17 Y2.35 Z0.46 F1080.0
M103
G1 X11.78 Y2.27 Z0.46 F1800.0
M101
G1 X11.78 Y5.91 Z0.46 F1080.0
G1 X11.39 Y5.82 Z0.46 F1080.0
G1 X11.39 Y2.18 Z0.46 F1080.0
M103
G1 X11.0 Y2.1 Z0.46 F1800.0
M101
G1 X11.0 Y5.74 Z0.46 F1080.0
M103
G1 X10.6 Y5.66 Z0.46 F1800.0
M101
G1 X10.6 Y2.02 Z0.46 F1080.0
M103
G1 X10.21 Y1.93 Z0.46 F1800.0
M101
G1 X10.21 Y5.57 Z0.46 F1080.0
M103
G1 X9.82 Y5.49 Z0.46 F1800.0
M101
G1 X9.82 Y1.85 Z0.46 F1080.0
G1 X9.43 Y1.77 Z0.46 F1080.0
G1 X9.43 Y5.41 Z0.46 F1080.0
G1 X9.03 Y5.32 Z0.46 F1080.0
G1 X9.03 Y1.68 Z0.46 F1080.0
M103
G1 X8.64 Y1.6 Z0.46 F1800.0
M101
G1 X8.64 Y5.24 Z0.46 F1080.0
M103
G1 X8.25 Y5.16 Z0.46 F1800.0
M101
G1 X8.25 Y1.52 Z0.46 F1080.0
M103
G1 X7.85 Y1.43 Z0.46 F1800.0
M101
G1 X7.85 Y5.07 Z0.46 F1080.0
M103
G1 X7.46 Y4.99 Z0.46 F1800.0
M101
G1 X7.46 Y1.35 Z0.46 F1080.0
G1 X7.07 Y1.26 Z0.46 F1080.0
G1 X7.07 Y4.64 Z0.46 F1080.0
M108 R30.0
M102
G1 X7.07 Y4.91 Z0.46 F1080.0
M108 R2.141
M103
G1 X6.36 Y4.76 Z0.46 F1800.0
M108 R30.0
M101
G1 X5.89 Y4.66 Z0.46 F1800.0
M108 R2.141
G1 X5.89 Y1.01 Z0.46 F1080.0
M103
G1 X6.68 Y1.18 Z0.46 F1800.0
M101
G1 X6.68 Y4.82 Z0.46 F1080.0
G1 X6.28 Y4.74 Z0.46 F1080.0
G1 X6.28 Y1.1 Z0.46 F1080.0
M103
G1 X5.5 Y0.93 Z0.46 F1800.0
M101
G1 X5.5 Y4.57 Z0.46 F1080.0
M103
G1 X5.11 Y4.49 Z0.46 F1800.0
M101
G1 X5.11 Y0.85 Z0.46 F1080.0
M103
G1 X4.71 Y0.76 Z0.46 F1800.0
M101
G1 X4.71 Y4.4 Z0.46 F1080.0
M103
G1 X4.32 Y4.32 Z0.46 F1800.0
M101
G1 X4.32 Y0.68 Z0.46 F1080.0
G1 X3.93 Y0.6 Z0.46 F1080.0
G1 X3.93 Y4.24 Z0.46 F1080.0
G1 X3.53 Y4.15 Z0.46 F1080.0
G1 X3.53 Y0.51 Z0.46 F1080.0
M103
G1 X3.14 Y0.43 Z0.46 F1800.0
M101
G1 X3.14 Y4.07 Z0.46 F1080.0
M103
G1 X2.75 Y3.99 Z0.46 F1800.0
M101
G1 X2.75 Y0.35 Z0.46 F1080.0
M103
G1 X2.36 Y0.26 Z0.46 F1800.0
M101
G1 X2.36 Y3.9 Z0.46 F1080.0
M103
G1 X1.96 Y3.82 Z0.46 F1800.0
M101
G1 X1.96 Y0.18 Z0.46 F1080.0
G1 X1.57 Y0.1 Z0.46 F1080.0
G1 X1.57 Y3.74 Z0.46 F1080.0
G1 X1.18 Y3.65 Z0.46 F1080.0
G1 X1.18 Y0.01 Z0.46 F1080.0
M103
G1 X0.79 Y-0.07 Z0.46 F1800.0
M101
G1 X0.79 Y3.57 Z0.46 F1080.0
M103
G1 X0.39 Y3.49 Z0.46 F1800.0
M101
G1 X0.39 Y0.12 Z0.46 F1080.0
M108 R30.0
M102
G1 X0.39 Y-0.15 Z0.46 F1080.0
M108 R2.141
M103
G1 X-0.71 Y-0.39 Z0.46 F1800.0
M108 R30.0
M101
G1 X-1.18 Y-0.49 Z0.46 F1800.0
M108 R2.141
G1 X-1.18 Y3.15 Z0.46 F1080.0
G1 X-1.57 Y3.07 Z0.46 F1080.0
G1 X-1.57 Y-0.3 Z0.46 F1080.0
M108 R30.0
M102
G1 X-1.57 Y-0.57 Z0.46 F1080.0
M108 R2.141
M103
G1 X-8.56 Y-2.06 Z0.46 F1800.0
M108 R30.0
M101
G1 X-9.03 Y-2.16 Z0.46 F1800.0
M108 R2.141
G1 X-9.03 Y1.48 Z0.46 F1080.0
G1 X-9.43 Y1.4 Z0.46 F1080.0
G1 X-9.43 Y-1.97 Z0.46 F1080.0
M108 R30.0
M102
G1 X-9.43 Y-2.24 Z0.46 F1080.0
M108 R2.141
M103
G1 X-16.42 Y-3.73 Z0.46 F1800.0
M108 R30.0
M101
G1 X-16.89 Y-3.83 Z0.46 F1800.0
M108 R2.141
G1 X-16.89 Y-0.19 Z0.46 F1080.0
G1 X-17.28 Y-0.27 Z0.46 F1080.0
G1 X-17.28 Y-3.64 Z0.46 F1080.0
M108 R30.0
M102
G1 X-17.28 Y-3.91 Z0.46 F1080.0
M108 R2.141
M103
G1 X-24.27 Y-5.4 Z0.46 F1800.0
M108 R30.0
M101
G1 X-24.74 Y-5.5 Z0.46 F1800.0
M108 R2.141
G1 X-24.74 Y-1.86 Z0.46 F1080.0
G1 X-25.13 Y-1.94 Z0.46 F1080.0
G1 X-25.13 Y-5.31 Z0.46 F1080.0
M108 R30.0
M102
G1 X-25.13 Y-5.58 Z0.46 F1080.0
M108 R2.141
M103
G1 X21.91 Y4.42 Z0.46 F1800.0
M108 R30.0
M101
G1 X22.38 Y4.52 Z0.46 F1800.0
M108 R2.141
G1 X22.38 Y8.47 Z0.46 F1080.0
G1 X21.99 Y8.16 Z0.46 F1080.0
G1 X21.99 Y4.71 Z0.46 F1080.0
M108 R30.0
M102
G1 X21.99 Y4.44 Z0.46 F1080.0
M108 R2.141
M103
G1 X23.88 Y4.84 Z0.46 F1800.0
M108 R30.0
M101
G1 X24.35 Y4.94 Z0.46 F1800.0
M108 R2.141
G1 X24.35 Y9.87 Z0.46 F1080.0
G1 X23.96 Y9.87 Z0.46 F1080.0
G1 X23.96 Y5.12 Z0.46 F1080.0
M108 R30.0
M102
G1 X23.96 Y4.85 Z0.46 F1080.0
M108 R2.141
M103
G1 X25.45 Y5.17 Z0.46 F1800.0
M108 R30.0
M101
G1 X25.92 Y5.27 Z0.46 F1800.0
M108 R2.141
G1 X25.92 Y9.87 Z0.46 F1080.0
G1 X25.53 Y9.87 Z0.46 F1080.0
G1 X25.53 Y5.19 Z0.46 F1080.0
G1 X25.13 Y5.11 Z0.46 F1080.0
G1 X25.13 Y9.87 Z0.46 F1080.0
G1 X24.74 Y9.87 Z0.46 F1080.0
G1 X24.74 Y5.29 Z0.46 F1080.0
M108 R30.0
M102
G1 X24.74 Y5.02 Z0.46 F1080.0
M108 R2.141
M103
G1 X26.24 Y5.34 Z0.46 F1800.0
M108 R30.0
M101
G1 X26.7 Y5.44 Z0.46 F1800.0
M108 R2.141
G1 X26.7 Y9.87 Z0.46 F1080.0
G1 X26.31 Y9.87 Z0.46 F1080.0
G1 X26.31 Y5.63 Z0.46 F1080.0
M108 R30.0
M102
G1 X26.31 Y5.36 Z0.46 F1080.0
M108 R2.141
M103
G1 X27.02 Y5.51 Z0.46 F1800.0
M108 R30.0
M101
G1 X27.49 Y5.61 Z0.46 F1800.0
M108 R2.141
G1 X27.49 Y9.87 Z0.46 F1080.0
G1 X27.1 Y9.87 Z0.46 F1080.0
G1 X27.1 Y5.79 Z0.46 F1080.0
M108 R30.0
M102
G1 X27.1 Y5.52 Z0.46 F1080.0
M108 R2.141
M103
G1 X28.59 Y5.84 Z0.46 F1800.0
M108 R30.0
M101
G1 X29.06 Y5.94 Z0.46 F1800.0
M108 R2.141
G1 X29.06 Y9.87 Z0.46 F1080.0
G1 X28.67 Y9.87 Z0.46 F1080.0
G1 X28.67 Y5.86 Z0.46 F1080.0
G1 X28.27 Y5.77 Z0.46 F1080.0
G1 X28.27 Y9.87 Z0.46 F1080.0
G1 X27.88 Y9.87 Z0.46 F1080.0
G1 X27.88 Y5.96 Z0.46 F1080.0
M108 R30.0
M102
G1 X27.88 Y5.69 Z0.46 F1080.0
M108 R2.141
M103
G1 X29.38 Y6.01 Z0.46 F1800.0
M108 R30.0
M101
G1 X29.85 Y6.11 Z0.46 F1800.0
M108 R2.141
G1 X29.85 Y9.87 Z0.46 F1080.0
G1 X29.45 Y9.87 Z0.46 F1080.0
G1 X29.45 Y6.29 Z0.46 F1080.0
M108 R30.0
M102
G1 X29.45 Y6.02 Z0.46 F1080.0
M108 R2.141
M103
G1 X30.95 Y6.34 Z0.46 F1800.0
M108 R30.0
M101
G1 X31.42 Y6.44 Z0.46 F1800.0
M108 R2.141
G1 X31.42 Y9.87 Z0.46 F1080.0
G1 X31.02 Y9.87 Z0.46 F1080.0
G1 X31.02 Y6.36 Z0.46 F1080.0
G1 X30.63 Y6.27 Z0.46 F1080.0
G1 X30.63 Y9.87 Z0.46 F1080.0
G1 X30.24 Y9.87 Z0.46 F1080.0
G1 X30.24 Y6.46 Z0.46 F1080.0
M108 R30.0
M102
G1 X30.24 Y6.19 Z0.46 F1080.0
M108 R2.141
M103
G1 X31.73 Y6.51 Z0.46 F1800.0
M108 R30.0
M101
G1 X32.2 Y6.61 Z0.46 F1800.0
M108 R2.141
G1 X32.2 Y9.87 Z0.46 F1080.0
G1 X31.81 Y9.87 Z0.46 F1080.0
G1 X31.81 Y6.79 Z0.46 F1080.0
M108 R30.0
M102
G1 X31.81 Y6.52 Z0.46 F1080.0
M108 R2.141
M103
G1 X33.3 Y6.84 Z0.46 F1800.0
M108 R30.0
M101
G1 X33.77 Y6.94 Z0.46 F1800.0
M108 R2.141
G1 X33.77 Y9.87 Z0.46 F1080.0
G1 X33.38 Y9.87 Z0.46 F1080.0
G1 X33.38 Y6.86 Z0.46 F1080.0
G1 X32.99 Y6.77 Z0.46 F1080.0
G1 X32.99 Y9.87 Z0.46 F1080.0
G1 X32.59 Y9.87 Z0.46 F1080.0
G1 X32.59 Y6.96 Z0.46 F1080.0
M108 R30.0
M102
G1 X32.59 Y6.69 Z0.46 F1080.0
M108 R2.141
M103
G1 X34.09 Y7.01 Z0.46 F1800.0
M108 R30.0
M101
G1 X34.56 Y7.11 Z0.46 F1800.0
M108 R2.141
G1 X34.56 Y9.87 Z0.46 F1080.0
G1 X34.17 Y9.87 Z0.46 F1080.0
G1 X34.17 Y7.3 Z0.46 F1080.0
M108 R30.0
M102
G1 X34.17 Y7.03 Z0.46 F1080.0
M108 R2.141
M103
G1 X34.87 Y7.18 Z0.46 F1800.0
M108 R30.0
M101
G1 X35.34 Y7.28 Z0.46 F1800.0
M108 R2.141
G1 X35.34 Y9.87 Z0.46 F1080.0
G1 X34.95 Y9.87 Z0.46 F1080.0
G1 X34.95 Y7.46 Z0.46 F1080.0
M108 R30.0
M102
G1 X34.95 Y7.19 Z0.46 F1080.0
M108 R2.141
M103
G1 X36.44 Y7.51 Z0.46 F1800.0
M108 R30.0
M101
G1 X36.91 Y7.61 Z0.46 F1800.0
M108 R2.141
G1 X36.91 Y9.87 Z0.46 F1080.0
G1 X36.52 Y9.87 Z0.46 F1080.0
G1 X36.52 Y7.53 Z0.46 F1080.0
G1 X36.13 Y7.44 Z0.46 F1080.0
G1 X36.13 Y9.87 Z0.46 F1080.0
G1 X35.74 Y9.87 Z0.46 F1080.0
G1 X35.74 Y7.63 Z0.46 F1080.0
M108 R30.0
M102
G1 X35.74 Y7.36 Z0.46 F1080.0
M108 R2.141
M103
G1 X37.23 Y7.68 Z0.46 F1800.0
M108 R30.0
M101
G1 X37.7 Y7.78 Z0.46 F1800.0
M108 R2.141
G1 X37.7 Y9.87 Z0.46 F1080.0
G1 X37.31 Y9.87 Z0.46 F1080.0
G1 X37.31 Y7.96 Z0.46 F1080.0
M108 R30.0
M102
G1 X37.31 Y7.69 Z0.46 F1080.0
M108 R2.141
M103
G1 X38.8 Y8.01 Z0.46 F1800.0
M108 R30.0
M101
G1 X39.27 Y8.11 Z0.46 F1800.0
M108 R2.141
G1 X39.27 Y9.87 Z0.46 F1080.0
G1 X38.88 Y9.87 Z0.46 F1080.0
G1 X38.88 Y8.03 Z0.46 F1080.0
G1 X38.49 Y7.94 Z0.46 F1080.0
G1 X38.49 Y9.87 Z0.46 F1080.0
G1 X38.09 Y9.87 Z0.46 F1080.0
G1 X38.09 Y8.13 Z0.46 F1080.0
M108 R30.0
M102
G1 X38.09 Y7.86 Z0.46 F1080.0
M108 R2.141
M103
G1 X39.59 Y8.18 Z0.46 F1800.0
M108 R30.0
M101
G1 X40.06 Y8.28 Z0.46 F1800.0
M108 R2.141
G1 X40.06 Y9.87 Z0.46 F1080.0
G1 X39.66 Y9.87 Z0.46 F1080.0
G1 X39.66 Y8.46 Z0.46 F1080.0
M108 R30.0
M102
G1 X39.66 Y8.19 Z0.46 F1080.0
M108 R2.141
M103
G1 X41.16 Y8.51 Z0.46 F1800.0
M108 R30.0
M101
G1 X41.63 Y8.61 Z0.46 F1800.0
M108 R2.141
G1 X41.63 Y9.87 Z0.46 F1080.0
G1 X41.23 Y9.87 Z0.46 F1080.0
G1 X41.23 Y8.53 Z0.46 F1080.0
G1 X40.84 Y8.44 Z0.46 F1080.0
G1 X40.84 Y9.87 Z0.46 F1080.0
G1 X40.45 Y9.87 Z0.46 F1080.0
G1 X40.45 Y8.63 Z0.46 F1080.0
M108 R30.0
M102
G1 X40.45 Y8.36 Z0.46 F1080.0
M108 R2.141
M103
G1 X41.94 Y8.68 Z0.46 F1800.0
M108 R30.0
M101
G1 X42.41 Y8.78 Z0.46 F1800.0
M108 R2.141
G1 X42.41 Y9.87 Z0.46 F1080.0
G1 X42.02 Y9.87 Z0.46 F1080.0
G1 X42.02 Y8.96 Z0.46 F1080.0
M108 R30.0
M102
G1 X42.02 Y8.69 Z0.46 F1080.0
M108 R2.141
M103
G1 X42.73 Y8.84 Z0.46 F1800.0
M108 R30.0
M101
G1 X43.2 Y8.94 Z0.46 F1800.0
M108 R2.141
G1 X43.2 Y9.87 Z0.46 F1080.0
G1 X42.8 Y9.87 Z0.46 F1080.0
G1 X42.8 Y9.13 Z0.46 F1080.0
M108 R30.0
M102
G1 X42.8 Y8.86 Z0.46 F1080.0
M108 R2.141
M103
G1 X43.51 Y9.01 Z0.46 F1800.0
M108 R30.0
M101
G1 X43.98 Y9.11 Z0.46 F1800.0
M108 R2.141
G1 X43.98 Y9.87 Z0.46 F1080.0
G1 X43.59 Y9.87 Z0.46 F1080.0
G1 X43.59 Y9.03 Z0.46 F1080.0
M103
(</surroundingLoop>)
(</layer>)
(<layer> 0.78 )
(<surroundingLoop>)
(<boundaryPerimeter>)
(<boundaryPoint> X44.766 Y10.715 Z0.78 </boundaryPoint>)
(<boundaryPoint> X-45.234 Y10.715 Z0.78 </boundaryPoint>)
(<boundaryPoint> X-45.234 Y8.915 Z0.78 </boundaryPoint>)
(<boundaryPoint> X21.467 Y8.915 Z0.78 </boundaryPoint>)
(<boundaryPoint> X21.527 Y8.886 Z0.78 </boundaryPoint>)
(<boundaryPoint> X21.528 Y8.872 Z0.78 </boundaryPoint>)
(<boundaryPoint> X21.476 Y8.831 Z0.78 </boundaryPoint>)
(<boundaryPoint> X-45.234 Y-5.348 Z0.78 </boundaryPoint>)
(<boundaryPoint> X-45.234 Y-10.334 Z0.78 </boundaryPoint>)
(<boundaryPoint> X-45.183 Y-10.652 Z0.78 </boundaryPoint>)
(<boundaryPoint> X-44.861 Y-10.636 Z0.78 </boundaryPoint>)
(<boundaryPoint> X45.234 Y8.514 Z0.78 </boundaryPoint>)
(<loop> outer )
M108 R3.569
G1 X43.44 Y8.74 Z0.78 F3000.0
M101
G1 X43.64 Y8.78 Z0.78 F1800.0
G1 X44.54 Y8.97 Z0.78 F1800.0
G1 X44.29 Y10.13 Z0.78 F1800.0
G1 X-44.65 Y10.13 Z0.78 F1800.0
G1 X-44.65 Y9.5 Z0.78 F1800.0
G1 X21.6 Y9.5 Z0.78 F1800.0
G1 X22.09 Y9.27 Z0.78 F1800.0
G1 X22.14 Y8.6 Z0.78 F1800.0
G1 X21.73 Y8.28 Z0.78 F1800.0
G1 X-44.65 Y-5.83 Z0.78 F1800.0
G1 X-44.65 Y-9.99 Z0.78 F1800.0
G1 X43.44 Y8.74 Z0.78 F1800.0
M103
(</loop>)
(<perimeter> outer )
G1 X43.52 Y8.35 Z0.78 F3000.0
M101
G1 X43.72 Y8.39 Z0.78 F1800.0
G1 X45.0 Y8.66 Z0.78 F1800.0
G1 X44.61 Y10.52 Z0.78 F1800.0
G1 X-45.04 Y10.52 Z0.78 F1800.0
G1 X-45.04 Y9.11 Z0.78 F1800.0
G1 X21.51 Y9.11 Z0.78 F1800.0
G1 X21.71 Y9.02 Z0.78 F1800.0
G1 X21.74 Y8.78 Z0.78 F1800.0
G1 X21.56 Y8.65 Z0.78 F1800.0
G1 X-45.04 Y-5.51 Z0.78 F1800.0
G1 X-45.04 Y-10.36 Z0.78 F1800.0
G1 X-45.08 Y-10.52 Z0.78 F1800.0
G1 X-44.93 Y-10.45 Z0.78 F1800.0
G1 X43.08 Y8.26 Z0.78 F1800.0
M108 R30.0
M102
G1 X43.52 Y8.35 Z0.78 F1800.0
M108 R3.569
M103
(</perimeter>)
(</boundaryPerimeter>)
G1 X43.8 Y9.07 Z0.78 F3000.0
M108 R30.0
M101
G1 X44.09 Y9.82 Z0.78 F3000.0
M108 R3.569
G1 X-43.94 Y9.82 Z0.78 F1800.0
M108 R30.0
M102
G1 X-44.39 Y9.82 Z0.78 F1800.0
M108 R3.569
M103
G1 X-44.24 Y9.19 Z0.78 F3000.0
G1 X21.41 Y8.65 Z0.78 F3000.0
G1 X21.33 Y8.75 Z0.78 F3000.0
G1 X21.31 Y8.97 Z0.78 F3000.0
G1 X21.36 Y9.07 Z0.78 F3000.0
G1 X-41.73 Y-4.88 Z0.78 F3000.0
M108 R30.0
M101
G1 X-41.96 Y-4.93 Z0.78 F3000.0
G1 X-41.88 Y-5.5 Z0.78 F3000.0
M108 R3.569
G1 X-25.2 Y-5.5 Z0.78 F1800.0
M108 R30.0
M102
G1 X-24.75 Y-5.5 Z0.78 F1800.0
M108 R3.569
M103
G1 X-25.81 Y-5.72 Z0.78 F3000.0
M108 R30.0
M101
G1 X-26.6 Y-5.89 Z0.78 F3000.0
M108 R3.569
G1 X-43.72 Y-5.89 Z0.78 F1800.0
G1 X-44.39 Y-6.28 Z0.78 F1800.0
G1 X-28.9 Y-6.28 Z0.78 F1800.0
M108 R30.0
M102
G1 X-28.45 Y-6.28 Z0.78 F1800.0
M108 R3.569
M103
G1 X-29.51 Y-6.51 Z0.78 F3000.0
M108 R30.0
M101
G1 X-30.29 Y-6.68 Z0.78 F3000.0
M108 R3.569
G1 X-44.39 Y-6.68 Z0.78 F1800.0
M103
G1 X-44.39 Y-7.07 Z0.78 F3000.0
M101
G1 X-32.59 Y-7.07 Z0.78 F1800.0
M108 R30.0
M102
G1 X-32.14 Y-7.07 Z0.78 F1800.0
M108 R3.569
M103
G1 X-33.2 Y-7.3 Z0.78 F3000.0
M108 R30.0
M101
G1 X-33.99 Y-7.46 Z0.78 F3000.0
M108 R3.569
G1 X-44.39 Y-7.46 Z0.78 F1800.0
M103
G1 X-44.39 Y-7.85 Z0.78 F3000.0
M101
G1 X-36.28 Y-7.85 Z0.78 F1800.0
M108 R30.0
M102
G1 X-35.84 Y-7.85 Z0.78 F1800.0
M108 R3.569
M103
G1 X-36.9 Y-8.08 Z0.78 F3000.0
M108 R30.0
M101
G1 X-37.68 Y-8.25 Z0.78 F3000.0
M108 R3.569
G1 X-44.39 Y-8.25 Z0.78 F1800.0
M103
G1 X-44.39 Y-8.64 Z0.78 F3000.0
M101
G1 X-39.98 Y-8.64 Z0.78 F1800.0
M108 R30.0
M102
G1 X-39.53 Y-8.64 Z0.78 F1800.0
M108 R3.569
M103
G1 X-40.6 Y-8.87 Z0.78 F3000.0
M108 R30.0
M101
G1 X-41.38 Y-9.03 Z0.78 F3000.0
M108 R3.569
G1 X-44.39 Y-9.03 Z0.78 F1800.0
M103
G1 X-44.39 Y-9.43 Z0.78 F3000.0
M101
G1 X-43.68 Y-9.43 Z0.78 F1800.0
M108 R30.0
M102
G1 X-43.23 Y-9.43 Z0.78 F1800.0
M108 R3.569
M103
G1 X-40.51 Y-5.75 Z0.78 F3000.0
M108 R30.0
M101
G1 X-40.03 Y-5.11 Z0.78 F3000.0
M108 R3.569
G1 X-23.35 Y-5.11 Z0.78 F1800.0
M108 R30.0
M102
G1 X-22.9 Y-5.11 Z0.78 F1800.0
M108 R3.569
M103
G1 X-21.84 Y-4.88 Z0.78 F3000.0
M108 R30.0
M101
G1 X-21.05 Y-4.71 Z0.78 F3000.0
M108 R3.569
G1 X-37.73 Y-4.71 Z0.78 F1800.0
M108 R30.0
M102
G1 X-38.18 Y-4.71 Z0.78 F1800.0
M108 R3.569
M103
G1 X-37.12 Y-4.49 Z0.78 F3000.0
M108 R30.0
M101
G1 X-36.33 Y-4.32 Z0.78 F3000.0
M108 R3.569
G1 X-19.66 Y-4.32 Z0.78 F1800.0
M108 R30.0
M102
G1 X-19.21 Y-4.32 Z0.78 F1800.0
M108 R3.569
M103
G1 X-18.14 Y-4.09 Z0.78 F3000.0
M108 R30.0
M101
G1 X-17.36 Y-3.93 Z0.78 F3000.0
M108 R3.569
G1 X-34.04 Y-3.93 Z0.78 F1800.0
M108 R30.0
M102
G1 X-34.49 Y-3.93 Z0.78 F1800.0
M108 R3.569
M103
G1 X-33.42 Y-3.7 Z0.78 F3000.0
M108 R30.0
M101
G1 X-32.64 Y-3.53 Z0.78 F3000.0
M108 R3.569
G1 X-15.96 Y-3.53 Z0.78 F1800.0
M108 R30.0
M102
G1 X-15.51 Y-3.53 Z0.78 F1800.0
M108 R3.569
M103
G1 X-14.45 Y-3.31 Z0.78 F3000.0
M108 R30.0
M101
G1 X-13.66 Y-3.14 Z0.78 F3000.0
M108 R3.569
G1 X-30.34 Y-3.14 Z0.78 F1800.0
M108 R30.0
M102
G1 X-30.79 Y-3.14 Z0.78 F1800.0
M108 R3.569
M103
G1 X-29.73 Y-2.92 Z0.78 F3000.0
M108 R30.0
M101
G1 X-28.94 Y-2.75 Z0.78 F3000.0
M108 R3.569
G1 X-12.27 Y-2.75 Z0.78 F1800.0
M108 R30.0
M102
G1 X-11.82 Y-2.75 Z0.78 F1800.0
M108 R3.569
M103
G1 X-10.75 Y-2.52 Z0.78 F3000.0
M108 R30.0
M101
G1 X-9.97 Y-2.36 Z0.78 F3000.0
M108 R3.569
G1 X-26.65 Y-2.36 Z0.78 F1800.0
M108 R30.0
M102
G1 X-27.1 Y-2.36 Z0.78 F1800.0
M108 R3.569
M103
G1 X-26.03 Y-2.13 Z0.78 F3000.0
M108 R30.0
M101
G1 X-25.25 Y-1.96 Z0.78 F3000.0
M108 R3.569
G1 X-8.57 Y-1.96 Z0.78 F1800.0
M108 R30.0
M102
G1 X-8.12 Y-1.96 Z0.78 F1800.0
M108 R3.569
M103
G1 X-7.06 Y-1.74 Z0.78 F3000.0
M108 R30.0
M101
G1 X-6.27 Y-1.57 Z0.78 F3000.0
M108 R3.569
G1 X-22.95 Y-1.57 Z0.78 F1800.0
M108 R30.0
M102
G1 X-23.4 Y-1.57 Z0.78 F1800.0
M108 R3.569
M103
G1 X-22.34 Y-1.34 Z0.78 F3000.0
M108 R30.0
M101
G1 X-21.55 Y-1.18 Z0.78 F3000.0
M108 R3.569
G1 X-4.88 Y-1.18 Z0.78 F1800.0
M108 R30.0
M102
G1 X-4.43 Y-1.18 Z0.78 F1800.0
M108 R3.569
M103
G1 X-3.36 Y-0.95 Z0.78 F3000.0
M108 R30.0
M101
G1 X-2.58 Y-0.79 Z0.78 F3000.0
M108 R3.569
G1 X-19.26 Y-0.79 Z0.78 F1800.0
M108 R30.0
M102
G1 X-19.7 Y-0.79 Z0.78 F1800.0
M108 R3.569
M103
G1 X-18.64 Y-0.56 Z0.78 F3000.0
M108 R30.0
M101
G1 X-17.86 Y-0.39 Z0.78 F3000.0
M108 R3.569
G1 X-1.18 Y-0.39 Z0.78 F1800.0
M108 R30.0
M102
G1 X-0.73 Y-0.39 Z0.78 F1800.0
M108 R3.569
M103
G1 X0.33 Y-0.17 Z0.78 F3000.0
M108 R30.0
M101
G1 X1.12 Y-0.0 Z0.78 F3000.0
M108 R3.569
G1 X-15.56 Y0.0 Z0.78 F1800.0
M108 R30.0
M102
G1 X-16.01 Y0.0 Z0.78 F1800.0
M108 R3.569
M103
G1 X-14.95 Y0.23 Z0.78 F3000.0
M108 R30.0
M101
G1 X-14.16 Y0.39 Z0.78 F3000.0
M108 R3.569
G1 X2.51 Y0.39 Z0.78 F1800.0
M108 R30.0
M102
G1 X2.96 Y0.39 Z0.78 F1800.0
M108 R3.569
M103
G1 X4.03 Y0.62 Z0.78 F3000.0
M108 R30.0
M101
G1 X4.81 Y0.79 Z0.78 F3000.0
M108 R3.569
G1 X-11.87 Y0.79 Z0.78 F1800.0
M108 R30.0
M102
G1 X-12.32 Y0.79 Z0.78 F1800.0
M108 R3.569
M103
G1 X-11.25 Y1.01 Z0.78 F3000.0
M108 R30.0
M101
G1 X-10.47 Y1.18 Z0.78 F3000.0
M108 R3.569
G1 X6.21 Y1.18 Z0.78 F1800.0
M108 R30.0
M102
G1 X6.66 Y1.18 Z0.78 F1800.0
M108 R3.569
M103
G1 X7.72 Y1.41 Z0.78 F3000.0
M108 R30.0
M101
G1 X8.51 Y1.57 Z0.78 F3000.0
M108 R3.569
G1 X-8.17 Y1.57 Z0.78 F1800.0
M108 R30.0
M102
G1 X-8.62 Y1.57 Z0.78 F1800.0
M108 R3.569
M103
G1 X-7.56 Y1.8 Z0.78 F3000.0
M108 R30.0
M101
G1 X-6.77 Y1.96 Z0.78 F3000.0
M108 R3.569
G1 X9.9 Y1.96 Z0.78 F1800.0
M108 R30.0
M102
G1 X10.35 Y1.96 Z0.78 F1800.0
M108 R3.569
M103
G1 X11.42 Y2.19 Z0.78 F3000.0
M108 R30.0
M101
G1 X12.2 Y2.36 Z0.78 F3000.0
M108 R3.569
G1 X-4.47 Y2.36 Z0.78 F1800.0
M108 R30.0
M102
G1 X-4.92 Y2.36 Z0.78 F1800.0
M108 R3.569
M103
G1 X-3.86 Y2.58 Z0.78 F3000.0
M108 R30.0
M101
G1 X-3.08 Y2.75 Z0.78 F3000.0
M108 R3.569
G1 X13.6 Y2.75 Z0.78 F1800.0
M108 R30.0
M102
G1 X14.05 Y2.75 Z0.78 F1800.0
M108 R3.569
M103
G1 X15.11 Y2.98 Z0.78 F3000.0
M108 R30.0
M101
G1 X15.9 Y3.14 Z0.78 F3000.0
M108 R3.569
G1 X-0.78 Y3.14 Z0.78 F1800.0
M108 R30.0
M102
G1 X-1.23 Y3.14 Z0.78 F1800.0
M108 R3.569
M103
G1 X-0.17 Y3.37 Z0.78 F3000.0
M108 R30.0
M101
G1 X0.62 Y3.53 Z0.78 F3000.0
M108 R3.569
G1 X17.29 Y3.53 Z0.78 F1800.0
M108 R30.0
M102
G1 X17.74 Y3.53 Z0.78 F1800.0
M108 R3.569
M103
G1 X18.81 Y3.76 Z0.78 F3000.0
M108 R30.0
M101
G1 X19.59 Y3.93 Z0.78 F3000.0
M108 R3.569
G1 X2.92 Y3.93 Z0.78 F1800.0
M108 R30.0
M102
G1 X2.47 Y3.93 Z0.78 F1800.0
M108 R3.569
M103
G1 X3.53 Y4.15 Z0.78 F3000.0
M108 R30.0
M101
G1 X4.31 Y4.32 Z0.78 F3000.0
M108 R3.569
G1 X20.99 Y4.32 Z0.78 F1800.0
M108 R30.0
M102
G1 X21.44 Y4.32 Z0.78 F1800.0
M108 R3.569
M103
G1 X22.5 Y4.55 Z0.78 F3000.0
M108 R30.0
M101
G1 X23.29 Y4.71 Z0.78 F3000.0
M108 R3.569
G1 X6.61 Y4.71 Z0.78 F1800.0
M108 R30.0
M102
G1 X6.16 Y4.71 Z0.78 F1800.0
M108 R3.569
M103
G1 X7.23 Y4.94 Z0.78 F3000.0
M108 R30.0
M101
G1 X8.01 Y5.11 Z0.78 F3000.0
M108 R3.569
G1 X24.68 Y5.11 Z0.78 F1800.0
M108 R30.0
M102
G1 X25.13 Y5.11 Z0.78 F1800.0
M108 R3.569
M103
G1 X26.2 Y5.33 Z0.78 F3000.0
M108 R30.0
M101
G1 X26.98 Y5.5 Z0.78 F3000.0
M108 R3.569
G1 X10.31 Y5.5 Z0.78 F1800.0
M108 R30.0
M102
G1 X9.86 Y5.5 Z0.78 F1800.0
M108 R3.569
M103
G1 X10.92 Y5.72 Z0.78 F3000.0
M108 R30.0
M101
G1 X11.7 Y5.89 Z0.78 F3000.0
M108 R3.569
G1 X28.38 Y5.89 Z0.78 F1800.0
M108 R30.0
M102
G1 X28.83 Y5.89 Z0.78 F1800.0
M108 R3.569
M103
G1 X29.89 Y6.12 Z0.78 F3000.0
M108 R30.0
M101
G1 X30.68 Y6.28 Z0.78 F3000.0
M108 R3.569
G1 X14.0 Y6.28 Z0.78 F1800.0
M108 R30.0
M102
G1 X13.55 Y6.28 Z0.78 F1800.0
M108 R3.569
M103
G1 X14.62 Y6.51 Z0.78 F3000.0
M108 R30.0
M101
G1 X15.4 Y6.68 Z0.78 F3000.0
M108 R3.569
G1 X32.07 Y6.68 Z0.78 F1800.0
M108 R30.0
M102
G1 X32.52 Y6.68 Z0.78 F1800.0
M108 R3.569
M103
G1 X33.59 Y6.9 Z0.78 F3000.0
M108 R30.0
M101
G1 X34.37 Y7.07 Z0.78 F3000.0
M108 R3.569
G1 X17.7 Y7.07 Z0.78 F1800.0
M108 R30.0
M102
G1 X17.25 Y7.07 Z0.78 F1800.0
M108 R3.569
M103
G1 X18.31 Y7.3 Z0.78 F3000.0
M108 R30.0
M101
G1 X19.09 Y7.46 Z0.78 F3000.0
M108 R3.569
G1 X35.77 Y7.46 Z0.78 F1800.0
M108 R30.0
M102
G1 X36.22 Y7.46 Z0.78 F1800.0
M108 R3.569
M103
G1 X37.28 Y7.69 Z0.78 F3000.0
M108 R30.0
M101
G1 X38.07 Y7.85 Z0.78 F3000.0
M108 R3.569
G1 X21.39 Y7.85 Z0.78 F1800.0
M108 R30.0
M102
G1 X20.94 Y7.85 Z0.78 F1800.0
M108 R3.569
M103
G1 X21.34 Y7.99 Z0.78 F3000.0
M108 R30.0
M101
G1 X22.1 Y8.25 Z0.78 F3000.0
M108 R3.569
G1 X39.46 Y8.25 Z0.78 F1800.0
M108 R30.0
M102
G1 X39.91 Y8.25 Z0.78 F1800.0
M108 R3.569
M103
G1 X40.98 Y8.47 Z0.78 F3000.0
M108 R30.0
M101
G1 X41.76 Y8.64 Z0.78 F3000.0
M108 R3.569
G1 X22.39 Y8.64 Z0.78 F1800.0
M103
G1 X22.36 Y9.03 Z0.78 F3000.0
M101
G1 X43.61 Y9.03 Z0.78 F1800.0
G1 X44.18 Y9.43 Z0.78 F1800.0
G1 X22.34 Y9.43 Z0.78 F1800.0
M103
(</surroundingLoop>)
(</layer>)
(<operatingLayerEnd> </operatingLayerEnd>)
(<layer> 1.1 )
(<surroundingLoop>)
(<boundaryPerimeter>)
(<boundaryPoint> X44.766 Y10.715 Z1.1 </boundaryPoint>)
(<boundaryPoint> X-45.234 Y10.715 Z1.1 </boundaryPoint>)
(<boundaryPoint> X-45.234 Y8.915 Z1.1 </boundaryPoint>)
(<boundaryPoint> X21.467 Y8.915 Z1.1 </boundaryPoint>)
(<boundaryPoint> X21.527 Y8.886 Z1.1 </boundaryPoint>)
(<boundaryPoint> X21.528 Y8.872 Z1.1 </boundaryPoint>)
(<boundaryPoint> X21.476 Y8.831 Z1.1 </boundaryPoint>)
(<boundaryPoint> X-45.234 Y-5.348 Z1.1 </boundaryPoint>)
(<boundaryPoint> X-45.234 Y-10.334 Z1.1 </boundaryPoint>)
(<boundaryPoint> X-45.183 Y-10.652 Z1.1 </boundaryPoint>)
(<boundaryPoint> X-44.861 Y-10.636 Z1.1 </boundaryPoint>)
(<boundaryPoint> X45.234 Y8.514 Z1.1 </boundaryPoint>)
(<loop> outer )
G1 X22.11 Y8.99 Z1.1 F3000.0
M101
G1 X22.14 Y8.6 Z1.1 F1800.0
G1 X21.73 Y8.28 Z1.1 F1800.0
G1 X-44.65 Y-5.83 Z1.1 F1800.0
G1 X-44.65 Y-9.99 Z1.1 F1800.0
G1 X44.54 Y8.97 Z1.1 F1800.0
G1 X44.29 Y10.13 Z1.1 F1800.0
G1 X-44.65 Y10.13 Z1.1 F1800.0
G1 X-44.65 Y9.5 Z1.1 F1800.0
G1 X21.6 Y9.5 Z1.1 F1800.0
G1 X22.09 Y9.27 Z1.1 F1800.0
G1 X22.11 Y8.99 Z1.1 F1800.0
M103
(</loop>)
(<perimeter> outer )
G1 X21.71 Y9.02 Z1.1 F3000.0
M101
G1 X21.74 Y8.78 Z1.1 F1800.0
G1 X21.56 Y8.65 Z1.1 F1800.0
G1 X-45.04 Y-5.51 Z1.1 F1800.0
G1 X-45.04 Y-10.36 Z1.1 F1800.0
G1 X-45.08 Y-10.52 Z1.1 F1800.0
G1 X-44.93 Y-10.45 Z1.1 F1800.0
G1 X45.0 Y8.66 Z1.1 F1800.0
G1 X44.61 Y10.52 Z1.1 F1800.0
G1 X-45.04 Y10.52 Z1.1 F1800.0
G1 X-45.04 Y9.11 Z1.1 F1800.0
G1 X21.51 Y9.11 Z1.1 F1800.0
G1 X21.71 Y9.02 Z1.1 F1800.0
M103
(</perimeter>)
(</boundaryPerimeter>)
G1 X22.25 Y8.37 Z1.1 F3000.0
M101
G1 X22.79 Y7.76 Z1.1 F1800.0
G1 X22.79 Y7.51 Z1.1 F1800.0
G1 X20.84 Y5.58 Z1.1 F1800.0
G1 X20.84 Y5.33 Z1.1 F1800.0
G1 X21.29 Y4.73 Z1.1 F1800.0
G1 X21.73 Y4.83 Z1.1 F1800.0
G1 X22.25 Y4.49 Z1.1 F1800.0
G1 X23.12 Y4.68 Z1.1 F1800.0
M108 R30.0
M102
G1 X23.56 Y4.77 Z1.1 F1800.0
M108 R3.569
M103
G1 X24.09 Y4.88 Z1.1 F3000.0
M108 R30.0
M101
G1 X24.87 Y5.05 Z1.1 F3000.0
M108 R3.569
G1 X24.44 Y4.96 Z1.1 F1800.0
G1 X23.91 Y5.29 Z1.1 F1800.0
G1 X23.02 Y7.51 Z1.1 F1800.0
G1 X23.02 Y7.76 Z1.1 F1800.0
G1 X25.74 Y9.87 Z1.1 F1800.0
G1 X22.25 Y9.87 Z1.1 F1800.0
G1 X22.25 Y9.47 Z1.1 F1800.0
G1 X21.82 Y9.87 Z1.1 F1800.0
G1 X21.82 Y9.68 Z1.1 F1800.0
G1 X21.38 Y9.87 Z1.1 F1800.0
G1 X21.38 Y9.76 Z1.1 F1800.0
G1 X20.94 Y9.76 Z1.1 F1800.0
G1 X20.94 Y9.87 Z1.1 F1800.0
G1 X20.51 Y9.87 Z1.1 F1800.0
G1 X20.51 Y9.76 Z1.1 F1800.0
G1 X20.07 Y9.76 Z1.1 F1800.0
G1 X20.07 Y9.87 Z1.1 F1800.0
G1 X19.64 Y9.87 Z1.1 F1800.0
G1 X19.64 Y9.76 Z1.1 F1800.0
G1 X19.2 Y9.76 Z1.1 F1800.0
G1 X19.2 Y9.87 Z1.1 F1800.0
G1 X18.76 Y9.87 Z1.1 F1800.0
G1 X18.76 Y9.76 Z1.1 F1800.0
G1 X18.33 Y9.76 Z1.1 F1800.0
G1 X18.33 Y9.87 Z1.1 F1800.0
G1 X17.89 Y9.87 Z1.1 F1800.0
G1 X17.89 Y9.76 Z1.1 F1800.0
G1 X17.45 Y9.76 Z1.1 F1800.0
G1 X17.45 Y9.87 Z1.1 F1800.0
G1 X17.02 Y9.87 Z1.1 F1800.0
G1 X17.02 Y9.76 Z1.1 F1800.0
G1 X16.58 Y9.76 Z1.1 F1800.0
G1 X16.58 Y9.87 Z1.1 F1800.0
G1 X16.14 Y9.87 Z1.1 F1800.0
G1 X16.14 Y9.76 Z1.1 F1800.0
G1 X15.71 Y9.76 Z1.1 F1800.0
G1 X15.71 Y9.87 Z1.1 F1800.0
G1 X15.27 Y9.87 Z1.1 F1800.0
G1 X15.27 Y9.76 Z1.1 F1800.0
G1 X14.84 Y9.76 Z1.1 F1800.0
G1 X14.84 Y9.87 Z1.1 F1800.0
G1 X14.4 Y9.87 Z1.1 F1800.0
G1 X14.4 Y9.76 Z1.1 F1800.0
G1 X13.96 Y9.76 Z1.1 F1800.0
G1 X13.96 Y9.87 Z1.1 F1800.0
G1 X13.53 Y9.87 Z1.1 F1800.0
G1 X13.53 Y9.76 Z1.1 F1800.0
G1 X13.09 Y9.76 Z1.1 F1800.0
G1 X13.09 Y9.87 Z1.1 F1800.0
G1 X12.65 Y9.87 Z1.1 F1800.0
G1 X12.65 Y9.76 Z1.1 F1800.0
G1 X12.22 Y9.76 Z1.1 F1800.0
G1 X12.22 Y9.87 Z1.1 F1800.0
G1 X11.78 Y9.87 Z1.1 F1800.0
G1 X11.78 Y9.76 Z1.1 F1800.0
G1 X11.35 Y9.76 Z1.1 F1800.0
G1 X11.35 Y9.87 Z1.1 F1800.0
G1 X10.91 Y9.87 Z1.1 F1800.0
G1 X10.91 Y9.76 Z1.1 F1800.0
G1 X10.47 Y9.76 Z1.1 F1800.0
G1 X10.47 Y9.87 Z1.1 F1800.0
G1 X10.04 Y9.87 Z1.1 F1800.0
G1 X10.04 Y9.76 Z1.1 F1800.0
G1 X9.6 Y9.76 Z1.1 F1800.0
G1 X9.6 Y9.87 Z1.1 F1800.0
G1 X9.16 Y9.87 Z1.1 F1800.0
G1 X9.16 Y9.76 Z1.1 F1800.0
G1 X8.73 Y9.76 Z1.1 F1800.0
G1 X8.73 Y9.87 Z1.1 F1800.0
G1 X8.29 Y9.87 Z1.1 F1800.0
G1 X8.29 Y9.76 Z1.1 F1800.0
G1 X7.85 Y9.76 Z1.1 F1800.0
G1 X7.85 Y9.87 Z1.1 F1800.0
G1 X7.42 Y9.87 Z1.1 F1800.0
G1 X7.42 Y9.76 Z1.1 F1800.0
G1 X6.98 Y9.76 Z1.1 F1800.0
G1 X6.98 Y9.87 Z1.1 F1800.0
G1 X6.55 Y9.87 Z1.1 F1800.0
G1 X6.55 Y9.76 Z1.1 F1800.0
G1 X6.11 Y9.76 Z1.1 F1800.0
G1 X6.11 Y9.87 Z1.1 F1800.0
G1 X5.67 Y9.87 Z1.1 F1800.0
G1 X5.67 Y9.76 Z1.1 F1800.0
G1 X5.24 Y9.76 Z1.1 F1800.0
G1 X5.24 Y9.87 Z1.1 F1800.0
G1 X4.8 Y9.87 Z1.1 F1800.0
G1 X4.8 Y9.76 Z1.1 F1800.0
G1 X4.36 Y9.76 Z1.1 F1800.0
G1 X4.36 Y9.87 Z1.1 F1800.0
G1 X3.93 Y9.87 Z1.1 F1800.0
G1 X3.93 Y9.76 Z1.1 F1800.0
G1 X3.49 Y9.76 Z1.1 F1800.0
G1 X3.49 Y9.87 Z1.1 F1800.0
G1 X3.05 Y9.87 Z1.1 F1800.0
G1 X3.05 Y9.76 Z1.1 F1800.0
G1 X2.62 Y9.76 Z1.1 F1800.0
G1 X2.62 Y9.87 Z1.1 F1800.0
G1 X2.18 Y9.87 Z1.1 F1800.0
G1 X2.18 Y9.76 Z1.1 F1800.0
G1 X1.75 Y9.76 Z1.1 F1800.0
G1 X1.75 Y9.87 Z1.1 F1800.0
G1 X1.31 Y9.87 Z1.1 F1800.0
G1 X1.31 Y9.76 Z1.1 F1800.0
G1 X0.87 Y9.76 Z1.1 F1800.0
G1 X0.87 Y9.87 Z1.1 F1800.0
G1 X0.44 Y9.87 Z1.1 F1800.0
G1 X0.44 Y9.76 Z1.1 F1800.0
G1 X0.0 Y9.76 Z1.1 F1800.0
G1 X0.0 Y9.87 Z1.1 F1800.0
G1 X-0.44 Y9.87 Z1.1 F1800.0
G1 X-0.44 Y9.76 Z1.1 F1800.0
G1 X-0.87 Y9.76 Z1.1 F1800.0
G1 X-0.87 Y9.87 Z1.1 F1800.0
G1 X-1.31 Y9.87 Z1.1 F1800.0
G1 X-1.31 Y9.76 Z1.1 F1800.0
G1 X-1.75 Y9.76 Z1.1 F1800.0
G1 X-1.75 Y9.87 Z1.1 F1800.0
G1 X-2.18 Y9.87 Z1.1 F1800.0
G1 X-2.18 Y9.76 Z1.1 F1800.0
G1 X-2.62 Y9.76 Z1.1 F1800.0
G1 X-2.62 Y9.87 Z1.1 F1800.0
G1 X-3.05 Y9.87 Z1.1 F1800.0
G1 X-3.05 Y9.76 Z1.1 F1800.0
G1 X-3.49 Y9.76 Z1.1 F1800.0
G1 X-3.49 Y9.87 Z1.1 F1800.0
G1 X-3.93 Y9.87 Z1.1 F1800.0
G1 X-3.93 Y9.76 Z1.1 F1800.0
G1 X-4.36 Y9.76 Z1.1 F1800.0
G1 X-4.36 Y9.87 Z1.1 F1800.0
G1 X-4.8 Y9.87 Z1.1 F1800.0
G1 X-4.8 Y9.76 Z1.1 F1800.0
G1 X-5.24 Y9.76 Z1.1 F1800.0
G1 X-5.24 Y9.87 Z1.1 F1800.0
G1 X-5.67 Y9.87 Z1.1 F1800.0
G1 X-5.67 Y9.76 Z1.1 F1800.0
G1 X-6.11 Y9.76 Z1.1 F1800.0
G1 X-6.11 Y9.87 Z1.1 F1800.0
G1 X-6.55 Y9.87 Z1.1 F1800.0
G1 X-6.55 Y9.76 Z1.1 F1800.0
G1 X-6.98 Y9.76 Z1.1 F1800.0
G1 X-6.98 Y9.87 Z1.1 F1800.0
G1 X-7.42 Y9.87 Z1.1 F1800.0
G1 X-7.42 Y9.76 Z1.1 F1800.0
G1 X-7.85 Y9.76 Z1.1 F1800.0
G1 X-7.85 Y9.87 Z1.1 F1800.0
G1 X-8.29 Y9.87 Z1.1 F1800.0
G1 X-8.29 Y9.76 Z1.1 F1800.0
G1 X-8.73 Y9.76 Z1.1 F1800.0
G1 X-8.73 Y9.87 Z1.1 F1800.0
G1 X-9.16 Y9.87 Z1.1 F1800.0
G1 X-9.16 Y9.76 Z1.1 F1800.0
G1 X-9.6 Y9.76 Z1.1 F1800.0
G1 X-9.6 Y9.87 Z1.1 F1800.0
G1 X-10.04 Y9.87 Z1.1 F1800.0
G1 X-10.04 Y9.76 Z1.1 F1800.0
G1 X-10.47 Y9.76 Z1.1 F1800.0
G1 X-10.47 Y9.87 Z1.1 F1800.0
G1 X-10.91 Y9.87 Z1.1 F1800.0
G1 X-10.91 Y9.76 Z1.1 F1800.0
G1 X-11.35 Y9.76 Z1.1 F1800.0
G1 X-11.35 Y9.87 Z1.1 F1800.0
G1 X-11.78 Y9.87 Z1.1 F1800.0
G1 X-11.78 Y9.76 Z1.1 F1800.0
G1 X-12.22 Y9.76 Z1.1 F1800.0
G1 X-12.22 Y9.87 Z1.1 F1800.0
G1 X-12.65 Y9.87 Z1.1 F1800.0
G1 X-12.65 Y9.76 Z1.1 F1800.0
G1 X-13.09 Y9.76 Z1.1 F1800.0
G1 X-13.09 Y9.87 Z1.1 F1800.0
G1 X-13.53 Y9.87 Z1.1 F1800.0
G1 X-13.53 Y9.76 Z1.1 F1800.0
G1 X-13.96 Y9.76 Z1.1 F1800.0
G1 X-13.96 Y9.87 Z1.1 F1800.0
G1 X-14.4 Y9.87 Z1.1 F1800.0
G1 X-14.4 Y9.76 Z1.1 F1800.0
G1 X-14.84 Y9.76 Z1.1 F1800.0
G1 X-14.84 Y9.87 Z1.1 F1800.0
G1 X-15.27 Y9.87 Z1.1 F1800.0
G1 X-15.27 Y9.76 Z1.1 F1800.0
G1 X-15.71 Y9.76 Z1.1 F1800.0
G1 X-15.71 Y9.87 Z1.1 F1800.0
G1 X-16.14 Y9.87 Z1.1 F1800.0
G1 X-16.14 Y9.76 Z1.1 F1800.0
G1 X-16.58 Y9.76 Z1.1 F1800.0
G1 X-16.58 Y9.87 Z1.1 F1800.0
G1 X-17.02 Y9.87 Z1.1 F1800.0
G1 X-17.02 Y9.76 Z1.1 F1800.0
G1 X-17.45 Y9.76 Z1.1 F1800.0
G1 X-17.45 Y9.87 Z1.1 F1800.0
G1 X-17.89 Y9.87 Z1.1 F1800.0
G1 X-17.89 Y9.76 Z1.1 F1800.0
G1 X-18.33 Y9.76 Z1.1 F1800.0
G1 X-18.33 Y9.87 Z1.1 F1800.0
G1 X-18.76 Y9.87 Z1.1 F1800.0
G1 X-18.76 Y9.76 Z1.1 F1800.0
G1 X-19.2 Y9.76 Z1.1 F1800.0
G1 X-19.2 Y9.87 Z1.1 F1800.0
G1 X-19.64 Y9.87 Z1.1 F1800.0
G1 X-19.64 Y9.76 Z1.1 F1800.0
G1 X-20.07 Y9.76 Z1.1 F1800.0
G1 X-20.07 Y9.87 Z1.1 F1800.0
G1 X-20.51 Y9.87 Z1.1 F1800.0
G1 X-20.51 Y9.76 Z1.1 F1800.0
G1 X-20.94 Y9.76 Z1.1 F1800.0
G1 X-20.94 Y9.87 Z1.1 F1800.0
G1 X-21.38 Y9.87 Z1.1 F1800.0
G1 X-21.38 Y9.76 Z1.1 F1800.0
G1 X-21.82 Y9.76 Z1.1 F1800.0
G1 X-21.82 Y9.87 Z1.1 F1800.0
G1 X-22.25 Y9.87 Z1.1 F1800.0
G1 X-22.25 Y9.76 Z1.1 F1800.0
G1 X-22.69 Y9.76 Z1.1 F1800.0
G1 X-22.69 Y9.87 Z1.1 F1800.0
G1 X-23.13 Y9.87 Z1.1 F1800.0
G1 X-23.13 Y9.76 Z1.1 F1800.0
G1 X-23.56 Y9.76 Z1.1 F1800.0
G1 X-23.56 Y9.87 Z1.1 F1800.0
G1 X-24.0 Y9.87 Z1.1 F1800.0
G1 X-24.0 Y9.76 Z1.1 F1800.0
G1 X-24.44 Y9.76 Z1.1 F1800.0
G1 X-24.44 Y9.87 Z1.1 F1800.0
G1 X-24.87 Y9.87 Z1.1 F1800.0
G1 X-24.87 Y9.76 Z1.1 F1800.0
G1 X-25.31 Y9.76 Z1.1 F1800.0
G1 X-25.31 Y9.87 Z1.1 F1800.0
G1 X-25.74 Y9.87 Z1.1 F1800.0
G1 X-25.74 Y9.76 Z1.1 F1800.0
G1 X-26.18 Y9.76 Z1.1 F1800.0
G1 X-26.18 Y9.87 Z1.1 F1800.0
G1 X-26.62 Y9.87 Z1.1 F1800.0
G1 X-26.62 Y9.76 Z1.1 F1800.0
G1 X-27.05 Y9.76 Z1.1 F1800.0
G1 X-27.05 Y9.87 Z1.1 F1800.0
G1 X-27.49 Y9.87 Z1.1 F1800.0
G1 X-27.49 Y9.76 Z1.1 F1800.0
G1 X-27.93 Y9.76 Z1.1 F1800.0
G1 X-27.93 Y9.87 Z1.1 F1800.0
G1 X-28.36 Y9.87 Z1.1 F1800.0
G1 X-28.36 Y9.76 Z1.1 F1800.0
G1 X-28.8 Y9.76 Z1.1 F1800.0
G1 X-28.8 Y9.87 Z1.1 F1800.0
G1 X-29.23 Y9.87 Z1.1 F1800.0
G1 X-29.23 Y9.76 Z1.1 F1800.0
G1 X-29.67 Y9.76 Z1.1 F1800.0
G1 X-29.67 Y9.87 Z1.1 F1800.0
G1 X-30.11 Y9.87 Z1.1 F1800.0
G1 X-30.11 Y9.76 Z1.1 F1800.0
G1 X-30.54 Y9.76 Z1.1 F1800.0
G1 X-30.54 Y9.87 Z1.1 F1800.0
G1 X-30.98 Y9.87 Z1.1 F1800.0
G1 X-30.98 Y9.76 Z1.1 F1800.0
G1 X-31.42 Y9.76 Z1.1 F1800.0
G1 X-31.42 Y9.87 Z1.1 F1800.0
G1 X-31.85 Y9.87 Z1.1 F1800.0
G1 X-31.85 Y9.76 Z1.1 F1800.0
G1 X-32.29 Y9.76 Z1.1 F1800.0
G1 X-32.29 Y9.87 Z1.1 F1800.0
G1 X-32.73 Y9.87 Z1.1 F1800.0
G1 X-32.73 Y9.76 Z1.1 F1800.0
G1 X-33.16 Y9.76 Z1.1 F1800.0
G1 X-33.16 Y9.87 Z1.1 F1800.0
G1 X-33.6 Y9.87 Z1.1 F1800.0
G1 X-33.6 Y9.76 Z1.1 F1800.0
G1 X-34.03 Y9.76 Z1.1 F1800.0
G1 X-34.03 Y9.87 Z1.1 F1800.0
G1 X-34.47 Y9.87 Z1.1 F1800.0
G1 X-34.47 Y9.76 Z1.1 F1800.0
G1 X-34.91 Y9.76 Z1.1 F1800.0
G1 X-34.91 Y9.87 Z1.1 F1800.0
G1 X-35.34 Y9.87 Z1.1 F1800.0
G1 X-35.34 Y9.76 Z1.1 F1800.0
G1 X-35.78 Y9.76 Z1.1 F1800.0
G1 X-35.78 Y9.87 Z1.1 F1800.0
G1 X-36.22 Y9.87 Z1.1 F1800.0
G1 X-36.22 Y9.76 Z1.1 F1800.0
G1 X-36.65 Y9.76 Z1.1 F1800.0
G1 X-36.65 Y9.87 Z1.1 F1800.0
G1 X-37.09 Y9.87 Z1.1 F1800.0
G1 X-37.09 Y9.76 Z1.1 F1800.0
G1 X-37.53 Y9.76 Z1.1 F1800.0
G1 X-37.53 Y9.87 Z1.1 F1800.0
G1 X-37.96 Y9.87 Z1.1 F1800.0
G1 X-37.96 Y9.76 Z1.1 F1800.0
G1 X-38.4 Y9.76 Z1.1 F1800.0
G1 X-38.4 Y9.87 Z1.1 F1800.0
G1 X-38.83 Y9.87 Z1.1 F1800.0
G1 X-38.83 Y9.76 Z1.1 F1800.0
G1 X-39.27 Y9.76 Z1.1 F1800.0
G1 X-39.27 Y9.87 Z1.1 F1800.0
G1 X-39.71 Y9.87 Z1.1 F1800.0
G1 X-39.71 Y9.76 Z1.1 F1800.0
G1 X-40.14 Y9.76 Z1.1 F1800.0
G1 X-40.14 Y9.87 Z1.1 F1800.0
G1 X-40.58 Y9.87 Z1.1 F1800.0
G1 X-40.58 Y9.76 Z1.1 F1800.0
G1 X-41.02 Y9.76 Z1.1 F1800.0
G1 X-41.02 Y9.87 Z1.1 F1800.0
G1 X-41.45 Y9.87 Z1.1 F1800.0
G1 X-41.45 Y9.76 Z1.1 F1800.0
G1 X-41.89 Y9.76 Z1.1 F1800.0
G1 X-41.89 Y9.87 Z1.1 F1800.0
G1 X-42.32 Y9.87 Z1.1 F1800.0
G1 X-42.32 Y9.76 Z1.1 F1800.0
G1 X-42.76 Y9.76 Z1.1 F1800.0
G1 X-42.76 Y9.87 Z1.1 F1800.0
G1 X-43.2 Y9.87 Z1.1 F1800.0
G1 X-43.2 Y9.76 Z1.1 F1800.0
G1 X-43.63 Y9.76 Z1.1 F1800.0
G1 X-43.63 Y9.87 Z1.1 F1800.0
G1 X-43.73 Y9.87 Z1.1 F1800.0
M108 R30.0
M102
G1 X-44.07 Y9.87 Z1.1 F1800.0
G1 X-44.07 Y9.76 Z1.1 F1800.0
M108 R3.569
M103
G1 X-43.82 Y9.19 Z1.1 F3000.0
G1 X21.41 Y8.65 Z1.1 F3000.0
G1 X21.33 Y8.75 Z1.1 F3000.0
G1 X21.31 Y8.97 Z1.1 F3000.0
G1 X21.36 Y9.07 Z1.1 F3000.0
G1 X-39.67 Y-4.44 Z1.1 F3000.0
M108 R30.0
M101
G1 X-39.89 Y-4.49 Z1.1 F3000.0
G1 X-39.71 Y-5.04 Z1.1 F3000.0
M108 R3.569
G1 X-41.02 Y-5.32 Z1.1 F1800.0
G1 X-41.36 Y-5.83 Z1.1 F1800.0
G1 X-40.48 Y-7.51 Z1.1 F1800.0
G1 X-40.48 Y-7.76 Z1.1 F1800.0
G1 X-39.71 Y-8.68 Z1.1 F1800.0
G1 X-41.45 Y-9.05 Z1.1 F1800.0
G1 X-41.89 Y-5.5 Z1.1 F1800.0
G1 X-43.2 Y-5.78 Z1.1 F1800.0
G1 X-41.89 Y-9.14 Z1.1 F1800.0
G1 X-43.2 Y-9.42 Z1.1 F1800.0
M103
G1 X-44.07 Y-9.6 Z1.1 F3000.0
M101
G1 X-43.72 Y-9.09 Z1.1 F1800.0
G1 X-44.02 Y-6.41 Z1.1 F1800.0
M108 R30.0
M102
G1 X-44.07 Y-5.96 Z1.1 F1800.0
M108 R3.569
M103
G1 X-40.05 Y-5.11 Z1.1 F3000.0
M108 R30.0
M101
G1 X-39.27 Y-4.94 Z1.1 F3000.0
M108 R3.569
G1 X-38.83 Y-4.85 Z1.1 F1800.0
G1 X-38.31 Y-5.19 Z1.1 F1800.0
G1 X-38.29 Y-5.58 Z1.1 F1800.0
G1 X-40.25 Y-7.51 Z1.1 F1800.0
G1 X-40.25 Y-7.76 Z1.1 F1800.0
G1 X-38.83 Y-8.49 Z1.1 F1800.0
G1 X-38.4 Y-8.4 Z1.1 F1800.0
M108 R30.0
M102
G1 X-37.96 Y-8.31 Z1.1 F1800.0
M108 R3.569
M103
G1 X-37.44 Y-8.19 Z1.1 F3000.0
M108 R30.0
M101
G1 X-36.65 Y-8.03 Z1.1 F3000.0
M108 R3.569
G1 X-37.53 Y-8.21 Z1.1 F1800.0
G1 X-38.06 Y-5.58 Z1.1 F1800.0
G1 X-37.96 Y-4.67 Z1.1 F1800.0
G1 X-37.43 Y-5.0 Z1.1 F1800.0
G1 X-37.09 Y-4.48 Z1.1 F1800.0
G1 X-36.65 Y-4.39 Z1.1 F1800.0
G1 X-36.13 Y-4.72 Z1.1 F1800.0
G1 X-35.43 Y-7.32 Z1.1 F1800.0
G1 X-34.91 Y-7.66 Z1.1 F1800.0
G1 X-33.16 Y-7.29 Z1.1 F1800.0
G1 X-34.82 Y-4.44 Z1.1 F1800.0
G1 X-34.47 Y-3.92 Z1.1 F1800.0
G1 X-33.16 Y-3.65 Z1.1 F1800.0
G1 X-33.82 Y-5.33 Z1.1 F1800.0
G1 X-33.82 Y-5.58 Z1.1 F1800.0
G1 X-32.73 Y-7.19 Z1.1 F1800.0
G1 X-30.98 Y-6.82 Z1.1 F1800.0
G1 X-32.63 Y-3.98 Z1.1 F1800.0
G1 X-32.29 Y-3.46 Z1.1 F1800.0
G1 X-31.42 Y-3.27 Z1.1 F1800.0
G1 X-30.89 Y-3.61 Z1.1 F1800.0
G1 X-30.54 Y-6.73 Z1.1 F1800.0
G1 X-30.11 Y-6.64 Z1.1 F1800.0
G1 X-29.76 Y-6.12 Z1.1 F1800.0
G1 X-29.57 Y-5.58 Z1.1 F1800.0
G1 X-29.58 Y-3.33 Z1.1 F1800.0
G1 X-30.1 Y-3.0 Z1.1 F1800.0
M108 R30.0
M102
G1 X-30.11 Y-3.0 Z1.1 F1800.0
G1 X-30.54 Y-3.09 Z1.1 F1800.0
M108 R3.569
M103
G1 X-30.02 Y-2.98 Z1.1 F3000.0
M108 R30.0
M101
G1 X-29.23 Y-2.81 Z1.1 F3000.0
M108 R3.569
G1 X-26.62 Y-2.25 Z1.1 F1800.0
G1 X-27.39 Y-3.15 Z1.1 F1800.0
G1 X-27.39 Y-3.4 Z1.1 F1800.0
G1 X-29.34 Y-5.33 Z1.1 F1800.0
G1 X-29.34 Y-5.58 Z1.1 F1800.0
G1 X-28.37 Y-6.26 Z1.1 F1800.0
M108 R30.0
M102
G1 X-28.36 Y-6.27 Z1.1 F1800.0
G1 X-27.93 Y-6.17 Z1.1 F1800.0
M108 R3.569
M103
G1 X-25.22 Y-5.6 Z1.1 F3000.0
M108 R30.0
M101
G1 X-24.44 Y-5.43 Z1.1 F3000.0
M108 R3.569
G1 X-26.18 Y-5.8 Z1.1 F1800.0
G1 X-26.71 Y-5.47 Z1.1 F1800.0
G1 X-27.16 Y-3.4 Z1.1 F1800.0
G1 X-27.16 Y-3.15 Z1.1 F1800.0
G1 X-26.09 Y-2.59 Z1.1 F1800.0
G1 X-25.74 Y-2.07 Z1.1 F1800.0
G1 X-24.44 Y-1.79 Z1.1 F1800.0
G1 X-24.78 Y-2.31 Z1.1 F1800.0
G1 X-24.09 Y-4.91 Z1.1 F1800.0
G1 X-23.56 Y-5.25 Z1.1 F1800.0
G1 X-22.25 Y-4.97 Z1.1 F1800.0
G1 X-23.56 Y-1.61 Z1.1 F1800.0
G1 X-23.04 Y-1.94 Z1.1 F1800.0
G1 X-21.82 Y-4.87 Z1.1 F1800.0
G1 X-21.38 Y-4.78 Z1.1 F1800.0
G1 X-21.04 Y-4.26 Z1.1 F1800.0
G1 X-22.16 Y-1.75 Z1.1 F1800.0
G1 X-21.82 Y-1.23 Z1.1 F1800.0
G1 X-21.38 Y-1.14 Z1.1 F1800.0
G1 X-20.85 Y-1.48 Z1.1 F1800.0
G1 X-20.16 Y-4.08 Z1.1 F1800.0
G1 X-19.64 Y-4.41 Z1.1 F1800.0
G1 X-17.89 Y-4.04 Z1.1 F1800.0
G1 X-18.66 Y-3.4 Z1.1 F1800.0
G1 X-18.66 Y-3.15 Z1.1 F1800.0
G1 X-20.73 Y-1.09 Z1.1 F1800.0
G1 X-20.51 Y-0.96 Z1.1 F1800.0
G1 X-20.28 Y-1.33 Z1.1 F1800.0
G1 X-20.07 Y-0.86 Z1.1 F1800.0
G1 X-19.67 Y-1.04 Z1.1 F1800.0
G1 X-19.64 Y-0.77 Z1.1 F1800.0
G1 X-17.89 Y-0.4 Z1.1 F1800.0
M103
G1 X-17.02 Y-0.21 Z1.1 F3000.0
M101
G1 X-15.71 Y0.06 Z1.1 F1800.0
G1 X-16.48 Y-0.96 Z1.1 F1800.0
G1 X-16.48 Y-1.22 Z1.1 F1800.0
G1 X-18.43 Y-3.15 Z1.1 F1800.0
G1 X-18.43 Y-3.4 Z1.1 F1800.0
G1 X-17.02 Y-3.85 Z1.1 F1800.0
G1 X-15.27 Y-3.48 Z1.1 F1800.0
M103
G1 X-14.4 Y-3.3 Z1.1 F3000.0
M101
G1 X-14.84 Y-3.39 Z1.1 F1800.0
G1 X-16.25 Y-1.22 Z1.1 F1800.0
G1 X-16.25 Y-0.96 Z1.1 F1800.0
G1 X-14.84 Y0.25 Z1.1 F1800.0
G1 X-14.31 Y-0.08 Z1.1 F1800.0
G1 X-13.62 Y-2.69 Z1.1 F1800.0
G1 X-13.09 Y-3.02 Z1.1 F1800.0
G1 X-12.65 Y-2.93 Z1.1 F1800.0
G1 X-12.31 Y-2.41 Z1.1 F1800.0
G1 X-13.96 Y0.44 Z1.1 F1800.0
G1 X-12.65 Y0.71 Z1.1 F1800.0
G1 X-12.13 Y0.38 Z1.1 F1800.0
G1 X-11.44 Y-2.22 Z1.1 F1800.0
G1 X-10.91 Y-2.56 Z1.1 F1800.0
G1 X-8.73 Y-2.09 Z1.1 F1800.0
G1 X-9.93 Y0.96 Z1.1 F1800.0
G1 X-9.93 Y1.22 Z1.1 F1800.0
G1 X-10.02 Y1.21 Z1.1 F1800.0
M108 R30.0
M102
G1 X-10.47 Y1.18 Z1.1 F1800.0
M108 R3.569
M103
G1 X-8.64 Y1.57 Z1.1 F3000.0
M108 R30.0
M101
G1 X-7.85 Y1.73 Z1.1 F3000.0
M108 R3.569
G1 X-8.29 Y1.64 Z1.1 F1800.0
G1 X-8.29 Y1.52 Z1.1 F1800.0
G1 X-9.24 Y1.11 Z1.1 F1800.0
G1 X-9.7 Y1.22 Z1.1 F1800.0
G1 X-9.7 Y0.96 Z1.1 F1800.0
G1 X-7.75 Y-0.96 Z1.1 F1800.0
G1 X-7.75 Y-1.22 Z1.1 F1800.0
G1 X-6.98 Y-1.72 Z1.1 F1800.0
G1 X-7.85 Y-1.91 Z1.1 F1800.0
M108 R30.0
M102
G1 X-8.29 Y-2.0 Z1.1 F1800.0
M108 R3.569
M103
G1 X-6.46 Y-1.61 Z1.1 F3000.0
M108 R30.0
M101
G1 X-5.67 Y-1.44 Z1.1 F3000.0
M108 R3.569
G1 X-6.11 Y-1.54 Z1.1 F1800.0
G1 X-7.52 Y-1.22 Z1.1 F1800.0
G1 X-7.52 Y-0.96 Z1.1 F1800.0
G1 X-6.89 Y1.49 Z1.1 F1800.0
G1 X-6.55 Y2.01 Z1.1 F1800.0
G1 X-6.11 Y2.1 Z1.1 F1800.0
G1 X-5.58 Y1.77 Z1.1 F1800.0
G1 X-5.45 Y0.96 Z1.1 F1800.0
G1 X-4.89 Y-0.83 Z1.1 F1800.0
G1 X-4.36 Y-1.17 Z1.1 F1800.0
G1 X-3.49 Y-0.98 Z1.1 F1800.0
G1 X-3.15 Y-0.46 Z1.1 F1800.0
G1 X-5.24 Y2.29 Z1.1 F1800.0
G1 X-2.62 Y2.85 Z1.1 F1800.0
G1 X-2.71 Y-0.37 Z1.1 F1800.0
G1 X-2.18 Y-0.7 Z1.1 F1800.0
G1 X-0.44 Y-0.33 Z1.1 F1800.0
G1 X-2.09 Y2.51 Z1.1 F1800.0
G1 X-1.75 Y3.03 Z1.1 F1800.0
G1 X-0.87 Y3.22 Z1.1 F1800.0
G1 X-0.09 Y0.19 Z1.1 F1800.0
G1 X0.44 Y-0.14 Z1.1 F1800.0
G1 X1.31 Y0.04 Z1.1 F1800.0
G1 X1.66 Y0.56 Z1.1 F1800.0
G1 X0.98 Y3.15 Z1.1 F1800.0
G1 X0.98 Y3.4 Z1.1 F1800.0
G1 X0.49 Y3.38 Z1.1 F1800.0
G1 X0.44 Y3.49 Z1.1 F1800.0
M108 R30.0
M102
G1 X0.44 Y3.5 Z1.1 F1800.0
G1 X0.0 Y3.4 Z1.1 F1800.0
M108 R3.569
M103
G1 X1.84 Y3.79 Z1.1 F3000.0
M108 R30.0
M101
G1 X2.62 Y3.96 Z1.1 F3000.0
M108 R3.569
G1 X1.72 Y3.53 Z1.1 F1800.0
G1 X1.21 Y3.4 Z1.1 F1800.0
G1 X1.21 Y3.15 Z1.1 F1800.0
G1 X3.16 Y1.22 Z1.1 F1800.0
G1 X3.16 Y0.96 Z1.1 F1800.0
G1 X2.96 Y0.84 Z1.1 F1800.0
G1 X2.62 Y0.32 Z1.1 F1800.0
M108 R30.0
M102
G1 X2.62 Y0.32 Z1.1 F1800.0
G1 X2.18 Y0.23 Z1.1 F1800.0
M108 R3.569
M103
G1 X5.33 Y0.9 Z1.1 F3000.0
M108 R30.0
M101
G1 X6.11 Y1.06 Z1.1 F3000.0
M108 R3.569
G1 X4.36 Y0.69 Z1.1 F1800.0
G1 X4.17 Y0.96 Z1.1 F1800.0
G1 X3.49 Y0.51 Z1.1 F1800.0
G1 X3.05 Y4.05 Z1.1 F1800.0
G1 X3.49 Y4.14 Z1.1 F1800.0
G1 X4.02 Y3.81 Z1.1 F1800.0
G1 X4.45 Y3.9 Z1.1 F1800.0
G1 X4.8 Y4.42 Z1.1 F1800.0
G1 X6.11 Y4.7 Z1.1 F1800.0
G1 X5.45 Y3.4 Z1.1 F1800.0
G1 X5.45 Y3.15 Z1.1 F1800.0
G1 X6.55 Y1.15 Z1.1 F1800.0
G1 X8.29 Y1.53 Z1.1 F1800.0
G1 X6.64 Y4.37 Z1.1 F1800.0
G1 X6.98 Y4.89 Z1.1 F1800.0
G1 X7.85 Y5.07 Z1.1 F1800.0
G1 X8.38 Y4.74 Z1.1 F1800.0
G1 X8.73 Y1.62 Z1.1 F1800.0
G1 X9.16 Y1.71 Z1.1 F1800.0
G1 X9.51 Y2.23 Z1.1 F1800.0
G1 X8.73 Y5.26 Z1.1 F1800.0
G1 X9.16 Y5.35 Z1.1 F1800.0
G1 X9.69 Y5.02 Z1.1 F1800.0
G1 X10.38 Y2.42 Z1.1 F1800.0
G1 X10.91 Y2.08 Z1.1 F1800.0
G1 X11.35 Y2.17 Z1.1 F1800.0
G1 X11.69 Y2.69 Z1.1 F1800.0
G1 X11.88 Y5.58 Z1.1 F1800.0
G1 X11.78 Y5.91 Z1.1 F1800.0
G1 X10.48 Y5.63 Z1.1 F1800.0
M108 R30.0
M102
G1 X10.04 Y5.54 Z1.1 F1800.0
M108 R3.569
M103
G1 X14.13 Y3.3 Z1.1 F3000.0
M108 R30.0
M101
G1 X14.84 Y2.92 Z1.1 F3000.0
M108 R3.569
G1 X13.09 Y2.55 Z1.1 F1800.0
G1 X12.56 Y2.88 Z1.1 F1800.0
G1 X12.11 Y5.58 Z1.1 F1800.0
G1 X12.64 Y5.9 Z1.1 F1800.0
G1 X13.53 Y6.28 Z1.1 F1800.0
G1 X14.84 Y6.56 Z1.1 F1800.0
G1 X15.71 Y3.1 Z1.1 F1800.0
G1 X17.02 Y3.38 Z1.1 F1800.0
G1 X15.36 Y6.22 Z1.1 F1800.0
G1 X15.71 Y6.74 Z1.1 F1800.0
G1 X16.24 Y6.41 Z1.1 F1800.0
G1 X16.36 Y5.33 Z1.1 F1800.0
G1 X17.45 Y3.47 Z1.1 F1800.0
G1 X17.89 Y3.57 Z1.1 F1800.0
G1 X18.24 Y4.09 Z1.1 F1800.0
G1 X16.58 Y6.93 Z1.1 F1800.0
G1 X17.89 Y7.21 Z1.1 F1800.0
G1 X18.42 Y6.87 Z1.1 F1800.0
G1 X19.11 Y4.27 Z1.1 F1800.0
G1 X19.64 Y3.94 Z1.1 F1800.0
G1 X20.07 Y4.03 Z1.1 F1800.0
G1 X20.42 Y4.55 Z1.1 F1800.0
G1 X20.61 Y5.33 Z1.1 F1800.0
G1 X20.61 Y5.58 Z1.1 F1800.0
G1 X21.82 Y8.04 Z1.1 F1800.0
G1 X19.2 Y7.49 Z1.1 F1800.0
M108 R30.0
M102
G1 X18.76 Y7.39 Z1.1 F1800.0
M108 R3.569
M103
G1 X28.01 Y6.0 Z1.1 F3000.0
M108 R30.0
M101
G1 X28.8 Y5.88 Z1.1 F3000.0
M108 R3.569
G1 X28.36 Y5.79 Z1.1 F1800.0
G1 X27.84 Y6.13 Z1.1 F1800.0
G1 X27.39 Y7.51 Z1.1 F1800.0
G1 X27.39 Y7.76 Z1.1 F1800.0
G1 X30.54 Y9.87 Z1.1 F1800.0
G1 X26.18 Y9.87 Z1.1 F1800.0
G1 X27.16 Y7.76 Z1.1 F1800.0
G1 X26.96 Y5.94 Z1.1 F1800.0
G1 X26.62 Y5.42 Z1.1 F1800.0
M108 R30.0
M102
G1 X26.62 Y5.42 Z1.1 F1800.0
G1 X26.18 Y5.33 Z1.1 F1800.0
M108 R3.569
M103
G1 X32.82 Y6.74 Z1.1 F3000.0
M108 R30.0
M101
G1 X33.6 Y6.9 Z1.1 F3000.0
M108 R3.569
G1 X33.16 Y6.81 Z1.1 F1800.0
G1 X32.63 Y7.15 Z1.1 F1800.0
G1 X32.2 Y7.05 Z1.1 F1800.0
G1 X31.75 Y7.51 Z1.1 F1800.0
G1 X31.75 Y7.76 Z1.1 F1800.0
G1 X34.47 Y9.87 Z1.1 F1800.0
G1 X30.98 Y9.87 Z1.1 F1800.0
G1 X31.52 Y7.76 Z1.1 F1800.0
G1 X31.52 Y7.51 Z1.1 F1800.0
G1 X31.85 Y6.53 Z1.1 F1800.0
G1 X31.42 Y6.44 Z1.1 F1800.0
M108 R30.0
M102
G1 X30.98 Y6.35 Z1.1 F1800.0
M108 R3.569
M103
G1 X41.98 Y8.69 Z1.1 F3000.0
M108 R30.0
M101
G1 X42.76 Y8.85 Z1.1 F3000.0
M108 R3.569
G1 X44.07 Y9.13 Z1.1 F1800.0
G1 X44.07 Y9.87 Z1.1 F1800.0
G1 X41.89 Y9.87 Z1.1 F1800.0
G1 X42.23 Y9.19 Z1.1 F1800.0
G1 X41.89 Y8.67 Z1.1 F1800.0
G1 X41.36 Y9.0 Z1.1 F1800.0
G1 X41.45 Y9.87 Z1.1 F1800.0
G1 X39.27 Y9.87 Z1.1 F1800.0
G1 X41.02 Y8.48 Z1.1 F1800.0
G1 X39.71 Y8.2 Z1.1 F1800.0
G1 X39.18 Y8.54 Z1.1 F1800.0
G1 X38.83 Y9.43 Z1.1 F1800.0
G1 X38.4 Y9.87 Z1.1 F1800.0
G1 X37.09 Y9.87 Z1.1 F1800.0
G1 X38.83 Y8.02 Z1.1 F1800.0
G1 X37.09 Y7.65 Z1.1 F1800.0
G1 X36.56 Y7.98 Z1.1 F1800.0
G1 X36.65 Y9.87 Z1.1 F1800.0
G1 X34.91 Y9.87 Z1.1 F1800.0
G1 X35.69 Y7.8 Z1.1 F1800.0
G1 X35.34 Y7.28 Z1.1 F1800.0
G1 X34.03 Y7.0 Z1.1 F1800.0
M103
(</surroundingLoop>)
(</layer>)
(<layer> 1.42 )
(<surroundingLoop>)
(<boundaryPerimeter>)
(<boundaryPoint> X44.766 Y10.715 Z1.42 </boundaryPoint>)
(<boundaryPoint> X-45.234 Y10.715 Z1.42 </boundaryPoint>)
(<boundaryPoint> X-45.234 Y8.915 Z1.42 </boundaryPoint>)
(<boundaryPoint> X21.467 Y8.915 Z1.42 </boundaryPoint>)
(<boundaryPoint> X21.527 Y8.886 Z1.42 </boundaryPoint>)
(<boundaryPoint> X21.528 Y8.872 Z1.42 </boundaryPoint>)
(<boundaryPoint> X21.476 Y8.831 Z1.42 </boundaryPoint>)
(<boundaryPoint> X-45.234 Y-5.348 Z1.42 </boundaryPoint>)
(<boundaryPoint> X-45.234 Y-10.334 Z1.42 </boundaryPoint>)
(<boundaryPoint> X-45.183 Y-10.652 Z1.42 </boundaryPoint>)
(<boundaryPoint> X-44.861 Y-10.636 Z1.42 </boundaryPoint>)
(<boundaryPoint> X45.234 Y8.514 Z1.42 </boundaryPoint>)
(<loop> outer )
G1 X34.07 Y6.74 Z1.42 F3000.0
M101
G1 X34.09 Y6.75 Z1.42 F1800.0
G1 X44.54 Y8.97 Z1.42 F1800.0
G1 X44.29 Y10.13 Z1.42 F1800.0
G1 X-44.65 Y10.13 Z1.42 F1800.0
G1 X-44.65 Y9.5 Z1.42 F1800.0
G1 X21.6 Y9.5 Z1.42 F1800.0
G1 X22.09 Y9.27 Z1.42 F1800.0
G1 X22.14 Y8.6 Z1.42 F1800.0
G1 X21.73 Y8.28 Z1.42 F1800.0
G1 X-44.65 Y-5.83 Z1.42 F1800.0
G1 X-44.65 Y-9.99 Z1.42 F1800.0
G1 X34.07 Y6.74 Z1.42 F1800.0
M103
(</loop>)
(<perimeter> outer )
G1 X34.17 Y6.36 Z1.42 F3000.0
M101
G1 X45.0 Y8.66 Z1.42 F1800.0
G1 X44.61 Y10.52 Z1.42 F1800.0
G1 X-45.04 Y10.52 Z1.42 F1800.0
G1 X-45.04 Y9.11 Z1.42 F1800.0
G1 X21.51 Y9.11 Z1.42 F1800.0
G1 X21.71 Y9.02 Z1.42 F1800.0
G1 X21.74 Y8.78 Z1.42 F1800.0
G1 X21.56 Y8.65 Z1.42 F1800.0
G1 X-45.04 Y-5.51 Z1.42 F1800.0
G1 X-45.04 Y-10.36 Z1.42 F1800.0
G1 X-45.08 Y-10.52 Z1.42 F1800.0
G1 X-44.93 Y-10.45 Z1.42 F1800.0
G1 X33.73 Y6.27 Z1.42 F1800.0
M108 R30.0
M102
G1 X34.17 Y6.36 Z1.42 F1800.0
M108 R3.569
M103
(</perimeter>)
(</boundaryPerimeter>)
G1 X19.69 Y7.36 Z1.42 F3000.0
M108 R30.0
M101
G1 X18.89 Y7.42 Z1.42 F3000.0
M108 R3.569
G1 X20.6 Y5.57 Z1.42 F1800.0
G1 X20.85 Y5.57 Z1.42 F1800.0
G1 X20.94 Y7.85 Z1.42 F1800.0
G1 X22.78 Y7.64 Z1.42 F1800.0
G1 X27.4 Y7.52 Z1.42 F1800.0
G1 X27.8 Y5.67 Z1.42 F1800.0
G1 X29.77 Y6.54 Z1.42 F1800.0
G1 X31.51 Y7.52 Z1.42 F1800.0
G1 X31.76 Y7.52 Z1.42 F1800.0
G1 X31.91 Y6.55 Z1.42 F1800.0
G1 X33.87 Y7.41 Z1.42 F1800.0
G1 X35.56 Y7.42 Z1.42 F1800.0
M108 R30.0
M102
G1 X36.01 Y7.42 Z1.42 F1800.0
M108 R3.569
M103
G1 X43.37 Y9.39 Z1.42 F3000.0
M108 R30.0
M101
G1 X44.14 Y9.6 Z1.42 F3000.0
M108 R3.569
G1 X42.17 Y8.73 Z1.42 F1800.0
G1 X42.0 Y9.13 Z1.42 F1800.0
G1 X40.12 Y8.29 Z1.42 F1800.0
G1 X37.98 Y8.28 Z1.42 F1800.0
G1 X31.76 Y7.75 Z1.42 F1800.0
G1 X27.14 Y7.75 Z1.42 F1800.0
G1 X22.78 Y8.91 Z1.42 F1800.0
G1 X22.35 Y9.16 Z1.42 F1800.0
G1 X22.58 Y9.54 Z1.42 F1800.0
G1 X22.44 Y9.55 Z1.42 F1800.0
M108 R30.0
M102
G1 X21.99 Y9.6 Z1.42 F1800.0
M108 R3.569
M103
G1 X25.23 Y5.84 Z1.42 F3000.0
M108 R30.0
M101
G1 X25.75 Y5.24 Z1.42 F3000.0
M108 R3.569
G1 X23.61 Y5.23 Z1.42 F1800.0
G1 X21.64 Y4.36 Z1.42 F1800.0
G1 X20.85 Y5.34 Z1.42 F1800.0
G1 X20.6 Y5.34 Z1.42 F1800.0
G1 X19.59 Y3.93 Z1.42 F1800.0
G1 X16.49 Y5.45 Z1.42 F1800.0
G1 X16.24 Y5.45 Z1.42 F1800.0
G1 X14.78 Y6.55 Z1.42 F1800.0
G1 X14.52 Y6.2 Z1.42 F1800.0
G1 X12.73 Y6.11 Z1.42 F1800.0
G1 X12.13 Y5.45 Z1.42 F1800.0
G1 X11.87 Y5.45 Z1.42 F1800.0
G1 X10.68 Y5.67 Z1.42 F1800.0
G1 X10.6 Y5.24 Z1.42 F1800.0
G1 X9.07 Y5.24 Z1.42 F1800.0
M108 R30.0
M102
G1 X8.63 Y5.24 Z1.42 F1800.0
M108 R3.569
M103
G1 X5.71 Y1.5 Z1.42 F3000.0
M108 R30.0
M101
G1 X5.22 Y0.87 Z1.42 F3000.0
M108 R3.569
G1 X3.15 Y0.98 Z1.42 F1800.0
G1 X3.17 Y0.44 Z1.42 F1800.0
G1 X1.02 Y0.43 Z1.42 F1800.0
G1 X-0.94 Y-0.44 Z1.42 F1800.0
G1 X-0.96 Y1.09 Z1.42 F1800.0
G1 X-5.58 Y1.09 Z1.42 F1800.0
G1 X-7.51 Y-0.98 Z1.42 F1800.0
G1 X-7.76 Y-0.98 Z1.42 F1800.0
G1 X-7.8 Y1.75 Z1.42 F1800.0
G1 X-9.69 Y1.09 Z1.42 F1800.0
G1 X-9.85 Y1.31 Z1.42 F1800.0
G1 X-9.95 Y1.09 Z1.42 F1800.0
G1 X-11.46 Y0.92 Z1.42 F1800.0
M108 R30.0
M102
G1 X-11.9 Y0.87 Z1.42 F1800.0
M108 R3.569
M103
G1 X-14.82 Y-2.86 Z1.42 F3000.0
M108 R30.0
M101
G1 X-15.31 Y-3.49 Z1.42 F3000.0
M108 R3.569
G1 X-17.16 Y-3.54 Z1.42 F1800.0
G1 X-18.67 Y-3.39 Z1.42 F1800.0
G1 X-19.41 Y-4.36 Z1.42 F1800.0
G1 X-19.76 Y-4.1 Z1.42 F1800.0
G1 X-21.47 Y-4.8 Z1.42 F1800.0
G1 X-22.78 Y-3.27 Z1.42 F1800.0
G1 X-23.04 Y-3.27 Z1.42 F1800.0
G1 X-23.52 Y-5.24 Z1.42 F1800.0
G1 X-26.27 Y-2.18 Z1.42 F1800.0
G1 X-27.14 Y-3.27 Z1.42 F1800.0
G1 X-27.4 Y-3.27 Z1.42 F1800.0
G1 X-28.33 Y-2.62 Z1.42 F1800.0
G1 X-30.29 Y-3.48 Z1.42 F1800.0
G1 X-31.98 Y-3.49 Z1.42 F1800.0
M108 R30.0
M102
G1 X-32.43 Y-3.49 Z1.42 F1800.0
M108 R3.569
M103
G1 X-35.34 Y-7.22 Z1.42 F3000.0
M108 R30.0
M101
G1 X-35.84 Y-7.85 Z1.42 F3000.0
M108 R3.569
G1 X-37.98 Y-7.86 Z1.42 F1800.0
G1 X-39.94 Y-8.73 Z1.42 F1800.0
G1 X-40.23 Y-7.75 Z1.42 F1800.0
G1 X-40.49 Y-7.75 Z1.42 F1800.0
G1 X-41.99 Y-9.16 Z1.42 F1800.0
G1 X-43.95 Y-7.42 Z1.42 F1800.0
G1 X-44.39 Y-7.85 Z1.42 F1800.0
G1 X-44.29 Y-7.87 Z1.42 F1800.0
G1 X-44.05 Y-8.89 Z1.42 F1800.0
G1 X-44.05 Y-9.51 Z1.42 F1800.0
M108 R30.0
M102
G1 X-44.05 Y-9.6 Z1.42 F1800.0
G1 X-44.41 Y-9.6 Z1.42 F1800.0
M108 R3.569
M103
G1 X-43.02 Y-6.41 Z1.42 F3000.0
M108 R30.0
M101
G1 X-42.7 Y-5.67 Z1.42 F3000.0
M108 R3.569
G1 X-40.55 Y-5.66 Z1.42 F1800.0
G1 X-40.49 Y-7.52 Z1.42 F1800.0
G1 X-40.23 Y-7.52 Z1.42 F1800.0
G1 X-38.59 Y-4.8 Z1.42 F1800.0
G1 X-38.31 Y-5.45 Z1.42 F1800.0
G1 X-38.05 Y-5.45 Z1.42 F1800.0
G1 X-36.54 Y-4.36 Z1.42 F1800.0
G1 X-33.94 Y-5.45 Z1.42 F1800.0
G1 X-33.69 Y-5.45 Z1.42 F1800.0
G1 X-33.78 Y-7.42 Z1.42 F1800.0
G1 X-31.82 Y-6.56 Z1.42 F1800.0
G1 X-29.68 Y-6.55 Z1.42 F1800.0
G1 X-29.58 Y-5.45 Z1.42 F1800.0
G1 X-29.33 Y-5.45 Z1.42 F1800.0
G1 X-27.62 Y-6.11 Z1.42 F1800.0
G1 X-27.47 Y-5.7 Z1.42 F1800.0
G1 X-26.02 Y-5.68 Z1.42 F1800.0
M108 R30.0
M102
G1 X-25.57 Y-5.67 Z1.42 F1800.0
M108 R3.569
M103
G1 X-22.66 Y-1.94 Z1.42 F3000.0
M108 R30.0
M101
G1 X-22.17 Y-1.31 Z1.42 F3000.0
M108 R3.569
G1 X-20.02 Y-1.3 Z1.42 F1800.0
G1 X-18.67 Y-3.16 Z1.42 F1800.0
G1 X-18.42 Y-3.16 Z1.42 F1800.0
G1 X-18.06 Y-0.44 Z1.42 F1800.0
G1 X-16.49 Y-1.09 Z1.42 F1800.0
G1 X-16.24 Y-1.09 Z1.42 F1800.0
G1 X-16.01 Y0.0 Z1.42 F1800.0
G1 X-12.13 Y-1.09 Z1.42 F1800.0
G1 X-11.87 Y-1.09 Z1.42 F1800.0
G1 X-11.2 Y-2.62 Z1.42 F1800.0
G1 X-7.76 Y-1.21 Z1.42 F1800.0
G1 X-7.51 Y-1.21 Z1.42 F1800.0
G1 X-7.1 Y-1.75 Z1.42 F1800.0
G1 X-6.75 Y-1.48 Z1.42 F1800.0
G1 X-5.49 Y-1.35 Z1.42 F1800.0
M108 R30.0
M102
G1 X-5.04 Y-1.31 Z1.42 F1800.0
M108 R3.569
M103
G1 X-2.13 Y2.42 Z1.42 F3000.0
M108 R30.0
M101
G1 X-1.64 Y3.05 Z1.42 F3000.0
M108 R3.569
G1 X0.25 Y3.09 Z1.42 F1800.0
G1 X0.96 Y3.27 Z1.42 F1800.0
G1 X1.22 Y3.27 Z1.42 F1800.0
G1 X2.47 Y3.93 Z1.42 F1800.0
G1 X3.15 Y1.21 Z1.42 F1800.0
G1 X3.4 Y1.21 Z1.42 F1800.0
G1 X4.52 Y4.36 Z1.42 F1800.0
G1 X5.33 Y3.27 Z1.42 F1800.0
G1 X5.58 Y3.27 Z1.42 F1800.0
G1 X6.57 Y4.8 Z1.42 F1800.0
G1 X7.18 Y1.74 Z1.42 F1800.0
G1 X9.33 Y1.75 Z1.42 F1800.0
G1 X9.69 Y3.27 Z1.42 F1800.0
G1 X9.95 Y3.27 Z1.42 F1800.0
G1 X11.38 Y2.18 Z1.42 F1800.0
G1 X13.34 Y3.05 Z1.42 F1800.0
G1 X15.49 Y3.05 Z1.42 F1800.0
M103
(</surroundingLoop>)
(</layer>)
(<layer> 1.74 )
(<surroundingLoop>)
(<boundaryPerimeter>)
(<boundaryPoint> X44.766 Y10.715 Z1.74 </boundaryPoint>)
(<boundaryPoint> X-45.234 Y10.715 Z1.74 </boundaryPoint>)
(<boundaryPoint> X-45.234 Y8.915 Z1.74 </boundaryPoint>)
(<boundaryPoint> X21.467 Y8.915 Z1.74 </boundaryPoint>)
(<boundaryPoint> X21.527 Y8.886 Z1.74 </boundaryPoint>)
(<boundaryPoint> X21.528 Y8.872 Z1.74 </boundaryPoint>)
(<boundaryPoint> X21.476 Y8.831 Z1.74 </boundaryPoint>)
(<boundaryPoint> X-45.234 Y-5.348 Z1.74 </boundaryPoint>)
(<boundaryPoint> X-45.234 Y-10.334 Z1.74 </boundaryPoint>)
(<boundaryPoint> X-45.183 Y-10.652 Z1.74 </boundaryPoint>)
(<boundaryPoint> X-44.861 Y-10.636 Z1.74 </boundaryPoint>)
(<boundaryPoint> X45.234 Y8.514 Z1.74 </boundaryPoint>)
(<loop> outer )
G1 X15.22 Y2.74 Z1.74 F3000.0
M101
G1 X15.54 Y2.81 Z1.74 F1800.0
G1 X44.54 Y8.97 Z1.74 F1800.0
G1 X44.29 Y10.13 Z1.74 F1800.0
G1 X-44.65 Y10.13 Z1.74 F1800.0
G1 X-44.65 Y9.5 Z1.74 F1800.0
G1 X21.6 Y9.5 Z1.74 F1800.0
G1 X22.09 Y9.27 Z1.74 F1800.0
G1 X22.14 Y8.6 Z1.74 F1800.0
G1 X21.73 Y8.28 Z1.74 F1800.0
G1 X-44.65 Y-5.83 Z1.74 F1800.0
G1 X-44.65 Y-9.99 Z1.74 F1800.0
G1 X15.22 Y2.74 Z1.74 F1800.0
M103
(</loop>)
(<perimeter> outer )
G1 X15.31 Y2.35 Z1.74 F3000.0
M101
G1 X15.62 Y2.42 Z1.74 F1800.0
G1 X45.0 Y8.66 Z1.74 F1800.0
G1 X44.61 Y10.52 Z1.74 F1800.0
G1 X-45.04 Y10.52 Z1.74 F1800.0
G1 X-45.04 Y9.11 Z1.74 F1800.0
G1 X21.51 Y9.11 Z1.74 F1800.0
G1 X21.71 Y9.02 Z1.74 F1800.0
G1 X21.74 Y8.78 Z1.74 F1800.0
G1 X21.56 Y8.65 Z1.74 F1800.0
G1 X-45.04 Y-5.51 Z1.74 F1800.0
G1 X-45.04 Y-10.36 Z1.74 F1800.0
G1 X-45.08 Y-10.52 Z1.74 F1800.0
G1 X-44.93 Y-10.45 Z1.74 F1800.0
G1 X15.31 Y2.35 Z1.74 F1800.0
M103
(</perimeter>)
(</boundaryPerimeter>)
G1 X14.84 Y2.92 Z1.74 F3000.0
M101
G1 X13.09 Y2.55 Z1.74 F1800.0
G1 X12.56 Y2.88 Z1.74 F1800.0
G1 X12.11 Y5.58 Z1.74 F1800.0
G1 X12.64 Y5.9 Z1.74 F1800.0
G1 X13.53 Y6.28 Z1.74 F1800.0
G1 X14.84 Y6.56 Z1.74 F1800.0
G1 X15.71 Y3.1 Z1.74 F1800.0
G1 X17.02 Y3.38 Z1.74 F1800.0
G1 X15.36 Y6.22 Z1.74 F1800.0
G1 X15.71 Y6.74 Z1.74 F1800.0
G1 X16.24 Y6.41 Z1.74 F1800.0
G1 X16.36 Y5.33 Z1.74 F1800.0
G1 X17.45 Y3.47 Z1.74 F1800.0
G1 X17.89 Y3.57 Z1.74 F1800.0
G1 X18.24 Y4.09 Z1.74 F1800.0
G1 X16.58 Y6.93 Z1.74 F1800.0
G1 X17.89 Y7.21 Z1.74 F1800.0
G1 X18.42 Y6.87 Z1.74 F1800.0
G1 X19.11 Y4.27 Z1.74 F1800.0
G1 X19.64 Y3.94 Z1.74 F1800.0
G1 X20.07 Y4.03 Z1.74 F1800.0
G1 X20.42 Y4.55 Z1.74 F1800.0
G1 X20.61 Y5.33 Z1.74 F1800.0
G1 X20.61 Y5.58 Z1.74 F1800.0
G1 X21.82 Y8.04 Z1.74 F1800.0
G1 X19.2 Y7.49 Z1.74 F1800.0
M108 R30.0
M102
G1 X18.76 Y7.39 Z1.74 F1800.0
M108 R3.569
M103
G1 X21.48 Y8.15 Z1.74 F3000.0
M108 R30.0
M101
G1 X22.25 Y8.37 Z1.74 F3000.0
M108 R3.569
G1 X22.79 Y7.76 Z1.74 F1800.0
G1 X22.79 Y7.51 Z1.74 F1800.0
G1 X20.84 Y5.58 Z1.74 F1800.0
G1 X20.84 Y5.33 Z1.74 F1800.0
G1 X21.29 Y4.73 Z1.74 F1800.0
G1 X21.73 Y4.83 Z1.74 F1800.0
G1 X22.25 Y4.49 Z1.74 F1800.0
G1 X23.12 Y4.68 Z1.74 F1800.0
M108 R30.0
M102
G1 X23.56 Y4.77 Z1.74 F1800.0
M108 R3.569
M103
G1 X24.09 Y4.88 Z1.74 F3000.0
M108 R30.0
M101
G1 X24.87 Y5.05 Z1.74 F3000.0
M108 R3.569
G1 X24.44 Y4.96 Z1.74 F1800.0
G1 X23.91 Y5.29 Z1.74 F1800.0
G1 X23.02 Y7.51 Z1.74 F1800.0
G1 X23.02 Y7.76 Z1.74 F1800.0
G1 X25.74 Y9.87 Z1.74 F1800.0
G1 X22.25 Y9.87 Z1.74 F1800.0
G1 X22.25 Y9.47 Z1.74 F1800.0
G1 X21.82 Y9.87 Z1.74 F1800.0
G1 X21.82 Y9.68 Z1.74 F1800.0
G1 X21.38 Y9.87 Z1.74 F1800.0
G1 X21.38 Y9.76 Z1.74 F1800.0
G1 X20.94 Y9.76 Z1.74 F1800.0
G1 X20.94 Y9.87 Z1.74 F1800.0
G1 X20.51 Y9.87 Z1.74 F1800.0
G1 X20.51 Y9.76 Z1.74 F1800.0
G1 X20.07 Y9.76 Z1.74 F1800.0
G1 X20.07 Y9.87 Z1.74 F1800.0
G1 X19.64 Y9.87 Z1.74 F1800.0
G1 X19.64 Y9.76 Z1.74 F1800.0
G1 X19.2 Y9.76 Z1.74 F1800.0
G1 X19.2 Y9.87 Z1.74 F1800.0
G1 X18.76 Y9.87 Z1.74 F1800.0
G1 X18.76 Y9.76 Z1.74 F1800.0
G1 X18.33 Y9.76 Z1.74 F1800.0
G1 X18.33 Y9.87 Z1.74 F1800.0
G1 X17.89 Y9.87 Z1.74 F1800.0
G1 X17.89 Y9.76 Z1.74 F1800.0
G1 X17.45 Y9.76 Z1.74 F1800.0
G1 X17.45 Y9.87 Z1.74 F1800.0
G1 X17.02 Y9.87 Z1.74 F1800.0
G1 X17.02 Y9.76 Z1.74 F1800.0
G1 X16.58 Y9.76 Z1.74 F1800.0
G1 X16.58 Y9.87 Z1.74 F1800.0
G1 X16.14 Y9.87 Z1.74 F1800.0
G1 X16.14 Y9.76 Z1.74 F1800.0
G1 X15.71 Y9.76 Z1.74 F1800.0
G1 X15.71 Y9.87 Z1.74 F1800.0
G1 X15.27 Y9.87 Z1.74 F1800.0
G1 X15.27 Y9.76 Z1.74 F1800.0
G1 X14.84 Y9.76 Z1.74 F1800.0
G1 X14.84 Y9.87 Z1.74 F1800.0
G1 X14.4 Y9.87 Z1.74 F1800.0
G1 X14.4 Y9.76 Z1.74 F1800.0
G1 X13.96 Y9.76 Z1.74 F1800.0
G1 X13.96 Y9.87 Z1.74 F1800.0
G1 X13.53 Y9.87 Z1.74 F1800.0
G1 X13.53 Y9.76 Z1.74 F1800.0
G1 X13.09 Y9.76 Z1.74 F1800.0
G1 X13.09 Y9.87 Z1.74 F1800.0
G1 X12.65 Y9.87 Z1.74 F1800.0
G1 X12.65 Y9.76 Z1.74 F1800.0
G1 X12.22 Y9.76 Z1.74 F1800.0
G1 X12.22 Y9.87 Z1.74 F1800.0
G1 X11.78 Y9.87 Z1.74 F1800.0
G1 X11.78 Y9.76 Z1.74 F1800.0
G1 X11.35 Y9.76 Z1.74 F1800.0
G1 X11.35 Y9.87 Z1.74 F1800.0
G1 X10.91 Y9.87 Z1.74 F1800.0
G1 X10.91 Y9.76 Z1.74 F1800.0
G1 X10.47 Y9.76 Z1.74 F1800.0
G1 X10.47 Y9.87 Z1.74 F1800.0
G1 X10.04 Y9.87 Z1.74 F1800.0
G1 X10.04 Y9.76 Z1.74 F1800.0
G1 X9.6 Y9.76 Z1.74 F1800.0
G1 X9.6 Y9.87 Z1.74 F1800.0
G1 X9.16 Y9.87 Z1.74 F1800.0
G1 X9.16 Y9.76 Z1.74 F1800.0
G1 X8.73 Y9.76 Z1.74 F1800.0
G1 X8.73 Y9.87 Z1.74 F1800.0
G1 X8.29 Y9.87 Z1.74 F1800.0
G1 X8.29 Y9.76 Z1.74 F1800.0
G1 X7.85 Y9.76 Z1.74 F1800.0
G1 X7.85 Y9.87 Z1.74 F1800.0
G1 X7.42 Y9.87 Z1.74 F1800.0
G1 X7.42 Y9.76 Z1.74 F1800.0
G1 X6.98 Y9.76 Z1.74 F1800.0
G1 X6.98 Y9.87 Z1.74 F1800.0
G1 X6.55 Y9.87 Z1.74 F1800.0
G1 X6.55 Y9.76 Z1.74 F1800.0
G1 X6.11 Y9.76 Z1.74 F1800.0
G1 X6.11 Y9.87 Z1.74 F1800.0
G1 X5.67 Y9.87 Z1.74 F1800.0
G1 X5.67 Y9.76 Z1.74 F1800.0
G1 X5.24 Y9.76 Z1.74 F1800.0
G1 X5.24 Y9.87 Z1.74 F1800.0
G1 X4.8 Y9.87 Z1.74 F1800.0
G1 X4.8 Y9.76 Z1.74 F1800.0
G1 X4.36 Y9.76 Z1.74 F1800.0
G1 X4.36 Y9.87 Z1.74 F1800.0
G1 X3.93 Y9.87 Z1.74 F1800.0
G1 X3.93 Y9.76 Z1.74 F1800.0
G1 X3.49 Y9.76 Z1.74 F1800.0
G1 X3.49 Y9.87 Z1.74 F1800.0
G1 X3.05 Y9.87 Z1.74 F1800.0
G1 X3.05 Y9.76 Z1.74 F1800.0
G1 X2.62 Y9.76 Z1.74 F1800.0
G1 X2.62 Y9.87 Z1.74 F1800.0
G1 X2.18 Y9.87 Z1.74 F1800.0
G1 X2.18 Y9.76 Z1.74 F1800.0
G1 X1.75 Y9.76 Z1.74 F1800.0
G1 X1.75 Y9.87 Z1.74 F1800.0
G1 X1.31 Y9.87 Z1.74 F1800.0
G1 X1.31 Y9.76 Z1.74 F1800.0
G1 X0.87 Y9.76 Z1.74 F1800.0
G1 X0.87 Y9.87 Z1.74 F1800.0
G1 X0.44 Y9.87 Z1.74 F1800.0
G1 X0.44 Y9.76 Z1.74 F1800.0
G1 X0.0 Y9.76 Z1.74 F1800.0
G1 X0.0 Y9.87 Z1.74 F1800.0
G1 X-0.44 Y9.87 Z1.74 F1800.0
G1 X-0.44 Y9.76 Z1.74 F1800.0
G1 X-0.87 Y9.76 Z1.74 F1800.0
G1 X-0.87 Y9.87 Z1.74 F1800.0
G1 X-1.31 Y9.87 Z1.74 F1800.0
G1 X-1.31 Y9.76 Z1.74 F1800.0
G1 X-1.75 Y9.76 Z1.74 F1800.0
G1 X-1.75 Y9.87 Z1.74 F1800.0
G1 X-2.18 Y9.87 Z1.74 F1800.0
G1 X-2.18 Y9.76 Z1.74 F1800.0
G1 X-2.62 Y9.76 Z1.74 F1800.0
G1 X-2.62 Y9.87 Z1.74 F1800.0
G1 X-3.05 Y9.87 Z1.74 F1800.0
G1 X-3.05 Y9.76 Z1.74 F1800.0
G1 X-3.49 Y9.76 Z1.74 F1800.0
G1 X-3.49 Y9.87 Z1.74 F1800.0
G1 X-3.93 Y9.87 Z1.74 F1800.0
G1 X-3.93 Y9.76 Z1.74 F1800.0
G1 X-4.36 Y9.76 Z1.74 F1800.0
G1 X-4.36 Y9.87 Z1.74 F1800.0
G1 X-4.8 Y9.87 Z1.74 F1800.0
G1 X-4.8 Y9.76 Z1.74 F1800.0
G1 X-5.24 Y9.76 Z1.74 F1800.0
G1 X-5.24 Y9.87 Z1.74 F1800.0
G1 X-5.67 Y9.87 Z1.74 F1800.0
G1 X-5.67 Y9.76 Z1.74 F1800.0
G1 X-6.11 Y9.76 Z1.74 F1800.0
G1 X-6.11 Y9.87 Z1.74 F1800.0
G1 X-6.55 Y9.87 Z1.74 F1800.0
G1 X-6.55 Y9.76 Z1.74 F1800.0
G1 X-6.98 Y9.76 Z1.74 F1800.0
G1 X-6.98 Y9.87 Z1.74 F1800.0
G1 X-7.42 Y9.87 Z1.74 F1800.0
G1 X-7.42 Y9.76 Z1.74 F1800.0
G1 X-7.85 Y9.76 Z1.74 F1800.0
G1 X-7.85 Y9.87 Z1.74 F1800.0
G1 X-8.29 Y9.87 Z1.74 F1800.0
G1 X-8.29 Y9.76 Z1.74 F1800.0
G1 X-8.73 Y9.76 Z1.74 F1800.0
G1 X-8.73 Y9.87 Z1.74 F1800.0
G1 X-9.16 Y9.87 Z1.74 F1800.0
G1 X-9.16 Y9.76 Z1.74 F1800.0
G1 X-9.6 Y9.76 Z1.74 F1800.0
G1 X-9.6 Y9.87 Z1.74 F1800.0
G1 X-10.04 Y9.87 Z1.74 F1800.0
G1 X-10.04 Y9.76 Z1.74 F1800.0
G1 X-10.47 Y9.76 Z1.74 F1800.0
G1 X-10.47 Y9.87 Z1.74 F1800.0
G1 X-10.91 Y9.87 Z1.74 F1800.0
G1 X-10.91 Y9.76 Z1.74 F1800.0
G1 X-11.35 Y9.76 Z1.74 F1800.0
G1 X-11.35 Y9.87 Z1.74 F1800.0
G1 X-11.78 Y9.87 Z1.74 F1800.0
G1 X-11.78 Y9.76 Z1.74 F1800.0
G1 X-12.22 Y9.76 Z1.74 F1800.0
G1 X-12.22 Y9.87 Z1.74 F1800.0
G1 X-12.65 Y9.87 Z1.74 F1800.0
G1 X-12.65 Y9.76 Z1.74 F1800.0
G1 X-13.09 Y9.76 Z1.74 F1800.0
G1 X-13.09 Y9.87 Z1.74 F1800.0
G1 X-13.53 Y9.87 Z1.74 F1800.0
G1 X-13.53 Y9.76 Z1.74 F1800.0
G1 X-13.96 Y9.76 Z1.74 F1800.0
G1 X-13.96 Y9.87 Z1.74 F1800.0
G1 X-14.4 Y9.87 Z1.74 F1800.0
G1 X-14.4 Y9.76 Z1.74 F1800.0
G1 X-14.84 Y9.76 Z1.74 F1800.0
G1 X-14.84 Y9.87 Z1.74 F1800.0
G1 X-15.27 Y9.87 Z1.74 F1800.0
G1 X-15.27 Y9.76 Z1.74 F1800.0
G1 X-15.71 Y9.76 Z1.74 F1800.0
G1 X-15.71 Y9.87 Z1.74 F1800.0
G1 X-16.14 Y9.87 Z1.74 F1800.0
G1 X-16.14 Y9.76 Z1.74 F1800.0
G1 X-16.58 Y9.76 Z1.74 F1800.0
G1 X-16.58 Y9.87 Z1.74 F1800.0
G1 X-17.02 Y9.87 Z1.74 F1800.0
G1 X-17.02 Y9.76 Z1.74 F1800.0
G1 X-17.45 Y9.76 Z1.74 F1800.0
G1 X-17.45 Y9.87 Z1.74 F1800.0
G1 X-17.89 Y9.87 Z1.74 F1800.0
G1 X-17.89 Y9.76 Z1.74 F1800.0
G1 X-18.33 Y9.76 Z1.74 F1800.0
G1 X-18.33 Y9.87 Z1.74 F1800.0
G1 X-18.76 Y9.87 Z1.74 F1800.0
G1 X-18.76 Y9.76 Z1.74 F1800.0
G1 X-19.2 Y9.76 Z1.74 F1800.0
G1 X-19.2 Y9.87 Z1.74 F1800.0
G1 X-19.64 Y9.87 Z1.74 F1800.0
G1 X-19.64 Y9.76 Z1.74 F1800.0
G1 X-20.07 Y9.76 Z1.74 F1800.0
G1 X-20.07 Y9.87 Z1.74 F1800.0
G1 X-20.51 Y9.87 Z1.74 F1800.0
G1 X-20.51 Y9.76 Z1.74 F1800.0
G1 X-20.94 Y9.76 Z1.74 F1800.0
G1 X-20.94 Y9.87 Z1.74 F1800.0
G1 X-21.38 Y9.87 Z1.74 F1800.0
G1 X-21.38 Y9.76 Z1.74 F1800.0
G1 X-21.82 Y9.76 Z1.74 F1800.0
G1 X-21.82 Y9.87 Z1.74 F1800.0
G1 X-22.25 Y9.87 Z1.74 F1800.0
G1 X-22.25 Y9.76 Z1.74 F1800.0
G1 X-22.69 Y9.76 Z1.74 F1800.0
G1 X-22.69 Y9.87 Z1.74 F1800.0
G1 X-23.13 Y9.87 Z1.74 F1800.0
G1 X-23.13 Y9.76 Z1.74 F1800.0
G1 X-23.56 Y9.76 Z1.74 F1800.0
G1 X-23.56 Y9.87 Z1.74 F1800.0
G1 X-24.0 Y9.87 Z1.74 F1800.0
G1 X-24.0 Y9.76 Z1.74 F1800.0
G1 X-24.44 Y9.76 Z1.74 F1800.0
G1 X-24.44 Y9.87 Z1.74 F1800.0
G1 X-24.87 Y9.87 Z1.74 F1800.0
G1 X-24.87 Y9.76 Z1.74 F1800.0
G1 X-25.31 Y9.76 Z1.74 F1800.0
G1 X-25.31 Y9.87 Z1.74 F1800.0
G1 X-25.74 Y9.87 Z1.74 F1800.0
G1 X-25.74 Y9.76 Z1.74 F1800.0
G1 X-26.18 Y9.76 Z1.74 F1800.0
G1 X-26.18 Y9.87 Z1.74 F1800.0
G1 X-26.62 Y9.87 Z1.74 F1800.0
G1 X-26.62 Y9.76 Z1.74 F1800.0
G1 X-27.05 Y9.76 Z1.74 F1800.0
G1 X-27.05 Y9.87 Z1.74 F1800.0
G1 X-27.49 Y9.87 Z1.74 F1800.0
G1 X-27.49 Y9.76 Z1.74 F1800.0
G1 X-27.93 Y9.76 Z1.74 F1800.0
G1 X-27.93 Y9.87 Z1.74 F1800.0
G1 X-28.36 Y9.87 Z1.74 F1800.0
G1 X-28.36 Y9.76 Z1.74 F1800.0
G1 X-28.8 Y9.76 Z1.74 F1800.0
G1 X-28.8 Y9.87 Z1.74 F1800.0
G1 X-29.23 Y9.87 Z1.74 F1800.0
G1 X-29.23 Y9.76 Z1.74 F1800.0
G1 X-29.67 Y9.76 Z1.74 F1800.0
G1 X-29.67 Y9.87 Z1.74 F1800.0
G1 X-30.11 Y9.87 Z1.74 F1800.0
G1 X-30.11 Y9.76 Z1.74 F1800.0
G1 X-30.54 Y9.76 Z1.74 F1800.0
G1 X-30.54 Y9.87 Z1.74 F1800.0
G1 X-30.98 Y9.87 Z1.74 F1800.0
G1 X-30.98 Y9.76 Z1.74 F1800.0
G1 X-31.42 Y9.76 Z1.74 F1800.0
G1 X-31.42 Y9.87 Z1.74 F1800.0
G1 X-31.85 Y9.87 Z1.74 F1800.0
G1 X-31.85 Y9.76 Z1.74 F1800.0
G1 X-32.29 Y9.76 Z1.74 F1800.0
G1 X-32.29 Y9.87 Z1.74 F1800.0
G1 X-32.73 Y9.87 Z1.74 F1800.0
G1 X-32.73 Y9.76 Z1.74 F1800.0
G1 X-33.16 Y9.76 Z1.74 F1800.0
G1 X-33.16 Y9.87 Z1.74 F1800.0
G1 X-33.6 Y9.87 Z1.74 F1800.0
G1 X-33.6 Y9.76 Z1.74 F1800.0
G1 X-34.03 Y9.76 Z1.74 F1800.0
G1 X-34.03 Y9.87 Z1.74 F1800.0
G1 X-34.47 Y9.87 Z1.74 F1800.0
G1 X-34.47 Y9.76 Z1.74 F1800.0
G1 X-34.91 Y9.76 Z1.74 F1800.0
G1 X-34.91 Y9.87 Z1.74 F1800.0
G1 X-35.34 Y9.87 Z1.74 F1800.0
G1 X-35.34 Y9.76 Z1.74 F1800.0
G1 X-35.78 Y9.76 Z1.74 F1800.0
G1 X-35.78 Y9.87 Z1.74 F1800.0
G1 X-36.22 Y9.87 Z1.74 F1800.0
G1 X-36.22 Y9.76 Z1.74 F1800.0
G1 X-36.65 Y9.76 Z1.74 F1800.0
G1 X-36.65 Y9.87 Z1.74 F1800.0
G1 X-37.09 Y9.87 Z1.74 F1800.0
G1 X-37.09 Y9.76 Z1.74 F1800.0
G1 X-37.53 Y9.76 Z1.74 F1800.0
G1 X-37.53 Y9.87 Z1.74 F1800.0
G1 X-37.96 Y9.87 Z1.74 F1800.0
G1 X-37.96 Y9.76 Z1.74 F1800.0
G1 X-38.4 Y9.76 Z1.74 F1800.0
G1 X-38.4 Y9.87 Z1.74 F1800.0
G1 X-38.83 Y9.87 Z1.74 F1800.0
G1 X-38.83 Y9.76 Z1.74 F1800.0
G1 X-39.27 Y9.76 Z1.74 F1800.0
G1 X-39.27 Y9.87 Z1.74 F1800.0
G1 X-39.71 Y9.87 Z1.74 F1800.0
G1 X-39.71 Y9.76 Z1.74 F1800.0
G1 X-40.14 Y9.76 Z1.74 F1800.0
G1 X-40.14 Y9.87 Z1.74 F1800.0
G1 X-40.58 Y9.87 Z1.74 F1800.0
G1 X-40.58 Y9.76 Z1.74 F1800.0
G1 X-41.02 Y9.76 Z1.74 F1800.0
G1 X-41.02 Y9.87 Z1.74 F1800.0
G1 X-41.45 Y9.87 Z1.74 F1800.0
G1 X-41.45 Y9.76 Z1.74 F1800.0
G1 X-41.89 Y9.76 Z1.74 F1800.0
G1 X-41.89 Y9.87 Z1.74 F1800.0
G1 X-42.32 Y9.87 Z1.74 F1800.0
G1 X-42.32 Y9.76 Z1.74 F1800.0
G1 X-42.76 Y9.76 Z1.74 F1800.0
G1 X-42.76 Y9.87 Z1.74 F1800.0
G1 X-43.2 Y9.87 Z1.74 F1800.0
G1 X-43.2 Y9.76 Z1.74 F1800.0
G1 X-43.63 Y9.76 Z1.74 F1800.0
G1 X-43.63 Y9.87 Z1.74 F1800.0
G1 X-43.73 Y9.87 Z1.74 F1800.0
M108 R30.0
M102
G1 X-44.07 Y9.87 Z1.74 F1800.0
G1 X-44.07 Y9.76 Z1.74 F1800.0
M108 R3.569
M103
G1 X-43.82 Y9.19 Z1.74 F3000.0
G1 X21.41 Y8.65 Z1.74 F3000.0
G1 X21.33 Y8.75 Z1.74 F3000.0
G1 X21.31 Y8.97 Z1.74 F3000.0
G1 X21.36 Y9.07 Z1.74 F3000.0
G1 X-39.67 Y-4.44 Z1.74 F3000.0
M108 R30.0
M101
G1 X-39.89 Y-4.49 Z1.74 F3000.0
G1 X-39.71 Y-5.04 Z1.74 F3000.0
M108 R3.569
G1 X-41.02 Y-5.32 Z1.74 F1800.0
G1 X-41.36 Y-5.83 Z1.74 F1800.0
G1 X-40.48 Y-7.51 Z1.74 F1800.0
G1 X-40.48 Y-7.76 Z1.74 F1800.0
G1 X-39.71 Y-8.68 Z1.74 F1800.0
G1 X-41.45 Y-9.05 Z1.74 F1800.0
G1 X-41.89 Y-5.5 Z1.74 F1800.0
G1 X-43.2 Y-5.78 Z1.74 F1800.0
G1 X-41.89 Y-9.14 Z1.74 F1800.0
G1 X-43.2 Y-9.42 Z1.74 F1800.0
M103
G1 X-44.07 Y-9.6 Z1.74 F3000.0
M101
G1 X-43.72 Y-9.09 Z1.74 F1800.0
G1 X-44.02 Y-6.41 Z1.74 F1800.0
M108 R30.0
M102
G1 X-44.07 Y-5.96 Z1.74 F1800.0
M108 R3.569
M103
G1 X-40.05 Y-5.11 Z1.74 F3000.0
M108 R30.0
M101
G1 X-39.27 Y-4.94 Z1.74 F3000.0
M108 R3.569
G1 X-38.83 Y-4.85 Z1.74 F1800.0
G1 X-38.31 Y-5.19 Z1.74 F1800.0
G1 X-38.29 Y-5.58 Z1.74 F1800.0
G1 X-40.25 Y-7.51 Z1.74 F1800.0
G1 X-40.25 Y-7.76 Z1.74 F1800.0
G1 X-38.83 Y-8.49 Z1.74 F1800.0
G1 X-38.4 Y-8.4 Z1.74 F1800.0
M108 R30.0
M102
G1 X-37.96 Y-8.31 Z1.74 F1800.0
M108 R3.569
M103
G1 X-37.44 Y-8.19 Z1.74 F3000.0
M108 R30.0
M101
G1 X-36.65 Y-8.03 Z1.74 F3000.0
M108 R3.569
G1 X-37.53 Y-8.21 Z1.74 F1800.0
G1 X-38.06 Y-5.58 Z1.74 F1800.0
G1 X-37.96 Y-4.67 Z1.74 F1800.0
G1 X-37.43 Y-5.0 Z1.74 F1800.0
G1 X-37.09 Y-4.48 Z1.74 F1800.0
G1 X-36.65 Y-4.39 Z1.74 F1800.0
G1 X-36.13 Y-4.72 Z1.74 F1800.0
G1 X-35.43 Y-7.32 Z1.74 F1800.0
G1 X-34.91 Y-7.66 Z1.74 F1800.0
G1 X-33.16 Y-7.29 Z1.74 F1800.0
G1 X-34.82 Y-4.44 Z1.74 F1800.0
G1 X-34.47 Y-3.92 Z1.74 F1800.0
G1 X-33.16 Y-3.65 Z1.74 F1800.0
G1 X-33.82 Y-5.33 Z1.74 F1800.0
G1 X-33.82 Y-5.58 Z1.74 F1800.0
G1 X-32.73 Y-7.19 Z1.74 F1800.0
G1 X-30.98 Y-6.82 Z1.74 F1800.0
G1 X-32.63 Y-3.98 Z1.74 F1800.0
G1 X-32.29 Y-3.46 Z1.74 F1800.0
G1 X-31.42 Y-3.27 Z1.74 F1800.0
G1 X-30.89 Y-3.61 Z1.74 F1800.0
G1 X-30.54 Y-6.73 Z1.74 F1800.0
G1 X-30.11 Y-6.64 Z1.74 F1800.0
G1 X-29.76 Y-6.12 Z1.74 F1800.0
G1 X-29.57 Y-5.58 Z1.74 F1800.0
G1 X-29.58 Y-3.33 Z1.74 F1800.0
G1 X-30.1 Y-3.0 Z1.74 F1800.0
M108 R30.0
M102
G1 X-30.11 Y-3.0 Z1.74 F1800.0
G1 X-30.54 Y-3.09 Z1.74 F1800.0
M108 R3.569
M103
G1 X-30.02 Y-2.98 Z1.74 F3000.0
M108 R30.0
M101
G1 X-29.23 Y-2.81 Z1.74 F3000.0
M108 R3.569
G1 X-26.62 Y-2.25 Z1.74 F1800.0
G1 X-27.39 Y-3.15 Z1.74 F1800.0
G1 X-27.39 Y-3.4 Z1.74 F1800.0
G1 X-29.34 Y-5.33 Z1.74 F1800.0
G1 X-29.34 Y-5.58 Z1.74 F1800.0
G1 X-28.37 Y-6.26 Z1.74 F1800.0
M108 R30.0
M102
G1 X-28.36 Y-6.27 Z1.74 F1800.0
G1 X-27.93 Y-6.17 Z1.74 F1800.0
M108 R3.569
M103
G1 X-25.22 Y-5.6 Z1.74 F3000.0
M108 R30.0
M101
G1 X-24.44 Y-5.43 Z1.74 F3000.0
M108 R3.569
G1 X-26.18 Y-5.8 Z1.74 F1800.0
G1 X-26.71 Y-5.47 Z1.74 F1800.0
G1 X-27.16 Y-3.4 Z1.74 F1800.0
G1 X-27.16 Y-3.15 Z1.74 F1800.0
G1 X-26.09 Y-2.59 Z1.74 F1800.0
G1 X-25.74 Y-2.07 Z1.74 F1800.0
G1 X-24.44 Y-1.79 Z1.74 F1800.0
G1 X-24.78 Y-2.31 Z1.74 F1800.0
G1 X-24.09 Y-4.91 Z1.74 F1800.0
G1 X-23.56 Y-5.25 Z1.74 F1800.0
G1 X-22.25 Y-4.97 Z1.74 F1800.0
G1 X-23.56 Y-1.61 Z1.74 F1800.0
G1 X-23.04 Y-1.94 Z1.74 F1800.0
G1 X-21.82 Y-4.87 Z1.74 F1800.0
G1 X-21.38 Y-4.78 Z1.74 F1800.0
G1 X-21.04 Y-4.26 Z1.74 F1800.0
G1 X-22.16 Y-1.75 Z1.74 F1800.0
G1 X-21.82 Y-1.23 Z1.74 F1800.0
G1 X-21.38 Y-1.14 Z1.74 F1800.0
G1 X-20.85 Y-1.48 Z1.74 F1800.0
G1 X-20.16 Y-4.08 Z1.74 F1800.0
G1 X-19.64 Y-4.41 Z1.74 F1800.0
G1 X-17.89 Y-4.04 Z1.74 F1800.0
G1 X-18.66 Y-3.4 Z1.74 F1800.0
G1 X-18.66 Y-3.15 Z1.74 F1800.0
G1 X-20.73 Y-1.09 Z1.74 F1800.0
G1 X-20.51 Y-0.96 Z1.74 F1800.0
G1 X-20.28 Y-1.33 Z1.74 F1800.0
G1 X-20.07 Y-0.86 Z1.74 F1800.0
G1 X-19.67 Y-1.04 Z1.74 F1800.0
G1 X-19.64 Y-0.77 Z1.74 F1800.0
G1 X-17.89 Y-0.4 Z1.74 F1800.0
M103
G1 X-17.02 Y-0.21 Z1.74 F3000.0
M101
G1 X-15.71 Y0.06 Z1.74 F1800.0
G1 X-16.48 Y-0.96 Z1.74 F1800.0
G1 X-16.48 Y-1.22 Z1.74 F1800.0
G1 X-18.43 Y-3.15 Z1.74 F1800.0
G1 X-18.43 Y-3.4 Z1.74 F1800.0
G1 X-17.02 Y-3.85 Z1.74 F1800.0
G1 X-15.27 Y-3.48 Z1.74 F1800.0
M103
G1 X-14.4 Y-3.3 Z1.74 F3000.0
M101
G1 X-14.84 Y-3.39 Z1.74 F1800.0
G1 X-16.25 Y-1.22 Z1.74 F1800.0
G1 X-16.25 Y-0.96 Z1.74 F1800.0
G1 X-14.84 Y0.25 Z1.74 F1800.0
G1 X-14.31 Y-0.08 Z1.74 F1800.0
G1 X-13.62 Y-2.69 Z1.74 F1800.0
G1 X-13.09 Y-3.02 Z1.74 F1800.0
G1 X-12.65 Y-2.93 Z1.74 F1800.0
G1 X-12.31 Y-2.41 Z1.74 F1800.0
G1 X-13.96 Y0.44 Z1.74 F1800.0
G1 X-12.65 Y0.71 Z1.74 F1800.0
G1 X-12.13 Y0.38 Z1.74 F1800.0
G1 X-11.44 Y-2.22 Z1.74 F1800.0
G1 X-10.91 Y-2.56 Z1.74 F1800.0
G1 X-8.73 Y-2.09 Z1.74 F1800.0
G1 X-9.93 Y0.96 Z1.74 F1800.0
G1 X-9.93 Y1.22 Z1.74 F1800.0
G1 X-10.02 Y1.21 Z1.74 F1800.0
M108 R30.0
M102
G1 X-10.47 Y1.18 Z1.74 F1800.0
M108 R3.569
M103
G1 X-8.64 Y1.57 Z1.74 F3000.0
M108 R30.0
M101
G1 X-7.85 Y1.73 Z1.74 F3000.0
M108 R3.569
G1 X-8.29 Y1.64 Z1.74 F1800.0
G1 X-8.29 Y1.52 Z1.74 F1800.0
G1 X-9.24 Y1.11 Z1.74 F1800.0
G1 X-9.7 Y1.22 Z1.74 F1800.0
G1 X-9.7 Y0.96 Z1.74 F1800.0
G1 X-7.75 Y-0.96 Z1.74 F1800.0
G1 X-7.75 Y-1.22 Z1.74 F1800.0
G1 X-6.98 Y-1.72 Z1.74 F1800.0
G1 X-7.85 Y-1.91 Z1.74 F1800.0
M108 R30.0
M102
G1 X-8.29 Y-2.0 Z1.74 F1800.0
M108 R3.569
M103
G1 X-6.46 Y-1.61 Z1.74 F3000.0
M108 R30.0
M101
G1 X-5.67 Y-1.44 Z1.74 F3000.0
M108 R3.569
G1 X-6.11 Y-1.54 Z1.74 F1800.0
G1 X-7.52 Y-1.22 Z1.74 F1800.0
G1 X-7.52 Y-0.96 Z1.74 F1800.0
G1 X-6.89 Y1.49 Z1.74 F1800.0
G1 X-6.55 Y2.01 Z1.74 F1800.0
G1 X-6.11 Y2.1 Z1.74 F1800.0
G1 X-5.58 Y1.77 Z1.74 F1800.0
G1 X-5.45 Y0.96 Z1.74 F1800.0
G1 X-4.89 Y-0.83 Z1.74 F1800.0
G1 X-4.36 Y-1.17 Z1.74 F1800.0
G1 X-3.49 Y-0.98 Z1.74 F1800.0
G1 X-3.15 Y-0.46 Z1.74 F1800.0
G1 X-5.24 Y2.29 Z1.74 F1800.0
G1 X-2.62 Y2.85 Z1.74 F1800.0
G1 X-2.71 Y-0.37 Z1.74 F1800.0
G1 X-2.18 Y-0.7 Z1.74 F1800.0
G1 X-0.44 Y-0.33 Z1.74 F1800.0
G1 X-2.09 Y2.51 Z1.74 F1800.0
G1 X-1.75 Y3.03 Z1.74 F1800.0
G1 X-0.87 Y3.22 Z1.74 F1800.0
G1 X-0.09 Y0.19 Z1.74 F1800.0
G1 X0.44 Y-0.14 Z1.74 F1800.0
G1 X1.31 Y0.04 Z1.74 F1800.0
G1 X1.66 Y0.56 Z1.74 F1800.0
G1 X0.98 Y3.15 Z1.74 F1800.0
G1 X0.98 Y3.4 Z1.74 F1800.0
G1 X0.49 Y3.38 Z1.74 F1800.0
G1 X0.44 Y3.49 Z1.74 F1800.0
M108 R30.0
M102
G1 X0.44 Y3.5 Z1.74 F1800.0
G1 X0.0 Y3.4 Z1.74 F1800.0
M108 R3.569
M103
G1 X1.84 Y3.79 Z1.74 F3000.0
M108 R30.0
M101
G1 X2.62 Y3.96 Z1.74 F3000.0
M108 R3.569
G1 X1.72 Y3.53 Z1.74 F1800.0
G1 X1.21 Y3.4 Z1.74 F1800.0
G1 X1.21 Y3.15 Z1.74 F1800.0
G1 X3.16 Y1.22 Z1.74 F1800.0
G1 X3.16 Y0.96 Z1.74 F1800.0
G1 X2.96 Y0.84 Z1.74 F1800.0
G1 X2.62 Y0.32 Z1.74 F1800.0
M108 R30.0
M102
G1 X2.62 Y0.32 Z1.74 F1800.0
G1 X2.18 Y0.23 Z1.74 F1800.0
M108 R3.569
M103
G1 X5.33 Y0.9 Z1.74 F3000.0
M108 R30.0
M101
G1 X6.11 Y1.06 Z1.74 F3000.0
M108 R3.569
G1 X4.36 Y0.69 Z1.74 F1800.0
G1 X4.17 Y0.96 Z1.74 F1800.0
G1 X3.49 Y0.51 Z1.74 F1800.0
G1 X3.05 Y4.05 Z1.74 F1800.0
G1 X3.49 Y4.14 Z1.74 F1800.0
G1 X4.02 Y3.81 Z1.74 F1800.0
G1 X4.45 Y3.9 Z1.74 F1800.0
G1 X4.8 Y4.42 Z1.74 F1800.0
G1 X6.11 Y4.7 Z1.74 F1800.0
G1 X5.45 Y3.4 Z1.74 F1800.0
G1 X5.45 Y3.15 Z1.74 F1800.0
G1 X6.55 Y1.15 Z1.74 F1800.0
G1 X8.29 Y1.53 Z1.74 F1800.0
G1 X6.64 Y4.37 Z1.74 F1800.0
G1 X6.98 Y4.89 Z1.74 F1800.0
G1 X7.85 Y5.07 Z1.74 F1800.0
G1 X8.38 Y4.74 Z1.74 F1800.0
G1 X8.73 Y1.62 Z1.74 F1800.0
G1 X9.16 Y1.71 Z1.74 F1800.0
G1 X9.51 Y2.23 Z1.74 F1800.0
G1 X8.73 Y5.26 Z1.74 F1800.0
G1 X9.16 Y5.35 Z1.74 F1800.0
G1 X9.69 Y5.02 Z1.74 F1800.0
G1 X10.38 Y2.42 Z1.74 F1800.0
G1 X10.91 Y2.08 Z1.74 F1800.0
G1 X11.35 Y2.17 Z1.74 F1800.0
G1 X11.69 Y2.69 Z1.74 F1800.0
G1 X11.88 Y5.58 Z1.74 F1800.0
G1 X11.78 Y5.91 Z1.74 F1800.0
G1 X10.48 Y5.63 Z1.74 F1800.0
M108 R30.0
M102
G1 X10.04 Y5.54 Z1.74 F1800.0
M108 R3.569
M103
G1 X28.0 Y5.87 Z1.74 F3000.0
M108 R30.0
M101
G1 X28.8 Y5.88 Z1.74 F3000.0
M108 R3.569
G1 X28.36 Y5.79 Z1.74 F1800.0
G1 X27.84 Y6.13 Z1.74 F1800.0
G1 X27.39 Y7.51 Z1.74 F1800.0
G1 X27.39 Y7.76 Z1.74 F1800.0
G1 X30.54 Y9.87 Z1.74 F1800.0
G1 X26.18 Y9.87 Z1.74 F1800.0
G1 X27.16 Y7.76 Z1.74 F1800.0
G1 X26.96 Y5.94 Z1.74 F1800.0
G1 X26.62 Y5.42 Z1.74 F1800.0
M108 R30.0
M102
G1 X26.62 Y5.42 Z1.74 F1800.0
G1 X26.18 Y5.33 Z1.74 F1800.0
M108 R3.569
M103
G1 X32.82 Y6.74 Z1.74 F3000.0
M108 R30.0
M101
G1 X33.6 Y6.9 Z1.74 F3000.0
M108 R3.569
G1 X33.16 Y6.81 Z1.74 F1800.0
G1 X32.63 Y7.15 Z1.74 F1800.0
G1 X32.2 Y7.05 Z1.74 F1800.0
G1 X31.75 Y7.51 Z1.74 F1800.0
G1 X31.75 Y7.76 Z1.74 F1800.0
G1 X34.47 Y9.87 Z1.74 F1800.0
G1 X30.98 Y9.87 Z1.74 F1800.0
G1 X31.52 Y7.76 Z1.74 F1800.0
G1 X31.52 Y7.51 Z1.74 F1800.0
G1 X31.85 Y6.53 Z1.74 F1800.0
G1 X31.42 Y6.44 Z1.74 F1800.0
M108 R30.0
M102
G1 X30.98 Y6.35 Z1.74 F1800.0
M108 R3.569
M103
G1 X41.98 Y8.69 Z1.74 F3000.0
M108 R30.0
M101
G1 X42.76 Y8.85 Z1.74 F3000.0
M108 R3.569
G1 X44.07 Y9.13 Z1.74 F1800.0
G1 X44.07 Y9.87 Z1.74 F1800.0
G1 X41.89 Y9.87 Z1.74 F1800.0
G1 X42.23 Y9.19 Z1.74 F1800.0
G1 X41.89 Y8.67 Z1.74 F1800.0
G1 X41.36 Y9.0 Z1.74 F1800.0
G1 X41.45 Y9.87 Z1.74 F1800.0
G1 X39.27 Y9.87 Z1.74 F1800.0
G1 X41.02 Y8.48 Z1.74 F1800.0
G1 X39.71 Y8.2 Z1.74 F1800.0
G1 X39.18 Y8.54 Z1.74 F1800.0
G1 X38.83 Y9.43 Z1.74 F1800.0
G1 X38.4 Y9.87 Z1.74 F1800.0
G1 X37.09 Y9.87 Z1.74 F1800.0
G1 X38.83 Y8.02 Z1.74 F1800.0
G1 X37.09 Y7.65 Z1.74 F1800.0
G1 X36.56 Y7.98 Z1.74 F1800.0
G1 X36.65 Y9.87 Z1.74 F1800.0
G1 X34.91 Y9.87 Z1.74 F1800.0
G1 X35.69 Y7.8 Z1.74 F1800.0
G1 X35.34 Y7.28 Z1.74 F1800.0
G1 X34.03 Y7.0 Z1.74 F1800.0
M103
(</surroundingLoop>)
(</layer>)
(<layer> 2.06 )
(<surroundingLoop>)
(<boundaryPerimeter>)
(<boundaryPoint> X44.766 Y10.715 Z2.06 </boundaryPoint>)
(<boundaryPoint> X-45.234 Y10.715 Z2.06 </boundaryPoint>)
(<boundaryPoint> X-45.234 Y8.915 Z2.06 </boundaryPoint>)
(<boundaryPoint> X21.467 Y8.915 Z2.06 </boundaryPoint>)
(<boundaryPoint> X21.527 Y8.886 Z2.06 </boundaryPoint>)
(<boundaryPoint> X21.528 Y8.872 Z2.06 </boundaryPoint>)
(<boundaryPoint> X21.476 Y8.831 Z2.06 </boundaryPoint>)
(<boundaryPoint> X-45.234 Y-5.348 Z2.06 </boundaryPoint>)
(<boundaryPoint> X-45.234 Y-10.334 Z2.06 </boundaryPoint>)
(<boundaryPoint> X-45.183 Y-10.652 Z2.06 </boundaryPoint>)
(<boundaryPoint> X-44.861 Y-10.636 Z2.06 </boundaryPoint>)
(<boundaryPoint> X45.234 Y8.514 Z2.06 </boundaryPoint>)
(<loop> outer )
G1 X34.25 Y6.78 Z2.06 F3000.0
M101
G1 X44.54 Y8.97 Z2.06 F1800.0
G1 X44.29 Y10.13 Z2.06 F1800.0
G1 X-44.65 Y10.13 Z2.06 F1800.0
G1 X-44.65 Y9.5 Z2.06 F1800.0
G1 X21.6 Y9.5 Z2.06 F1800.0
G1 X22.09 Y9.27 Z2.06 F1800.0
G1 X22.14 Y8.6 Z2.06 F1800.0
G1 X21.73 Y8.28 Z2.06 F1800.0
G1 X-44.65 Y-5.83 Z2.06 F1800.0
G1 X-44.65 Y-9.99 Z2.06 F1800.0
G1 X34.09 Y6.75 Z2.06 F1800.0
G1 X34.25 Y6.78 Z2.06 F1800.0
M103
(</loop>)
(<perimeter> outer )
G1 X34.17 Y6.36 Z2.06 F3000.0
M101
G1 X45.0 Y8.66 Z2.06 F1800.0
G1 X44.61 Y10.52 Z2.06 F1800.0
G1 X-45.04 Y10.52 Z2.06 F1800.0
G1 X-45.04 Y9.11 Z2.06 F1800.0
G1 X21.51 Y9.11 Z2.06 F1800.0
G1 X21.71 Y9.02 Z2.06 F1800.0
G1 X21.74 Y8.78 Z2.06 F1800.0
G1 X21.56 Y8.65 Z2.06 F1800.0
G1 X-45.04 Y-5.51 Z2.06 F1800.0
G1 X-45.04 Y-10.36 Z2.06 F1800.0
G1 X-45.08 Y-10.52 Z2.06 F1800.0
G1 X-44.93 Y-10.45 Z2.06 F1800.0
G1 X33.73 Y6.27 Z2.06 F1800.0
M108 R30.0
M102
G1 X34.17 Y6.36 Z2.06 F1800.0
M108 R3.569
M103
(</perimeter>)
(</boundaryPerimeter>)
G1 X19.69 Y7.36 Z2.06 F3000.0
M108 R30.0
M101
G1 X18.89 Y7.42 Z2.06 F3000.0
M108 R3.569
G1 X20.6 Y5.57 Z2.06 F1800.0
G1 X20.85 Y5.57 Z2.06 F1800.0
G1 X20.94 Y7.85 Z2.06 F1800.0
G1 X22.78 Y7.64 Z2.06 F1800.0
G1 X27.4 Y7.52 Z2.06 F1800.0
G1 X27.8 Y5.67 Z2.06 F1800.0
G1 X29.77 Y6.54 Z2.06 F1800.0
G1 X31.51 Y7.52 Z2.06 F1800.0
G1 X31.76 Y7.52 Z2.06 F1800.0
G1 X31.91 Y6.55 Z2.06 F1800.0
G1 X33.87 Y7.41 Z2.06 F1800.0
G1 X35.56 Y7.42 Z2.06 F1800.0
M108 R30.0
M102
G1 X36.01 Y7.42 Z2.06 F1800.0
M108 R3.569
M103
G1 X43.37 Y9.39 Z2.06 F3000.0
M108 R30.0
M101
G1 X44.14 Y9.6 Z2.06 F3000.0
M108 R3.569
G1 X42.17 Y8.73 Z2.06 F1800.0
G1 X42.0 Y9.13 Z2.06 F1800.0
G1 X40.12 Y8.29 Z2.06 F1800.0
G1 X37.98 Y8.28 Z2.06 F1800.0
G1 X31.76 Y7.75 Z2.06 F1800.0
G1 X27.14 Y7.75 Z2.06 F1800.0
G1 X22.78 Y8.91 Z2.06 F1800.0
G1 X22.35 Y9.16 Z2.06 F1800.0
G1 X22.58 Y9.54 Z2.06 F1800.0
G1 X22.44 Y9.55 Z2.06 F1800.0
M108 R30.0
M102
G1 X21.99 Y9.6 Z2.06 F1800.0
M108 R3.569
M103
G1 X25.23 Y5.84 Z2.06 F3000.0
M108 R30.0
M101
G1 X25.75 Y5.24 Z2.06 F3000.0
M108 R3.569
G1 X23.61 Y5.23 Z2.06 F1800.0
G1 X21.64 Y4.36 Z2.06 F1800.0
G1 X20.85 Y5.34 Z2.06 F1800.0
G1 X20.6 Y5.34 Z2.06 F1800.0
G1 X19.59 Y3.93 Z2.06 F1800.0
G1 X16.49 Y5.45 Z2.06 F1800.0
G1 X16.24 Y5.45 Z2.06 F1800.0
G1 X14.78 Y6.55 Z2.06 F1800.0
G1 X14.52 Y6.2 Z2.06 F1800.0
G1 X12.73 Y6.11 Z2.06 F1800.0
G1 X12.13 Y5.45 Z2.06 F1800.0
G1 X11.87 Y5.45 Z2.06 F1800.0
G1 X10.68 Y5.67 Z2.06 F1800.0
G1 X10.6 Y5.24 Z2.06 F1800.0
G1 X9.07 Y5.24 Z2.06 F1800.0
M108 R30.0
M102
G1 X8.63 Y5.24 Z2.06 F1800.0
M108 R3.569
M103
G1 X5.71 Y1.5 Z2.06 F3000.0
M108 R30.0
M101
G1 X5.22 Y0.87 Z2.06 F3000.0
M108 R3.569
G1 X3.15 Y0.98 Z2.06 F1800.0
G1 X3.17 Y0.44 Z2.06 F1800.0
G1 X1.02 Y0.43 Z2.06 F1800.0
G1 X-0.94 Y-0.44 Z2.06 F1800.0
G1 X-0.96 Y1.09 Z2.06 F1800.0
G1 X-5.58 Y1.09 Z2.06 F1800.0
G1 X-7.51 Y-0.98 Z2.06 F1800.0
G1 X-7.76 Y-0.98 Z2.06 F1800.0
G1 X-7.8 Y1.75 Z2.06 F1800.0
G1 X-9.69 Y1.09 Z2.06 F1800.0
G1 X-9.85 Y1.31 Z2.06 F1800.0
G1 X-9.95 Y1.09 Z2.06 F1800.0
G1 X-11.46 Y0.92 Z2.06 F1800.0
M108 R30.0
M102
G1 X-11.9 Y0.87 Z2.06 F1800.0
M108 R3.569
M103
G1 X-14.82 Y-2.86 Z2.06 F3000.0
M108 R30.0
M101
G1 X-15.31 Y-3.49 Z2.06 F3000.0
M108 R3.569
G1 X-17.16 Y-3.54 Z2.06 F1800.0
G1 X-18.67 Y-3.39 Z2.06 F1800.0
G1 X-19.41 Y-4.36 Z2.06 F1800.0
G1 X-19.76 Y-4.1 Z2.06 F1800.0
G1 X-21.47 Y-4.8 Z2.06 F1800.0
G1 X-22.78 Y-3.27 Z2.06 F1800.0
G1 X-23.04 Y-3.27 Z2.06 F1800.0
G1 X-23.52 Y-5.24 Z2.06 F1800.0
G1 X-26.27 Y-2.18 Z2.06 F1800.0
G1 X-27.14 Y-3.27 Z2.06 F1800.0
G1 X-27.4 Y-3.27 Z2.06 F1800.0
G1 X-28.33 Y-2.62 Z2.06 F1800.0
G1 X-30.29 Y-3.48 Z2.06 F1800.0
G1 X-31.98 Y-3.49 Z2.06 F1800.0
M108 R30.0
M102
G1 X-32.43 Y-3.49 Z2.06 F1800.0
M108 R3.569
M103
G1 X-35.34 Y-7.22 Z2.06 F3000.0
M108 R30.0
M101
G1 X-35.84 Y-7.85 Z2.06 F3000.0
M108 R3.569
G1 X-37.98 Y-7.86 Z2.06 F1800.0
G1 X-39.94 Y-8.73 Z2.06 F1800.0
G1 X-40.23 Y-7.75 Z2.06 F1800.0
G1 X-40.49 Y-7.75 Z2.06 F1800.0
G1 X-41.99 Y-9.16 Z2.06 F1800.0
G1 X-43.95 Y-7.42 Z2.06 F1800.0
G1 X-44.39 Y-7.85 Z2.06 F1800.0
G1 X-44.29 Y-7.87 Z2.06 F1800.0
G1 X-44.05 Y-8.89 Z2.06 F1800.0
G1 X-44.05 Y-9.51 Z2.06 F1800.0
M108 R30.0
M102
G1 X-44.05 Y-9.6 Z2.06 F1800.0
G1 X-44.41 Y-9.6 Z2.06 F1800.0
M108 R3.569
M103
G1 X-43.02 Y-6.41 Z2.06 F3000.0
M108 R30.0
M101
G1 X-42.7 Y-5.67 Z2.06 F3000.0
M108 R3.569
G1 X-40.55 Y-5.66 Z2.06 F1800.0
G1 X-40.49 Y-7.52 Z2.06 F1800.0
G1 X-40.23 Y-7.52 Z2.06 F1800.0
G1 X-38.59 Y-4.8 Z2.06 F1800.0
G1 X-38.31 Y-5.45 Z2.06 F1800.0
G1 X-38.05 Y-5.45 Z2.06 F1800.0
G1 X-36.54 Y-4.36 Z2.06 F1800.0
G1 X-33.94 Y-5.45 Z2.06 F1800.0
G1 X-33.69 Y-5.45 Z2.06 F1800.0
G1 X-33.78 Y-7.42 Z2.06 F1800.0
G1 X-31.82 Y-6.56 Z2.06 F1800.0
G1 X-29.68 Y-6.55 Z2.06 F1800.0
G1 X-29.58 Y-5.45 Z2.06 F1800.0
G1 X-29.33 Y-5.45 Z2.06 F1800.0
G1 X-27.62 Y-6.11 Z2.06 F1800.0
