(** This GCode was generated by ReplicatorG 0034 **)
(*  using Skeinforge (35)  *)
(*  for a Single headed Thing-O-Matic  *)
(*  on 2012/04/24 23:04:24 (-0400) *)
(<alteration>)
(**** beginning of start.gcode ****)
(This file is for a MakerBot Thing-O-Matic)
(**** begin initialization commands ****)
G21 (set units to mm)
G90 (set positioning to absolute)
M108 R5.0 (set extruder speed)
M103 (Make sure extruder is off)
M104 S225 T0 (set extruder temperature)
M109 S120 T0 (set heated-build-platform temperature)
(**** end initialization commands ****)
(**** begin homing ****)
G162 Z F1000 (home Z axis maximum)
G92 Z10 (set Z to 0)
G1 Z0.0 (move z down 10)
G162 Z F150 (home Z axis maximum)
G161 X Y F2500 (home XY axes minimum)
M132 X Y Z A B (Recall stored home offsets for XYZAB axis)
(**** end homing ****)
(**** begin pre-wipe commands ****)
( Some people have had problems with the nozzle hitting )
( bolts or wipers during this pre-extrusion warmup.     )
( If this happens to you, you can change the values for )
( the X and Y positions in the following code.          )
( The goal is to have the toolhead wipe its initial     )
( extrusion near the edge of the platform, [anchor it]  )
( so as not to have it interfere with the print.        )
( This file can be found in:                            )
( replicatorg/skein_engines/skeinforge-##/skeinforge_application/ )
( prefs/<profile name [e.g. Thingomatic-ABP-Mk7]>/alterations )
G1 X25.0 Y-60.0 Z10.0 F3300.0 (move to waiting position)
M6 T0 (wait for toolhead parts, nozzle, HBP, etc., to reach temperature)
G0 X25 Y-57 (Position Nozzle)
G0 Z0.6     (Position Height)
M108 R4.0   (Set Extruder Speed)
M101        (Start Extruder)
G4 P1500    (Create Anchor)
(**** end pre-wipe commands ****)
(**** end of start.gcode ****)
(</alteration>)
(<creation> skeinforge </creation>)
(<version> 10.11.05 </version>)
(<extruderInitialization>)
(<craftTypeName> extrusion </craftTypeName>)
M105
(<bridgeWidthMultiplier> 1.0 </bridgeWidthMultiplier>)
(<decimalPlacesCarried> 3 </decimalPlacesCarried>)
(<layerThickness> 0.32 </layerThickness>)
(<threadSequenceString> loops perimeter infill </threadSequenceString>)
(<operatingFeedRatePerSecond> 30.0 </operatingFeedRatePerSecond>)
(<operatingFlowRate> 3.56914845556 </operatingFlowRate>)
(<orbitalFeedRatePerSecond> 15.0 </orbitalFeedRatePerSecond>)
(<travelFeedRatePerSecond> 50.0 </travelFeedRatePerSecond>)
(<perimeterWidth> 0.393 </perimeterWidth>)
(<profileName> ABS </profileName>)
(<procedureDone> carve,bottom </procedureDone>)
(<procedureDone> preface </procedureDone>)
(<procedureDone> inset </procedureDone>)
(<procedureDone> fill </procedureDone>)
(<procedureDone> speed </procedureDone>)
(<procedureDone> raft </procedureDone>)
(<procedureDone> jitter </procedureDone>)
(<procedureDone> comb </procedureDone>)
(<procedureDone> cool </procedureDone>)
(<procedureDone> outline </procedureDone>)
(<procedureDone> reversal </procedureDone>)
(<procedureDone> export </procedureDone>)
(</extruderInitialization>)
(<extrusion>)
;M113 S1.0
M108 R3.569
(<layer> 0.46 )
(<surroundingLoop>)
(<boundaryPerimeter>)
(<boundaryPoint> X-32.437 Y-11.777 Z0.46 </boundaryPoint>)
(<boundaryPoint> X-30.952 Y-16.724 Z0.46 </boundaryPoint>)
(<boundaryPoint> X43.259 Y5.55 Z0.46 </boundaryPoint>)
(<boundaryPoint> X41.774 Y10.498 Z0.46 </boundaryPoint>)
(<loop> outer )
M108 R2.141
G1 X45.01 Y-18.48 Z0.46 F1080.0
M101
G1 X-43.85 Y-18.48 Z0.46 F1080.0
G1 X-43.85 Y22.08 Z0.46 F1080.0
G1 X45.01 Y22.08 Z0.46 F1080.0
G1 X45.01 Y-18.21 Z0.46 F1080.0
M108 R30.0
M102
G1 X45.01 Y-18.48 Z0.46 F1080.0
M108 R2.141
M103
G1 X1.39 Y-2.74 Z0.46 F3000.0
M108 R30.0
M101
G1 X0.64 Y-2.46 Z0.46 F3000.0
M108 R2.141
G1 X-31.7 Y-12.17 Z0.46 F1080.0
G1 X-30.56 Y-15.99 Z0.46 F1080.0
G1 X42.53 Y5.95 Z0.46 F1080.0
G1 X41.38 Y9.76 Z0.46 F1080.0
G1 X0.73 Y-2.44 Z0.46 F1080.0
G1 X0.64 Y-2.46 Z0.46 F1080.0
M103
(</loop>)
(<perimeter> outer )
G1 X0.62 Y-2.06 Z0.46 F3000.0
M101
G1 X-32.19 Y-11.91 Z0.46 F1080.0
G1 X-30.82 Y-16.48 Z0.46 F1080.0
G1 X43.01 Y5.68 Z0.46 F1080.0
G1 X41.64 Y10.25 Z0.46 F1080.0
G1 X0.88 Y-1.98 Z0.46 F1080.0
M108 R30.0
M102
G1 X0.62 Y-2.06 Z0.46 F1080.0
M108 R2.141
M103
(</perimeter>)
(</boundaryPerimeter>)
G1 X0.77 Y-5.84 Z0.46 F1800.0
M108 R30.0
M101
G1 X0.79 Y-6.32 Z0.46 F1800.0
M108 R2.141
G1 X0.79 Y-2.69 Z0.46 F1080.0
M103
G1 X1.18 Y-2.57 Z0.46 F1800.0
M101
G1 X1.18 Y-6.2 Z0.46 F1080.0
M103
G1 X1.96 Y-5.96 Z0.46 F1800.0
M101
G1 X1.96 Y-2.33 Z0.46 F1080.0
G1 X1.57 Y-2.45 Z0.46 F1080.0
G1 X1.57 Y-6.08 Z0.46 F1080.0
M103
G1 X2.36 Y-5.85 Z0.46 F1800.0
M101
G1 X2.36 Y-2.22 Z0.46 F1080.0
M103
G1 X2.75 Y-2.1 Z0.46 F1800.0
M101
G1 X2.75 Y-5.73 Z0.46 F1080.0
M103
G1 X3.14 Y-5.61 Z0.46 F1800.0
M101
G1 X3.14 Y-2.25 Z0.46 F1080.0
M108 R30.0
M102
G1 X3.14 Y-1.98 Z0.46 F1080.0
M108 R2.141
M103
G1 X3.86 Y-1.76 Z0.46 F1800.0
M108 R30.0
M101
G1 X4.32 Y-1.63 Z0.46 F1800.0
M108 R2.141
G1 X4.32 Y-5.26 Z0.46 F1080.0
M103
G1 X4.71 Y-5.14 Z0.46 F1800.0
M101
G1 X4.71 Y-1.51 Z0.46 F1080.0
M103
G1 X5.11 Y-1.39 Z0.46 F1800.0
M101
G1 X5.11 Y-5.02 Z0.46 F1080.0
M103
G1 X5.89 Y-4.78 Z0.46 F1800.0
M101
G1 X5.89 Y-1.16 Z0.46 F1080.0
G1 X5.5 Y-1.27 Z0.46 F1080.0
G1 X5.5 Y-4.9 Z0.46 F1080.0
M103
G1 X6.28 Y-4.67 Z0.46 F1800.0
M101
G1 X6.28 Y-1.04 Z0.46 F1080.0
M103
G1 X6.68 Y-0.92 Z0.46 F1800.0
M101
G1 X6.68 Y-4.55 Z0.46 F1080.0
M103
G1 X7.07 Y-4.43 Z0.46 F1800.0
M101
G1 X7.07 Y-1.07 Z0.46 F1080.0
M108 R30.0
M102
G1 X7.07 Y-0.8 Z0.46 F1080.0
M108 R2.141
M103
G1 X7.79 Y-0.59 Z0.46 F1800.0
M108 R30.0
M101
G1 X8.25 Y-0.45 Z0.46 F1800.0
M108 R2.141
G1 X8.25 Y-4.08 Z0.46 F1080.0
M103
G1 X7.85 Y-4.2 Z0.46 F1800.0
M101
G1 X7.85 Y-0.56 Z0.46 F1080.0
G1 X7.46 Y-0.68 Z0.46 F1080.0
G1 X7.46 Y-4.04 Z0.46 F1080.0
M108 R30.0
M102
G1 X7.46 Y-4.31 Z0.46 F1080.0
M108 R2.141
M103
G1 X8.18 Y-4.1 Z0.46 F1800.0
M108 R30.0
M101
G1 X8.64 Y-3.96 Z0.46 F1800.0
M108 R2.141
G1 X8.64 Y-0.33 Z0.46 F1080.0
M103
G1 X9.03 Y-0.21 Z0.46 F1800.0
M101
G1 X9.03 Y-3.84 Z0.46 F1080.0
M103
G1 X9.82 Y-3.61 Z0.46 F1800.0
M101
G1 X9.82 Y0.02 Z0.46 F1080.0
G1 X9.43 Y-0.09 Z0.46 F1080.0
G1 X9.43 Y-3.72 Z0.46 F1080.0
M103
G1 X10.21 Y-3.49 Z0.46 F1800.0
M101
G1 X10.21 Y0.14 Z0.46 F1080.0
M103
G1 X10.6 Y0.26 Z0.46 F1800.0
M101
G1 X10.6 Y-3.37 Z0.46 F1080.0
M103
G1 X11.0 Y-3.25 Z0.46 F1800.0
M101
G1 X11.0 Y0.11 Z0.46 F1080.0
M108 R30.0
M102
G1 X11.0 Y0.38 Z0.46 F1080.0
M108 R2.141
M103
G1 X11.71 Y0.59 Z0.46 F1800.0
M108 R30.0
M101
G1 X12.17 Y0.73 Z0.46 F1800.0
M108 R2.141
G1 X12.17 Y-2.9 Z0.46 F1080.0
M103
G1 X12.57 Y-2.78 Z0.46 F1800.0
M101
G1 X12.57 Y0.85 Z0.46 F1080.0
M103
G1 X12.96 Y0.97 Z0.46 F1800.0
M101
G1 X12.96 Y-2.66 Z0.46 F1080.0
M103
G1 X13.74 Y-2.43 Z0.46 F1800.0
M101
G1 X13.74 Y1.2 Z0.46 F1080.0
G1 X13.35 Y1.09 Z0.46 F1080.0
G1 X13.35 Y-2.55 Z0.46 F1080.0
M103
G1 X14.14 Y-2.31 Z0.46 F1800.0
M101
G1 X14.14 Y1.32 Z0.46 F1080.0
M103
G1 X14.53 Y1.44 Z0.46 F1800.0
M101
G1 X14.53 Y-2.19 Z0.46 F1080.0
M103
G1 X14.92 Y-2.07 Z0.46 F1800.0
M101
G1 X14.92 Y1.29 Z0.46 F1080.0
M108 R30.0
M102
G1 X14.92 Y1.56 Z0.46 F1080.0
M108 R2.141
M103
G1 X15.64 Y1.77 Z0.46 F1800.0
M108 R30.0
M101
G1 X16.1 Y1.91 Z0.46 F1800.0
M108 R2.141
G1 X16.1 Y-1.72 Z0.46 F1080.0
M103
G1 X15.71 Y-1.84 Z0.46 F1800.0
M101
G1 X15.71 Y1.79 Z0.46 F1080.0
G1 X15.32 Y1.67 Z0.46 F1080.0
G1 X15.32 Y-1.69 Z0.46 F1080.0
M108 R30.0
M102
G1 X15.32 Y-1.96 Z0.46 F1080.0
M108 R2.141
M103
G1 X16.03 Y-1.74 Z0.46 F1800.0
M108 R30.0
M101
G1 X16.49 Y-1.6 Z0.46 F1800.0
M108 R2.141
G1 X16.49 Y2.03 Z0.46 F1080.0
M103
G1 X16.89 Y2.15 Z0.46 F1800.0
M101
G1 X16.89 Y-1.48 Z0.46 F1080.0
M103
G1 X17.67 Y-1.25 Z0.46 F1800.0
M101
G1 X17.67 Y2.38 Z0.46 F1080.0
G1 X17.28 Y2.26 Z0.46 F1080.0
G1 X17.28 Y-1.37 Z0.46 F1080.0
M103
G1 X18.06 Y-1.13 Z0.46 F1800.0
M101
G1 X18.06 Y2.5 Z0.46 F1080.0
M103
G1 X18.46 Y2.62 Z0.46 F1800.0
M101
G1 X18.46 Y-1.01 Z0.46 F1080.0
M103
G1 X18.85 Y-0.9 Z0.46 F1800.0
M101
G1 X18.85 Y2.47 Z0.46 F1080.0
M108 R30.0
M102
G1 X18.85 Y2.74 Z0.46 F1080.0
M108 R2.141
M103
G1 X19.57 Y2.95 Z0.46 F1800.0
M108 R30.0
M101
G1 X20.03 Y3.09 Z0.46 F1800.0
M108 R2.141
G1 X20.03 Y-0.54 Z0.46 F1080.0
M103
G1 X19.64 Y-0.66 Z0.46 F1800.0
M101
G1 X19.64 Y2.97 Z0.46 F1080.0
G1 X19.24 Y2.85 Z0.46 F1080.0
G1 X19.24 Y-0.51 Z0.46 F1080.0
M108 R30.0
M102
G1 X19.24 Y-0.78 Z0.46 F1080.0
M108 R2.141
M103
G1 X19.96 Y-0.56 Z0.46 F1800.0
M108 R30.0
M101
G1 X20.42 Y-0.42 Z0.46 F1800.0
M108 R2.141
G1 X20.42 Y3.21 Z0.46 F1080.0
M103
G1 X20.81 Y3.33 Z0.46 F1800.0
M101
G1 X20.81 Y-0.31 Z0.46 F1080.0
M103
G1 X21.6 Y-0.07 Z0.46 F1800.0
M101
G1 X21.6 Y3.56 Z0.46 F1080.0
G1 X21.21 Y3.44 Z0.46 F1080.0
G1 X21.21 Y-0.19 Z0.46 F1080.0
M103
G1 X21.99 Y0.05 Z0.46 F1800.0
M101
G1 X21.99 Y3.68 Z0.46 F1080.0
M103
G1 X22.38 Y3.8 Z0.46 F1800.0
M101
G1 X22.38 Y0.17 Z0.46 F1080.0
M103
G1 X22.78 Y0.28 Z0.46 F1800.0
M101
G1 X22.78 Y3.64 Z0.46 F1080.0
M108 R30.0
M102
G1 X22.78 Y3.91 Z0.46 F1080.0
M108 R2.141
M103
G1 X23.5 Y4.13 Z0.46 F1800.0
M108 R30.0
M101
G1 X23.96 Y4.27 Z0.46 F1800.0
M108 R2.141
G1 X23.96 Y0.64 Z0.46 F1080.0
M103
G1 X24.35 Y0.76 Z0.46 F1800.0
M101
G1 X24.35 Y4.39 Z0.46 F1080.0
M103
G1 X24.74 Y4.5 Z0.46 F1800.0
M101
G1 X24.74 Y0.87 Z0.46 F1080.0
M103
G1 X25.53 Y1.11 Z0.46 F1800.0
M101
G1 X25.53 Y4.74 Z0.46 F1080.0
G1 X25.13 Y4.62 Z0.46 F1080.0
G1 X25.13 Y0.99 Z0.46 F1080.0
M103
G1 X25.92 Y1.23 Z0.46 F1800.0
M101
G1 X25.92 Y4.86 Z0.46 F1080.0
M103
G1 X26.31 Y4.97 Z0.46 F1800.0
M101
G1 X26.31 Y1.35 Z0.46 F1080.0
M103
G1 X26.7 Y1.46 Z0.46 F1800.0
M101
G1 X26.7 Y4.82 Z0.46 F1080.0
M108 R30.0
M102
G1 X26.7 Y5.09 Z0.46 F1080.0
M108 R2.141
M103
G1 X27.42 Y5.31 Z0.46 F1800.0
M108 R30.0
M101
G1 X27.88 Y5.45 Z0.46 F1800.0
M108 R2.141
G1 X27.88 Y1.82 Z0.46 F1080.0
M103
G1 X27.49 Y1.7 Z0.46 F1800.0
M101
G1 X27.49 Y5.33 Z0.46 F1080.0
G1 X27.1 Y5.21 Z0.46 F1080.0
G1 X27.1 Y1.85 Z0.46 F1080.0
M108 R30.0
M102
G1 X27.1 Y1.58 Z0.46 F1080.0
M108 R2.141
M103
G1 X28.99 Y2.15 Z0.46 F1800.0
M108 R30.0
M101
G1 X29.45 Y2.29 Z0.46 F1800.0
M108 R2.141
G1 X29.45 Y5.92 Z0.46 F1080.0
G1 X29.06 Y5.8 Z0.46 F1080.0
G1 X29.06 Y2.17 Z0.46 F1080.0
M103
G1 X29.85 Y2.41 Z0.46 F1800.0
M101
G1 X29.85 Y6.04 Z0.46 F1080.0
M103
G1 X30.63 Y6.27 Z0.46 F1800.0
M101
G1 X30.63 Y2.64 Z0.46 F1080.0
G1 X30.24 Y2.52 Z0.46 F1080.0
G1 X30.24 Y5.88 Z0.46 F1080.0
M108 R30.0
M102
G1 X30.24 Y6.15 Z0.46 F1080.0
M108 R2.141
M103
G1 X31.35 Y6.49 Z0.46 F1800.0
M108 R30.0
M101
G1 X31.81 Y6.63 Z0.46 F1800.0
M108 R2.141
G1 X31.81 Y3.0 Z0.46 F1080.0
M103
G1 X31.42 Y2.88 Z0.46 F1800.0
M101
G1 X31.42 Y6.51 Z0.46 F1080.0
G1 X31.02 Y6.39 Z0.46 F1080.0
G1 X31.02 Y3.03 Z0.46 F1080.0
M108 R30.0
M102
G1 X31.02 Y2.76 Z0.46 F1080.0
M108 R2.141
M103
G1 X32.92 Y3.33 Z0.46 F1800.0
M108 R30.0
M101
G1 X33.38 Y3.47 Z0.46 F1800.0
M108 R2.141
G1 X33.38 Y7.1 Z0.46 F1080.0
G1 X32.99 Y6.98 Z0.46 F1080.0
G1 X32.99 Y3.35 Z0.46 F1080.0
M103
G1 X33.77 Y3.58 Z0.46 F1800.0
M101
G1 X33.77 Y7.21 Z0.46 F1080.0
M103
G1 X34.56 Y7.45 Z0.46 F1800.0
M101
G1 X34.56 Y3.82 Z0.46 F1080.0
G1 X34.17 Y3.7 Z0.46 F1080.0
G1 X34.17 Y7.06 Z0.46 F1080.0
M108 R30.0
M102
G1 X34.17 Y7.33 Z0.46 F1080.0
M108 R2.141
M103
G1 X33.05 Y7.0 Z0.46 F1800.0
M108 R30.0
M101
G1 X32.59 Y6.86 Z0.46 F1800.0
M108 R2.141
G1 X32.59 Y3.23 Z0.46 F1080.0
G1 X32.2 Y3.11 Z0.46 F1080.0
G1 X32.2 Y6.47 Z0.46 F1080.0
M108 R30.0
M102
G1 X32.2 Y6.74 Z0.46 F1080.0
M108 R2.141
M103
G1 X29.13 Y5.82 Z0.46 F1800.0
M108 R30.0
M101
G1 X28.67 Y5.68 Z0.46 F1800.0
M108 R2.141
G1 X28.67 Y2.05 Z0.46 F1080.0
G1 X28.27 Y1.93 Z0.46 F1080.0
G1 X28.27 Y5.29 Z0.46 F1080.0
M108 R30.0
M102
G1 X28.27 Y5.56 Z0.46 F1080.0
M108 R2.141
M103
G1 X34.87 Y4.16 Z0.46 F1800.0
M108 R30.0
M101
G1 X35.34 Y4.06 Z0.46 F1800.0
M108 R2.141
G1 X35.34 Y7.69 Z0.46 F1080.0
G1 X34.95 Y7.57 Z0.46 F1080.0
G1 X34.95 Y4.21 Z0.46 F1080.0
M108 R30.0
M102
G1 X34.95 Y3.94 Z0.46 F1080.0
M108 R2.141
M103
G1 X35.64 Y7.33 Z0.46 F1800.0
M108 R30.0
M101
G1 X35.74 Y7.8 Z0.46 F1800.0
M108 R2.141
G1 X35.74 Y4.44 Z0.46 F1080.0
M108 R30.0
M102
G1 X35.74 Y4.17 Z0.46 F1080.0
M108 R2.141
M103
G1 X36.85 Y4.51 Z0.46 F1800.0
M108 R30.0
M101
G1 X37.31 Y4.64 Z0.46 F1800.0
M108 R2.141
G1 X37.31 Y8.28 Z0.46 F1080.0
G1 X36.91 Y8.16 Z0.46 F1080.0
G1 X36.91 Y4.53 Z0.46 F1080.0
M103
G1 X37.7 Y4.76 Z0.46 F1800.0
M101
G1 X37.7 Y8.39 Z0.46 F1080.0
M103
G1 X38.49 Y8.63 Z0.46 F1800.0
M101
G1 X38.49 Y5.0 Z0.46 F1080.0
G1 X38.09 Y4.88 Z0.46 F1080.0
G1 X38.09 Y8.24 Z0.46 F1080.0
M108 R30.0
M102
G1 X38.09 Y8.51 Z0.46 F1080.0
M108 R2.141
M103
G1 X36.98 Y8.18 Z0.46 F1800.0
M108 R30.0
M101
G1 X36.52 Y8.04 Z0.46 F1800.0
M108 R2.141
G1 X36.52 Y4.41 Z0.46 F1080.0
G1 X36.13 Y4.29 Z0.46 F1080.0
G1 X36.13 Y7.65 Z0.46 F1080.0
M108 R30.0
M102
G1 X36.13 Y7.92 Z0.46 F1080.0
M108 R2.141
M103
G1 X39.2 Y8.84 Z0.46 F1800.0
M108 R30.0
M101
G1 X39.66 Y8.98 Z0.46 F1800.0
M108 R2.141
G1 X39.66 Y5.35 Z0.46 F1080.0
M103
G1 X39.27 Y5.24 Z0.46 F1800.0
M101
G1 X39.27 Y8.87 Z0.46 F1080.0
G1 X38.88 Y8.75 Z0.46 F1080.0
G1 X38.88 Y5.39 Z0.46 F1080.0
M108 R30.0
M102
G1 X38.88 Y5.12 Z0.46 F1080.0
M108 R2.141
M103
G1 X40.77 Y5.69 Z0.46 F1800.0
M108 R30.0
M101
G1 X41.23 Y5.82 Z0.46 F1800.0
M108 R2.141
G1 X41.23 Y9.36 Z0.46 F1080.0
G1 X40.84 Y9.34 Z0.46 F1080.0
G1 X40.84 Y5.98 Z0.46 F1080.0
M108 R30.0
M102
G1 X40.84 Y5.71 Z0.46 F1080.0
M108 R2.141
M103
G1 X41.56 Y5.92 Z0.46 F1800.0
M108 R30.0
M101
G1 X42.02 Y6.06 Z0.46 F1800.0
M108 R2.141
G1 X42.02 Y6.74 Z0.46 F1080.0
G1 X41.63 Y5.94 Z0.46 F1080.0
G1 X41.63 Y7.78 Z0.46 F1080.0
M108 R30.0
M102
G1 X41.63 Y8.05 Z0.46 F1080.0
M108 R2.141
M103
G1 X40.79 Y8.88 Z0.46 F1800.0
M108 R30.0
M101
G1 X40.45 Y9.22 Z0.46 F1800.0
M108 R2.141
G1 X40.45 Y5.59 Z0.46 F1080.0
G1 X40.06 Y5.47 Z0.46 F1080.0
G1 X40.06 Y8.83 Z0.46 F1080.0
M108 R30.0
M102
G1 X40.06 Y9.1 Z0.46 F1080.0
M108 R2.141
M103
G1 X23.99 Y0.74 Z0.46 F1800.0
M108 R30.0
M101
G1 X23.56 Y0.52 Z0.46 F1800.0
M108 R2.141
G1 X23.56 Y4.15 Z0.46 F1080.0
G1 X23.17 Y4.03 Z0.46 F1080.0
G1 X23.17 Y0.67 Z0.46 F1080.0
M108 R30.0
M102
G1 X23.17 Y0.4 Z0.46 F1080.0
M108 R2.141
M103
G1 X12.24 Y-2.88 Z0.46 F1800.0
M108 R30.0
M101
G1 X11.78 Y-3.02 Z0.46 F1800.0
M108 R2.141
G1 X11.78 Y0.61 Z0.46 F1080.0
G1 X11.39 Y0.5 Z0.46 F1080.0
G1 X11.39 Y-2.86 Z0.46 F1080.0
M108 R30.0
M102
G1 X11.39 Y-3.13 Z0.46 F1080.0
M108 R2.141
M103
G1 X4.39 Y-5.24 Z0.46 F1800.0
M108 R30.0
M101
G1 X3.93 Y-5.37 Z0.46 F1800.0
M108 R2.141
G1 X3.93 Y-1.74 Z0.46 F1080.0
G1 X3.53 Y-1.86 Z0.46 F1080.0
G1 X3.53 Y-5.22 Z0.46 F1080.0
M108 R30.0
M102
G1 X3.53 Y-5.49 Z0.46 F1080.0
M108 R2.141
M103
G1 X0.76 Y-3.12 Z0.46 F1800.0
M108 R30.0
M101
G1 X0.39 Y-2.81 Z0.46 F1800.0
M108 R2.141
G1 X0.39 Y-6.43 Z0.46 F1080.0
M103
G1 X-0.0 Y-6.55 Z0.46 F1800.0
M101
G1 X-0.0 Y-2.92 Z0.46 F1080.0
G1 X-0.39 Y-3.04 Z0.46 F1080.0
G1 X-0.39 Y-6.67 Z0.46 F1080.0
M103
G1 X-0.79 Y-6.79 Z0.46 F1800.0
M101
G1 X-0.79 Y-3.16 Z0.46 F1080.0
M103
G1 X-1.18 Y-3.28 Z0.46 F1800.0
M101
G1 X-1.18 Y-6.91 Z0.46 F1080.0
M103
G1 X-1.57 Y-7.02 Z0.46 F1800.0
M101
G1 X-1.57 Y-3.39 Z0.46 F1080.0
M103
G1 X-1.96 Y-3.51 Z0.46 F1800.0
M101
G1 X-1.96 Y-7.14 Z0.46 F1080.0
M103
G1 X-2.36 Y-7.26 Z0.46 F1800.0
M101
G1 X-2.36 Y-3.63 Z0.46 F1080.0
M103
G1 X-2.75 Y-3.75 Z0.46 F1800.0
M101
G1 X-2.75 Y-7.38 Z0.46 F1080.0
M103
G1 X-3.14 Y-7.5 Z0.46 F1800.0
M101
G1 X-3.14 Y-3.87 Z0.46 F1080.0
M103
G1 X-3.53 Y-3.98 Z0.46 F1800.0
M101
G1 X-3.53 Y-7.61 Z0.46 F1080.0
M103
G1 X-3.93 Y-7.73 Z0.46 F1800.0
M101
G1 X-3.93 Y-4.1 Z0.46 F1080.0
M103
G1 X-4.32 Y-4.22 Z0.46 F1800.0
M101
G1 X-4.32 Y-7.85 Z0.46 F1080.0
M103
G1 X-4.71 Y-7.97 Z0.46 F1800.0
M101
G1 X-4.71 Y-4.34 Z0.46 F1080.0
M103
G1 X-5.11 Y-4.46 Z0.46 F1800.0
M101
G1 X-5.11 Y-8.08 Z0.46 F1080.0
M103
G1 X-5.5 Y-8.2 Z0.46 F1800.0
M101
G1 X-5.5 Y-4.57 Z0.46 F1080.0
M103
G1 X-5.89 Y-4.69 Z0.46 F1800.0
M101
G1 X-5.89 Y-8.32 Z0.46 F1080.0
M103
G1 X-6.28 Y-8.44 Z0.46 F1800.0
M101
G1 X-6.28 Y-4.81 Z0.46 F1080.0
M103
G1 X-6.68 Y-4.93 Z0.46 F1800.0
M101
G1 X-6.68 Y-8.56 Z0.46 F1080.0
M103
G1 X-7.07 Y-8.67 Z0.46 F1800.0
M101
G1 X-7.07 Y-5.04 Z0.46 F1080.0
M103
G1 X-7.46 Y-5.16 Z0.46 F1800.0
M101
G1 X-7.46 Y-8.79 Z0.46 F1080.0
M103
G1 X-7.85 Y-8.91 Z0.46 F1800.0
M101
G1 X-7.85 Y-5.28 Z0.46 F1080.0
M103
G1 X-8.25 Y-5.4 Z0.46 F1800.0
M101
G1 X-8.25 Y-9.03 Z0.46 F1080.0
M103
G1 X-8.64 Y-9.15 Z0.46 F1800.0
M101
G1 X-8.64 Y-5.52 Z0.46 F1080.0
M103
G1 X-9.03 Y-5.63 Z0.46 F1800.0
M101
G1 X-9.03 Y-9.26 Z0.46 F1080.0
M103
G1 X-9.43 Y-9.38 Z0.46 F1800.0
M101
G1 X-9.43 Y-5.75 Z0.46 F1080.0
M103
G1 X-9.82 Y-5.87 Z0.46 F1800.0
M101
G1 X-9.82 Y-9.5 Z0.46 F1080.0
M103
G1 X-10.21 Y-9.62 Z0.46 F1800.0
M101
G1 X-10.21 Y-5.99 Z0.46 F1080.0
M103
G1 X-10.6 Y-6.11 Z0.46 F1800.0
M101
G1 X-10.6 Y-9.74 Z0.46 F1080.0
M103
G1 X-11.0 Y-9.85 Z0.46 F1800.0
M101
G1 X-11.0 Y-6.22 Z0.46 F1080.0
M103
G1 X-11.39 Y-6.34 Z0.46 F1800.0
M101
G1 X-11.39 Y-9.97 Z0.46 F1080.0
M103
G1 X-11.78 Y-10.09 Z0.46 F1800.0
M101
G1 X-11.78 Y-6.46 Z0.46 F1080.0
M103
G1 X-12.17 Y-6.58 Z0.46 F1800.0
M101
G1 X-12.17 Y-10.21 Z0.46 F1080.0
M103
G1 X-12.57 Y-10.32 Z0.46 F1800.0
M101
G1 X-12.57 Y-6.69 Z0.46 F1080.0
M103
G1 X-12.96 Y-6.81 Z0.46 F1800.0
M101
G1 X-12.96 Y-10.44 Z0.46 F1080.0
M103
G1 X-13.35 Y-10.56 Z0.46 F1800.0
M101
G1 X-13.35 Y-6.93 Z0.46 F1080.0
M103
G1 X-13.74 Y-7.05 Z0.46 F1800.0
M101
G1 X-13.74 Y-10.68 Z0.46 F1080.0
M103
G1 X-14.14 Y-10.8 Z0.46 F1800.0
M101
G1 X-14.14 Y-7.17 Z0.46 F1080.0
M103
G1 X-14.53 Y-7.28 Z0.46 F1800.0
M101
G1 X-14.53 Y-10.91 Z0.46 F1080.0
M103
G1 X-14.92 Y-11.03 Z0.46 F1800.0
M101
G1 X-14.92 Y-7.4 Z0.46 F1080.0
M103
G1 X-15.32 Y-7.52 Z0.46 F1800.0
M101
G1 X-15.32 Y-11.15 Z0.46 F1080.0
M103
G1 X-15.71 Y-11.27 Z0.46 F1800.0
M101
G1 X-15.71 Y-7.64 Z0.46 F1080.0
M103
G1 X-16.1 Y-7.76 Z0.46 F1800.0
M101
G1 X-16.1 Y-11.39 Z0.46 F1080.0
M103
G1 X-16.49 Y-11.5 Z0.46 F1800.0
M101
G1 X-16.49 Y-7.87 Z0.46 F1080.0
M103
G1 X-16.89 Y-7.99 Z0.46 F1800.0
M101
G1 X-16.89 Y-11.62 Z0.46 F1080.0
M103
G1 X-17.28 Y-11.74 Z0.46 F1800.0
M101
G1 X-17.28 Y-8.11 Z0.46 F1080.0
M103
G1 X-17.67 Y-8.23 Z0.46 F1800.0
M101
G1 X-17.67 Y-11.86 Z0.46 F1080.0
M103
G1 X-18.06 Y-11.97 Z0.46 F1800.0
M101
G1 X-18.06 Y-8.35 Z0.46 F1080.0
M103
G1 X-18.46 Y-8.46 Z0.46 F1800.0
M101
G1 X-18.46 Y-12.09 Z0.46 F1080.0
M103
G1 X-18.85 Y-12.21 Z0.46 F1800.0
M101
G1 X-18.85 Y-8.58 Z0.46 F1080.0
M103
G1 X-19.24 Y-8.7 Z0.46 F1800.0
M101
G1 X-19.24 Y-12.33 Z0.46 F1080.0
M103
G1 X-19.64 Y-12.45 Z0.46 F1800.0
M101
G1 X-19.64 Y-8.82 Z0.46 F1080.0
M103
G1 X-20.03 Y-8.93 Z0.46 F1800.0
M101
G1 X-20.03 Y-12.56 Z0.46 F1080.0
M103
G1 X-20.42 Y-12.68 Z0.46 F1800.0
M101
G1 X-20.42 Y-9.05 Z0.46 F1080.0
M103
G1 X-20.81 Y-9.17 Z0.46 F1800.0
M101
G1 X-20.81 Y-12.8 Z0.46 F1080.0
M103
G1 X-21.21 Y-12.92 Z0.46 F1800.0
M101
G1 X-21.21 Y-9.29 Z0.46 F1080.0
M103
G1 X-21.6 Y-9.41 Z0.46 F1800.0
M101
G1 X-21.6 Y-13.04 Z0.46 F1080.0
M103
G1 X-21.99 Y-13.15 Z0.46 F1800.0
M101
G1 X-21.99 Y-9.52 Z0.46 F1080.0
M103
G1 X-22.38 Y-9.64 Z0.46 F1800.0
M101
G1 X-22.38 Y-13.27 Z0.46 F1080.0
M103
G1 X-22.78 Y-13.39 Z0.46 F1800.0
M101
G1 X-22.78 Y-9.76 Z0.46 F1080.0
M103
G1 X-23.17 Y-9.88 Z0.46 F1800.0
M101
G1 X-23.17 Y-13.51 Z0.46 F1080.0
M103
G1 X-23.56 Y-13.62 Z0.46 F1800.0
M101
G1 X-23.56 Y-9.99 Z0.46 F1080.0
M103
G1 X-23.96 Y-10.11 Z0.46 F1800.0
M101
G1 X-23.96 Y-13.74 Z0.46 F1080.0
M103
G1 X-24.35 Y-13.86 Z0.46 F1800.0
M101
G1 X-24.35 Y-10.23 Z0.46 F1080.0
M103
G1 X-24.74 Y-10.35 Z0.46 F1800.0
M101
G1 X-24.74 Y-13.98 Z0.46 F1080.0
M103
G1 X-25.13 Y-14.1 Z0.46 F1800.0
M101
G1 X-25.13 Y-10.47 Z0.46 F1080.0
M103
G1 X-25.53 Y-10.58 Z0.46 F1800.0
M101
G1 X-25.53 Y-14.21 Z0.46 F1080.0
M103
G1 X-25.92 Y-14.33 Z0.46 F1800.0
M101
G1 X-25.92 Y-10.7 Z0.46 F1080.0
M103
G1 X-26.31 Y-10.82 Z0.46 F1800.0
M101
G1 X-26.31 Y-14.45 Z0.46 F1080.0
M103
G1 X-26.7 Y-14.57 Z0.46 F1800.0
M101
G1 X-26.7 Y-10.94 Z0.46 F1080.0
M103
G1 X-27.1 Y-11.06 Z0.46 F1800.0
M101
G1 X-27.1 Y-14.69 Z0.46 F1080.0
M103
G1 X-27.49 Y-14.8 Z0.46 F1800.0
M101
G1 X-27.49 Y-11.17 Z0.46 F1080.0
M103
G1 X-27.88 Y-11.29 Z0.46 F1800.0
M101
G1 X-27.88 Y-14.92 Z0.46 F1080.0
M103
G1 X-28.27 Y-15.04 Z0.46 F1800.0
M101
G1 X-28.27 Y-11.41 Z0.46 F1080.0
M103
G1 X-28.67 Y-11.53 Z0.46 F1800.0
M101
G1 X-28.67 Y-15.16 Z0.46 F1080.0
M103
G1 X-29.06 Y-15.27 Z0.46 F1800.0
M101
G1 X-29.06 Y-11.65 Z0.46 F1080.0
M103
G1 X-29.45 Y-11.76 Z0.46 F1800.0
M101
G1 X-29.45 Y-15.39 Z0.46 F1080.0
M103
G1 X-29.85 Y-15.51 Z0.46 F1800.0
M101
G1 X-29.85 Y-11.88 Z0.46 F1080.0
M103
G1 X-30.24 Y-12.0 Z0.46 F1800.0
M101
G1 X-30.24 Y-15.63 Z0.46 F1080.0
G1 X-30.63 Y-14.86 Z0.46 F1080.0
G1 X-30.63 Y-12.12 Z0.46 F1080.0
M103
G1 X-31.02 Y-12.23 Z0.46 F1800.0
M101
G1 X-31.02 Y-13.28 Z0.46 F1080.0
M108 R30.0
M102
G1 X-31.02 Y-13.55 Z0.46 F1080.0
M108 R2.141
M103
(</surroundingLoop>)
(<surroundingLoop>)
(<boundaryPerimeter>)
(<boundaryPoint> X-41.651 Y20.215 Z0.46 </boundaryPoint>)
(<boundaryPoint> X-41.95 Y20.148 Z0.46 </boundaryPoint>)
(<boundaryPoint> X-41.928 Y19.842 Z0.46 </boundaryPoint>)
(<boundaryPoint> X-41.666 Y18.971 Z0.46 </boundaryPoint>)
(<boundaryPoint> X-22.749 Y18.984 Z0.46 </boundaryPoint>)
(<boundaryPoint> X-22.747 Y16.401 Z0.46 </boundaryPoint>)
(<boundaryPoint> X-40.502 Y16.389 Z0.46 </boundaryPoint>)
(<boundaryPoint> X-40.801 Y16.322 Z0.46 </boundaryPoint>)
(<boundaryPoint> X-40.779 Y16.016 Z0.46 </boundaryPoint>)
(<boundaryPoint> X-39.172 Y10.661 Z0.46 </boundaryPoint>)
(<boundaryPoint> X41.32 Y10.715 Z0.46 </boundaryPoint>)
(<boundaryPoint> X41.619 Y10.782 Z0.46 </boundaryPoint>)
(<boundaryPoint> X41.597 Y11.088 Z0.46 </boundaryPoint>)
(<boundaryPoint> X39.99 Y16.443 Z0.46 </boundaryPoint>)
(<boundaryPoint> X23.881 Y16.432 Z0.46 </boundaryPoint>)
(<boundaryPoint> X23.88 Y19.015 Z0.46 </boundaryPoint>)
(<boundaryPoint> X38.826 Y19.025 Z0.46 </boundaryPoint>)
(<boundaryPoint> X39.125 Y19.092 Z0.46 </boundaryPoint>)
(<boundaryPoint> X39.103 Y19.398 Z0.46 </boundaryPoint>)
(<boundaryPoint> X38.841 Y20.269 Z0.46 </boundaryPoint>)
(<loop> outer )
G1 X-30.95 Y10.46 Z0.46 F3000.0
M108 R30.0
M101
G1 X-30.95 Y11.26 Z0.46 F3000.0
M108 R2.141
G1 X40.92 Y11.3 Z0.46 F1080.0
G1 X39.55 Y15.85 Z0.46 F1080.0
G1 X23.29 Y15.84 Z0.46 F1080.0
G1 X23.29 Y19.08 Z0.46 F1080.0
G1 X22.84 Y19.67 Z0.46 F1080.0
G1 X-21.77 Y19.64 Z0.46 F1080.0
G1 X-22.16 Y19.06 Z0.46 F1080.0
G1 X-22.16 Y15.81 Z0.46 F1080.0
G1 X-40.1 Y15.8 Z0.46 F1080.0
G1 X-38.73 Y11.25 Z0.46 F1080.0
G1 X-31.04 Y11.26 Z0.46 F1080.0
G1 X-30.95 Y11.26 Z0.46 F1080.0
M103
(</loop>)
(<perimeter> outer )
G1 X-31.04 Y10.86 Z0.46 F3000.0
M101
G1 X41.35 Y10.91 Z0.46 F1080.0
G1 X41.52 Y10.86 Z0.46 F1080.0
G1 X41.42 Y11.0 Z0.46 F1080.0
G1 X39.84 Y16.25 Z0.46 F1080.0
G1 X23.69 Y16.24 Z0.46 F1080.0
G1 X23.68 Y19.21 Z0.46 F1080.0
G1 X38.86 Y19.22 Z0.46 F1080.0
G1 X39.03 Y19.17 Z0.46 F1080.0
G1 X38.92 Y19.31 Z0.46 F1080.0
G1 X38.7 Y20.07 Z0.46 F1080.0
G1 X-41.68 Y20.02 Z0.46 F1080.0
G1 X-41.85 Y20.08 Z0.46 F1080.0
G1 X-41.75 Y19.93 Z0.46 F1080.0
G1 X-41.52 Y19.17 Z0.46 F1080.0
G1 X-22.55 Y19.18 Z0.46 F1080.0
G1 X-22.55 Y16.2 Z0.46 F1080.0
G1 X-40.53 Y16.19 Z0.46 F1080.0
G1 X-40.7 Y16.25 Z0.46 F1080.0
G1 X-40.6 Y16.1 Z0.46 F1080.0
G1 X-39.03 Y10.86 Z0.46 F1080.0
G1 X-31.31 Y10.86 Z0.46 F1080.0
M108 R30.0
M102
G1 X-31.04 Y10.86 Z0.46 F1080.0
M108 R2.141
M103
(</perimeter>)
(</boundaryPerimeter>)
G1 X19.94 Y11.54 Z0.46 F1800.0
M108 R30.0
M101
G1 X20.42 Y11.55 Z0.46 F1800.0
M108 R2.141
G1 X20.42 Y19.41 Z0.46 F1080.0
G1 X20.03 Y19.41 Z0.46 F1080.0
G1 X20.03 Y11.55 Z0.46 F1080.0
G1 X19.64 Y11.55 Z0.46 F1080.0
G1 X19.64 Y19.41 Z0.46 F1080.0
G1 X19.24 Y19.41 Z0.46 F1080.0
G1 X19.24 Y11.55 Z0.46 F1080.0
G1 X18.85 Y11.55 Z0.46 F1080.0
G1 X18.85 Y19.41 Z0.46 F1080.0
G1 X18.46 Y19.41 Z0.46 F1080.0
G1 X18.46 Y11.54 Z0.46 F1080.0
G1 X18.06 Y11.54 Z0.46 F1080.0
G1 X18.06 Y19.41 Z0.46 F1080.0
G1 X17.67 Y19.41 Z0.46 F1080.0
G1 X17.67 Y11.54 Z0.46 F1080.0
G1 X17.28 Y11.54 Z0.46 F1080.0
G1 X17.28 Y19.41 Z0.46 F1080.0
G1 X16.89 Y19.41 Z0.46 F1080.0
G1 X16.89 Y11.54 Z0.46 F1080.0
G1 X16.49 Y11.54 Z0.46 F1080.0
G1 X16.49 Y19.41 Z0.46 F1080.0
G1 X16.1 Y19.41 Z0.46 F1080.0
G1 X16.1 Y11.54 Z0.46 F1080.0
G1 X15.71 Y11.54 Z0.46 F1080.0
G1 X15.71 Y19.41 Z0.46 F1080.0
G1 X15.32 Y19.41 Z0.46 F1080.0
G1 X15.32 Y11.54 Z0.46 F1080.0
G1 X14.92 Y11.54 Z0.46 F1080.0
G1 X14.92 Y19.41 Z0.46 F1080.0
G1 X14.53 Y19.41 Z0.46 F1080.0
G1 X14.53 Y11.54 Z0.46 F1080.0
G1 X14.14 Y11.54 Z0.46 F1080.0
G1 X14.14 Y19.41 Z0.46 F1080.0
G1 X13.74 Y19.41 Z0.46 F1080.0
G1 X13.74 Y11.54 Z0.46 F1080.0
G1 X13.35 Y11.54 Z0.46 F1080.0
G1 X13.35 Y19.41 Z0.46 F1080.0
G1 X12.96 Y19.41 Z0.46 F1080.0
G1 X12.96 Y11.54 Z0.46 F1080.0
G1 X12.57 Y11.54 Z0.46 F1080.0
G1 X12.57 Y19.41 Z0.46 F1080.0
G1 X12.17 Y19.41 Z0.46 F1080.0
G1 X12.17 Y11.54 Z0.46 F1080.0
G1 X11.78 Y11.54 Z0.46 F1080.0
G1 X11.78 Y19.41 Z0.46 F1080.0
G1 X11.39 Y19.41 Z0.46 F1080.0
G1 X11.39 Y11.54 Z0.46 F1080.0
G1 X11.0 Y11.54 Z0.46 F1080.0
G1 X11.0 Y19.41 Z0.46 F1080.0
G1 X10.6 Y19.41 Z0.46 F1080.0
G1 X10.6 Y11.54 Z0.46 F1080.0
G1 X10.21 Y11.54 Z0.46 F1080.0
G1 X10.21 Y19.41 Z0.46 F1080.0
G1 X9.82 Y19.41 Z0.46 F1080.0
G1 X9.82 Y11.54 Z0.46 F1080.0
G1 X9.43 Y11.54 Z0.46 F1080.0
G1 X9.43 Y19.41 Z0.46 F1080.0
G1 X9.03 Y19.4 Z0.46 F1080.0
G1 X9.03 Y11.54 Z0.46 F1080.0
G1 X8.64 Y11.54 Z0.46 F1080.0
G1 X8.64 Y19.4 Z0.46 F1080.0
G1 X8.25 Y19.4 Z0.46 F1080.0
G1 X8.25 Y11.54 Z0.46 F1080.0
G1 X7.85 Y11.54 Z0.46 F1080.0
G1 X7.85 Y19.4 Z0.46 F1080.0
G1 X7.46 Y19.4 Z0.46 F1080.0
G1 X7.46 Y11.54 Z0.46 F1080.0
G1 X7.07 Y11.54 Z0.46 F1080.0
G1 X7.07 Y19.4 Z0.46 F1080.0
G1 X6.68 Y19.4 Z0.46 F1080.0
G1 X6.68 Y11.54 Z0.46 F1080.0
G1 X6.28 Y11.54 Z0.46 F1080.0
G1 X6.28 Y19.4 Z0.46 F1080.0
G1 X5.89 Y19.4 Z0.46 F1080.0
G1 X5.89 Y11.54 Z0.46 F1080.0
G1 X5.5 Y11.54 Z0.46 F1080.0
G1 X5.5 Y19.4 Z0.46 F1080.0
G1 X5.11 Y19.4 Z0.46 F1080.0
G1 X5.11 Y11.54 Z0.46 F1080.0
G1 X4.71 Y11.54 Z0.46 F1080.0
G1 X4.71 Y19.4 Z0.46 F1080.0
G1 X4.32 Y19.4 Z0.46 F1080.0
G1 X4.32 Y11.54 Z0.46 F1080.0
G1 X3.93 Y11.54 Z0.46 F1080.0
G1 X3.93 Y19.4 Z0.46 F1080.0
G1 X3.53 Y19.4 Z0.46 F1080.0
G1 X3.53 Y11.53 Z0.46 F1080.0
G1 X3.14 Y11.53 Z0.46 F1080.0
G1 X3.14 Y19.4 Z0.46 F1080.0
G1 X2.75 Y19.4 Z0.46 F1080.0
G1 X2.75 Y11.53 Z0.46 F1080.0
G1 X2.36 Y11.53 Z0.46 F1080.0
G1 X2.36 Y19.4 Z0.46 F1080.0
G1 X1.96 Y19.4 Z0.46 F1080.0
G1 X1.96 Y11.53 Z0.46 F1080.0
G1 X1.57 Y11.53 Z0.46 F1080.0
G1 X1.57 Y19.4 Z0.46 F1080.0
G1 X1.18 Y19.4 Z0.46 F1080.0
G1 X1.18 Y11.53 Z0.46 F1080.0
G1 X0.79 Y11.53 Z0.46 F1080.0
G1 X0.79 Y19.4 Z0.46 F1080.0
G1 X0.39 Y19.4 Z0.46 F1080.0
G1 X0.39 Y11.53 Z0.46 F1080.0
G1 X0.0 Y11.53 Z0.46 F1080.0
G1 X0.0 Y19.4 Z0.46 F1080.0
G1 X-0.39 Y19.4 Z0.46 F1080.0
G1 X-0.39 Y11.53 Z0.46 F1080.0
G1 X-0.79 Y11.53 Z0.46 F1080.0
G1 X-0.79 Y19.4 Z0.46 F1080.0
G1 X-1.18 Y19.4 Z0.46 F1080.0
G1 X-1.18 Y11.53 Z0.46 F1080.0
G1 X-1.57 Y11.53 Z0.46 F1080.0
G1 X-1.57 Y19.4 Z0.46 F1080.0
G1 X-1.96 Y19.4 Z0.46 F1080.0
G1 X-1.96 Y11.53 Z0.46 F1080.0
G1 X-2.36 Y11.53 Z0.46 F1080.0
G1 X-2.36 Y19.4 Z0.46 F1080.0
G1 X-2.75 Y19.4 Z0.46 F1080.0
G1 X-2.75 Y11.53 Z0.46 F1080.0
G1 X-3.14 Y11.53 Z0.46 F1080.0
G1 X-3.14 Y19.4 Z0.46 F1080.0
G1 X-3.53 Y19.4 Z0.46 F1080.0
G1 X-3.53 Y11.53 Z0.46 F1080.0
G1 X-3.93 Y11.53 Z0.46 F1080.0
G1 X-3.93 Y19.4 Z0.46 F1080.0
G1 X-4.32 Y19.4 Z0.46 F1080.0
G1 X-4.32 Y11.53 Z0.46 F1080.0
G1 X-4.71 Y11.53 Z0.46 F1080.0
G1 X-4.71 Y19.4 Z0.46 F1080.0
G1 X-5.11 Y19.4 Z0.46 F1080.0
G1 X-5.11 Y11.53 Z0.46 F1080.0
G1 X-5.5 Y11.53 Z0.46 F1080.0
G1 X-5.5 Y19.4 Z0.46 F1080.0
G1 X-5.89 Y19.39 Z0.46 F1080.0
G1 X-5.89 Y11.53 Z0.46 F1080.0
G1 X-6.28 Y11.53 Z0.46 F1080.0
G1 X-6.28 Y19.39 Z0.46 F1080.0
G1 X-6.68 Y19.39 Z0.46 F1080.0
G1 X-6.68 Y11.53 Z0.46 F1080.0
G1 X-7.07 Y11.53 Z0.46 F1080.0
G1 X-7.07 Y19.39 Z0.46 F1080.0
G1 X-7.46 Y19.39 Z0.46 F1080.0
G1 X-7.46 Y11.53 Z0.46 F1080.0
G1 X-7.85 Y11.53 Z0.46 F1080.0
G1 X-7.85 Y19.39 Z0.46 F1080.0
G1 X-8.25 Y19.39 Z0.46 F1080.0
G1 X-8.25 Y11.53 Z0.46 F1080.0
G1 X-8.64 Y11.53 Z0.46 F1080.0
G1 X-8.64 Y19.39 Z0.46 F1080.0
G1 X-9.03 Y19.39 Z0.46 F1080.0
G1 X-9.03 Y11.53 Z0.46 F1080.0
G1 X-9.43 Y11.53 Z0.46 F1080.0
G1 X-9.43 Y19.39 Z0.46 F1080.0
G1 X-9.82 Y19.39 Z0.46 F1080.0
G1 X-9.82 Y11.53 Z0.46 F1080.0
G1 X-10.21 Y11.53 Z0.46 F1080.0
G1 X-10.21 Y19.39 Z0.46 F1080.0
G1 X-10.6 Y19.39 Z0.46 F1080.0
G1 X-10.6 Y11.53 Z0.46 F1080.0
G1 X-11.0 Y11.53 Z0.46 F1080.0
G1 X-11.0 Y19.39 Z0.46 F1080.0
G1 X-11.39 Y19.39 Z0.46 F1080.0
G1 X-11.39 Y11.52 Z0.46 F1080.0
G1 X-11.78 Y11.52 Z0.46 F1080.0
G1 X-11.78 Y19.39 Z0.46 F1080.0
G1 X-12.17 Y19.39 Z0.46 F1080.0
G1 X-12.17 Y11.52 Z0.46 F1080.0
G1 X-12.57 Y11.52 Z0.46 F1080.0
G1 X-12.57 Y19.39 Z0.46 F1080.0
G1 X-12.96 Y19.39 Z0.46 F1080.0
G1 X-12.96 Y11.52 Z0.46 F1080.0
G1 X-13.35 Y11.52 Z0.46 F1080.0
G1 X-13.35 Y19.39 Z0.46 F1080.0
G1 X-13.74 Y19.39 Z0.46 F1080.0
G1 X-13.74 Y11.52 Z0.46 F1080.0
G1 X-14.14 Y11.52 Z0.46 F1080.0
G1 X-14.14 Y19.39 Z0.46 F1080.0
G1 X-14.53 Y19.39 Z0.46 F1080.0
G1 X-14.53 Y11.52 Z0.46 F1080.0
G1 X-14.92 Y11.52 Z0.46 F1080.0
G1 X-14.92 Y19.39 Z0.46 F1080.0
G1 X-15.32 Y19.39 Z0.46 F1080.0
G1 X-15.32 Y11.52 Z0.46 F1080.0
G1 X-15.71 Y11.52 Z0.46 F1080.0
G1 X-15.71 Y19.39 Z0.46 F1080.0
G1 X-16.1 Y19.39 Z0.46 F1080.0
G1 X-16.1 Y11.52 Z0.46 F1080.0
G1 X-16.49 Y11.52 Z0.46 F1080.0
G1 X-16.49 Y19.39 Z0.46 F1080.0
G1 X-16.89 Y19.39 Z0.46 F1080.0
G1 X-16.89 Y11.52 Z0.46 F1080.0
G1 X-17.28 Y11.52 Z0.46 F1080.0
G1 X-17.28 Y19.39 Z0.46 F1080.0
G1 X-17.67 Y19.39 Z0.46 F1080.0
G1 X-17.67 Y11.52 Z0.46 F1080.0
G1 X-18.06 Y11.52 Z0.46 F1080.0
G1 X-18.06 Y19.39 Z0.46 F1080.0
G1 X-18.46 Y19.39 Z0.46 F1080.0
G1 X-18.46 Y11.52 Z0.46 F1080.0
G1 X-18.85 Y11.52 Z0.46 F1080.0
G1 X-18.85 Y19.39 Z0.46 F1080.0
G1 X-19.24 Y19.39 Z0.46 F1080.0
G1 X-19.24 Y11.52 Z0.46 F1080.0
G1 X-19.64 Y11.52 Z0.46 F1080.0
G1 X-19.64 Y19.39 Z0.46 F1080.0
G1 X-20.03 Y19.39 Z0.46 F1080.0
G1 X-20.03 Y11.52 Z0.46 F1080.0
G1 X-20.42 Y11.52 Z0.46 F1080.0
G1 X-20.42 Y19.39 Z0.46 F1080.0
G1 X-20.81 Y19.38 Z0.46 F1080.0
G1 X-20.81 Y11.52 Z0.46 F1080.0
G1 X-21.21 Y11.52 Z0.46 F1080.0
G1 X-21.21 Y19.38 Z0.46 F1080.0
G1 X-21.6 Y19.38 Z0.46 F1080.0
G1 X-21.6 Y11.52 Z0.46 F1080.0
G1 X-21.99 Y11.52 Z0.46 F1080.0
G1 X-21.99 Y15.56 Z0.46 F1080.0
G1 X-22.38 Y15.56 Z0.46 F1080.0
G1 X-22.38 Y11.52 Z0.46 F1080.0
G1 X-22.78 Y11.52 Z0.46 F1080.0
G1 X-22.78 Y15.56 Z0.46 F1080.0
G1 X-23.17 Y15.56 Z0.46 F1080.0
G1 X-23.17 Y11.52 Z0.46 F1080.0
G1 X-23.56 Y11.52 Z0.46 F1080.0
G1 X-23.56 Y15.56 Z0.46 F1080.0
G1 X-23.96 Y15.56 Z0.46 F1080.0
G1 X-23.96 Y11.52 Z0.46 F1080.0
G1 X-24.35 Y11.52 Z0.46 F1080.0
G1 X-24.35 Y15.56 Z0.46 F1080.0
G1 X-24.74 Y15.56 Z0.46 F1080.0
G1 X-24.74 Y11.52 Z0.46 F1080.0
G1 X-25.13 Y11.52 Z0.46 F1080.0
G1 X-25.13 Y15.56 Z0.46 F1080.0
G1 X-25.53 Y15.56 Z0.46 F1080.0
G1 X-25.53 Y11.52 Z0.46 F1080.0
G1 X-25.92 Y11.51 Z0.46 F1080.0
G1 X-25.92 Y15.55 Z0.46 F1080.0
G1 X-26.31 Y15.55 Z0.46 F1080.0
G1 X-26.31 Y11.51 Z0.46 F1080.0
G1 X-26.7 Y11.51 Z0.46 F1080.0
G1 X-26.7 Y15.55 Z0.46 F1080.0
G1 X-27.1 Y15.55 Z0.46 F1080.0
G1 X-27.1 Y11.51 Z0.46 F1080.0
G1 X-27.49 Y11.51 Z0.46 F1080.0
G1 X-27.49 Y15.55 Z0.46 F1080.0
G1 X-27.88 Y15.55 Z0.46 F1080.0
G1 X-27.88 Y11.51 Z0.46 F1080.0
G1 X-28.27 Y11.51 Z0.46 F1080.0
G1 X-28.27 Y15.55 Z0.46 F1080.0
G1 X-28.67 Y15.55 Z0.46 F1080.0
G1 X-28.67 Y11.51 Z0.46 F1080.0
G1 X-29.06 Y11.51 Z0.46 F1080.0
G1 X-29.06 Y15.55 Z0.46 F1080.0
G1 X-29.45 Y15.55 Z0.46 F1080.0
G1 X-29.45 Y11.51 Z0.46 F1080.0
G1 X-29.85 Y11.51 Z0.46 F1080.0
G1 X-29.85 Y15.55 Z0.46 F1080.0
G1 X-30.24 Y15.55 Z0.46 F1080.0
G1 X-30.24 Y11.51 Z0.46 F1080.0
G1 X-30.63 Y11.51 Z0.46 F1080.0
G1 X-30.63 Y15.55 Z0.46 F1080.0
G1 X-31.02 Y15.55 Z0.46 F1080.0
G1 X-31.02 Y11.51 Z0.46 F1080.0
G1 X-31.42 Y11.51 Z0.46 F1080.0
G1 X-31.42 Y15.55 Z0.46 F1080.0
M103
G1 X-31.81 Y15.55 Z0.46 F1800.0
M101
G1 X-31.81 Y11.51 Z0.46 F1080.0
G1 X-32.2 Y11.51 Z0.46 F1080.0
G1 X-32.2 Y15.55 Z0.46 F1080.0
M103
G1 X-32.59 Y15.55 Z0.46 F1800.0
M101
G1 X-32.59 Y11.51 Z0.46 F1080.0
G1 X-32.99 Y11.51 Z0.46 F1080.0
G1 X-32.99 Y15.55 Z0.46 F1080.0
M103
G1 X-33.38 Y15.55 Z0.46 F1800.0
M101
G1 X-33.38 Y11.51 Z0.46 F1080.0
G1 X-33.77 Y11.51 Z0.46 F1080.0
G1 X-33.77 Y15.55 Z0.46 F1080.0
M103
G1 X-34.17 Y15.55 Z0.46 F1800.0
M101
G1 X-34.17 Y11.51 Z0.46 F1080.0
G1 X-34.56 Y11.51 Z0.46 F1080.0
G1 X-34.56 Y15.55 Z0.46 F1080.0
M103
G1 X-34.95 Y15.55 Z0.46 F1800.0
M101
G1 X-34.95 Y11.51 Z0.46 F1080.0
G1 X-35.34 Y11.51 Z0.46 F1080.0
G1 X-35.34 Y15.55 Z0.46 F1080.0
M103
G1 X-35.74 Y15.55 Z0.46 F1800.0
M101
G1 X-35.74 Y11.51 Z0.46 F1080.0
G1 X-36.13 Y11.51 Z0.46 F1080.0
G1 X-36.13 Y15.55 Z0.46 F1080.0
M103
G1 X-36.52 Y15.55 Z0.46 F1800.0
M101
G1 X-36.52 Y11.51 Z0.46 F1080.0
G1 X-36.91 Y11.51 Z0.46 F1080.0
G1 X-36.91 Y15.55 Z0.46 F1080.0
M103
G1 X-37.31 Y15.55 Z0.46 F1800.0
M101
G1 X-37.31 Y11.51 Z0.46 F1080.0
G1 X-37.7 Y11.51 Z0.46 F1080.0
G1 X-37.7 Y15.55 Z0.46 F1080.0
M103
G1 X-38.09 Y15.55 Z0.46 F1800.0
M101
G1 X-38.09 Y11.51 Z0.46 F1080.0
G1 X-38.49 Y11.51 Z0.46 F1080.0
G1 X-38.49 Y15.55 Z0.46 F1080.0
M103
G1 X-38.88 Y15.55 Z0.46 F1800.0
M101
G1 X-38.88 Y12.89 Z0.46 F1080.0
M108 R30.0
M102
G1 X-38.88 Y12.62 Z0.46 F1080.0
M108 R2.141
M103
G1 X-39.13 Y13.47 Z0.46 F1800.0
M108 R30.0
M101
G1 X-39.27 Y13.93 Z0.46 F1800.0
M108 R2.141
G1 X-39.27 Y15.55 Z0.46 F1080.0
G1 X-39.66 Y15.23 Z0.46 F1080.0
G1 X-39.66 Y15.28 Z0.46 F1080.0
M108 R30.0
M102
G1 X-39.66 Y15.55 Z0.46 F1080.0
M108 R2.141
M103
G1 X20.33 Y11.58 Z0.46 F1800.0
M108 R30.0
M101
G1 X20.81 Y11.55 Z0.46 F1800.0
M108 R2.141
G1 X20.81 Y19.41 Z0.46 F1080.0
G1 X21.21 Y19.41 Z0.46 F1080.0
G1 X21.21 Y11.55 Z0.46 F1080.0
M103
G1 X21.6 Y11.55 Z0.46 F1800.0
M101
G1 X21.6 Y19.41 Z0.46 F1080.0
G1 X21.99 Y19.41 Z0.46 F1080.0
G1 X21.99 Y11.55 Z0.46 F1080.0
M103
G1 X22.38 Y11.55 Z0.46 F1800.0
M101
G1 X22.38 Y19.41 Z0.46 F1080.0
G1 X22.78 Y19.33 Z0.46 F1080.0
G1 X22.78 Y11.55 Z0.46 F1080.0
M103
G1 X23.17 Y11.55 Z0.46 F1800.0
M101
G1 X23.17 Y15.59 Z0.46 F1080.0
G1 X23.56 Y15.59 Z0.46 F1080.0
G1 X23.56 Y11.55 Z0.46 F1080.0
M103
G1 X23.96 Y11.55 Z0.46 F1800.0
M101
G1 X23.96 Y15.59 Z0.46 F1080.0
G1 X24.35 Y15.59 Z0.46 F1080.0
G1 X24.35 Y11.55 Z0.46 F1080.0
M103
G1 X24.74 Y11.55 Z0.46 F1800.0
M101
G1 X24.74 Y15.59 Z0.46 F1080.0
G1 X25.13 Y15.59 Z0.46 F1080.0
G1 X25.13 Y11.55 Z0.46 F1080.0
M103
G1 X25.53 Y11.55 Z0.46 F1800.0
M101
G1 X25.53 Y15.59 Z0.46 F1080.0
G1 X25.92 Y15.59 Z0.46 F1080.0
G1 X25.92 Y11.55 Z0.46 F1080.0
M103
G1 X26.31 Y11.55 Z0.46 F1800.0
M101
G1 X26.31 Y15.59 Z0.46 F1080.0
G1 X26.7 Y15.59 Z0.46 F1080.0
G1 X26.7 Y11.55 Z0.46 F1080.0
M103
G1 X27.1 Y11.55 Z0.46 F1800.0
M101
G1 X27.1 Y15.59 Z0.46 F1080.0
G1 X27.49 Y15.59 Z0.46 F1080.0
G1 X27.49 Y11.55 Z0.46 F1080.0
M103
G1 X27.88 Y11.55 Z0.46 F1800.0
M101
G1 X27.88 Y15.59 Z0.46 F1080.0
G1 X28.27 Y15.59 Z0.46 F1080.0
G1 X28.27 Y11.55 Z0.46 F1080.0
M103
G1 X28.67 Y11.55 Z0.46 F1800.0
M101
G1 X28.67 Y15.59 Z0.46 F1080.0
G1 X29.06 Y15.59 Z0.46 F1080.0
G1 X29.06 Y11.55 Z0.46 F1080.0
M103
G1 X29.45 Y11.55 Z0.46 F1800.0
M101
G1 X29.45 Y15.59 Z0.46 F1080.0
G1 X29.85 Y15.59 Z0.46 F1080.0
G1 X29.85 Y11.55 Z0.46 F1080.0
M103
G1 X30.24 Y11.55 Z0.46 F1800.0
M101
G1 X30.24 Y15.59 Z0.46 F1080.0
G1 X30.63 Y15.59 Z0.46 F1080.0
G1 X30.63 Y11.55 Z0.46 F1080.0
M103
G1 X31.02 Y11.55 Z0.46 F1800.0
M101
G1 X31.02 Y15.59 Z0.46 F1080.0
G1 X31.42 Y15.59 Z0.46 F1080.0
G1 X31.42 Y11.55 Z0.46 F1080.0
M103
G1 X31.81 Y11.55 Z0.46 F1800.0
M101
G1 X31.81 Y15.59 Z0.46 F1080.0
G1 X32.2 Y15.59 Z0.46 F1080.0
G1 X32.2 Y11.55 Z0.46 F1080.0
M103
G1 X32.59 Y11.55 Z0.46 F1800.0
M101
G1 X32.59 Y15.59 Z0.46 F1080.0
G1 X32.99 Y15.59 Z0.46 F1080.0
G1 X32.99 Y11.55 Z0.46 F1080.0
M103
G1 X33.38 Y11.55 Z0.46 F1800.0
M101
G1 X33.38 Y15.59 Z0.46 F1080.0
G1 X33.77 Y15.59 Z0.46 F1080.0
G1 X33.77 Y11.56 Z0.46 F1080.0
M103
G1 X34.17 Y11.56 Z0.46 F1800.0
M101
G1 X34.17 Y15.59 Z0.46 F1080.0
G1 X34.56 Y15.6 Z0.46 F1080.0
G1 X34.56 Y11.56 Z0.46 F1080.0
M103
G1 X34.95 Y11.56 Z0.46 F1800.0
M101
G1 X34.95 Y15.6 Z0.46 F1080.0
G1 X35.34 Y15.6 Z0.46 F1080.0
G1 X35.34 Y11.56 Z0.46 F1080.0
M103
G1 X35.74 Y11.56 Z0.46 F1800.0
M101
G1 X35.74 Y15.6 Z0.46 F1080.0
G1 X36.13 Y15.6 Z0.46 F1080.0
G1 X36.13 Y11.56 Z0.46 F1080.0
M103
G1 X36.52 Y11.56 Z0.46 F1800.0
M101
G1 X36.52 Y15.6 Z0.46 F1080.0
G1 X36.91 Y15.6 Z0.46 F1080.0
G1 X36.91 Y11.56 Z0.46 F1080.0
M103
G1 X37.31 Y11.56 Z0.46 F1800.0
M101
G1 X37.31 Y15.6 Z0.46 F1080.0
G1 X37.7 Y15.6 Z0.46 F1080.0
G1 X37.7 Y11.56 Z0.46 F1080.0
M103
G1 X38.09 Y11.56 Z0.46 F1800.0
M101
G1 X38.09 Y15.6 Z0.46 F1080.0
G1 X38.49 Y15.6 Z0.46 F1080.0
G1 X38.49 Y11.56 Z0.46 F1080.0
M103
G1 X38.88 Y11.56 Z0.46 F1800.0
M101
G1 X38.88 Y15.6 Z0.46 F1080.0
G1 X39.27 Y15.6 Z0.46 F1080.0
G1 X39.27 Y11.56 Z0.46 F1080.0
M103
G1 X39.66 Y11.56 Z0.46 F1800.0
M101
G1 X39.66 Y14.33 Z0.46 F1080.0
M108 R30.0
M102
G1 X39.66 Y14.6 Z0.46 F1080.0
M108 R2.141
M103
G1 X39.92 Y13.75 Z0.46 F1800.0
M108 R30.0
M101
G1 X40.06 Y13.29 Z0.46 F1800.0
M108 R2.141
G1 X40.06 Y11.56 Z0.46 F1080.0
G1 X40.45 Y11.98 Z0.46 F1080.0
G1 X40.45 Y11.56 Z0.46 F1080.0
M103
(</surroundingLoop>)
(</layer>)
(<layer> 0.78 )
(<surroundingLoop>)
(<boundaryPerimeter>)
(<boundaryPoint> X-41.651 Y20.215 Z0.78 </boundaryPoint>)
(<boundaryPoint> X-41.95 Y20.148 Z0.78 </boundaryPoint>)
(<boundaryPoint> X-41.928 Y19.842 Z0.78 </boundaryPoint>)
(<boundaryPoint> X-41.666 Y18.971 Z0.78 </boundaryPoint>)
(<boundaryPoint> X-22.749 Y18.984 Z0.78 </boundaryPoint>)
(<boundaryPoint> X-22.747 Y16.401 Z0.78 </boundaryPoint>)
(<boundaryPoint> X-40.502 Y16.389 Z0.78 </boundaryPoint>)
(<boundaryPoint> X-40.801 Y16.322 Z0.78 </boundaryPoint>)
(<boundaryPoint> X-40.779 Y16.016 Z0.78 </boundaryPoint>)
(<boundaryPoint> X-39.172 Y10.661 Z0.78 </boundaryPoint>)
(<boundaryPoint> X41.32 Y10.715 Z0.78 </boundaryPoint>)
(<boundaryPoint> X41.619 Y10.782 Z0.78 </boundaryPoint>)
(<boundaryPoint> X41.597 Y11.088 Z0.78 </boundaryPoint>)
(<boundaryPoint> X39.99 Y16.443 Z0.78 </boundaryPoint>)
(<boundaryPoint> X23.881 Y16.432 Z0.78 </boundaryPoint>)
(<boundaryPoint> X23.88 Y19.015 Z0.78 </boundaryPoint>)
(<boundaryPoint> X38.826 Y19.025 Z0.78 </boundaryPoint>)
(<boundaryPoint> X39.125 Y19.092 Z0.78 </boundaryPoint>)
(<boundaryPoint> X39.103 Y19.398 Z0.78 </boundaryPoint>)
(<boundaryPoint> X38.841 Y20.269 Z0.78 </boundaryPoint>)
(<loop> outer )
M108 R3.569
G1 X40.24 Y11.3 Z0.78 F3000.0
M101
G1 X40.45 Y11.3 Z0.78 F1800.0
G1 X40.92 Y11.3 Z0.78 F1800.0
G1 X39.55 Y15.85 Z0.78 F1800.0
G1 X23.29 Y15.84 Z0.78 F1800.0
G1 X23.29 Y19.08 Z0.78 F1800.0
G1 X22.84 Y19.67 Z0.78 F1800.0
G1 X-21.77 Y19.64 Z0.78 F1800.0
G1 X-22.16 Y19.06 Z0.78 F1800.0
G1 X-22.16 Y15.81 Z0.78 F1800.0
G1 X-40.1 Y15.8 Z0.78 F1800.0
G1 X-38.73 Y11.25 Z0.78 F1800.0
G1 X40.24 Y11.3 Z0.78 F1800.0
M103
(</loop>)
(<perimeter> outer )
G1 X40.24 Y10.91 Z0.78 F3000.0
M101
G1 X40.45 Y10.91 Z0.78 F1800.0
G1 X41.35 Y10.91 Z0.78 F1800.0
G1 X41.52 Y10.86 Z0.78 F1800.0
G1 X41.42 Y11.0 Z0.78 F1800.0
G1 X39.84 Y16.25 Z0.78 F1800.0
G1 X23.69 Y16.24 Z0.78 F1800.0
G1 X23.68 Y19.21 Z0.78 F1800.0
G1 X38.86 Y19.22 Z0.78 F1800.0
G1 X39.03 Y19.17 Z0.78 F1800.0
G1 X38.92 Y19.31 Z0.78 F1800.0
G1 X38.7 Y20.07 Z0.78 F1800.0
G1 X-41.68 Y20.02 Z0.78 F1800.0
G1 X-41.85 Y20.08 Z0.78 F1800.0
G1 X-41.75 Y19.93 Z0.78 F1800.0
G1 X-41.52 Y19.17 Z0.78 F1800.0
G1 X-22.55 Y19.18 Z0.78 F1800.0
G1 X-22.55 Y16.2 Z0.78 F1800.0
G1 X-40.53 Y16.19 Z0.78 F1800.0
G1 X-40.7 Y16.25 Z0.78 F1800.0
G1 X-40.6 Y16.1 Z0.78 F1800.0
G1 X-39.03 Y10.86 Z0.78 F1800.0
G1 X40.24 Y10.91 Z0.78 F1800.0
M103
(</perimeter>)
(</boundaryPerimeter>)
G1 X40.51 Y11.78 Z0.78 F3000.0
M101
G1 X-38.63 Y11.78 Z0.78 F1800.0
M103
G1 X-38.74 Y12.17 Z0.78 F3000.0
M101
G1 X40.39 Y12.17 Z0.78 F1800.0
M103
G1 X40.27 Y12.57 Z0.78 F3000.0
M101
G1 X-38.41 Y12.57 Z0.78 F1800.0
M108 R30.0
M102
G1 X-38.86 Y12.57 Z0.78 F1800.0
M108 R3.569
M103
G1 X-38.99 Y12.98 Z0.78 F3000.0
M108 R30.0
M101
G1 X-39.22 Y13.74 Z0.78 F3000.0
M108 R3.569
G1 X39.92 Y13.74 Z0.78 F1800.0
M103
G1 X39.8 Y14.14 Z0.78 F3000.0
M101
G1 X-39.33 Y14.14 Z0.78 F1800.0
M103
G1 X-39.45 Y14.53 Z0.78 F3000.0
M101
G1 X39.68 Y14.53 Z0.78 F1800.0
M103
G1 X39.56 Y14.92 Z0.78 F3000.0
M101
G1 X-39.57 Y14.92 Z0.78 F1800.0
G1 X-39.69 Y15.32 Z0.78 F1800.0
G1 X39.0 Y15.32 Z0.78 F1800.0
M108 R30.0
M102
G1 X39.45 Y15.32 Z0.78 F1800.0
M108 R3.569
M103
G1 X39.92 Y13.73 Z0.78 F3000.0
M108 R30.0
M101
G1 X40.15 Y12.96 Z0.78 F3000.0
M108 R3.569
G1 X-38.98 Y12.96 Z0.78 F1800.0
G1 X-39.1 Y13.35 Z0.78 F1800.0
G1 X39.59 Y13.35 Z0.78 F1800.0
M108 R30.0
M102
G1 X40.04 Y13.35 Z0.78 F1800.0
M108 R3.569
M103
G1 X-21.1 Y15.68 Z0.78 F3000.0
M108 R30.0
M101
G1 X-21.9 Y15.71 Z0.78 F3000.0
M108 R3.569
G1 X22.59 Y15.71 Z0.78 F1800.0
M108 R30.0
M102
G1 X23.04 Y15.71 Z0.78 F1800.0
M108 R3.569
M103
G1 X22.89 Y18.44 Z0.78 F3000.0
M108 R30.0
M101
G1 X22.84 Y19.24 Z0.78 F3000.0
M108 R3.569
G1 X-21.73 Y19.24 Z0.78 F1800.0
G1 X-21.9 Y18.85 Z0.78 F1800.0
G1 X23.04 Y18.85 Z0.78 F1800.0
G1 X23.04 Y18.46 Z0.78 F1800.0
G1 X-21.9 Y18.46 Z0.78 F1800.0
M103
G1 X-21.9 Y18.06 Z0.78 F3000.0
M101
G1 X23.04 Y18.06 Z0.78 F1800.0
G1 X23.04 Y17.67 Z0.78 F1800.0
G1 X-21.9 Y17.67 Z0.78 F1800.0
M103
G1 X-21.9 Y17.28 Z0.78 F3000.0
M101
G1 X23.04 Y17.28 Z0.78 F1800.0
G1 X23.04 Y16.89 Z0.78 F1800.0
G1 X-21.9 Y16.89 Z0.78 F1800.0
M103
G1 X-21.9 Y16.49 Z0.78 F3000.0
M101
G1 X23.04 Y16.49 Z0.78 F1800.0
G1 X23.04 Y16.1 Z0.78 F1800.0
G1 X-21.45 Y16.1 Z0.78 F1800.0
M108 R30.0
M102
G1 X-21.9 Y16.1 Z0.78 F1800.0
M108 R3.569
M103
(</surroundingLoop>)
(<surroundingLoop>)
(<boundaryPerimeter>)
(<boundaryPoint> X-32.437 Y-11.777 Z0.78 </boundaryPoint>)
(<boundaryPoint> X-30.952 Y-16.724 Z0.78 </boundaryPoint>)
(<boundaryPoint> X43.259 Y5.55 Z0.78 </boundaryPoint>)
(<boundaryPoint> X41.774 Y10.498 Z0.78 </boundaryPoint>)
(<loop> outer )
G1 X-14.97 Y-6.31 Z0.78 F3000.0
M108 R30.0
M101
G1 X-14.73 Y-7.08 Z0.78 F3000.0
M108 R3.569
G1 X-14.93 Y-7.14 Z0.78 F1800.0
G1 X-31.7 Y-12.17 Z0.78 F1800.0
G1 X-30.56 Y-15.99 Z0.78 F1800.0
G1 X42.53 Y5.95 Z0.78 F1800.0
G1 X41.38 Y9.76 Z0.78 F1800.0
G1 X-14.73 Y-7.08 Z0.78 F1800.0
M103
(</loop>)
(<perimeter> outer )
G1 X-14.84 Y-6.7 Z0.78 F3000.0
M101
G1 X-15.04 Y-6.76 Z0.78 F1800.0
G1 X-32.19 Y-11.91 Z0.78 F1800.0
G1 X-30.82 Y-16.48 Z0.78 F1800.0
G1 X43.01 Y5.68 Z0.78 F1800.0
G1 X41.64 Y10.25 Z0.78 F1800.0
G1 X-14.84 Y-6.7 Z0.78 F1800.0
M103
(</perimeter>)
(</boundaryPerimeter>)
G1 X-15.12 Y-7.46 Z0.78 F3000.0
M101
G1 X-3.48 Y-7.46 Z0.78 F1800.0
M108 R30.0
M102
G1 X-3.03 Y-7.46 Z0.78 F1800.0
M108 R3.569
M103
G1 X-3.57 Y-7.62 Z0.78 F3000.0
M108 R30.0
M101
G1 X-4.34 Y-7.85 Z0.78 F3000.0
M108 R3.569
G1 X-15.98 Y-7.85 Z0.78 F1800.0
M108 R30.0
M102
G1 X-16.43 Y-7.85 Z0.78 F1800.0
M108 R3.569
M103
G1 X-16.97 Y-8.02 Z0.78 F3000.0
M108 R30.0
M101
G1 X-17.74 Y-8.25 Z0.78 F3000.0
M108 R3.569
G1 X-6.1 Y-8.25 Z0.78 F1800.0
M108 R30.0
M102
G1 X-5.65 Y-8.25 Z0.78 F1800.0
M108 R3.569
M103
G1 X-6.19 Y-8.41 Z0.78 F3000.0
M108 R30.0
M101
G1 X-6.95 Y-8.64 Z0.78 F3000.0
M108 R3.569
G1 X-18.6 Y-8.64 Z0.78 F1800.0
M108 R30.0
M102
G1 X-19.05 Y-8.64 Z0.78 F1800.0
M108 R3.569
M103
G1 X-19.59 Y-8.8 Z0.78 F3000.0
M108 R30.0
M101
G1 X-20.35 Y-9.03 Z0.78 F3000.0
M108 R3.569
G1 X-8.71 Y-9.03 Z0.78 F1800.0
M108 R30.0
M102
G1 X-8.26 Y-9.03 Z0.78 F1800.0
M108 R3.569
M103
G1 X-8.81 Y-9.2 Z0.78 F3000.0
M108 R30.0
M101
G1 X-9.57 Y-9.43 Z0.78 F3000.0
M108 R3.569
G1 X-21.21 Y-9.43 Z0.78 F1800.0
M108 R30.0
M102
G1 X-21.66 Y-9.43 Z0.78 F1800.0
M108 R3.569
M103
G1 X-22.21 Y-9.59 Z0.78 F3000.0
M108 R30.0
M101
G1 X-22.97 Y-9.82 Z0.78 F3000.0
M108 R3.569
G1 X-11.33 Y-9.82 Z0.78 F1800.0
M108 R30.0
M102
G1 X-10.88 Y-9.82 Z0.78 F1800.0
M108 R3.569
M103
G1 X-11.42 Y-9.98 Z0.78 F3000.0
M108 R30.0
M101
G1 X-12.19 Y-10.21 Z0.78 F3000.0
M108 R3.569
G1 X-23.83 Y-10.21 Z0.78 F1800.0
M108 R30.0
M102
G1 X-24.28 Y-10.21 Z0.78 F1800.0
M108 R3.569
M103
G1 X-24.82 Y-10.37 Z0.78 F3000.0
M108 R30.0
M101
G1 X-25.59 Y-10.6 Z0.78 F3000.0
M108 R3.569
G1 X-13.95 Y-10.6 Z0.78 F1800.0
M108 R30.0
M102
G1 X-13.5 Y-10.6 Z0.78 F1800.0
M108 R3.569
M103
G1 X-14.04 Y-10.77 Z0.78 F3000.0
M108 R30.0
M101
G1 X-14.8 Y-11.0 Z0.78 F3000.0
M108 R3.569
G1 X-26.45 Y-11.0 Z0.78 F1800.0
M108 R30.0
M102
G1 X-26.9 Y-11.0 Z0.78 F1800.0
M108 R3.569
M103
G1 X-27.44 Y-11.16 Z0.78 F3000.0
M108 R30.0
M101
G1 X-28.2 Y-11.39 Z0.78 F3000.0
M108 R3.569
G1 X-16.56 Y-11.39 Z0.78 F1800.0
M108 R30.0
M102
G1 X-16.11 Y-11.39 Z0.78 F1800.0
M108 R3.569
M103
G1 X-16.66 Y-11.55 Z0.78 F3000.0
M108 R30.0
M101
G1 X-17.42 Y-11.78 Z0.78 F3000.0
M108 R3.569
G1 X-29.06 Y-11.78 Z0.78 F1800.0
M108 R30.0
M102
G1 X-29.51 Y-11.78 Z0.78 F1800.0
M108 R3.569
M103
G1 X-30.54 Y-12.5 Z0.78 F3000.0
M108 R30.0
M101
G1 X-31.2 Y-12.96 Z0.78 F3000.0
M108 R3.569
G1 X-21.8 Y-12.96 Z0.78 F1800.0
M108 R30.0
M102
G1 X-21.35 Y-12.96 Z0.78 F1800.0
M108 R3.569
M103
G1 X-19.5 Y-12.4 Z0.78 F3000.0
M108 R30.0
M101
G1 X-18.73 Y-12.17 Z0.78 F3000.0
M108 R3.569
G1 X-30.82 Y-12.17 Z0.78 F1800.0
G1 X-31.32 Y-12.57 Z0.78 F1800.0
G1 X-20.49 Y-12.57 Z0.78 F1800.0
M108 R30.0
M102
G1 X-20.04 Y-12.57 Z0.78 F1800.0
M108 R3.569
M103
G1 X-21.89 Y-13.12 Z0.78 F3000.0
M108 R30.0
M101
G1 X-22.66 Y-13.35 Z0.78 F3000.0
M108 R3.569
G1 X-31.08 Y-13.35 Z0.78 F1800.0
M103
G1 X-30.97 Y-13.74 Z0.78 F3000.0
M101
G1 X-24.41 Y-13.74 Z0.78 F1800.0
M108 R30.0
M102
G1 X-23.96 Y-13.74 Z0.78 F1800.0
M108 R3.569
M103
G1 X-24.51 Y-13.91 Z0.78 F3000.0
M108 R30.0
M101
G1 X-25.27 Y-14.14 Z0.78 F3000.0
M108 R3.569
G1 X-30.85 Y-14.14 Z0.78 F1800.0
M103
G1 X-30.73 Y-14.53 Z0.78 F3000.0
M101
G1 X-27.03 Y-14.53 Z0.78 F1800.0
M108 R30.0
M102
G1 X-26.58 Y-14.53 Z0.78 F1800.0
M108 R3.569
M103
G1 X-27.12 Y-14.69 Z0.78 F3000.0
M108 R30.0
M101
G1 X-27.89 Y-14.92 Z0.78 F3000.0
M108 R3.569
G1 X-30.61 Y-14.92 Z0.78 F1800.0
M103
G1 X-30.49 Y-15.32 Z0.78 F3000.0
M101
G1 X-29.65 Y-15.32 Z0.78 F1800.0
M108 R30.0
M102
G1 X-29.2 Y-15.32 Z0.78 F1800.0
M108 R3.569
M103
G1 X-2.49 Y-7.3 Z0.78 F3000.0
M108 R30.0
M101
G1 X-1.72 Y-7.07 Z0.78 F3000.0
M108 R3.569
G1 X-13.36 Y-7.07 Z0.78 F1800.0
M108 R30.0
M102
G1 X-13.81 Y-7.07 Z0.78 F1800.0
M108 R3.569
M103
G1 X-13.27 Y-6.91 Z0.78 F3000.0
M108 R30.0
M101
G1 X-12.5 Y-6.68 Z0.78 F3000.0
M108 R3.569
G1 X-0.86 Y-6.68 Z0.78 F1800.0
M108 R30.0
M102
G1 X-0.41 Y-6.68 Z0.78 F1800.0
M108 R3.569
M103
G1 X0.13 Y-6.51 Z0.78 F3000.0
M108 R30.0
M101
G1 X0.9 Y-6.28 Z0.78 F3000.0
M108 R3.569
G1 X-10.75 Y-6.28 Z0.78 F1800.0
M108 R30.0
M102
G1 X-11.2 Y-6.28 Z0.78 F1800.0
M108 R3.569
M103
G1 X-10.65 Y-6.12 Z0.78 F3000.0
M108 R30.0
M101
G1 X-9.89 Y-5.89 Z0.78 F3000.0
M108 R3.569
G1 X1.75 Y-5.89 Z0.78 F1800.0
M108 R30.0
M102
G1 X2.2 Y-5.89 Z0.78 F1800.0
M108 R3.569
M103
G1 X2.75 Y-5.73 Z0.78 F3000.0
M108 R30.0
M101
G1 X3.51 Y-5.5 Z0.78 F3000.0
M108 R3.569
G1 X-8.13 Y-5.5 Z0.78 F1800.0
M108 R30.0
M102
G1 X-8.58 Y-5.5 Z0.78 F1800.0
M108 R3.569
M103
G1 X-8.04 Y-5.34 Z0.78 F3000.0
M108 R30.0
M101
G1 X-7.27 Y-5.11 Z0.78 F3000.0
M108 R3.569
G1 X4.37 Y-5.11 Z0.78 F1800.0
M108 R30.0
M102
G1 X4.82 Y-5.11 Z0.78 F1800.0
M108 R3.569
M103
G1 X5.36 Y-4.94 Z0.78 F3000.0
M108 R30.0
M101
G1 X6.13 Y-4.71 Z0.78 F3000.0
M108 R3.569
G1 X-5.51 Y-4.71 Z0.78 F1800.0
M108 R30.0
M102
G1 X-5.96 Y-4.71 Z0.78 F1800.0
M108 R3.569
M103
G1 X-5.42 Y-4.55 Z0.78 F3000.0
M108 R30.0
M101
G1 X-4.66 Y-4.32 Z0.78 F3000.0
M108 R3.569
G1 X6.99 Y-4.32 Z0.78 F1800.0
M108 R30.0
M102
G1 X7.44 Y-4.32 Z0.78 F1800.0
M108 R3.569
M103
G1 X7.98 Y-4.16 Z0.78 F3000.0
M108 R30.0
M101
G1 X8.75 Y-3.93 Z0.78 F3000.0
M108 R3.569
G1 X-2.9 Y-3.93 Z0.78 F1800.0
M108 R30.0
M102
G1 X-3.35 Y-3.93 Z0.78 F1800.0
M108 R3.569
M103
G1 X-2.8 Y-3.76 Z0.78 F3000.0
M108 R30.0
M101
G1 X-2.04 Y-3.53 Z0.78 F3000.0
M108 R3.569
G1 X9.61 Y-3.53 Z0.78 F1800.0
M108 R30.0
M102
G1 X10.06 Y-3.53 Z0.78 F1800.0
M108 R3.569
M103
G1 X10.6 Y-3.37 Z0.78 F3000.0
M108 R30.0
M101
G1 X11.36 Y-3.14 Z0.78 F3000.0
M108 R3.569
G1 X-0.28 Y-3.14 Z0.78 F1800.0
M108 R30.0
M102
G1 X-0.73 Y-3.14 Z0.78 F1800.0
M108 R3.569
M103
G1 X-0.19 Y-2.98 Z0.78 F3000.0
M108 R30.0
M101
G1 X0.58 Y-2.75 Z0.78 F3000.0
M108 R3.569
G1 X12.22 Y-2.75 Z0.78 F1800.0
M108 R30.0
M102
G1 X12.67 Y-2.75 Z0.78 F1800.0
M108 R3.569
M103
G1 X13.21 Y-2.59 Z0.78 F3000.0
M108 R30.0
M101
G1 X13.98 Y-2.36 Z0.78 F3000.0
M108 R3.569
G1 X2.34 Y-2.36 Z0.78 F1800.0
M108 R30.0
M102
G1 X1.89 Y-2.36 Z0.78 F1800.0
M108 R3.569
M103
G1 X2.43 Y-2.19 Z0.78 F3000.0
M108 R30.0
M101
G1 X3.2 Y-1.96 Z0.78 F3000.0
M108 R3.569
G1 X14.84 Y-1.96 Z0.78 F1800.0
M108 R30.0
M102
G1 X15.29 Y-1.96 Z0.78 F1800.0
M108 R3.569
M103
G1 X15.83 Y-1.8 Z0.78 F3000.0
M108 R30.0
M101
G1 X16.6 Y-1.57 Z0.78 F3000.0
M108 R3.569
G1 X4.95 Y-1.57 Z0.78 F1800.0
M108 R30.0
M102
G1 X4.5 Y-1.57 Z0.78 F1800.0
M108 R3.569
M103
G1 X5.05 Y-1.41 Z0.78 F3000.0
M108 R30.0
M101
G1 X5.81 Y-1.18 Z0.78 F3000.0
M108 R3.569
G1 X17.45 Y-1.18 Z0.78 F1800.0
M108 R30.0
M102
G1 X17.91 Y-1.18 Z0.78 F1800.0
M108 R3.569
M103
G1 X18.45 Y-1.01 Z0.78 F3000.0
M108 R30.0
M101
G1 X19.21 Y-0.79 Z0.78 F3000.0
M108 R3.569
G1 X7.57 Y-0.79 Z0.78 F1800.0
M108 R30.0
M102
G1 X7.12 Y-0.79 Z0.78 F1800.0
M108 R3.569
M103
G1 X7.66 Y-0.62 Z0.78 F3000.0
M108 R30.0
M101
G1 X8.43 Y-0.39 Z0.78 F3000.0
M108 R3.569
G1 X20.07 Y-0.39 Z0.78 F1800.0
M108 R30.0
M102
G1 X20.52 Y-0.39 Z0.78 F1800.0
M108 R3.569
M103
G1 X21.06 Y-0.23 Z0.78 F3000.0
M108 R30.0
M101
G1 X21.83 Y-0.0 Z0.78 F3000.0
M108 R3.569
G1 X10.19 Y0.0 Z0.78 F1800.0
M108 R30.0
M102
G1 X9.74 Y-0.0 Z0.78 F1800.0
M108 R3.569
M103
G1 X10.28 Y0.16 Z0.78 F3000.0
M108 R30.0
M101
G1 X11.05 Y0.39 Z0.78 F3000.0
M108 R3.569
G1 X22.69 Y0.39 Z0.78 F1800.0
M108 R30.0
M102
G1 X23.14 Y0.39 Z0.78 F1800.0
M108 R3.569
M103
G1 X23.68 Y0.56 Z0.78 F3000.0
M108 R30.0
M101
G1 X24.45 Y0.79 Z0.78 F3000.0
M108 R3.569
G1 X12.8 Y0.79 Z0.78 F1800.0
M108 R30.0
M102
G1 X12.35 Y0.79 Z0.78 F1800.0
M108 R3.569
M103
G1 X12.9 Y0.95 Z0.78 F3000.0
M108 R30.0
M101
G1 X13.66 Y1.18 Z0.78 F3000.0
M108 R3.569
G1 X25.31 Y1.18 Z0.78 F1800.0
M108 R30.0
M102
G1 X25.76 Y1.18 Z0.78 F1800.0
M108 R3.569
M103
G1 X26.3 Y1.34 Z0.78 F3000.0
M108 R30.0
M101
G1 X27.06 Y1.57 Z0.78 F3000.0
M108 R3.569
G1 X15.42 Y1.57 Z0.78 F1800.0
M108 R30.0
M102
G1 X14.97 Y1.57 Z0.78 F1800.0
M108 R3.569
M103
G1 X15.51 Y1.73 Z0.78 F3000.0
M108 R30.0
M101
G1 X16.28 Y1.96 Z0.78 F3000.0
M108 R3.569
G1 X27.92 Y1.96 Z0.78 F1800.0
M108 R30.0
M102
G1 X28.37 Y1.96 Z0.78 F1800.0
M108 R3.569
M103
G1 X28.91 Y2.13 Z0.78 F3000.0
M108 R30.0
M101
G1 X29.68 Y2.36 Z0.78 F3000.0
M108 R3.569
G1 X18.04 Y2.36 Z0.78 F1800.0
M108 R30.0
M102
G1 X17.59 Y2.36 Z0.78 F1800.0
M108 R3.569
M103
G1 X18.13 Y2.52 Z0.78 F3000.0
M108 R30.0
M101
G1 X18.9 Y2.75 Z0.78 F3000.0
M108 R3.569
G1 X30.54 Y2.75 Z0.78 F1800.0
M108 R30.0
M102
G1 X30.99 Y2.75 Z0.78 F1800.0
M108 R3.569
M103
G1 X31.53 Y2.91 Z0.78 F3000.0
M108 R30.0
M101
G1 X32.3 Y3.14 Z0.78 F3000.0
M108 R3.569
G1 X20.65 Y3.14 Z0.78 F1800.0
M108 R30.0
M102
G1 X20.2 Y3.14 Z0.78 F1800.0
M108 R3.569
M103
G1 X20.75 Y3.3 Z0.78 F3000.0
M108 R30.0
M101
G1 X21.51 Y3.53 Z0.78 F3000.0
M108 R3.569
G1 X33.16 Y3.53 Z0.78 F1800.0
M108 R30.0
M102
G1 X33.6 Y3.53 Z0.78 F1800.0
M108 R3.569
M103
G1 X34.15 Y3.7 Z0.78 F3000.0
M108 R30.0
M101
G1 X34.91 Y3.93 Z0.78 F3000.0
M108 R3.569
G1 X23.27 Y3.93 Z0.78 F1800.0
M108 R30.0
M102
G1 X22.82 Y3.93 Z0.78 F1800.0
M108 R3.569
M103
G1 X23.36 Y4.09 Z0.78 F3000.0
M108 R30.0
M101
G1 X24.13 Y4.32 Z0.78 F3000.0
M108 R3.569
G1 X35.77 Y4.32 Z0.78 F1800.0
M108 R30.0
M102
G1 X36.22 Y4.32 Z0.78 F1800.0
M108 R3.569
M103
G1 X36.76 Y4.48 Z0.78 F3000.0
M108 R30.0
M101
G1 X37.53 Y4.71 Z0.78 F3000.0
M108 R3.569
G1 X25.89 Y4.71 Z0.78 F1800.0
M108 R30.0
M102
G1 X25.44 Y4.71 Z0.78 F1800.0
M108 R3.569
M103
G1 X25.98 Y4.88 Z0.78 F3000.0
M108 R30.0
M101
G1 X26.75 Y5.11 Z0.78 F3000.0
M108 R3.569
G1 X38.39 Y5.11 Z0.78 F1800.0
M108 R30.0
M102
G1 X38.84 Y5.11 Z0.78 F1800.0
M108 R3.569
M103
G1 X39.38 Y5.27 Z0.78 F3000.0
M108 R30.0
M101
G1 X40.15 Y5.5 Z0.78 F3000.0
M108 R3.569
G1 X28.5 Y5.5 Z0.78 F1800.0
M108 R30.0
M102
G1 X28.05 Y5.5 Z0.78 F1800.0
M108 R3.569
M103
G1 X28.6 Y5.66 Z0.78 F3000.0
M108 R30.0
M101
G1 X29.36 Y5.89 Z0.78 F3000.0
M108 R3.569
G1 X41.46 Y5.89 Z0.78 F1800.0
G1 X42.16 Y6.28 Z0.78 F1800.0
G1 X31.12 Y6.28 Z0.78 F1800.0
M108 R30.0
M102
G1 X30.67 Y6.28 Z0.78 F1800.0
M108 R3.569
M103
G1 X31.21 Y6.45 Z0.78 F3000.0
M108 R30.0
M101
G1 X31.98 Y6.68 Z0.78 F3000.0
M108 R3.569
G1 X42.04 Y6.68 Z0.78 F1800.0
M103
G1 X41.92 Y7.07 Z0.78 F3000.0
M101
G1 X33.74 Y7.07 Z0.78 F1800.0
M108 R30.0
M102
G1 X33.29 Y7.07 Z0.78 F1800.0
M108 R3.569
M103
G1 X33.83 Y7.23 Z0.78 F3000.0
M108 R30.0
M101
G1 X34.6 Y7.46 Z0.78 F3000.0
M108 R3.569
G1 X41.8 Y7.46 Z0.78 F1800.0
M103
G1 X41.69 Y7.85 Z0.78 F3000.0
M101
G1 X36.35 Y7.85 Z0.78 F1800.0
M108 R30.0
M102
G1 X35.9 Y7.85 Z0.78 F1800.0
M108 R3.569
M103
G1 X36.45 Y8.02 Z0.78 F3000.0
M108 R30.0
M101
G1 X37.21 Y8.25 Z0.78 F3000.0
M108 R3.569
G1 X41.57 Y8.25 Z0.78 F1800.0
M103
G1 X41.45 Y8.64 Z0.78 F3000.0
M101
G1 X38.97 Y8.64 Z0.78 F1800.0
M108 R30.0
M102
G1 X38.52 Y8.64 Z0.78 F1800.0
M108 R3.569
M103
G1 X39.06 Y8.8 Z0.78 F3000.0
M108 R30.0
M101
G1 X39.83 Y9.03 Z0.78 F3000.0
M108 R3.569
G1 X41.33 Y9.03 Z0.78 F1800.0
G1 X41.14 Y9.43 Z0.78 F1800.0
G1 X41.21 Y9.43 Z0.78 F1800.0
M103
(</surroundingLoop>)
(</layer>)
(<operatingLayerEnd> </operatingLayerEnd>)
(<layer> 1.1 )
(<surroundingLoop>)
(<boundaryPerimeter>)
(<boundaryPoint> X-32.437 Y-11.777 Z1.1 </boundaryPoint>)
(<boundaryPoint> X-30.952 Y-16.724 Z1.1 </boundaryPoint>)
(<boundaryPoint> X43.259 Y5.55 Z1.1 </boundaryPoint>)
(<boundaryPoint> X41.774 Y10.498 Z1.1 </boundaryPoint>)
(<loop> outer )
G1 X41.38 Y9.76 Z1.1 F3000.0
M101
G1 X-31.7 Y-12.17 Z1.1 F1800.0
G1 X-30.56 Y-15.99 Z1.1 F1800.0
G1 X42.53 Y5.95 Z1.1 F1800.0
G1 X41.46 Y9.5 Z1.1 F1800.0
G1 X41.38 Y9.76 Z1.1 F1800.0
M103
(</loop>)
(<perimeter> outer )
G1 X41.27 Y10.14 Z1.1 F3000.0
M101
G1 X-32.19 Y-11.91 Z1.1 F1800.0
G1 X-30.82 Y-16.48 Z1.1 F1800.0
G1 X43.01 Y5.68 Z1.1 F1800.0
G1 X41.84 Y9.61 Z1.1 F1800.0
G1 X41.66 Y10.2 Z1.1 F1800.0
M108 R30.0
M102
G1 X41.64 Y10.25 Z1.1 F1800.0
G1 X41.27 Y10.14 Z1.1 F1800.0
M108 R3.569
M103
(</perimeter>)
(</boundaryPerimeter>)
G1 X41.06 Y6.56 Z1.1 F3000.0
M108 R30.0
M101
G1 X41.02 Y5.76 Z1.1 F3000.0
M108 R3.569
G1 X41.89 Y6.02 Z1.1 F1800.0
G1 X41.89 Y7.18 Z1.1 F1800.0
G1 X40.45 Y6.05 Z1.1 F1800.0
G1 X40.14 Y5.5 Z1.1 F1800.0
G1 X39.58 Y5.78 Z1.1 F1800.0
G1 X39.14 Y5.65 Z1.1 F1800.0
G1 X40.36 Y7.51 Z1.1 F1800.0
G1 X40.36 Y7.76 Z1.1 F1800.0
G1 X39.4 Y8.45 Z1.1 F1800.0
G1 X39.83 Y8.58 Z1.1 F1800.0
G1 X40.14 Y9.13 Z1.1 F1800.0
G1 X40.58 Y9.26 Z1.1 F1800.0
G1 X41.14 Y8.97 Z1.1 F1800.0
G1 X41.15 Y8.97 Z1.1 F1800.0
M108 R30.0
M102
G1 X41.45 Y8.63 Z1.1 F1800.0
M108 R3.569
M103
G1 X38.76 Y8.51 Z1.1 F3000.0
M108 R30.0
M101
G1 X37.96 Y8.47 Z1.1 F3000.0
M108 R3.569
G1 X37.52 Y8.2 Z1.1 F1800.0
G1 X37.08 Y8.01 Z1.1 F1800.0
G1 X36.6 Y7.74 Z1.1 F1800.0
G1 X36.11 Y7.76 Z1.1 F1800.0
G1 X36.11 Y7.51 Z1.1 F1800.0
G1 X36.96 Y5.0 Z1.1 F1800.0
G1 X37.53 Y4.71 Z1.1 F1800.0
G1 X37.97 Y4.84 Z1.1 F1800.0
M108 R30.0
M102
G1 X38.4 Y4.97 Z1.1 F1800.0
M108 R3.569
M103
G1 X36.55 Y4.42 Z1.1 F3000.0
M108 R30.0
M101
G1 X35.78 Y4.19 Z1.1 F3000.0
M108 R3.569
G1 X35.22 Y4.47 Z1.1 F1800.0
G1 X34.78 Y4.34 Z1.1 F1800.0
G1 X33.93 Y5.33 Z1.1 F1800.0
G1 X33.93 Y5.58 Z1.1 F1800.0
G1 X34.91 Y7.56 Z1.1 F1800.0
G1 X35.34 Y7.69 Z1.1 F1800.0
G1 X35.81 Y7.53 Z1.1 F1800.0
M108 R30.0
M102
G1 X35.88 Y7.51 Z1.1 F1800.0
G1 X35.88 Y7.76 Z1.1 F1800.0
G1 X35.78 Y7.82 Z1.1 F1800.0
M108 R3.569
M103
G1 X34.36 Y7.39 Z1.1 F3000.0
M108 R30.0
M101
G1 X33.6 Y7.16 Z1.1 F3000.0
M108 R3.569
G1 X32.73 Y6.9 Z1.1 F1800.0
G1 X32.41 Y6.35 Z1.1 F1800.0
G1 X33.7 Y5.58 Z1.1 F1800.0
G1 X33.91 Y4.08 Z1.1 F1800.0
G1 X33.6 Y3.53 Z1.1 F1800.0
G1 X33.16 Y3.4 Z1.1 F1800.0
G1 X32.6 Y3.69 Z1.1 F1800.0
G1 X31.98 Y6.22 Z1.1 F1800.0
G1 X31.42 Y6.51 Z1.1 F1800.0
G1 X30.98 Y6.24 Z1.1 F1800.0
G1 X30.54 Y6.09 Z1.1 F1800.0
G1 X29.57 Y5.58 Z1.1 F1800.0
G1 X29.57 Y5.33 Z1.1 F1800.0
G1 X30.42 Y3.03 Z1.1 F1800.0
G1 X30.98 Y2.75 Z1.1 F1800.0
G1 X31.42 Y2.88 Z1.1 F1800.0
M108 R30.0
M102
G1 X31.85 Y3.01 Z1.1 F1800.0
M108 R3.569
M103
G1 X30.44 Y2.58 Z1.1 F3000.0
M108 R30.0
M101
G1 X29.67 Y2.35 Z1.1 F3000.0
M108 R3.569
G1 X29.23 Y2.22 Z1.1 F1800.0
G1 X28.67 Y2.51 Z1.1 F1800.0
G1 X28.24 Y2.38 Z1.1 F1800.0
G1 X27.39 Y3.15 Z1.1 F1800.0
G1 X27.39 Y3.4 Z1.1 F1800.0
G1 X28.05 Y5.04 Z1.1 F1800.0
G1 X28.36 Y5.59 Z1.1 F1800.0
G1 X28.8 Y5.72 Z1.1 F1800.0
G1 X29.34 Y5.33 Z1.1 F1800.0
G1 X29.34 Y5.42 Z1.1 F1800.0
M108 R30.0
M102
G1 X29.34 Y5.58 Z1.1 F1800.0
G1 X29.23 Y5.85 Z1.1 F1800.0
M108 R3.569
M103
G1 X28.26 Y5.56 Z1.1 F3000.0
M108 R30.0
M101
G1 X27.49 Y5.33 Z1.1 F3000.0
M108 R3.569
G1 X27.05 Y5.2 Z1.1 F1800.0
G1 X26.74 Y4.65 Z1.1 F1800.0
G1 X27.16 Y3.4 Z1.1 F1800.0
G1 X27.16 Y3.15 Z1.1 F1800.0
G1 X27.36 Y2.12 Z1.1 F1800.0
G1 X27.05 Y1.57 Z1.1 F1800.0
G1 X26.49 Y1.86 Z1.1 F1800.0
G1 X25.43 Y4.26 Z1.1 F1800.0
G1 X24.87 Y4.54 Z1.1 F1800.0
G1 X24.56 Y3.99 Z1.1 F1800.0
G1 X23.02 Y3.4 Z1.1 F1800.0
G1 X23.02 Y3.15 Z1.1 F1800.0
G1 X23.87 Y1.07 Z1.1 F1800.0
G1 X24.44 Y0.78 Z1.1 F1800.0
G1 X25.31 Y1.05 Z1.1 F1800.0
M108 R30.0
M102
G1 X25.74 Y1.18 Z1.1 F1800.0
M108 R3.569
M103
G1 X23.46 Y0.49 Z1.1 F3000.0
M108 R30.0
M101
G1 X22.69 Y0.26 Z1.1 F3000.0
M108 R3.569
G1 X22.13 Y0.55 Z1.1 F1800.0
G1 X21.69 Y0.41 Z1.1 F1800.0
G1 X20.84 Y0.96 Z1.1 F1800.0
G1 X20.84 Y1.22 Z1.1 F1800.0
G1 X22.79 Y3.15 Z1.1 F1800.0
G1 X22.79 Y3.4 Z1.1 F1800.0
G1 X23.56 Y4.15 Z1.1 F1800.0
G1 X22.68 Y3.89 Z1.1 F1800.0
M108 R30.0
M102
G1 X22.25 Y3.76 Z1.1 F1800.0
M108 R3.569
M103
G1 X21.71 Y3.59 Z1.1 F3000.0
M108 R30.0
M101
G1 X20.94 Y3.36 Z1.1 F3000.0
M108 R3.569
G1 X20.51 Y3.23 Z1.1 F1800.0
G1 X20.2 Y2.68 Z1.1 F1800.0
G1 X19.76 Y2.55 Z1.1 F1800.0
G1 X20.61 Y1.22 Z1.1 F1800.0
G1 X20.61 Y0.96 Z1.1 F1800.0
G1 X20.82 Y0.15 Z1.1 F1800.0
G1 X20.51 Y-0.4 Z1.1 F1800.0
G1 X19.95 Y-0.11 Z1.1 F1800.0
G1 X19.51 Y-0.24 Z1.1 F1800.0
G1 X18.89 Y2.29 Z1.1 F1800.0
G1 X18.33 Y2.58 Z1.1 F1800.0
G1 X18.02 Y2.03 Z1.1 F1800.0
G1 X19.07 Y-0.37 Z1.1 F1800.0
G1 X18.76 Y-0.92 Z1.1 F1800.0
G1 X17.89 Y-1.18 Z1.1 F1800.0
G1 X17.33 Y-0.9 Z1.1 F1800.0
G1 X16.48 Y0.96 Z1.1 F1800.0
G1 X16.48 Y1.22 Z1.1 F1800.0
G1 X17.58 Y1.9 Z1.1 F1800.0
G1 X17.02 Y2.19 Z1.1 F1800.0
G1 X16.14 Y1.92 Z1.1 F1800.0
G1 X16.25 Y0.96 Z1.1 F1800.0
G1 X15.83 Y1.37 Z1.1 F1800.0
G1 X15.27 Y1.66 Z1.1 F1800.0
G1 X14.96 Y1.11 Z1.1 F1800.0
G1 X14.3 Y-0.96 Z1.1 F1800.0
G1 X14.3 Y-1.22 Z1.1 F1800.0
G1 X14.84 Y-2.1 Z1.1 F1800.0
G1 X15.15 Y-1.55 Z1.1 F1800.0
G1 X15.58 Y-1.42 Z1.1 F1800.0
G1 X15.74 Y-1.5 Z1.1 F1800.0
M108 R30.0
M102
G1 X16.14 Y-1.71 Z1.1 F1800.0
M108 R3.569
M103
G1 X14.44 Y0.62 Z1.1 F3000.0
M108 R30.0
M101
G1 X13.96 Y1.27 Z1.1 F3000.0
M108 R3.569
G1 X13.53 Y1.14 Z1.1 F1800.0
G1 X13.22 Y0.59 Z1.1 F1800.0
G1 X14.07 Y-0.96 Z1.1 F1800.0
G1 X14.07 Y-1.22 Z1.1 F1800.0
G1 X14.27 Y-1.81 Z1.1 F1800.0
G1 X13.96 Y-2.36 Z1.1 F1800.0
G1 X11.78 Y0.61 Z1.1 F1800.0
G1 X11.35 Y0.48 Z1.1 F1800.0
G1 X11.03 Y-0.07 Z1.1 F1800.0
G1 X12.53 Y-2.34 Z1.1 F1800.0
G1 X12.22 Y-2.89 Z1.1 F1800.0
G1 X11.35 Y-3.15 Z1.1 F1800.0
G1 X10.78 Y-2.86 Z1.1 F1800.0
G1 X9.82 Y-1.22 Z1.1 F1800.0
G1 X9.82 Y-0.96 Z1.1 F1800.0
G1 X10.6 Y-0.2 Z1.1 F1800.0
G1 X10.04 Y0.09 Z1.1 F1800.0
G1 X9.16 Y-0.17 Z1.1 F1800.0
G1 X7.75 Y-3.15 Z1.1 F1800.0
G1 X7.75 Y-3.4 Z1.1 F1800.0
G1 X8.6 Y-3.52 Z1.1 F1800.0
G1 X9.04 Y-3.38 Z1.1 F1800.0
G1 X9.6 Y-3.67 Z1.1 F1800.0
G1 X9.61 Y-3.67 Z1.1 F1800.0
M108 R30.0
M102
G1 X10.04 Y-3.54 Z1.1 F1800.0
M108 R3.569
M103
G1 X8.18 Y-4.1 Z1.1 F3000.0
M108 R30.0
M101
G1 X7.42 Y-4.33 Z1.1 F3000.0
M108 R3.569
G1 X7.73 Y-3.78 Z1.1 F1800.0
G1 X7.52 Y-3.4 Z1.1 F1800.0
G1 X7.52 Y-3.15 Z1.1 F1800.0
G1 X6.11 Y-1.09 Z1.1 F1800.0
G1 X6.67 Y-1.38 Z1.1 F1800.0
G1 X7.11 Y-1.25 Z1.1 F1800.0
G1 X7.42 Y-0.7 Z1.1 F1800.0
G1 X7.42 Y-0.69 Z1.1 F1800.0
M108 R30.0
M102
G1 X7.85 Y-0.56 Z1.1 F1800.0
M108 R3.569
M103
G1 X6.0 Y-1.12 Z1.1 F3000.0
M108 R30.0
M101
G1 X5.24 Y-1.35 Z1.1 F3000.0
M108 R3.569
G1 X4.93 Y-1.9 Z1.1 F1800.0
G1 X6.42 Y-4.17 Z1.1 F1800.0
G1 X6.11 Y-4.72 Z1.1 F1800.0
G1 X4.8 Y-5.11 Z1.1 F1800.0
G1 X4.24 Y-4.83 Z1.1 F1800.0
G1 X3.39 Y-3.4 Z1.1 F1800.0
G1 X3.39 Y-3.15 Z1.1 F1800.0
G1 X4.49 Y-2.03 Z1.1 F1800.0
G1 X3.93 Y-1.74 Z1.1 F1800.0
G1 X2.62 Y-2.14 Z1.1 F1800.0
G1 X2.31 Y-2.69 Z1.1 F1800.0
G1 X3.16 Y-3.15 Z1.1 F1800.0
G1 X3.16 Y-3.4 Z1.1 F1800.0
G1 X1.21 Y-5.33 Z1.1 F1800.0
G1 X1.21 Y-5.58 Z1.1 F1800.0
G1 X2.06 Y-5.48 Z1.1 F1800.0
G1 X2.62 Y-5.77 Z1.1 F1800.0
G1 X2.62 Y-5.76 Z1.1 F1800.0
M108 R30.0
M102
G1 X3.05 Y-5.64 Z1.1 F1800.0
M108 R3.569
M103
G1 X1.7 Y-3.23 Z1.1 F3000.0
M108 R30.0
M101
G1 X1.31 Y-2.53 Z1.1 F3000.0
M108 R3.569
G1 X0.87 Y-2.66 Z1.1 F1800.0
G1 X0.56 Y-3.21 Z1.1 F1800.0
G1 X0.13 Y-3.34 Z1.1 F1800.0
G1 X-0.44 Y-3.05 Z1.1 F1800.0
G1 X0.98 Y-5.33 Z1.1 F1800.0
G1 X0.98 Y-5.58 Z1.1 F1800.0
G1 X1.18 Y-5.74 Z1.1 F1800.0
G1 X0.87 Y-6.29 Z1.1 F1800.0
G1 X-1.31 Y-3.32 Z1.1 F1800.0
G1 X-1.62 Y-3.86 Z1.1 F1800.0
G1 X-0.56 Y-6.27 Z1.1 F1800.0
G1 X-0.87 Y-6.81 Z1.1 F1800.0
G1 X-1.75 Y-7.08 Z1.1 F1800.0
G1 X-2.31 Y-6.79 Z1.1 F1800.0
G1 X-2.93 Y-4.26 Z1.1 F1800.0
G1 X-3.49 Y-3.97 Z1.1 F1800.0
G1 X-3.93 Y-4.1 Z1.1 F1800.0
G1 X-4.24 Y-4.65 Z1.1 F1800.0
G1 X-3.27 Y-5.33 Z1.1 F1800.0
G1 X-3.27 Y-5.58 Z1.1 F1800.0
G1 X-2.74 Y-6.92 Z1.1 F1800.0
G1 X-3.05 Y-7.47 Z1.1 F1800.0
G1 X-3.49 Y-7.6 Z1.1 F1800.0
G1 X-4.05 Y-7.31 Z1.1 F1800.0
G1 X-4.49 Y-7.44 Z1.1 F1800.0
G1 X-5.11 Y-4.91 Z1.1 F1800.0
G1 X-5.67 Y-4.63 Z1.1 F1800.0
G1 X-6.11 Y-4.9 Z1.1 F1800.0
G1 X-6.55 Y-5.09 Z1.1 F1800.0
G1 X-7.04 Y-5.37 Z1.1 F1800.0
G1 X-7.52 Y-5.33 Z1.1 F1800.0
G1 X-7.52 Y-5.58 Z1.1 F1800.0
G1 X-6.23 Y-7.97 Z1.1 F1800.0
G1 X-6.07 Y-8.05 Z1.1 F1800.0
M108 R30.0
M102
G1 X-5.67 Y-8.26 Z1.1 F1800.0
M108 R3.569
M103
G1 X-6.22 Y-8.42 Z1.1 F3000.0
M108 R30.0
M101
G1 X-6.98 Y-8.65 Z1.1 F3000.0
M108 R3.569
G1 X-8.29 Y-9.04 Z1.1 F1800.0
G1 X-8.85 Y-8.75 Z1.1 F1800.0
G1 X-9.7 Y-7.76 Z1.1 F1800.0
G1 X-9.7 Y-7.51 Z1.1 F1800.0
G1 X-8.73 Y-5.54 Z1.1 F1800.0
G1 X-8.29 Y-5.41 Z1.1 F1800.0
G1 X-7.83 Y-5.56 Z1.1 F1800.0
M108 R30.0
M102
G1 X-7.75 Y-5.58 Z1.1 F1800.0
G1 X-7.75 Y-5.33 Z1.1 F1800.0
G1 X-7.85 Y-5.28 Z1.1 F1800.0
M108 R3.569
M103
G1 X-8.83 Y-5.57 Z1.1 F3000.0
M108 R30.0
M101
G1 X-9.6 Y-5.8 Z1.1 F3000.0
M108 R3.569
G1 X-10.47 Y-6.07 Z1.1 F1800.0
G1 X-10.78 Y-6.62 Z1.1 F1800.0
G1 X-9.93 Y-7.51 Z1.1 F1800.0
G1 X-9.93 Y-7.76 Z1.1 F1800.0
G1 X-9.29 Y-8.88 Z1.1 F1800.0
G1 X-9.6 Y-9.43 Z1.1 F1800.0
G1 X-10.04 Y-9.56 Z1.1 F1800.0
G1 X-10.6 Y-9.28 Z1.1 F1800.0
G1 X-11.03 Y-9.41 Z1.1 F1800.0
G1 X-11.22 Y-6.75 Z1.1 F1800.0
G1 X-11.78 Y-6.46 Z1.1 F1800.0
G1 X-12.22 Y-6.59 Z1.1 F1800.0
G1 X-14.07 Y-7.51 Z1.1 F1800.0
G1 X-14.07 Y-7.76 Z1.1 F1800.0
G1 X-12.78 Y-9.93 Z1.1 F1800.0
G1 X-12.62 Y-10.01 Z1.1 F1800.0
M108 R30.0
M102
G1 X-12.22 Y-10.22 Z1.1 F1800.0
M108 R3.569
M103
G1 X-12.76 Y-10.38 Z1.1 F3000.0
M108 R30.0
M101
G1 X-13.53 Y-10.61 Z1.1 F3000.0
M108 R3.569
G1 X-14.84 Y-11.01 Z1.1 F1800.0
G1 X-15.4 Y-10.72 Z1.1 F1800.0
G1 X-16.25 Y-9.95 Z1.1 F1800.0
G1 X-16.25 Y-9.69 Z1.1 F1800.0
G1 X-14.3 Y-7.76 Z1.1 F1800.0
G1 X-14.3 Y-7.68 Z1.1 F1800.0
M108 R30.0
M102
G1 X-14.3 Y-7.51 Z1.1 F1800.0
G1 X-14.4 Y-7.25 Z1.1 F1800.0
M108 R3.569
M103
G1 X-14.94 Y-7.41 Z1.1 F3000.0
M108 R30.0
M101
G1 X-15.71 Y-7.64 Z1.1 F3000.0
M108 R3.569
G1 X-17.02 Y-8.03 Z1.1 F1800.0
G1 X-17.33 Y-8.58 Z1.1 F1800.0
G1 X-16.48 Y-9.69 Z1.1 F1800.0
G1 X-16.48 Y-9.95 Z1.1 F1800.0
G1 X-16.27 Y-10.98 Z1.1 F1800.0
G1 X-16.58 Y-11.53 Z1.1 F1800.0
G1 X-17.02 Y-11.66 Z1.1 F1800.0
G1 X-17.58 Y-11.37 Z1.1 F1800.0
G1 X-17.76 Y-8.71 Z1.1 F1800.0
G1 X-18.33 Y-8.42 Z1.1 F1800.0
G1 X-18.76 Y-8.55 Z1.1 F1800.0
G1 X-19.07 Y-9.1 Z1.1 F1800.0
G1 X-19.51 Y-9.23 Z1.1 F1800.0
G1 X-20.07 Y-8.95 Z1.1 F1800.0
G1 X-20.61 Y-9.69 Z1.1 F1800.0
G1 X-20.61 Y-9.95 Z1.1 F1800.0
G1 X-19.76 Y-12.03 Z1.1 F1800.0
G1 X-19.32 Y-11.9 Z1.1 F1800.0
G1 X-19.16 Y-11.98 Z1.1 F1800.0
M108 R30.0
M102
G1 X-18.76 Y-12.18 Z1.1 F1800.0
M108 R3.569
M103
G1 X-19.74 Y-12.48 Z1.1 F3000.0
M108 R30.0
M101
G1 X-20.51 Y-12.71 Z1.1 F3000.0
M108 R3.569
G1 X-21.38 Y-12.97 Z1.1 F1800.0
G1 X-21.94 Y-12.68 Z1.1 F1800.0
G1 X-22.79 Y-12.13 Z1.1 F1800.0
G1 X-22.79 Y-11.87 Z1.1 F1800.0
G1 X-20.84 Y-9.95 Z1.1 F1800.0
G1 X-20.84 Y-9.69 Z1.1 F1800.0
G1 X-20.85 Y-9.65 Z1.1 F1800.0
M108 R30.0
M102
G1 X-20.94 Y-9.21 Z1.1 F1800.0
M108 R3.569
M103
G1 X-22.36 Y-9.63 Z1.1 F3000.0
M108 R30.0
M101
G1 X-23.13 Y-9.86 Z1.1 F3000.0
M108 R3.569
G1 X-23.56 Y-9.99 Z1.1 F1800.0
G1 X-23.87 Y-10.54 Z1.1 F1800.0
G1 X-23.02 Y-11.87 Z1.1 F1800.0
G1 X-23.02 Y-12.13 Z1.1 F1800.0
G1 X-22.38 Y-12.81 Z1.1 F1800.0
G1 X-22.69 Y-13.36 Z1.1 F1800.0
G1 X-23.13 Y-13.49 Z1.1 F1800.0
G1 X-23.69 Y-13.21 Z1.1 F1800.0
G1 X-24.12 Y-13.34 Z1.1 F1800.0
G1 X-24.75 Y-10.81 Z1.1 F1800.0
G1 X-25.31 Y-10.52 Z1.1 F1800.0
G1 X-26.18 Y-10.78 Z1.1 F1800.0
G1 X-26.49 Y-11.33 Z1.1 F1800.0
G1 X-25.0 Y-13.6 Z1.1 F1800.0
G1 X-25.31 Y-14.15 Z1.1 F1800.0
G1 X-25.87 Y-13.86 Z1.1 F1800.0
G1 X-27.16 Y-12.13 Z1.1 F1800.0
G1 X-27.16 Y-11.87 Z1.1 F1800.0
G1 X-26.93 Y-11.46 Z1.1 F1800.0
G1 X-27.49 Y-11.17 Z1.1 F1800.0
G1 X-27.8 Y-11.72 Z1.1 F1800.0
G1 X-27.39 Y-11.87 Z1.1 F1800.0
G1 X-27.39 Y-12.13 Z1.1 F1800.0
G1 X-29.34 Y-14.05 Z1.1 F1800.0
G1 X-29.34 Y-14.31 Z1.1 F1800.0
G1 X-27.93 Y-14.93 Z1.1 F1800.0
G1 X-27.05 Y-14.67 Z1.1 F1800.0
M108 R30.0
M102
G1 X-26.62 Y-14.54 Z1.1 F1800.0
M108 R3.569
M103
G1 X-29.75 Y-15.03 Z1.1 F3000.0
M108 R30.0
M101
G1 X-30.54 Y-15.15 Z1.1 F3000.0
M108 R3.569
G1 X-30.23 Y-15.17 Z1.1 F1800.0
G1 X-29.67 Y-15.46 Z1.1 F1800.0
G1 X-29.23 Y-15.33 Z1.1 F1800.0
G1 X-28.92 Y-14.78 Z1.1 F1800.0
G1 X-29.57 Y-14.31 Z1.1 F1800.0
G1 X-29.57 Y-14.05 Z1.1 F1800.0
G1 X-28.24 Y-11.85 Z1.1 F1800.0
G1 X-28.8 Y-11.57 Z1.1 F1800.0
G1 X-30.11 Y-11.96 Z1.1 F1800.0
G1 X-29.98 Y-12.38 Z1.1 F1800.0
G1 X-30.98 Y-13.69 Z1.1 F1800.0
G1 X-30.98 Y-12.67 Z1.1 F1800.0
M108 R30.0
M102
G1 X-30.98 Y-12.22 Z1.1 F1800.0
M108 R3.569
M103
(</surroundingLoop>)
(<surroundingLoop>)
(<boundaryPerimeter>)
(<boundaryPoint> X-41.651 Y20.215 Z1.1 </boundaryPoint>)
(<boundaryPoint> X-41.95 Y20.148 Z1.1 </boundaryPoint>)
(<boundaryPoint> X-41.928 Y19.842 Z1.1 </boundaryPoint>)
(<boundaryPoint> X-41.666 Y18.971 Z1.1 </boundaryPoint>)
(<boundaryPoint> X-22.749 Y18.984 Z1.1 </boundaryPoint>)
(<boundaryPoint> X-22.747 Y16.401 Z1.1 </boundaryPoint>)
(<boundaryPoint> X-40.502 Y16.389 Z1.1 </boundaryPoint>)
(<boundaryPoint> X-40.801 Y16.322 Z1.1 </boundaryPoint>)
(<boundaryPoint> X-40.779 Y16.016 Z1.1 </boundaryPoint>)
(<boundaryPoint> X-39.172 Y10.661 Z1.1 </boundaryPoint>)
(<boundaryPoint> X41.32 Y10.715 Z1.1 </boundaryPoint>)
(<boundaryPoint> X41.619 Y10.782 Z1.1 </boundaryPoint>)
(<boundaryPoint> X41.597 Y11.088 Z1.1 </boundaryPoint>)
(<boundaryPoint> X39.99 Y16.443 Z1.1 </boundaryPoint>)
(<boundaryPoint> X23.881 Y16.432 Z1.1 </boundaryPoint>)
(<boundaryPoint> X23.88 Y19.015 Z1.1 </boundaryPoint>)
(<boundaryPoint> X38.826 Y19.025 Z1.1 </boundaryPoint>)
(<boundaryPoint> X39.125 Y19.092 Z1.1 </boundaryPoint>)
(<boundaryPoint> X39.103 Y19.398 Z1.1 </boundaryPoint>)
(<boundaryPoint> X38.841 Y20.269 Z1.1 </boundaryPoint>)
(<loop> outer )
G1 X-30.73 Y10.46 Z1.1 F3000.0
M108 R30.0
M101
G1 X-30.72 Y11.26 Z1.1 F3000.0
M108 R3.569
G1 X40.92 Y11.3 Z1.1 F1800.0
G1 X39.55 Y15.85 Z1.1 F1800.0
G1 X23.29 Y15.84 Z1.1 F1800.0
G1 X23.29 Y19.08 Z1.1 F1800.0
G1 X22.84 Y19.67 Z1.1 F1800.0
G1 X-21.77 Y19.64 Z1.1 F1800.0
G1 X-22.16 Y19.06 Z1.1 F1800.0
G1 X-22.16 Y15.81 Z1.1 F1800.0
G1 X-40.1 Y15.8 Z1.1 F1800.0
G1 X-38.73 Y11.25 Z1.1 F1800.0
G1 X-31.0 Y11.26 Z1.1 F1800.0
G1 X-30.72 Y11.26 Z1.1 F1800.0
M103
(</loop>)
(<perimeter> outer )
G1 X-30.72 Y10.86 Z1.1 F3000.0
M101
G1 X41.35 Y10.91 Z1.1 F1800.0
G1 X41.52 Y10.86 Z1.1 F1800.0
G1 X41.42 Y11.0 Z1.1 F1800.0
G1 X39.84 Y16.25 Z1.1 F1800.0
G1 X23.69 Y16.24 Z1.1 F1800.0
G1 X23.68 Y19.21 Z1.1 F1800.0
G1 X38.86 Y19.22 Z1.1 F1800.0
G1 X39.03 Y19.17 Z1.1 F1800.0
G1 X38.92 Y19.31 Z1.1 F1800.0
G1 X38.7 Y20.07 Z1.1 F1800.0
G1 X-41.68 Y20.02 Z1.1 F1800.0
G1 X-41.85 Y20.08 Z1.1 F1800.0
G1 X-41.75 Y19.93 Z1.1 F1800.0
G1 X-41.52 Y19.17 Z1.1 F1800.0
G1 X-22.55 Y19.18 Z1.1 F1800.0
G1 X-22.55 Y16.2 Z1.1 F1800.0
G1 X-40.53 Y16.19 Z1.1 F1800.0
G1 X-40.7 Y16.25 Z1.1 F1800.0
G1 X-40.6 Y16.1 Z1.1 F1800.0
G1 X-39.03 Y10.86 Z1.1 F1800.0
G1 X-31.0 Y10.86 Z1.1 F1800.0
G1 X-30.72 Y10.86 Z1.1 F1800.0
M103
(</perimeter>)
(</boundaryPerimeter>)
G1 X-30.11 Y11.51 Z1.1 F3000.0
M101
G1 X-33.6 Y11.51 Z1.1 F1800.0
G1 X-33.7 Y11.87 Z1.1 F1800.0
G1 X-33.7 Y12.13 Z1.1 F1800.0
G1 X-31.75 Y14.05 Z1.1 F1800.0
G1 X-31.82 Y15.1 Z1.1 F1800.0
M108 R30.0
M102
G1 X-31.85 Y15.55 Z1.1 F1800.0
M108 R3.569
M103
G1 X-34.03 Y12.18 Z1.1 F3000.0
M108 R30.0
M101
G1 X-34.47 Y11.51 Z1.1 F3000.0
M108 R3.569
G1 X-34.03 Y11.51 Z1.1 F1800.0
G1 X-33.93 Y11.87 Z1.1 F1800.0
G1 X-33.93 Y12.13 Z1.1 F1800.0
G1 X-35.88 Y14.05 Z1.1 F1800.0
G1 X-35.78 Y15.11 Z1.1 F1800.0
G1 X-35.34 Y15.55 Z1.1 F1800.0
G1 X-34.91 Y15.11 Z1.1 F1800.0
G1 X-34.47 Y15.11 Z1.1 F1800.0
G1 X-34.35 Y15.23 Z1.1 F1800.0
M108 R30.0
M102
G1 X-34.03 Y15.55 Z1.1 F1800.0
M108 R3.569
M103
G1 X-35.42 Y15.55 Z1.1 F3000.0
M108 R30.0
M101
G1 X-36.22 Y15.55 Z1.1 F3000.0
M108 R3.569
G1 X-36.11 Y14.05 Z1.1 F1800.0
G1 X-34.91 Y11.51 Z1.1 F1800.0
G1 X-38.4 Y11.51 Z1.1 F1800.0
G1 X-38.18 Y11.87 Z1.1 F1800.0
G1 X-38.18 Y12.13 Z1.1 F1800.0
G1 X-38.83 Y12.47 Z1.1 F1800.0
G1 X-38.83 Y15.11 Z1.1 F1800.0
G1 X-38.72 Y15.23 Z1.1 F1800.0
M108 R30.0
M102
G1 X-38.4 Y15.55 Z1.1 F1800.0
M108 R3.569
M103
G1 X-39.71 Y15.57 Z1.1 F3000.0
M101
G1 X-39.71 Y15.38 Z1.1 F1800.0
M103
G1 X-28.73 Y15.54 Z1.1 F3000.0
M108 R30.0
M101
G1 X-27.93 Y15.55 Z1.1 F3000.0
M108 R3.569
G1 X-30.98 Y15.55 Z1.1 F1800.0
G1 X-31.52 Y14.31 Z1.1 F1800.0
G1 X-31.52 Y14.05 Z1.1 F1800.0
G1 X-29.45 Y12.13 Z1.1 F1800.0
G1 X-29.45 Y11.87 Z1.1 F1800.0
G1 X-29.67 Y11.51 Z1.1 F1800.0
G1 X-25.74 Y11.52 Z1.1 F1800.0
G1 X-27.39 Y14.05 Z1.1 F1800.0
G1 X-27.49 Y15.55 Z1.1 F1800.0
G1 X-24.87 Y15.56 Z1.1 F1800.0
G1 X-27.16 Y14.31 Z1.1 F1800.0
G1 X-27.16 Y14.05 Z1.1 F1800.0
G1 X-25.09 Y12.13 Z1.1 F1800.0
G1 X-25.09 Y11.87 Z1.1 F1800.0
G1 X-25.31 Y11.52 Z1.1 F1800.0
G1 X-21.38 Y11.52 Z1.1 F1800.0
G1 X-23.02 Y14.05 Z1.1 F1800.0
G1 X-23.02 Y14.31 Z1.1 F1800.0
G1 X-22.25 Y15.56 Z1.1 F1800.0
G1 X-23.99 Y15.56 Z1.1 F1800.0
M108 R30.0
M102
G1 X-24.44 Y15.56 Z1.1 F1800.0
M108 R3.569
M103
G1 X-23.28 Y16.13 Z1.1 F3000.0
G1 X-22.61 Y16.26 Z1.1 F3000.0
G1 X-22.47 Y16.79 Z1.1 F3000.0
G1 X-19.83 Y18.89 Z1.1 F3000.0
M108 R30.0
M101
G1 X-19.2 Y19.39 Z1.1 F3000.0
M108 R3.569
G1 X-21.38 Y19.38 Z1.1 F1800.0
G1 X-21.82 Y19.11 Z1.1 F1800.0
G1 X-20.84 Y16.49 Z1.1 F1800.0
G1 X-20.84 Y16.24 Z1.1 F1800.0
G1 X-22.79 Y14.31 Z1.1 F1800.0
G1 X-22.79 Y14.05 Z1.1 F1800.0
G1 X-20.73 Y12.13 Z1.1 F1800.0
G1 X-20.73 Y11.87 Z1.1 F1800.0
G1 X-20.94 Y11.52 Z1.1 F1800.0
G1 X-17.02 Y11.52 Z1.1 F1800.0
G1 X-18.66 Y14.05 Z1.1 F1800.0
G1 X-18.66 Y14.31 Z1.1 F1800.0
G1 X-20.61 Y16.24 Z1.1 F1800.0
G1 X-20.61 Y16.49 Z1.1 F1800.0
G1 X-18.54 Y18.42 Z1.1 F1800.0
G1 X-18.54 Y18.67 Z1.1 F1800.0
G1 X-18.76 Y19.39 Z1.1 F1800.0
G1 X-14.84 Y19.39 Z1.1 F1800.0
G1 X-16.48 Y16.49 Z1.1 F1800.0
G1 X-16.48 Y16.24 Z1.1 F1800.0
G1 X-18.43 Y14.31 Z1.1 F1800.0
G1 X-18.43 Y14.05 Z1.1 F1800.0
G1 X-16.36 Y12.13 Z1.1 F1800.0
G1 X-16.36 Y11.87 Z1.1 F1800.0
G1 X-16.58 Y11.52 Z1.1 F1800.0
G1 X-12.65 Y11.52 Z1.1 F1800.0
G1 X-14.3 Y14.05 Z1.1 F1800.0
G1 X-14.3 Y14.31 Z1.1 F1800.0
G1 X-16.25 Y16.24 Z1.1 F1800.0
G1 X-16.25 Y16.49 Z1.1 F1800.0
G1 X-14.18 Y18.42 Z1.1 F1800.0
G1 X-14.18 Y18.67 Z1.1 F1800.0
G1 X-14.4 Y19.39 Z1.1 F1800.0
G1 X-10.47 Y19.39 Z1.1 F1800.0
G1 X-12.11 Y16.49 Z1.1 F1800.0
G1 X-12.11 Y16.24 Z1.1 F1800.0
G1 X-14.07 Y14.31 Z1.1 F1800.0
G1 X-14.07 Y14.05 Z1.1 F1800.0
G1 X-12.0 Y12.13 Z1.1 F1800.0
G1 X-12.0 Y11.87 Z1.1 F1800.0
G1 X-12.22 Y11.52 Z1.1 F1800.0
G1 X-8.29 Y11.53 Z1.1 F1800.0
G1 X-9.93 Y14.05 Z1.1 F1800.0
G1 X-9.93 Y14.31 Z1.1 F1800.0
G1 X-11.88 Y16.24 Z1.1 F1800.0
G1 X-11.88 Y16.49 Z1.1 F1800.0
G1 X-9.82 Y18.42 Z1.1 F1800.0
G1 X-9.82 Y18.67 Z1.1 F1800.0
G1 X-10.04 Y19.39 Z1.1 F1800.0
G1 X-6.11 Y19.39 Z1.1 F1800.0
G1 X-7.75 Y16.49 Z1.1 F1800.0
G1 X-7.75 Y16.24 Z1.1 F1800.0
G1 X-9.7 Y14.31 Z1.1 F1800.0
G1 X-9.7 Y14.05 Z1.1 F1800.0
G1 X-7.64 Y12.13 Z1.1 F1800.0
G1 X-7.64 Y11.87 Z1.1 F1800.0
G1 X-7.85 Y11.53 Z1.1 F1800.0
G1 X-3.93 Y11.53 Z1.1 F1800.0
G1 X-5.57 Y14.05 Z1.1 F1800.0
G1 X-5.57 Y14.31 Z1.1 F1800.0
G1 X-7.52 Y16.24 Z1.1 F1800.0
G1 X-7.52 Y16.49 Z1.1 F1800.0
G1 X-5.45 Y18.42 Z1.1 F1800.0
G1 X-5.45 Y18.67 Z1.1 F1800.0
G1 X-5.67 Y19.4 Z1.1 F1800.0
G1 X-1.75 Y19.4 Z1.1 F1800.0
G1 X-3.39 Y16.49 Z1.1 F1800.0
G1 X-3.39 Y16.24 Z1.1 F1800.0
G1 X-5.34 Y14.31 Z1.1 F1800.0
G1 X-5.34 Y14.05 Z1.1 F1800.0
G1 X-3.27 Y12.13 Z1.1 F1800.0
G1 X-3.27 Y11.87 Z1.1 F1800.0
G1 X-3.49 Y11.53 Z1.1 F1800.0
G1 X0.44 Y11.53 Z1.1 F1800.0
G1 X-1.21 Y14.05 Z1.1 F1800.0
G1 X-1.21 Y14.31 Z1.1 F1800.0
G1 X-3.16 Y16.24 Z1.1 F1800.0
G1 X-3.16 Y16.49 Z1.1 F1800.0
G1 X-1.09 Y18.42 Z1.1 F1800.0
G1 X-1.09 Y18.67 Z1.1 F1800.0
G1 X-1.31 Y19.4 Z1.1 F1800.0
G1 X2.62 Y19.4 Z1.1 F1800.0
G1 X0.98 Y16.49 Z1.1 F1800.0
G1 X0.98 Y16.24 Z1.1 F1800.0
G1 X-0.98 Y14.31 Z1.1 F1800.0
G1 X-0.98 Y14.05 Z1.1 F1800.0
G1 X1.09 Y12.13 Z1.1 F1800.0
G1 X1.09 Y11.87 Z1.1 F1800.0
G1 X0.87 Y11.53 Z1.1 F1800.0
G1 X4.8 Y11.54 Z1.1 F1800.0
G1 X3.16 Y14.05 Z1.1 F1800.0
G1 X3.16 Y14.31 Z1.1 F1800.0
G1 X1.21 Y16.24 Z1.1 F1800.0
G1 X1.21 Y16.49 Z1.1 F1800.0
G1 X3.27 Y18.42 Z1.1 F1800.0
G1 X3.27 Y18.67 Z1.1 F1800.0
G1 X3.05 Y19.4 Z1.1 F1800.0
G1 X6.98 Y19.4 Z1.1 F1800.0
G1 X5.34 Y16.49 Z1.1 F1800.0
G1 X5.34 Y16.24 Z1.1 F1800.0
G1 X3.39 Y14.31 Z1.1 F1800.0
G1 X3.39 Y14.05 Z1.1 F1800.0
G1 X5.45 Y12.13 Z1.1 F1800.0
G1 X5.45 Y11.87 Z1.1 F1800.0
G1 X5.24 Y11.54 Z1.1 F1800.0
G1 X9.16 Y11.54 Z1.1 F1800.0
G1 X7.52 Y14.05 Z1.1 F1800.0
G1 X7.52 Y14.31 Z1.1 F1800.0
G1 X5.57 Y16.24 Z1.1 F1800.0
G1 X5.57 Y16.49 Z1.1 F1800.0
G1 X7.64 Y18.42 Z1.1 F1800.0
G1 X7.64 Y18.67 Z1.1 F1800.0
G1 X7.42 Y19.4 Z1.1 F1800.0
G1 X11.35 Y19.41 Z1.1 F1800.0
G1 X9.7 Y16.49 Z1.1 F1800.0
G1 X9.7 Y16.24 Z1.1 F1800.0
G1 X7.75 Y14.31 Z1.1 F1800.0
G1 X7.75 Y14.05 Z1.1 F1800.0
G1 X9.82 Y12.13 Z1.1 F1800.0
G1 X9.82 Y11.87 Z1.1 F1800.0
G1 X9.6 Y11.54 Z1.1 F1800.0
G1 X13.53 Y11.54 Z1.1 F1800.0
G1 X11.88 Y14.05 Z1.1 F1800.0
G1 X11.88 Y14.31 Z1.1 F1800.0
G1 X9.93 Y16.24 Z1.1 F1800.0
G1 X9.93 Y16.49 Z1.1 F1800.0
G1 X12.0 Y18.42 Z1.1 F1800.0
G1 X12.0 Y18.67 Z1.1 F1800.0
G1 X11.78 Y19.41 Z1.1 F1800.0
G1 X15.71 Y19.41 Z1.1 F1800.0
G1 X14.07 Y16.49 Z1.1 F1800.0
G1 X14.07 Y16.24 Z1.1 F1800.0
G1 X12.11 Y14.31 Z1.1 F1800.0
G1 X12.11 Y14.05 Z1.1 F1800.0
G1 X14.18 Y12.13 Z1.1 F1800.0
G1 X14.18 Y11.87 Z1.1 F1800.0
G1 X13.96 Y11.54 Z1.1 F1800.0
G1 X17.45 Y11.54 Z1.1 F1800.0
G1 X16.25 Y14.05 Z1.1 F1800.0
G1 X16.25 Y14.31 Z1.1 F1800.0
G1 X14.3 Y16.24 Z1.1 F1800.0
G1 X14.3 Y16.49 Z1.1 F1800.0
G1 X16.36 Y18.42 Z1.1 F1800.0
G1 X16.36 Y18.67 Z1.1 F1800.0
G1 X16.14 Y19.41 Z1.1 F1800.0
G1 X20.07 Y19.41 Z1.1 F1800.0
G1 X18.43 Y16.49 Z1.1 F1800.0
G1 X18.43 Y16.24 Z1.1 F1800.0
G1 X16.48 Y14.31 Z1.1 F1800.0
G1 X16.48 Y14.05 Z1.1 F1800.0
G1 X18.43 Y12.13 Z1.1 F1800.0
G1 X18.43 Y11.87 Z1.1 F1800.0
G1 X18.33 Y11.56 Z1.1 F1800.0
M108 R30.0
M102
G1 X18.33 Y11.54 Z1.1 F1800.0
G1 X17.89 Y11.54 Z1.1 F1800.0
M108 R3.569
M103
G1 X19.71 Y11.55 Z1.1 F3000.0
M108 R30.0
M101
G1 X20.51 Y11.55 Z1.1 F3000.0
M108 R3.569
G1 X20.49 Y11.66 Z1.1 F1800.0
G1 X19.43 Y11.92 Z1.1 F1800.0
G1 X18.76 Y11.54 Z1.1 F1800.0
G1 X18.66 Y11.87 Z1.1 F1800.0
G1 X18.66 Y12.13 Z1.1 F1800.0
G1 X20.61 Y14.05 Z1.1 F1800.0
G1 X20.61 Y14.31 Z1.1 F1800.0
G1 X18.66 Y16.24 Z1.1 F1800.0
G1 X18.66 Y16.49 Z1.1 F1800.0
G1 X20.73 Y18.42 Z1.1 F1800.0
G1 X20.73 Y18.67 Z1.1 F1800.0
G1 X20.51 Y19.41 Z1.1 F1800.0
G1 X22.69 Y19.41 Z1.1 F1800.0
G1 X20.84 Y14.31 Z1.1 F1800.0
G1 X20.84 Y14.05 Z1.1 F1800.0
G1 X22.79 Y12.13 Z1.1 F1800.0
G1 X22.79 Y11.98 Z1.1 F1800.0
M108 R30.0
M102
G1 X22.79 Y11.87 Z1.1 F1800.0
G1 X22.69 Y11.55 Z1.1 F1800.0
M108 R3.569
M103
G1 X24.07 Y11.55 Z1.1 F3000.0
M108 R30.0
M101
G1 X24.87 Y11.55 Z1.1 F3000.0
M108 R3.569
G1 X24.86 Y11.66 Z1.1 F1800.0
G1 X23.79 Y11.92 Z1.1 F1800.0
G1 X23.13 Y11.55 Z1.1 F1800.0
G1 X23.02 Y11.87 Z1.1 F1800.0
G1 X23.02 Y12.13 Z1.1 F1800.0
G1 X25.09 Y14.05 Z1.1 F1800.0
G1 X25.09 Y14.31 Z1.1 F1800.0
G1 X23.13 Y15.59 Z1.1 F1800.0
G1 X28.8 Y15.59 Z1.1 F1800.0
G1 X27.16 Y12.13 Z1.1 F1800.0
G1 X27.16 Y11.98 Z1.1 F1800.0
M108 R30.0
M102
G1 X27.16 Y11.87 Z1.1 F1800.0
G1 X27.05 Y11.55 Z1.1 F1800.0
M108 R3.569
M103
G1 X28.43 Y11.55 Z1.1 F3000.0
M108 R30.0
M101
G1 X29.23 Y11.55 Z1.1 F3000.0
M108 R3.569
G1 X29.22 Y11.66 Z1.1 F1800.0
G1 X28.15 Y11.93 Z1.1 F1800.0
G1 X27.49 Y11.55 Z1.1 F1800.0
G1 X27.39 Y11.87 Z1.1 F1800.0
G1 X27.39 Y12.13 Z1.1 F1800.0
G1 X29.45 Y14.05 Z1.1 F1800.0
G1 X29.23 Y15.59 Z1.1 F1800.0
G1 X33.16 Y15.59 Z1.1 F1800.0
G1 X31.52 Y12.13 Z1.1 F1800.0
G1 X31.52 Y11.99 Z1.1 F1800.0
M108 R30.0
M102
G1 X31.52 Y11.87 Z1.1 F1800.0
G1 X31.42 Y11.55 Z1.1 F1800.0
M108 R3.569
M103
G1 X32.8 Y11.55 Z1.1 F3000.0
M108 R30.0
M101
G1 X33.6 Y11.55 Z1.1 F3000.0
M108 R3.569
G1 X33.58 Y11.67 Z1.1 F1800.0
G1 X32.51 Y11.93 Z1.1 F1800.0
G1 X32.27 Y11.69 Z1.1 F1800.0
G1 X31.75 Y11.87 Z1.1 F1800.0
G1 X31.75 Y12.13 Z1.1 F1800.0
G1 X33.82 Y14.05 Z1.1 F1800.0
G1 X33.6 Y15.59 Z1.1 F1800.0
G1 X37.09 Y15.6 Z1.1 F1800.0
G1 X35.88 Y12.13 Z1.1 F1800.0
G1 X35.88 Y11.99 Z1.1 F1800.0
M108 R30.0
M102
G1 X35.88 Y11.87 Z1.1 F1800.0
G1 X35.78 Y11.56 Z1.1 F1800.0
M108 R3.569
M103
G1 X37.16 Y11.56 Z1.1 F3000.0
M108 R30.0
M101
G1 X37.96 Y11.56 Z1.1 F3000.0
M108 R3.569
G1 X37.95 Y11.67 Z1.1 F1800.0
G1 X36.87 Y11.93 Z1.1 F1800.0
G1 X36.22 Y11.56 Z1.1 F1800.0
G1 X36.11 Y11.87 Z1.1 F1800.0
G1 X36.11 Y12.13 Z1.1 F1800.0
G1 X38.06 Y14.05 Z1.1 F1800.0
G1 X38.06 Y14.31 Z1.1 F1800.0
G1 X37.53 Y15.6 Z1.1 F1800.0
G1 X39.27 Y15.6 Z1.1 F1800.0
G1 X38.29 Y14.31 Z1.1 F1800.0
G1 X38.29 Y14.05 Z1.1 F1800.0
G1 X40.14 Y13.0 Z1.1 F1800.0
G1 X40.14 Y11.56 Z1.1 F1800.0
M103
G1 X40.58 Y11.52 Z1.1 F3000.0
M101
G1 X40.58 Y11.62 Z1.1 F1800.0
M103
(</surroundingLoop>)
(</layer>)
(<layer> 1.42 )
(<surroundingLoop>)
(<boundaryPerimeter>)
(<boundaryPoint> X-41.651 Y20.215 Z1.42 </boundaryPoint>)
(<boundaryPoint> X-41.95 Y20.148 Z1.42 </boundaryPoint>)
(<boundaryPoint> X-41.928 Y19.842 Z1.42 </boundaryPoint>)
(<boundaryPoint> X-41.666 Y18.971 Z1.42 </boundaryPoint>)
(<boundaryPoint> X-22.749 Y18.984 Z1.42 </boundaryPoint>)
(<boundaryPoint> X-22.747 Y16.401 Z1.42 </boundaryPoint>)
(<boundaryPoint> X-40.502 Y16.389 Z1.42 </boundaryPoint>)
(<boundaryPoint> X-40.801 Y16.322 Z1.42 </boundaryPoint>)
(<boundaryPoint> X-40.779 Y16.016 Z1.42 </boundaryPoint>)
(<boundaryPoint> X-39.172 Y10.661 Z1.42 </boundaryPoint>)
(<boundaryPoint> X41.32 Y10.715 Z1.42 </boundaryPoint>)
(<boundaryPoint> X41.619 Y10.782 Z1.42 </boundaryPoint>)
(<boundaryPoint> X41.597 Y11.088 Z1.42 </boundaryPoint>)
(<boundaryPoint> X39.99 Y16.443 Z1.42 </boundaryPoint>)
(<boundaryPoint> X23.881 Y16.432 Z1.42 </boundaryPoint>)
(<boundaryPoint> X23.88 Y19.015 Z1.42 </boundaryPoint>)
(<boundaryPoint> X38.826 Y19.025 Z1.42 </boundaryPoint>)
(<boundaryPoint> X39.125 Y19.092 Z1.42 </boundaryPoint>)
(<boundaryPoint> X39.103 Y19.398 Z1.42 </boundaryPoint>)
(<boundaryPoint> X38.841 Y20.269 Z1.42 </boundaryPoint>)
(<loop> outer )
G1 X40.81 Y11.67 Z1.42 F3000.0
M101
G1 X40.8 Y11.69 Z1.42 F1800.0
G1 X39.55 Y15.85 Z1.42 F1800.0
G1 X23.29 Y15.84 Z1.42 F1800.0
G1 X23.29 Y19.08 Z1.42 F1800.0
G1 X22.84 Y19.67 Z1.42 F1800.0
G1 X-21.77 Y19.64 Z1.42 F1800.0
G1 X-22.16 Y19.06 Z1.42 F1800.0
G1 X-22.16 Y15.81 Z1.42 F1800.0
G1 X-40.1 Y15.8 Z1.42 F1800.0
G1 X-38.73 Y11.25 Z1.42 F1800.0
G1 X40.92 Y11.3 Z1.42 F1800.0
G1 X40.81 Y11.67 Z1.42 F1800.0
M103
(</loop>)
(<perimeter> outer )
G1 X41.18 Y11.8 Z1.42 F3000.0
M101
G1 X39.84 Y16.25 Z1.42 F1800.0
G1 X23.69 Y16.24 Z1.42 F1800.0
G1 X23.68 Y19.21 Z1.42 F1800.0
G1 X38.86 Y19.22 Z1.42 F1800.0
G1 X39.03 Y19.17 Z1.42 F1800.0
G1 X38.92 Y19.31 Z1.42 F1800.0
G1 X38.7 Y20.07 Z1.42 F1800.0
G1 X-41.68 Y20.02 Z1.42 F1800.0
G1 X-41.85 Y20.08 Z1.42 F1800.0
G1 X-41.75 Y19.93 Z1.42 F1800.0
G1 X-41.52 Y19.17 Z1.42 F1800.0
G1 X-22.55 Y19.18 Z1.42 F1800.0
G1 X-22.55 Y16.2 Z1.42 F1800.0
G1 X-40.53 Y16.19 Z1.42 F1800.0
G1 X-40.7 Y16.25 Z1.42 F1800.0
G1 X-40.6 Y16.1 Z1.42 F1800.0
G1 X-39.03 Y10.86 Z1.42 F1800.0
G1 X41.35 Y10.91 Z1.42 F1800.0
G1 X41.52 Y10.86 Z1.42 F1800.0
G1 X41.42 Y11.0 Z1.42 F1800.0
G1 X41.18 Y11.8 Z1.42 F1800.0
M103
(</perimeter>)
(</boundaryPerimeter>)
G1 X40.51 Y11.78 Z1.42 F3000.0
M101
G1 X-38.31 Y11.88 Z1.42 F1800.0
G1 X-38.63 Y11.78 Z1.42 F1800.0
M103
G1 X-38.89 Y12.65 Z1.42 F3000.0
M101
G1 X-38.34 Y12.34 Z1.42 F1800.0
G1 X-38.31 Y12.11 Z1.42 F1800.0
G1 X-38.05 Y12.11 Z1.42 F1800.0
G1 X-36.13 Y14.07 Z1.42 F1800.0
G1 X-0.96 Y14.07 Z1.42 F1800.0
G1 X0.96 Y12.11 Z1.42 F1800.0
G1 X1.22 Y12.11 Z1.42 F1800.0
G1 X3.15 Y14.07 Z1.42 F1800.0
G1 X3.4 Y14.07 Z1.42 F1800.0
G1 X5.33 Y12.11 Z1.42 F1800.0
G1 X5.58 Y12.11 Z1.42 F1800.0
G1 X7.51 Y14.07 Z1.42 F1800.0
G1 X7.76 Y14.07 Z1.42 F1800.0
G1 X9.69 Y12.11 Z1.42 F1800.0
G1 X9.95 Y12.11 Z1.42 F1800.0
G1 X11.87 Y14.07 Z1.42 F1800.0
G1 X12.13 Y14.07 Z1.42 F1800.0
G1 X14.05 Y12.11 Z1.42 F1800.0
G1 X14.31 Y12.11 Z1.42 F1800.0
G1 X16.24 Y14.07 Z1.42 F1800.0
G1 X16.49 Y14.07 Z1.42 F1800.0
G1 X18.42 Y12.11 Z1.42 F1800.0
G1 X18.67 Y12.11 Z1.42 F1800.0
G1 X20.6 Y14.07 Z1.42 F1800.0
G1 X20.85 Y14.07 Z1.42 F1800.0
G1 X22.78 Y12.11 Z1.42 F1800.0
G1 X23.04 Y12.11 Z1.42 F1800.0
G1 X24.96 Y14.07 Z1.42 F1800.0
G1 X25.22 Y14.07 Z1.42 F1800.0
G1 X27.14 Y12.11 Z1.42 F1800.0
G1 X27.4 Y12.11 Z1.42 F1800.0
G1 X29.33 Y14.07 Z1.42 F1800.0
G1 X29.58 Y14.07 Z1.42 F1800.0
G1 X31.51 Y12.11 Z1.42 F1800.0
G1 X31.76 Y12.11 Z1.42 F1800.0
G1 X33.69 Y14.07 Z1.42 F1800.0
G1 X33.94 Y14.07 Z1.42 F1800.0
G1 X35.87 Y12.11 Z1.42 F1800.0
G1 X36.13 Y12.11 Z1.42 F1800.0
G1 X38.05 Y14.07 Z1.42 F1800.0
G1 X38.31 Y14.07 Z1.42 F1800.0
G1 X39.44 Y13.84 Z1.42 F1800.0
G1 X39.98 Y13.53 Z1.42 F1800.0
G1 X39.7 Y12.97 Z1.42 F1800.0
G1 X39.85 Y12.88 Z1.42 F1800.0
M108 R30.0
M102
G1 X40.24 Y12.65 Z1.42 F1800.0
M108 R3.569
M103
G1 X39.82 Y14.07 Z1.42 F3000.0
M108 R30.0
M101
G1 X39.59 Y14.84 Z1.42 F3000.0
M108 R3.569
G1 X38.31 Y14.3 Z1.42 F1800.0
G1 X20.6 Y14.3 Z1.42 F1800.0
G1 X18.67 Y16.25 Z1.42 F1800.0
G1 X18.42 Y16.25 Z1.42 F1800.0
G1 X16.49 Y14.3 Z1.42 F1800.0
G1 X16.24 Y14.3 Z1.42 F1800.0
G1 X14.31 Y16.25 Z1.42 F1800.0
G1 X14.05 Y16.25 Z1.42 F1800.0
G1 X12.13 Y14.3 Z1.42 F1800.0
G1 X11.87 Y14.3 Z1.42 F1800.0
G1 X9.95 Y16.25 Z1.42 F1800.0
G1 X9.69 Y16.25 Z1.42 F1800.0
G1 X7.76 Y14.3 Z1.42 F1800.0
G1 X7.51 Y14.3 Z1.42 F1800.0
G1 X5.58 Y16.25 Z1.42 F1800.0
G1 X5.33 Y16.25 Z1.42 F1800.0
G1 X3.4 Y14.3 Z1.42 F1800.0
G1 X3.15 Y14.3 Z1.42 F1800.0
G1 X1.22 Y16.25 Z1.42 F1800.0
G1 X0.96 Y16.25 Z1.42 F1800.0
G1 X-0.96 Y14.3 Z1.42 F1800.0
G1 X-1.22 Y14.3 Z1.42 F1800.0
G1 X-3.15 Y16.25 Z1.42 F1800.0
G1 X-3.4 Y16.25 Z1.42 F1800.0
G1 X-5.33 Y14.3 Z1.42 F1800.0
G1 X-5.58 Y14.3 Z1.42 F1800.0
G1 X-7.51 Y16.25 Z1.42 F1800.0
G1 X-7.76 Y16.25 Z1.42 F1800.0
G1 X-9.69 Y14.3 Z1.42 F1800.0
G1 X-9.95 Y14.3 Z1.42 F1800.0
G1 X-11.87 Y16.25 Z1.42 F1800.0
G1 X-12.13 Y16.25 Z1.42 F1800.0
G1 X-14.05 Y14.3 Z1.42 F1800.0
G1 X-14.31 Y14.3 Z1.42 F1800.0
G1 X-16.24 Y16.25 Z1.42 F1800.0
G1 X-16.49 Y16.25 Z1.42 F1800.0
G1 X-18.42 Y14.3 Z1.42 F1800.0
G1 X-18.67 Y14.3 Z1.42 F1800.0
G1 X-20.6 Y16.25 Z1.42 F1800.0
G1 X-21.47 Y16.15 Z1.42 F1800.0
G1 X-21.9 Y15.71 Z1.42 F1800.0
G1 X-22.78 Y14.3 Z1.42 F1800.0
G1 X-36.13 Y14.3 Z1.42 F1800.0
G1 X-38.86 Y14.09 Z1.42 F1800.0
G1 X-39.41 Y14.4 Z1.42 F1800.0
G1 X-39.55 Y14.84 Z1.42 F1800.0
M108 R30.0
M102
G1 X-39.67 Y15.27 Z1.42 F1800.0
M108 R3.569
M103
G1 X-28.21 Y16.12 Z1.42 F3000.0
G1 X-22.61 Y16.26 Z1.42 F3000.0
G1 X-22.52 Y16.71 Z1.42 F3000.0
M108 R30.0
M101
G1 X-22.47 Y16.93 Z1.42 F3000.0
G1 X-21.9 Y17.02 Z1.42 F3000.0
M108 R3.569
G1 X-21.47 Y16.58 Z1.42 F1800.0
G1 X-20.6 Y16.48 Z1.42 F1800.0
G1 X-18.67 Y18.43 Z1.42 F1800.0
G1 X-18.42 Y18.43 Z1.42 F1800.0
G1 X-16.49 Y16.48 Z1.42 F1800.0
G1 X-16.24 Y16.48 Z1.42 F1800.0
G1 X-14.31 Y18.43 Z1.42 F1800.0
G1 X-14.05 Y18.43 Z1.42 F1800.0
G1 X-12.13 Y16.48 Z1.42 F1800.0
G1 X-11.87 Y16.48 Z1.42 F1800.0
G1 X-9.95 Y18.43 Z1.42 F1800.0
G1 X-9.69 Y18.43 Z1.42 F1800.0
G1 X-7.76 Y16.48 Z1.42 F1800.0
G1 X-7.51 Y16.48 Z1.42 F1800.0
G1 X-5.58 Y18.43 Z1.42 F1800.0
G1 X-5.33 Y18.43 Z1.42 F1800.0
G1 X-3.4 Y16.48 Z1.42 F1800.0
G1 X-3.15 Y16.48 Z1.42 F1800.0
G1 X-1.22 Y18.43 Z1.42 F1800.0
G1 X-0.96 Y18.43 Z1.42 F1800.0
G1 X0.96 Y16.48 Z1.42 F1800.0
G1 X1.22 Y16.48 Z1.42 F1800.0
G1 X3.15 Y18.43 Z1.42 F1800.0
G1 X3.4 Y18.43 Z1.42 F1800.0
G1 X5.33 Y16.48 Z1.42 F1800.0
G1 X5.58 Y16.48 Z1.42 F1800.0
G1 X7.51 Y18.43 Z1.42 F1800.0
G1 X7.76 Y18.43 Z1.42 F1800.0
G1 X9.69 Y16.48 Z1.42 F1800.0
G1 X9.95 Y16.48 Z1.42 F1800.0
G1 X11.87 Y18.43 Z1.42 F1800.0
G1 X12.13 Y18.43 Z1.42 F1800.0
G1 X14.05 Y16.48 Z1.42 F1800.0
G1 X14.31 Y16.48 Z1.42 F1800.0
G1 X16.24 Y18.43 Z1.42 F1800.0
G1 X16.49 Y18.43 Z1.42 F1800.0
G1 X18.42 Y16.48 Z1.42 F1800.0
G1 X18.67 Y16.48 Z1.42 F1800.0
G1 X20.6 Y18.43 Z1.42 F1800.0
G1 X23.04 Y18.76 Z1.42 F1800.0
G1 X23.04 Y16.16 Z1.42 F1800.0
M108 R30.0
M102
G1 X23.04 Y15.71 Z1.42 F1800.0
M108 R3.569
M103
G1 X22.91 Y18.4 Z1.42 F3000.0
M108 R30.0
M101
G1 X22.88 Y19.2 Z1.42 F3000.0
M108 R3.569
G1 X20.85 Y18.66 Z1.42 F1800.0
G1 X-18.67 Y18.66 Z1.42 F1800.0
G1 X-21.76 Y19.2 Z1.42 F1800.0
G1 X-21.47 Y18.76 Z1.42 F1800.0
G1 X-21.59 Y18.65 Z1.42 F1800.0
M108 R30.0
M102
G1 X-21.9 Y18.33 Z1.42 F1800.0
M108 R3.569
M103
(</surroundingLoop>)
(<surroundingLoop>)
(<boundaryPerimeter>)
(<boundaryPoint> X-32.437 Y-11.777 Z1.42 </boundaryPoint>)
(<boundaryPoint> X-30.952 Y-16.724 Z1.42 </boundaryPoint>)
(<boundaryPoint> X43.259 Y5.55 Z1.42 </boundaryPoint>)
(<boundaryPoint> X41.774 Y10.498 Z1.42 </boundaryPoint>)
(<loop> outer )
G1 X-14.53 Y-6.18 Z1.42 F3000.0
M108 R30.0
M101
G1 X-14.3 Y-6.95 Z1.42 F3000.0
M108 R3.569
G1 X-14.32 Y-6.95 Z1.42 F1800.0
G1 X-31.7 Y-12.17 Z1.42 F1800.0
G1 X-30.56 Y-15.99 Z1.42 F1800.0
G1 X42.53 Y5.95 Z1.42 F1800.0
G1 X41.38 Y9.76 Z1.42 F1800.0
G1 X-14.3 Y-6.95 Z1.42 F1800.0
M103
(</loop>)
(<perimeter> outer )
G1 X-14.43 Y-6.58 Z1.42 F3000.0
M101
G1 X-32.19 Y-11.91 Z1.42 F1800.0
G1 X-30.82 Y-16.48 Z1.42 F1800.0
G1 X43.01 Y5.68 Z1.42 F1800.0
G1 X41.64 Y10.25 Z1.42 F1800.0
G1 X-14.43 Y-6.58 Z1.42 F1800.0
M103
(</perimeter>)
(</boundaryPerimeter>)
G1 X-13.52 Y-6.98 Z1.42 F3000.0
M101
G1 X-11.94 Y-6.96 Z1.42 F1800.0
G1 X-10.62 Y-6.11 Z1.42 F1800.0
G1 X-9.95 Y-7.52 Z1.42 F1800.0
G1 X-9.69 Y-7.52 Z1.42 F1800.0
G1 X-9.16 Y-5.67 Z1.42 F1800.0
G1 X-7.76 Y-5.45 Z1.42 F1800.0
G1 X-7.71 Y-5.24 Z1.42 F1800.0
G1 X-5.92 Y-7.87 Z1.42 F1800.0
G1 X-4.34 Y-7.85 Z1.42 F1800.0
G1 X-3.01 Y-7.0 Z1.42 F1800.0
G1 X-3.4 Y-5.57 Z1.42 F1800.0
G1 X-3.15 Y-5.57 Z1.42 F1800.0
G1 X-1.78 Y-6.7 Z1.42 F1800.0
M108 R30.0
M102
G1 X-1.43 Y-6.98 Z1.42 F1800.0
M108 R3.569
M103
G1 X0.62 Y-3.32 Z1.42 F3000.0
M108 R30.0
M101
G1 X1.01 Y-2.62 Z1.42 F3000.0
M108 R3.569
G1 X2.11 Y-2.43 Z1.42 F1800.0
G1 X3.15 Y-3.16 Z1.42 F1800.0
G1 X3.4 Y-3.16 Z1.42 F1800.0
G1 X3.92 Y-1.75 Z1.42 F1800.0
G1 X7.29 Y-4.36 Z1.42 F1800.0
G1 X7.51 Y-3.27 Z1.42 F1800.0
G1 X7.76 Y-3.27 Z1.42 F1800.0
G1 X8.75 Y-3.93 Z1.42 F1800.0
G1 X10.07 Y-3.07 Z1.42 F1800.0
G1 X9.69 Y-1.21 Z1.42 F1800.0
G1 X9.95 Y-1.21 Z1.42 F1800.0
G1 X11.53 Y-2.64 Z1.42 F1800.0
G1 X12.66 Y-2.62 Z1.42 F1800.0
M108 R30.0
M102
G1 X13.11 Y-2.62 Z1.42 F1800.0
M108 R3.569
M103
G1 X15.16 Y1.05 Z1.42 F3000.0
M108 R30.0
M101
G1 X15.55 Y1.75 Z1.42 F3000.0
M108 R3.569
G1 X16.24 Y1.21 Z1.42 F1800.0
G1 X16.49 Y1.21 Z1.42 F1800.0
G1 X17.01 Y2.18 Z1.42 F1800.0
G1 X18.58 Y2.2 Z1.42 F1800.0
G1 X19.91 Y3.05 Z1.42 F1800.0
G1 X20.6 Y1.09 Z1.42 F1800.0
G1 X20.85 Y1.09 Z1.42 F1800.0
G1 X21.83 Y-0.0 Z1.42 F1800.0
G1 X23.16 Y0.85 Z1.42 F1800.0
G1 X22.78 Y3.16 Z1.42 F1800.0
G1 X23.04 Y3.16 Z1.42 F1800.0
G1 X24.74 Y0.87 Z1.42 F1800.0
G1 X26.07 Y1.73 Z1.42 F1800.0
G1 X27.14 Y3.16 Z1.42 F1800.0
G1 X27.4 Y3.16 Z1.42 F1800.0
G1 X27.57 Y2.19 Z1.42 F1800.0
M108 R30.0
M102
G1 X27.65 Y1.75 Z1.42 F1800.0
M108 R3.569
M103
G1 X29.7 Y5.41 Z1.42 F3000.0
M108 R30.0
M101
G1 X30.09 Y6.11 Z1.42 F3000.0
M108 R3.569
G1 X31.67 Y6.13 Z1.42 F1800.0
G1 X33.0 Y6.98 Z1.42 F1800.0
G1 X33.69 Y5.57 Z1.42 F1800.0
G1 X33.94 Y5.57 Z1.42 F1800.0
G1 X34.45 Y7.42 Z1.42 F1800.0
G1 X35.87 Y7.64 Z1.42 F1800.0
G1 X35.9 Y7.85 Z1.42 F1800.0
G1 X36.13 Y7.64 Z1.42 F1800.0
G1 X37.7 Y5.22 Z1.42 F1800.0
G1 X39.28 Y5.24 Z1.42 F1800.0
G1 X40.6 Y6.09 Z1.42 F1800.0
G1 X40.23 Y7.52 Z1.42 F1800.0
G1 X40.49 Y7.52 Z1.42 F1800.0
G1 X41.4 Y7.29 Z1.42 F1800.0
G1 X41.95 Y6.98 Z1.42 F1800.0
G1 X41.65 Y6.44 Z1.42 F1800.0
G1 X41.8 Y6.35 Z1.42 F1800.0
M108 R30.0
M102
G1 X42.18 Y6.11 Z1.42 F1800.0
M108 R3.569
M103
G1 X38.09 Y7.96 Z1.42 F3000.0
M108 R30.0
M101
G1 X37.36 Y8.29 Z1.42 F3000.0
M108 R3.569
G1 X38.94 Y8.31 Z1.42 F1800.0
G1 X40.23 Y7.75 Z1.42 F1800.0
G1 X40.49 Y7.75 Z1.42 F1800.0
G1 X41.56 Y8.29 Z1.42 F1800.0
G1 X40.26 Y9.16 Z1.42 F1800.0
G1 X41.29 Y9.16 Z1.42 F1800.0
G1 X41.3 Y9.16 Z1.42 F1800.0
M108 R30.0
M102
G1 X41.42 Y8.73 Z1.42 F1800.0
M108 R3.569
M103
G1 X23.6 Y4.13 Z1.42 F3000.0
M108 R30.0
M101
G1 X22.82 Y3.93 Z1.42 F3000.0
M108 R3.569
G1 X22.78 Y3.39 Z1.42 F1800.0
G1 X23.04 Y3.39 Z1.42 F1800.0
G1 X24.27 Y4.36 Z1.42 F1800.0
G1 X25.85 Y4.38 Z1.42 F1800.0
G1 X27.14 Y3.39 Z1.42 F1800.0
G1 X27.4 Y3.39 Z1.42 F1800.0
G1 X27.18 Y5.24 Z1.42 F1800.0
G1 X28.5 Y5.26 Z1.42 F1800.0
G1 X29.33 Y5.45 Z1.42 F1800.0
G1 X29.58 Y5.45 Z1.42 F1800.0
G1 X30.55 Y2.62 Z1.42 F1800.0
G1 X31.88 Y3.47 Z1.42 F1800.0
G1 X33.46 Y3.49 Z1.42 F1800.0
G1 X33.69 Y5.34 Z1.42 F1800.0
G1 X33.94 Y5.34 Z1.42 F1800.0
G1 X34.66 Y4.3 Z1.42 F1800.0
M108 R30.0
M102
G1 X34.91 Y3.93 Z1.42 F1800.0
M108 R3.569
M103
G1 X21.14 Y-0.21 Z1.42 F3000.0
M108 R30.0
M101
G1 X20.38 Y-0.44 Z1.42 F3000.0
M108 R3.569
G1 X18.8 Y-0.46 Z1.42 F1800.0
G1 X16.49 Y0.98 Z1.42 F1800.0
G1 X16.24 Y0.98 Z1.42 F1800.0
G1 X17.34 Y-0.89 Z1.42 F1800.0
G1 X16.02 Y-1.75 Z1.42 F1800.0
G1 X14.31 Y-1.09 Z1.42 F1800.0
G1 X14.05 Y-1.09 Z1.42 F1800.0
G1 X14.56 Y-2.18 Z1.42 F1800.0
G1 X11.19 Y0.44 Z1.42 F1800.0
G1 X9.95 Y-0.98 Z1.42 F1800.0
G1 X9.69 Y-0.98 Z1.42 F1800.0
G1 X8.7 Y-0.6 Z1.42 F1800.0
M108 R30.0
M102
G1 X8.28 Y-0.44 Z1.42 F1800.0
M108 R3.569
M103
G1 X6.23 Y-4.1 Z1.42 F3000.0
M108 R30.0
M101
G1 X5.84 Y-4.8 Z1.42 F3000.0
M108 R3.569
G1 X4.26 Y-4.82 Z1.42 F1800.0
G1 X3.4 Y-3.39 Z1.42 F1800.0
G1 X3.15 Y-3.39 Z1.42 F1800.0
G1 X2.93 Y-5.67 Z1.42 F1800.0
G1 X0.96 Y-5.45 Z1.42 F1800.0
G1 X0.02 Y-6.55 Z1.42 F1800.0
G1 X-0.44 Y-3.05 Z1.42 F1800.0
G1 X-0.96 Y-3.27 Z1.42 F1800.0
G1 X-1.22 Y-3.27 Z1.42 F1800.0
G1 X-1.76 Y-3.91 Z1.42 F1800.0
G1 X-2.91 Y-3.87 Z1.42 F1800.0
G1 X-3.15 Y-5.34 Z1.42 F1800.0
G1 X-3.4 Y-5.34 Z1.42 F1800.0
G1 X-4.67 Y-4.78 Z1.42 F1800.0
G1 X-5.8 Y-4.8 Z1.42 F1800.0
M108 R30.0
M102
G1 X-6.25 Y-4.8 Z1.42 F1800.0
M108 R3.569
M103
G1 X-8.31 Y-8.47 Z1.42 F3000.0
M108 R30.0
M101
G1 X-8.7 Y-9.16 Z1.42 F3000.0
M108 R3.569
G1 X-9.69 Y-7.75 Z1.42 F1800.0
G1 X-9.95 Y-7.75 Z1.42 F1800.0
G1 X-10.15 Y-9.6 Z1.42 F1800.0
G1 X-11.73 Y-9.62 Z1.42 F1800.0
G1 X-13.06 Y-10.47 Z1.42 F1800.0
G1 X-14.64 Y-10.49 Z1.42 F1800.0
G1 X-14.05 Y-7.64 Z1.42 F1800.0
G1 X-14.31 Y-7.64 Z1.42 F1800.0
G1 X-14.98 Y-7.42 Z1.42 F1800.0
G1 X-15.11 Y-7.83 Z1.42 F1800.0
G1 X-16.43 Y-7.85 Z1.42 F1800.0
G1 X-16.24 Y-9.7 Z1.42 F1800.0
G1 X-16.49 Y-9.7 Z1.42 F1800.0
G1 X-17.76 Y-8.71 Z1.42 F1800.0
G1 X-19.34 Y-8.73 Z1.42 F1800.0
G1 X-20.6 Y-9.7 Z1.42 F1800.0
G1 X-20.85 Y-9.7 Z1.42 F1800.0
G1 X-20.84 Y-9.61 Z1.42 F1800.0
M108 R30.0
M102
G1 X-20.79 Y-9.16 Z1.42 F1800.0
M108 R3.569
M103
G1 X-22.85 Y-12.83 Z1.42 F3000.0
M108 R30.0
M101
G1 X-23.24 Y-13.53 Z1.42 F3000.0
M108 R3.569
G1 X-24.82 Y-13.55 Z1.42 F1800.0
G1 X-26.14 Y-14.4 Z1.42 F1800.0
G1 X-27.14 Y-12.11 Z1.42 F1800.0
G1 X-27.4 Y-12.11 Z1.42 F1800.0
G1 X-27.6 Y-14.84 Z1.42 F1800.0
G1 X-29.33 Y-14.07 Z1.42 F1800.0
G1 X-29.58 Y-14.07 Z1.42 F1800.0
G1 X-30.74 Y-12.97 Z1.42 F1800.0
G1 X-31.03 Y-13.53 Z1.42 F1800.0
G1 X-29.58 Y-14.3 Z1.42 F1800.0
G1 X-29.33 Y-14.3 Z1.42 F1800.0
G1 X-29.05 Y-15.27 Z1.42 F1800.0
G1 X-30.51 Y-15.27 Z1.42 F1800.0
G1 X-30.51 Y-15.27 Z1.42 F1800.0
M108 R30.0
M102
G1 X-30.64 Y-14.84 Z1.42 F1800.0
M108 R3.569
M103
G1 X-28.53 Y-11.99 Z1.42 F3000.0
M108 R30.0
M101
G1 X-28.06 Y-11.35 Z1.42 F3000.0
M108 R3.569
G1 X-27.4 Y-11.88 Z1.42 F1800.0
G1 X-27.14 Y-11.88 Z1.42 F1800.0
G1 X-26.61 Y-10.91 Z1.42 F1800.0
G1 X-25.03 Y-10.89 Z1.42 F1800.0
G1 X-23.7 Y-10.04 Z1.42 F1800.0
G1 X-23.04 Y-12.0 Z1.42 F1800.0
G1 X-22.78 Y-12.0 Z1.42 F1800.0
G1 X-21.78 Y-13.09 Z1.42 F1800.0
G1 X-20.45 Y-12.24 Z1.42 F1800.0
G1 X-20.85 Y-9.93 Z1.42 F1800.0
G1 X-20.6 Y-9.93 Z1.42 F1800.0
G1 X-18.88 Y-12.22 Z1.42 F1800.0
G1 X-17.55 Y-11.36 Z1.42 F1800.0
G1 X-16.49 Y-9.93 Z1.42 F1800.0
G1 X-16.24 Y-9.93 Z1.42 F1800.0
G1 X-15.97 Y-11.35 Z1.42 F1800.0
M103
(</surroundingLoop>)
(</layer>)
(<layer> 1.74 )
(<surroundingLoop>)
(<boundaryPerimeter>)
(<boundaryPoint> X-32.437 Y-11.777 Z1.74 </boundaryPoint>)
(<boundaryPoint> X-30.952 Y-16.724 Z1.74 </boundaryPoint>)
(<boundaryPoint> X43.259 Y5.55 Z1.74 </boundaryPoint>)
(<boundaryPoint> X41.774 Y10.498 Z1.74 </boundaryPoint>)
(<loop> outer )
G1 X-16.2 Y-11.68 Z1.74 F3000.0
M101
G1 X-15.89 Y-11.59 Z1.74 F1800.0
G1 X42.53 Y5.95 Z1.74 F1800.0
G1 X41.38 Y9.76 Z1.74 F1800.0
G1 X-31.7 Y-12.17 Z1.74 F1800.0
G1 X-30.56 Y-15.99 Z1.74 F1800.0
G1 X-16.2 Y-11.68 Z1.74 F1800.0
M103
(</loop>)
(<perimeter> outer )
G1 X-16.09 Y-12.06 Z1.74 F3000.0
M101
G1 X-15.78 Y-11.97 Z1.74 F1800.0
G1 X43.01 Y5.68 Z1.74 F1800.0
G1 X41.64 Y10.25 Z1.74 F1800.0
G1 X-32.19 Y-11.91 Z1.74 F1800.0
G1 X-30.82 Y-16.48 Z1.74 F1800.0
G1 X-16.52 Y-12.19 Z1.74 F1800.0
M108 R30.0
M102
G1 X-16.09 Y-12.06 Z1.74 F1800.0
M108 R3.569
M103
(</perimeter>)
(</boundaryPerimeter>)
G1 X-16.1 Y-8.56 Z1.74 F3000.0
M108 R30.0
M101
G1 X-16.1 Y-7.76 Z1.74 F3000.0
M108 R3.569
G1 X-16.1 Y-11.39 Z1.74 F1800.0
M103
G1 X-16.49 Y-11.5 Z1.74 F3000.0
M101
G1 X-16.49 Y-7.87 Z1.74 F1800.0
M103
G1 X-16.89 Y-7.99 Z1.74 F3000.0
M101
G1 X-16.89 Y-11.62 Z1.74 F1800.0
M103
G1 X-17.28 Y-11.74 Z1.74 F3000.0
M101
G1 X-17.28 Y-8.11 Z1.74 F1800.0
M103
G1 X-17.67 Y-8.23 Z1.74 F3000.0
M101
G1 X-17.67 Y-11.86 Z1.74 F1800.0
M103
G1 X-18.06 Y-11.97 Z1.74 F3000.0
M101
G1 X-18.06 Y-8.35 Z1.74 F1800.0
M103
G1 X-18.46 Y-8.46 Z1.74 F3000.0
M101
G1 X-18.46 Y-12.09 Z1.74 F1800.0
M103
G1 X-18.85 Y-12.21 Z1.74 F3000.0
M101
G1 X-18.85 Y-8.58 Z1.74 F1800.0
M103
G1 X-19.24 Y-8.7 Z1.74 F3000.0
M101
G1 X-19.24 Y-12.33 Z1.74 F1800.0
M103
G1 X-19.64 Y-12.45 Z1.74 F3000.0
M101
G1 X-19.64 Y-8.82 Z1.74 F1800.0
M103
G1 X-20.03 Y-8.93 Z1.74 F3000.0
M101
G1 X-20.03 Y-12.56 Z1.74 F1800.0
M103
G1 X-20.42 Y-12.68 Z1.74 F3000.0
M101
G1 X-20.42 Y-9.05 Z1.74 F1800.0
M103
G1 X-20.81 Y-9.17 Z1.74 F3000.0
M101
G1 X-20.81 Y-12.8 Z1.74 F1800.0
M103
G1 X-21.21 Y-12.92 Z1.74 F3000.0
M101
G1 X-21.21 Y-9.29 Z1.74 F1800.0
M103
G1 X-21.6 Y-9.41 Z1.74 F3000.0
M101
G1 X-21.6 Y-13.04 Z1.74 F1800.0
M103
G1 X-21.99 Y-13.15 Z1.74 F3000.0
M101
G1 X-21.99 Y-9.52 Z1.74 F1800.0
M103
G1 X-22.38 Y-9.64 Z1.74 F3000.0
M101
G1 X-22.38 Y-13.27 Z1.74 F1800.0
M103
G1 X-22.78 Y-13.39 Z1.74 F3000.0
M101
G1 X-22.78 Y-9.76 Z1.74 F1800.0
M103
G1 X-23.17 Y-9.88 Z1.74 F3000.0
M101
G1 X-23.17 Y-13.51 Z1.74 F1800.0
M103
G1 X-23.56 Y-13.62 Z1.74 F3000.0
M101
G1 X-23.56 Y-9.99 Z1.74 F1800.0
M103
G1 X-23.96 Y-10.11 Z1.74 F3000.0
M101
G1 X-23.96 Y-13.74 Z1.74 F1800.0
M103
G1 X-24.35 Y-13.86 Z1.74 F3000.0
M101
G1 X-24.35 Y-10.23 Z1.74 F1800.0
M103
G1 X-24.74 Y-10.35 Z1.74 F3000.0
M101
G1 X-24.74 Y-13.98 Z1.74 F1800.0
M103
G1 X-25.13 Y-14.1 Z1.74 F3000.0
M101
G1 X-25.13 Y-10.47 Z1.74 F1800.0
M103
G1 X-25.53 Y-10.58 Z1.74 F3000.0
M101
G1 X-25.53 Y-14.21 Z1.74 F1800.0
M103
G1 X-25.92 Y-14.33 Z1.74 F3000.0
M101
G1 X-25.92 Y-10.7 Z1.74 F1800.0
M103
G1 X-26.31 Y-10.82 Z1.74 F3000.0
M101
G1 X-26.31 Y-14.45 Z1.74 F1800.0
M103
G1 X-26.7 Y-14.57 Z1.74 F3000.0
M101
G1 X-26.7 Y-10.94 Z1.74 F1800.0
M103
G1 X-27.1 Y-11.06 Z1.74 F3000.0
M101
G1 X-27.1 Y-14.69 Z1.74 F1800.0
M103
G1 X-27.49 Y-14.8 Z1.74 F3000.0
M101
G1 X-27.49 Y-11.17 Z1.74 F1800.0
M103
G1 X-27.88 Y-11.29 Z1.74 F3000.0
M101
G1 X-27.88 Y-14.92 Z1.74 F1800.0
M103
G1 X-28.27 Y-15.04 Z1.74 F3000.0
M101
G1 X-28.27 Y-11.41 Z1.74 F1800.0
M103
G1 X-28.67 Y-11.53 Z1.74 F3000.0
M101
G1 X-28.67 Y-15.16 Z1.74 F1800.0
M103
G1 X-29.06 Y-15.27 Z1.74 F3000.0
M101
G1 X-29.06 Y-11.65 Z1.74 F1800.0
M103
G1 X-29.45 Y-11.76 Z1.74 F3000.0
M101
G1 X-29.45 Y-15.39 Z1.74 F1800.0
M103
G1 X-29.85 Y-15.51 Z1.74 F3000.0
M101
G1 X-29.85 Y-11.88 Z1.74 F1800.0
M103
G1 X-30.24 Y-12.0 Z1.74 F3000.0
M101
G1 X-30.24 Y-15.63 Z1.74 F1800.0
G1 X-30.63 Y-14.86 Z1.74 F1800.0
G1 X-30.63 Y-12.12 Z1.74 F1800.0
M103
G1 X-31.02 Y-12.23 Z1.74 F3000.0
M101
G1 X-31.02 Y-13.1 Z1.74 F1800.0
M108 R30.0
M102
G1 X-31.02 Y-13.55 Z1.74 F1800.0
M108 R3.569
M103
G1 X-16.5 Y-11.39 Z1.74 F3000.0
M108 R30.0
M101
G1 X-15.71 Y-11.27 Z1.74 F3000.0
M108 R3.569
G1 X-15.71 Y-7.64 Z1.74 F1800.0
M103
G1 X-15.32 Y-7.52 Z1.74 F3000.0
M101
G1 X-15.32 Y-11.15 Z1.74 F1800.0
M103
G1 X-14.92 Y-11.03 Z1.74 F3000.0
M101
G1 X-14.92 Y-7.4 Z1.74 F1800.0
M103
G1 X-14.53 Y-7.28 Z1.74 F3000.0
M101
G1 X-14.53 Y-10.91 Z1.74 F1800.0
M103
G1 X-14.14 Y-10.8 Z1.74 F3000.0
M101
G1 X-14.14 Y-7.17 Z1.74 F1800.0
M103
G1 X-13.74 Y-7.05 Z1.74 F3000.0
M101
G1 X-13.74 Y-10.68 Z1.74 F1800.0
M103
G1 X-13.35 Y-10.56 Z1.74 F3000.0
M101
G1 X-13.35 Y-6.93 Z1.74 F1800.0
M103
G1 X-12.96 Y-6.81 Z1.74 F3000.0
M101
G1 X-12.96 Y-10.44 Z1.74 F1800.0
M103
G1 X-12.57 Y-10.32 Z1.74 F3000.0
M101
G1 X-12.57 Y-6.69 Z1.74 F1800.0
M103
G1 X-12.17 Y-6.58 Z1.74 F3000.0
M101
G1 X-12.17 Y-10.21 Z1.74 F1800.0
M103
G1 X-11.78 Y-10.09 Z1.74 F3000.0
M101
G1 X-11.78 Y-6.46 Z1.74 F1800.0
M103
G1 X-11.39 Y-6.34 Z1.74 F3000.0
M101
G1 X-11.39 Y-9.97 Z1.74 F1800.0
M103
G1 X-11.0 Y-9.85 Z1.74 F3000.0
M101
G1 X-11.0 Y-6.22 Z1.74 F1800.0
M103
G1 X-10.6 Y-6.11 Z1.74 F3000.0
M101
G1 X-10.6 Y-9.74 Z1.74 F1800.0
M103
G1 X-10.21 Y-9.62 Z1.74 F3000.0
M101
G1 X-10.21 Y-5.99 Z1.74 F1800.0
M103
G1 X-9.82 Y-5.87 Z1.74 F3000.0
M101
G1 X-9.82 Y-9.5 Z1.74 F1800.0
M103
G1 X-9.43 Y-9.38 Z1.74 F3000.0
M101
G1 X-9.43 Y-5.75 Z1.74 F1800.0
M103
G1 X-9.03 Y-5.63 Z1.74 F3000.0
M101
G1 X-9.03 Y-9.26 Z1.74 F1800.0
M103
G1 X-8.64 Y-9.15 Z1.74 F3000.0
M101
G1 X-8.64 Y-5.52 Z1.74 F1800.0
M103
G1 X-8.25 Y-5.4 Z1.74 F3000.0
M101
G1 X-8.25 Y-9.03 Z1.74 F1800.0
M103
G1 X-7.85 Y-8.91 Z1.74 F3000.0
M101
G1 X-7.85 Y-5.28 Z1.74 F1800.0
M103
G1 X-7.46 Y-5.16 Z1.74 F3000.0
M101
G1 X-7.46 Y-8.79 Z1.74 F1800.0
M103
G1 X-7.07 Y-8.67 Z1.74 F3000.0
M101
G1 X-7.07 Y-5.04 Z1.74 F1800.0
M103
G1 X-6.68 Y-4.93 Z1.74 F3000.0
M101
G1 X-6.68 Y-8.56 Z1.74 F1800.0
M103
G1 X-6.28 Y-8.44 Z1.74 F3000.0
M101
G1 X-6.28 Y-4.81 Z1.74 F1800.0
M103
G1 X-5.89 Y-4.69 Z1.74 F3000.0
M101
G1 X-5.89 Y-8.32 Z1.74 F1800.0
M103
G1 X-5.5 Y-8.2 Z1.74 F3000.0
M101
G1 X-5.5 Y-4.57 Z1.74 F1800.0
M103
G1 X-5.11 Y-4.46 Z1.74 F3000.0
M101
G1 X-5.11 Y-8.08 Z1.74 F1800.0
M103
G1 X-4.71 Y-7.97 Z1.74 F3000.0
M101
G1 X-4.71 Y-4.34 Z1.74 F1800.0
M103
G1 X-4.32 Y-4.22 Z1.74 F3000.0
M101
G1 X-4.32 Y-7.85 Z1.74 F1800.0
M103
G1 X-3.93 Y-7.73 Z1.74 F3000.0
M101
G1 X-3.93 Y-4.1 Z1.74 F1800.0
M103
G1 X-3.53 Y-3.98 Z1.74 F3000.0
M101
G1 X-3.53 Y-7.61 Z1.74 F1800.0
M103
G1 X-3.14 Y-7.5 Z1.74 F3000.0
M101
G1 X-3.14 Y-3.87 Z1.74 F1800.0
M103
G1 X-2.75 Y-3.75 Z1.74 F3000.0
M101
G1 X-2.75 Y-7.38 Z1.74 F1800.0
M103
G1 X-2.36 Y-7.26 Z1.74 F3000.0
M101
G1 X-2.36 Y-3.63 Z1.74 F1800.0
M103
G1 X-1.96 Y-3.51 Z1.74 F3000.0
M101
G1 X-1.96 Y-7.14 Z1.74 F1800.0
M103
G1 X-1.57 Y-7.02 Z1.74 F3000.0
M101
G1 X-1.57 Y-3.39 Z1.74 F1800.0
M103
G1 X-1.18 Y-3.28 Z1.74 F3000.0
M101
G1 X-1.18 Y-6.91 Z1.74 F1800.0
M103
G1 X-0.79 Y-6.79 Z1.74 F3000.0
M101
G1 X-0.79 Y-3.61 Z1.74 F1800.0
M108 R30.0
M102
G1 X-0.79 Y-3.16 Z1.74 F1800.0
M108 R3.569
M103
G1 X-0.37 Y-3.04 Z1.74 F3000.0
M108 R30.0
M101
G1 X0.39 Y-2.81 Z1.74 F3000.0
M108 R3.569
G1 X0.39 Y-6.43 Z1.74 F1800.0
M103
G1 X0.79 Y-6.32 Z1.74 F3000.0
M101
G1 X0.79 Y-2.69 Z1.74 F1800.0
M103
G1 X1.18 Y-2.57 Z1.74 F3000.0
M101
G1 X1.18 Y-6.2 Z1.74 F1800.0
M103
G1 X1.96 Y-5.96 Z1.74 F3000.0
M101
G1 X1.96 Y-2.33 Z1.74 F1800.0
G1 X1.57 Y-2.45 Z1.74 F1800.0
G1 X1.57 Y-6.08 Z1.74 F1800.0
M103
G1 X2.36 Y-5.85 Z1.74 F3000.0
M101
G1 X2.36 Y-2.22 Z1.74 F1800.0
M103
G1 X2.75 Y-2.1 Z1.74 F3000.0
M101
G1 X2.75 Y-5.73 Z1.74 F1800.0
M103
G1 X3.14 Y-5.61 Z1.74 F3000.0
M101
G1 X3.14 Y-2.43 Z1.74 F1800.0
M108 R30.0
M102
G1 X3.14 Y-1.98 Z1.74 F1800.0
M108 R3.569
M103
G1 X3.55 Y-1.86 Z1.74 F3000.0
M108 R30.0
M101
G1 X4.32 Y-1.63 Z1.74 F3000.0
M108 R3.569
G1 X4.32 Y-5.26 Z1.74 F1800.0
M103
G1 X4.71 Y-5.14 Z1.74 F3000.0
M101
G1 X4.71 Y-1.51 Z1.74 F1800.0
M103
G1 X5.11 Y-1.39 Z1.74 F3000.0
M101
G1 X5.11 Y-5.02 Z1.74 F1800.0
M103
G1 X5.89 Y-4.78 Z1.74 F3000.0
M101
G1 X5.89 Y-1.16 Z1.74 F1800.0
G1 X5.5 Y-1.27 Z1.74 F1800.0
G1 X5.5 Y-4.9 Z1.74 F1800.0
M103
G1 X6.28 Y-4.67 Z1.74 F3000.0
M101
G1 X6.28 Y-1.04 Z1.74 F1800.0
M103
G1 X6.68 Y-0.92 Z1.74 F3000.0
M101
G1 X6.68 Y-4.55 Z1.74 F1800.0
M103
G1 X7.07 Y-4.43 Z1.74 F3000.0
M101
G1 X7.07 Y-1.25 Z1.74 F1800.0
M108 R30.0
M102
G1 X7.07 Y-0.8 Z1.74 F1800.0
M108 R3.569
M103
G1 X7.48 Y-0.68 Z1.74 F3000.0
M108 R30.0
M101
G1 X8.25 Y-0.45 Z1.74 F3000.0
M108 R3.569
G1 X8.25 Y-4.08 Z1.74 F1800.0
M103
G1 X7.85 Y-4.2 Z1.74 F3000.0
M101
G1 X7.85 Y-0.56 Z1.74 F1800.0
G1 X7.46 Y-0.68 Z1.74 F1800.0
G1 X7.46 Y-3.86 Z1.74 F1800.0
M108 R30.0
M102
G1 X7.46 Y-4.31 Z1.74 F1800.0
M108 R3.569
M103
G1 X7.87 Y-4.19 Z1.74 F3000.0
M108 R30.0
M101
