(** This GCode was generated by ReplicatorG 0034 **)
(*  using Skeinforge (35)  *)
(*  for a Single headed Thing-O-Matic  *)
(*  on 2012/04/24 22:27:47 (-0400) *)
(<alteration>)
(**** beginning of start.gcode ****)
(This file is for a MakerBot Thing-O-Matic)
(**** begin initialization commands ****)
G21 (set units to mm)
G90 (set positioning to absolute)
M108 R5.0 (set extruder speed)
M103 (Make sure extruder is off)
M104 S225 T0 (set extruder temperature)
M109 S120 T0 (set heated-build-platform temperature)
(**** end initialization commands ****)
(**** begin homing ****)
G162 Z F1000 (home Z axis maximum)
G92 Z10 (set Z to 0)
G1 Z0.0 (move z down 10)
G162 Z F150 (home Z axis maximum)
G161 X Y F2500 (home XY axes minimum)
M132 X Y Z A B (Recall stored home offsets for XYZAB axis)
(**** end homing ****)
(**** begin pre-wipe commands ****)
( Some people have had problems with the nozzle hitting )
( bolts or wipers during this pre-extrusion warmup.     )
( If this happens to you, you can change the values for )
( the X and Y positions in the following code.          )
( The goal is to have the toolhead wipe its initial     )
( extrusion near the edge of the platform, [anchor it]  )
( so as not to have it interfere with the print.        )
( This file can be found in:                            )
( replicatorg/skein_engines/skeinforge-##/skeinforge_application/ )
( prefs/<profile name [e.g. Thingomatic-ABP-Mk7]>/alterations )
G1 X25.0 Y-60.0 Z10.0 F3300.0 (move to waiting position)
M6 T0 (wait for toolhead parts, nozzle, HBP, etc., to reach temperature)
G0 X25 Y-57 (Position Nozzle)
G0 Z0.6     (Position Height)
M108 R4.0   (Set Extruder Speed)
M101        (Start Extruder)
G4 P1500    (Create Anchor)
(**** end pre-wipe commands ****)
(**** end of start.gcode ****)
(</alteration>)
(<creation> skeinforge </creation>)
(<version> 10.11.05 </version>)
(<extruderInitialization>)
(<craftTypeName> extrusion </craftTypeName>)
M105
(<bridgeWidthMultiplier> 1.0 </bridgeWidthMultiplier>)
(<decimalPlacesCarried> 3 </decimalPlacesCarried>)
(<layerThickness> 0.32 </layerThickness>)
(<threadSequenceString> loops perimeter infill </threadSequenceString>)
(<operatingFeedRatePerSecond> 30.0 </operatingFeedRatePerSecond>)
(<operatingFlowRate> 3.56914845556 </operatingFlowRate>)
(<orbitalFeedRatePerSecond> 15.0 </orbitalFeedRatePerSecond>)
(<travelFeedRatePerSecond> 50.0 </travelFeedRatePerSecond>)
(<perimeterWidth> 0.393 </perimeterWidth>)
(<profileName> ABS </profileName>)
(<procedureDone> carve,bottom </procedureDone>)
(<procedureDone> preface </procedureDone>)
(<procedureDone> inset </procedureDone>)
(<procedureDone> fill </procedureDone>)
(<procedureDone> speed </procedureDone>)
(<procedureDone> raft </procedureDone>)
(<procedureDone> jitter </procedureDone>)
(<procedureDone> comb </procedureDone>)
(<procedureDone> cool </procedureDone>)
(<procedureDone> outline </procedureDone>)
(<procedureDone> reversal </procedureDone>)
(<procedureDone> export </procedureDone>)
(</extruderInitialization>)
(<extrusion>)
;M113 S1.0
M108 R3.569
(<layer> 0.46 )
(<surroundingLoop>)
(<boundaryPerimeter>)
(<boundaryPoint> X18.448 Y7.14 Z0.46 </boundaryPoint>)
(<boundaryPoint> X-18.448 Y7.14 Z0.46 </boundaryPoint>)
(<boundaryPoint> X-18.448 Y-7.14 Z0.46 </boundaryPoint>)
(<boundaryPoint> X18.448 Y-7.14 Z0.46 </boundaryPoint>)
(<loop> outer )
M108 R2.141
G1 X20.25 Y-8.94 Z0.46 F1080.0
M101
G1 X-20.25 Y-8.94 Z0.46 F1080.0
G1 X-20.25 Y8.94 Z0.46 F1080.0
G1 X20.25 Y8.94 Z0.46 F1080.0
G1 X20.25 Y-8.67 Z0.46 F1080.0
M108 R30.0
M102
G1 X20.25 Y-8.94 Z0.46 F1080.0
M108 R2.141
M103
G1 X0.54 Y6.07 Z0.46 F3000.0
M108 R30.0
M101
G1 X-0.09 Y6.55 Z0.46 F3000.0
M108 R2.141
G1 X-17.86 Y6.55 Z0.46 F1080.0
G1 X-17.86 Y-6.55 Z0.46 F1080.0
G1 X17.86 Y-6.55 Z0.46 F1080.0
G1 X17.86 Y6.55 Z0.46 F1080.0
G1 X0.0 Y6.55 Z0.46 F1080.0
G1 X-0.09 Y6.55 Z0.46 F1080.0
M103
(</loop>)
(<perimeter> outer )
G1 X0.0 Y6.94 Z0.46 F3000.0
M101
G1 X-18.25 Y6.94 Z0.46 F1080.0
G1 X-18.25 Y-6.94 Z0.46 F1080.0
G1 X18.25 Y-6.94 Z0.46 F1080.0
G1 X18.25 Y6.94 Z0.46 F1080.0
G1 X0.27 Y6.94 Z0.46 F1080.0
M108 R30.0
M102
G1 X0.0 Y6.94 Z0.46 F1080.0
M108 R2.141
M103
(</perimeter>)
(</boundaryPerimeter>)
G1 X0.0 Y-5.82 Z0.46 F1800.0
M108 R30.0
M101
G1 X-0.0 Y-6.3 Z0.46 F1800.0
M108 R2.141
G1 X0.0 Y6.3 Z0.46 F1080.0
M103
G1 X-0.39 Y6.3 Z0.46 F1800.0
M101
G1 X-0.39 Y-6.3 Z0.46 F1080.0
M103
G1 X-0.79 Y-6.3 Z0.46 F1800.0
M101
G1 X-0.79 Y6.3 Z0.46 F1080.0
M103
G1 X-1.18 Y6.3 Z0.46 F1800.0
M101
G1 X-1.18 Y-6.3 Z0.46 F1080.0
M103
G1 X-1.57 Y-6.3 Z0.46 F1800.0
M101
G1 X-1.57 Y6.3 Z0.46 F1080.0
M103
G1 X-1.96 Y6.3 Z0.46 F1800.0
M101
G1 X-1.96 Y-6.3 Z0.46 F1080.0
M103
G1 X-2.36 Y-6.3 Z0.46 F1800.0
M101
G1 X-2.36 Y6.3 Z0.46 F1080.0
M103
G1 X-2.75 Y6.3 Z0.46 F1800.0
M101
G1 X-2.75 Y-6.3 Z0.46 F1080.0
M103
G1 X-3.14 Y-6.3 Z0.46 F1800.0
M101
G1 X-3.14 Y6.3 Z0.46 F1080.0
M103
G1 X-3.53 Y6.3 Z0.46 F1800.0
M101
G1 X-3.53 Y-6.3 Z0.46 F1080.0
M103
G1 X-3.93 Y-6.3 Z0.46 F1800.0
M101
G1 X-3.93 Y6.3 Z0.46 F1080.0
M103
G1 X-4.32 Y6.3 Z0.46 F1800.0
M101
G1 X-4.32 Y-6.3 Z0.46 F1080.0
M103
G1 X-4.71 Y-6.3 Z0.46 F1800.0
M101
G1 X-4.71 Y6.3 Z0.46 F1080.0
M103
G1 X-5.11 Y6.3 Z0.46 F1800.0
M101
G1 X-5.11 Y-6.3 Z0.46 F1080.0
M103
G1 X-5.5 Y-6.3 Z0.46 F1800.0
M101
G1 X-5.5 Y6.3 Z0.46 F1080.0
M103
G1 X-5.89 Y6.3 Z0.46 F1800.0
M101
G1 X-5.89 Y-6.3 Z0.46 F1080.0
M103
G1 X-6.28 Y-6.3 Z0.46 F1800.0
M101
G1 X-6.28 Y6.3 Z0.46 F1080.0
M103
G1 X-6.68 Y6.3 Z0.46 F1800.0
M101
G1 X-6.68 Y-6.3 Z0.46 F1080.0
M103
G1 X-7.07 Y-6.3 Z0.46 F1800.0
M101
G1 X-7.07 Y6.3 Z0.46 F1080.0
M103
G1 X-7.46 Y6.3 Z0.46 F1800.0
M101
G1 X-7.46 Y-6.3 Z0.46 F1080.0
M103
G1 X-7.85 Y-6.3 Z0.46 F1800.0
M101
G1 X-7.85 Y6.3 Z0.46 F1080.0
M103
G1 X-8.25 Y6.3 Z0.46 F1800.0
M101
G1 X-8.25 Y-6.3 Z0.46 F1080.0
M103
G1 X-8.64 Y-6.3 Z0.46 F1800.0
M101
G1 X-8.64 Y6.3 Z0.46 F1080.0
M103
G1 X-9.03 Y6.3 Z0.46 F1800.0
M101
G1 X-9.03 Y-6.3 Z0.46 F1080.0
M103
G1 X-9.43 Y-6.3 Z0.46 F1800.0
M101
G1 X-9.43 Y6.3 Z0.46 F1080.0
M103
G1 X-9.82 Y6.3 Z0.46 F1800.0
M101
G1 X-9.82 Y-6.3 Z0.46 F1080.0
M103
G1 X-10.21 Y-6.3 Z0.46 F1800.0
M101
G1 X-10.21 Y6.3 Z0.46 F1080.0
M103
G1 X-10.6 Y6.3 Z0.46 F1800.0
M101
G1 X-10.6 Y-6.3 Z0.46 F1080.0
M103
G1 X-11.0 Y-6.3 Z0.46 F1800.0
M101
G1 X-11.0 Y6.3 Z0.46 F1080.0
M103
G1 X-11.39 Y6.3 Z0.46 F1800.0
M101
G1 X-11.39 Y-6.3 Z0.46 F1080.0
M103
G1 X-11.78 Y-6.3 Z0.46 F1800.0
M101
G1 X-11.78 Y6.3 Z0.46 F1080.0
M103
G1 X-12.17 Y6.3 Z0.46 F1800.0
M101
G1 X-12.17 Y-6.3 Z0.46 F1080.0
M103
G1 X-12.57 Y-6.3 Z0.46 F1800.0
M101
G1 X-12.57 Y6.3 Z0.46 F1080.0
M103
G1 X-12.96 Y6.3 Z0.46 F1800.0
M101
G1 X-12.96 Y-6.3 Z0.46 F1080.0
M103
G1 X-13.35 Y-6.3 Z0.46 F1800.0
M101
G1 X-13.35 Y6.3 Z0.46 F1080.0
M103
G1 X-13.74 Y6.3 Z0.46 F1800.0
M101
G1 X-13.74 Y-6.3 Z0.46 F1080.0
M103
G1 X-14.14 Y-6.3 Z0.46 F1800.0
M101
G1 X-14.14 Y6.3 Z0.46 F1080.0
M103
G1 X-14.53 Y6.3 Z0.46 F1800.0
M101
G1 X-14.53 Y-6.3 Z0.46 F1080.0
M103
G1 X-14.92 Y-6.3 Z0.46 F1800.0
M101
G1 X-14.92 Y6.3 Z0.46 F1080.0
M103
G1 X-15.32 Y6.3 Z0.46 F1800.0
M101
G1 X-15.32 Y-6.3 Z0.46 F1080.0
M103
G1 X-15.71 Y-6.3 Z0.46 F1800.0
M101
G1 X-15.71 Y6.3 Z0.46 F1080.0
M103
G1 X-16.1 Y6.3 Z0.46 F1800.0
M101
G1 X-16.1 Y-6.3 Z0.46 F1080.0
M103
G1 X-16.49 Y-6.3 Z0.46 F1800.0
M101
G1 X-16.49 Y6.3 Z0.46 F1080.0
M103
G1 X-16.89 Y6.3 Z0.46 F1800.0
M101
G1 X-16.89 Y-6.3 Z0.46 F1080.0
M103
G1 X-17.28 Y-6.3 Z0.46 F1800.0
M101
G1 X-17.28 Y6.03 Z0.46 F1080.0
M108 R30.0
M102
G1 X-17.28 Y6.3 Z0.46 F1080.0
M108 R2.141
M103
G1 X-0.09 Y6.3 Z0.46 F1800.0
M108 R30.0
M101
G1 X0.39 Y6.3 Z0.46 F1800.0
M108 R2.141
G1 X0.39 Y-6.3 Z0.46 F1080.0
M103
G1 X0.79 Y-6.3 Z0.46 F1800.0
M101
G1 X0.79 Y6.3 Z0.46 F1080.0
M103
G1 X1.18 Y6.3 Z0.46 F1800.0
M101
G1 X1.18 Y-6.3 Z0.46 F1080.0
M103
G1 X1.57 Y-6.3 Z0.46 F1800.0
M101
G1 X1.57 Y6.3 Z0.46 F1080.0
M103
G1 X1.96 Y6.3 Z0.46 F1800.0
M101
G1 X1.96 Y-6.3 Z0.46 F1080.0
M103
G1 X2.36 Y-6.3 Z0.46 F1800.0
M101
G1 X2.36 Y6.3 Z0.46 F1080.0
M103
G1 X2.75 Y6.3 Z0.46 F1800.0
M101
G1 X2.75 Y-6.3 Z0.46 F1080.0
M103
G1 X3.14 Y-6.3 Z0.46 F1800.0
M101
G1 X3.14 Y6.3 Z0.46 F1080.0
M103
G1 X3.53 Y6.3 Z0.46 F1800.0
M101
G1 X3.53 Y-6.3 Z0.46 F1080.0
M103
G1 X3.93 Y-6.3 Z0.46 F1800.0
M101
G1 X3.93 Y6.3 Z0.46 F1080.0
M103
G1 X4.32 Y6.3 Z0.46 F1800.0
M101
G1 X4.32 Y-6.3 Z0.46 F1080.0
M103
G1 X4.71 Y-6.3 Z0.46 F1800.0
M101
G1 X4.71 Y6.3 Z0.46 F1080.0
M103
G1 X5.11 Y6.3 Z0.46 F1800.0
M101
G1 X5.11 Y-6.3 Z0.46 F1080.0
M103
G1 X5.5 Y-6.3 Z0.46 F1800.0
M101
G1 X5.5 Y6.3 Z0.46 F1080.0
M103
G1 X5.89 Y6.3 Z0.46 F1800.0
M101
G1 X5.89 Y-6.3 Z0.46 F1080.0
M103
G1 X6.28 Y-6.3 Z0.46 F1800.0
M101
G1 X6.28 Y6.3 Z0.46 F1080.0
M103
G1 X6.68 Y6.3 Z0.46 F1800.0
M101
G1 X6.68 Y-6.3 Z0.46 F1080.0
M103
G1 X7.07 Y-6.3 Z0.46 F1800.0
M101
G1 X7.07 Y6.3 Z0.46 F1080.0
M103
G1 X7.46 Y6.3 Z0.46 F1800.0
M101
G1 X7.46 Y-6.3 Z0.46 F1080.0
M103
G1 X7.85 Y-6.3 Z0.46 F1800.0
M101
G1 X7.85 Y6.3 Z0.46 F1080.0
M103
G1 X8.25 Y6.3 Z0.46 F1800.0
M101
G1 X8.25 Y-6.3 Z0.46 F1080.0
M103
G1 X8.64 Y-6.3 Z0.46 F1800.0
M101
G1 X8.64 Y6.3 Z0.46 F1080.0
M103
G1 X9.03 Y6.3 Z0.46 F1800.0
M101
G1 X9.03 Y-6.3 Z0.46 F1080.0
M103
G1 X9.43 Y-6.3 Z0.46 F1800.0
M101
G1 X9.43 Y6.3 Z0.46 F1080.0
M103
G1 X9.82 Y6.3 Z0.46 F1800.0
M101
G1 X9.82 Y-6.3 Z0.46 F1080.0
M103
G1 X10.21 Y-6.3 Z0.46 F1800.0
M101
G1 X10.21 Y6.3 Z0.46 F1080.0
M103
G1 X10.6 Y6.3 Z0.46 F1800.0
M101
G1 X10.6 Y-6.3 Z0.46 F1080.0
M103
G1 X11.0 Y-6.3 Z0.46 F1800.0
M101
G1 X11.0 Y6.3 Z0.46 F1080.0
M103
G1 X11.39 Y6.3 Z0.46 F1800.0
M101
G1 X11.39 Y-6.3 Z0.46 F1080.0
M103
G1 X11.78 Y-6.3 Z0.46 F1800.0
M101
G1 X11.78 Y6.3 Z0.46 F1080.0
M103
G1 X12.17 Y6.3 Z0.46 F1800.0
M101
G1 X12.17 Y-6.3 Z0.46 F1080.0
M103
G1 X12.57 Y-6.3 Z0.46 F1800.0
M101
G1 X12.57 Y6.3 Z0.46 F1080.0
M103
G1 X12.96 Y6.3 Z0.46 F1800.0
M101
G1 X12.96 Y-6.3 Z0.46 F1080.0
M103
G1 X13.35 Y-6.3 Z0.46 F1800.0
M101
G1 X13.35 Y6.3 Z0.46 F1080.0
M103
G1 X13.74 Y6.3 Z0.46 F1800.0
M101
G1 X13.74 Y-6.3 Z0.46 F1080.0
M103
G1 X14.14 Y-6.3 Z0.46 F1800.0
M101
G1 X14.14 Y6.3 Z0.46 F1080.0
M103
G1 X14.53 Y6.3 Z0.46 F1800.0
M101
G1 X14.53 Y-6.3 Z0.46 F1080.0
M103
G1 X14.92 Y-6.3 Z0.46 F1800.0
M101
G1 X14.92 Y6.3 Z0.46 F1080.0
M103
G1 X15.32 Y6.3 Z0.46 F1800.0
M101
G1 X15.32 Y-6.3 Z0.46 F1080.0
M103
G1 X15.71 Y-6.3 Z0.46 F1800.0
M101
G1 X15.71 Y6.3 Z0.46 F1080.0
M103
G1 X16.1 Y6.3 Z0.46 F1800.0
M101
G1 X16.1 Y-6.3 Z0.46 F1080.0
M103
G1 X16.49 Y-6.3 Z0.46 F1800.0
M101
G1 X16.49 Y6.3 Z0.46 F1080.0
M103
G1 X16.89 Y6.3 Z0.46 F1800.0
M101
G1 X16.89 Y-6.3 Z0.46 F1080.0
M103
G1 X17.28 Y-6.3 Z0.46 F1800.0
M101
G1 X17.28 Y6.3 Z0.46 F1080.0
M103
(</surroundingLoop>)
(</layer>)
(<layer> 0.78 )
(<surroundingLoop>)
(<boundaryPerimeter>)
(<boundaryPoint> X18.448 Y7.14 Z0.78 </boundaryPoint>)
(<boundaryPoint> X-18.448 Y7.14 Z0.78 </boundaryPoint>)
(<boundaryPoint> X-18.448 Y-7.14 Z0.78 </boundaryPoint>)
(<boundaryPoint> X18.448 Y-7.14 Z0.78 </boundaryPoint>)
(<loop> outer )
M108 R3.569
G1 X17.49 Y6.55 Z0.78 F3000.0
M101
G1 X17.28 Y6.55 Z0.78 F1800.0
G1 X-17.86 Y6.55 Z0.78 F1800.0
G1 X-17.86 Y-6.55 Z0.78 F1800.0
G1 X17.86 Y-6.55 Z0.78 F1800.0
G1 X17.86 Y6.55 Z0.78 F1800.0
G1 X17.49 Y6.55 Z0.78 F1800.0
M103
(</loop>)
(<perimeter> outer )
G1 X17.49 Y6.94 Z0.78 F3000.0
M101
G1 X17.28 Y6.94 Z0.78 F1800.0
G1 X-18.25 Y6.94 Z0.78 F1800.0
G1 X-18.25 Y-6.94 Z0.78 F1800.0
G1 X18.25 Y-6.94 Z0.78 F1800.0
G1 X18.25 Y6.94 Z0.78 F1800.0
G1 X17.49 Y6.94 Z0.78 F1800.0
M103
(</perimeter>)
(</boundaryPerimeter>)
G1 X17.6 Y6.28 Z0.78 F3000.0
M101
G1 X-17.6 Y6.28 Z0.78 F1800.0
M103
G1 X-17.6 Y5.89 Z0.78 F3000.0
M101
G1 X17.6 Y5.89 Z0.78 F1800.0
M103
G1 X17.6 Y5.5 Z0.78 F3000.0
M101
G1 X-17.6 Y5.5 Z0.78 F1800.0
M103
G1 X-17.6 Y5.11 Z0.78 F3000.0
M101
G1 X17.6 Y5.11 Z0.78 F1800.0
M103
G1 X17.6 Y4.71 Z0.78 F3000.0
M101
G1 X-17.6 Y4.71 Z0.78 F1800.0
M103
G1 X-17.6 Y4.32 Z0.78 F3000.0
M101
G1 X17.6 Y4.32 Z0.78 F1800.0
M103
G1 X17.6 Y3.93 Z0.78 F3000.0
M101
G1 X-17.6 Y3.93 Z0.78 F1800.0
M103
G1 X-17.6 Y3.53 Z0.78 F3000.0
M101
G1 X17.6 Y3.53 Z0.78 F1800.0
M103
G1 X17.6 Y3.14 Z0.78 F3000.0
M101
G1 X-17.6 Y3.14 Z0.78 F1800.0
M103
G1 X-17.6 Y2.75 Z0.78 F3000.0
M101
G1 X17.6 Y2.75 Z0.78 F1800.0
M103
G1 X17.6 Y2.36 Z0.78 F3000.0
M101
G1 X-17.6 Y2.36 Z0.78 F1800.0
M103
G1 X-17.6 Y1.96 Z0.78 F3000.0
M101
G1 X17.6 Y1.96 Z0.78 F1800.0
M103
G1 X17.6 Y1.57 Z0.78 F3000.0
M101
G1 X-17.6 Y1.57 Z0.78 F1800.0
M103
G1 X-17.6 Y1.18 Z0.78 F3000.0
M101
G1 X17.6 Y1.18 Z0.78 F1800.0
M103
G1 X17.6 Y0.79 Z0.78 F3000.0
M101
G1 X-17.6 Y0.79 Z0.78 F1800.0
M103
G1 X-17.6 Y0.39 Z0.78 F3000.0
M101
G1 X17.6 Y0.39 Z0.78 F1800.0
M103
G1 X17.6 Y-0.0 Z0.78 F3000.0
M101
G1 X-17.6 Y0.0 Z0.78 F1800.0
M103
G1 X-17.6 Y-0.39 Z0.78 F3000.0
M101
G1 X17.6 Y-0.39 Z0.78 F1800.0
M103
G1 X17.6 Y-0.79 Z0.78 F3000.0
M101
G1 X-17.6 Y-0.79 Z0.78 F1800.0
M103
G1 X-17.6 Y-1.18 Z0.78 F3000.0
M101
G1 X17.6 Y-1.18 Z0.78 F1800.0
M103
G1 X17.6 Y-1.57 Z0.78 F3000.0
M101
G1 X-17.6 Y-1.57 Z0.78 F1800.0
M103
G1 X-17.6 Y-1.96 Z0.78 F3000.0
M101
G1 X17.6 Y-1.96 Z0.78 F1800.0
M103
G1 X17.6 Y-2.36 Z0.78 F3000.0
M101
G1 X-17.6 Y-2.36 Z0.78 F1800.0
M103
G1 X-17.6 Y-2.75 Z0.78 F3000.0
M101
G1 X17.6 Y-2.75 Z0.78 F1800.0
M103
G1 X17.6 Y-3.14 Z0.78 F3000.0
M101
G1 X-17.6 Y-3.14 Z0.78 F1800.0
M103
G1 X-17.6 Y-3.53 Z0.78 F3000.0
M101
G1 X17.6 Y-3.53 Z0.78 F1800.0
M103
G1 X17.6 Y-3.93 Z0.78 F3000.0
M101
G1 X-17.6 Y-3.93 Z0.78 F1800.0
M103
G1 X-17.6 Y-4.32 Z0.78 F3000.0
M101
G1 X17.6 Y-4.32 Z0.78 F1800.0
M103
G1 X17.6 Y-4.71 Z0.78 F3000.0
M101
G1 X-17.6 Y-4.71 Z0.78 F1800.0
M103
G1 X-17.6 Y-5.11 Z0.78 F3000.0
M101
G1 X17.6 Y-5.11 Z0.78 F1800.0
M103
G1 X17.6 Y-5.5 Z0.78 F3000.0
M101
G1 X-17.6 Y-5.5 Z0.78 F1800.0
M103
G1 X-17.6 Y-5.89 Z0.78 F3000.0
M101
G1 X17.6 Y-5.89 Z0.78 F1800.0
M103
G1 X17.6 Y-6.28 Z0.78 F3000.0
M101
G1 X-17.6 Y-6.28 Z0.78 F1800.0
M103
(</surroundingLoop>)
(</layer>)
(<operatingLayerEnd> </operatingLayerEnd>)
(<layer> 1.1 )
(<surroundingLoop>)
(<boundaryPerimeter>)
(<boundaryPoint> X18.448 Y7.14 Z1.1 </boundaryPoint>)
(<boundaryPoint> X-18.448 Y7.14 Z1.1 </boundaryPoint>)
(<boundaryPoint> X-18.448 Y-7.14 Z1.1 </boundaryPoint>)
(<boundaryPoint> X18.448 Y-7.14 Z1.1 </boundaryPoint>)
(<loop> outer )
G1 X-17.85 Y-6.55 Z1.1 F3000.0
M101
G1 X17.86 Y-6.55 Z1.1 F1800.0
G1 X17.86 Y6.55 Z1.1 F1800.0
G1 X-17.86 Y6.55 Z1.1 F1800.0
G1 X-17.86 Y-6.28 Z1.1 F1800.0
G1 X-17.86 Y-6.55 Z1.1 F1800.0
G1 X-17.85 Y-6.55 Z1.1 F1800.0
M103
(</loop>)
(<perimeter> outer )
G1 X-17.85 Y-6.94 Z1.1 F3000.0
M101
G1 X18.25 Y-6.94 Z1.1 F1800.0
G1 X18.25 Y6.94 Z1.1 F1800.0
G1 X-18.25 Y6.94 Z1.1 F1800.0
G1 X-18.25 Y-6.28 Z1.1 F1800.0
G1 X-18.25 Y-6.94 Z1.1 F1800.0
G1 X-17.85 Y-6.94 Z1.1 F1800.0
M103
(</perimeter>)
(</boundaryPerimeter>)
G1 X-17.45 Y-6.3 Z1.1 F3000.0
M101
G1 X-17.02 Y-5.86 Z1.1 F1800.0
G1 X-16.58 Y-6.3 Z1.1 F1800.0
G1 X-16.14 Y-5.86 Z1.1 F1800.0
G1 X-16.48 Y-5.58 Z1.1 F1800.0
G1 X-16.48 Y3.4 Z1.1 F1800.0
G1 X-17.02 Y5.86 Z1.1 F1800.0
G1 X-17.14 Y5.98 Z1.1 F1800.0
M108 R30.0
M102
G1 X-17.45 Y6.3 Z1.1 F1800.0
M108 R3.569
M103
G1 X-16.07 Y6.3 Z1.1 F3000.0
M108 R30.0
M101
G1 X-15.27 Y6.3 Z1.1 F3000.0
M108 R3.569
G1 X-14.84 Y5.86 Z1.1 F1800.0
G1 X-14.4 Y6.3 Z1.1 F1800.0
G1 X-13.96 Y5.86 Z1.1 F1800.0
G1 X-14.3 Y5.58 Z1.1 F1800.0
G1 X-14.3 Y5.33 Z1.1 F1800.0
G1 X-16.25 Y3.4 Z1.1 F1800.0
G1 X-16.25 Y3.15 Z1.1 F1800.0
G1 X-14.3 Y1.22 Z1.1 F1800.0
G1 X-14.3 Y0.96 Z1.1 F1800.0
G1 X-16.25 Y-0.96 Z1.1 F1800.0
G1 X-16.25 Y-1.22 Z1.1 F1800.0
G1 X-14.3 Y-3.15 Z1.1 F1800.0
G1 X-14.3 Y-3.4 Z1.1 F1800.0
G1 X-16.25 Y-5.33 Z1.1 F1800.0
G1 X-16.25 Y-5.58 Z1.1 F1800.0
G1 X-15.71 Y-5.86 Z1.1 F1800.0
G1 X-15.59 Y-5.98 Z1.1 F1800.0
M108 R30.0
M102
G1 X-15.27 Y-6.3 Z1.1 F1800.0
M108 R3.569
M103
G1 X-13.89 Y-6.3 Z1.1 F3000.0
M108 R30.0
M101
G1 X-13.09 Y-6.3 Z1.1 F3000.0
M108 R3.569
G1 X-12.65 Y-5.86 Z1.1 F1800.0
G1 X-12.22 Y-6.3 Z1.1 F1800.0
G1 X-11.78 Y-5.86 Z1.1 F1800.0
G1 X-12.11 Y-5.58 Z1.1 F1800.0
G1 X-12.11 Y-5.33 Z1.1 F1800.0
G1 X-14.07 Y-3.4 Z1.1 F1800.0
G1 X-14.07 Y-3.15 Z1.1 F1800.0
G1 X-12.11 Y-1.22 Z1.1 F1800.0
G1 X-12.11 Y-0.96 Z1.1 F1800.0
G1 X-14.07 Y0.96 Z1.1 F1800.0
G1 X-14.07 Y1.22 Z1.1 F1800.0
G1 X-12.11 Y3.15 Z1.1 F1800.0
G1 X-12.11 Y3.4 Z1.1 F1800.0
G1 X-14.07 Y5.33 Z1.1 F1800.0
G1 X-14.07 Y5.58 Z1.1 F1800.0
G1 X-13.53 Y5.86 Z1.1 F1800.0
G1 X-13.41 Y5.98 Z1.1 F1800.0
M108 R30.0
M102
G1 X-13.09 Y6.3 Z1.1 F1800.0
M108 R3.569
M103
G1 X-11.71 Y6.3 Z1.1 F3000.0
M108 R30.0
M101
G1 X-10.91 Y6.3 Z1.1 F3000.0
M108 R3.569
G1 X-10.47 Y5.86 Z1.1 F1800.0
G1 X-10.04 Y6.3 Z1.1 F1800.0
G1 X-9.6 Y5.86 Z1.1 F1800.0
G1 X-9.93 Y5.58 Z1.1 F1800.0
G1 X-9.93 Y5.33 Z1.1 F1800.0
G1 X-11.88 Y3.4 Z1.1 F1800.0
G1 X-11.88 Y3.15 Z1.1 F1800.0
G1 X-9.93 Y1.22 Z1.1 F1800.0
G1 X-9.93 Y0.96 Z1.1 F1800.0
G1 X-11.88 Y-0.96 Z1.1 F1800.0
G1 X-11.88 Y-1.22 Z1.1 F1800.0
G1 X-9.93 Y-3.15 Z1.1 F1800.0
G1 X-9.93 Y-3.4 Z1.1 F1800.0
G1 X-11.88 Y-5.33 Z1.1 F1800.0
G1 X-11.88 Y-5.58 Z1.1 F1800.0
G1 X-11.35 Y-5.86 Z1.1 F1800.0
G1 X-11.23 Y-5.98 Z1.1 F1800.0
M108 R30.0
M102
G1 X-10.91 Y-6.3 Z1.1 F1800.0
M108 R3.569
M103
G1 X-9.53 Y-6.3 Z1.1 F3000.0
M108 R30.0
M101
G1 X-8.73 Y-6.3 Z1.1 F3000.0
M108 R3.569
G1 X-8.29 Y-5.86 Z1.1 F1800.0
G1 X-7.85 Y-6.3 Z1.1 F1800.0
G1 X-7.42 Y-5.86 Z1.1 F1800.0
G1 X-7.75 Y-5.58 Z1.1 F1800.0
G1 X-7.75 Y-5.33 Z1.1 F1800.0
G1 X-9.7 Y-3.4 Z1.1 F1800.0
G1 X-9.7 Y-3.15 Z1.1 F1800.0
G1 X-7.75 Y-1.22 Z1.1 F1800.0
G1 X-7.75 Y-0.96 Z1.1 F1800.0
G1 X-9.7 Y0.96 Z1.1 F1800.0
G1 X-9.7 Y1.22 Z1.1 F1800.0
G1 X-7.75 Y3.15 Z1.1 F1800.0
G1 X-7.75 Y3.4 Z1.1 F1800.0
G1 X-9.7 Y5.33 Z1.1 F1800.0
G1 X-9.7 Y5.58 Z1.1 F1800.0
G1 X-9.16 Y5.86 Z1.1 F1800.0
G1 X-9.05 Y5.98 Z1.1 F1800.0
M108 R30.0
M102
G1 X-8.73 Y6.3 Z1.1 F1800.0
M108 R3.569
M103
G1 X-7.35 Y6.3 Z1.1 F3000.0
M108 R30.0
M101
G1 X-6.55 Y6.3 Z1.1 F3000.0
M108 R3.569
G1 X-6.11 Y5.86 Z1.1 F1800.0
G1 X-5.67 Y6.3 Z1.1 F1800.0
G1 X-5.24 Y5.86 Z1.1 F1800.0
G1 X-5.57 Y5.58 Z1.1 F1800.0
G1 X-5.57 Y5.33 Z1.1 F1800.0
G1 X-7.52 Y3.4 Z1.1 F1800.0
G1 X-7.52 Y3.15 Z1.1 F1800.0
G1 X-5.57 Y1.22 Z1.1 F1800.0
G1 X-5.57 Y0.96 Z1.1 F1800.0
G1 X-7.52 Y-0.96 Z1.1 F1800.0
G1 X-7.52 Y-1.22 Z1.1 F1800.0
G1 X-5.57 Y-3.15 Z1.1 F1800.0
G1 X-5.57 Y-3.4 Z1.1 F1800.0
G1 X-7.52 Y-5.33 Z1.1 F1800.0
G1 X-7.52 Y-5.58 Z1.1 F1800.0
G1 X-6.98 Y-5.86 Z1.1 F1800.0
G1 X-6.86 Y-5.98 Z1.1 F1800.0
M108 R30.0
M102
G1 X-6.55 Y-6.3 Z1.1 F1800.0
M108 R3.569
M103
G1 X-5.16 Y-6.3 Z1.1 F3000.0
M108 R30.0
M101
G1 X-4.36 Y-6.3 Z1.1 F3000.0
M108 R3.569
G1 X-3.93 Y-5.86 Z1.1 F1800.0
G1 X-3.49 Y-6.3 Z1.1 F1800.0
G1 X-3.05 Y-5.86 Z1.1 F1800.0
G1 X-3.39 Y-5.58 Z1.1 F1800.0
G1 X-3.39 Y-5.33 Z1.1 F1800.0
G1 X-5.34 Y-3.4 Z1.1 F1800.0
G1 X-5.34 Y-3.15 Z1.1 F1800.0
G1 X-3.39 Y-1.22 Z1.1 F1800.0
G1 X-3.39 Y-0.96 Z1.1 F1800.0
G1 X-5.34 Y0.96 Z1.1 F1800.0
G1 X-5.34 Y1.22 Z1.1 F1800.0
G1 X-3.39 Y3.15 Z1.1 F1800.0
G1 X-3.39 Y3.4 Z1.1 F1800.0
G1 X-5.34 Y5.33 Z1.1 F1800.0
G1 X-5.34 Y5.58 Z1.1 F1800.0
G1 X-4.8 Y5.86 Z1.1 F1800.0
G1 X-4.68 Y5.98 Z1.1 F1800.0
M108 R30.0
M102
G1 X-4.36 Y6.3 Z1.1 F1800.0
M108 R3.569
M103
G1 X-2.98 Y6.3 Z1.1 F3000.0
M108 R30.0
M101
G1 X-2.18 Y6.3 Z1.1 F3000.0
M108 R3.569
G1 X-1.75 Y5.86 Z1.1 F1800.0
G1 X-1.31 Y6.3 Z1.1 F1800.0
G1 X-0.87 Y5.86 Z1.1 F1800.0
G1 X-1.21 Y5.58 Z1.1 F1800.0
G1 X-1.21 Y5.33 Z1.1 F1800.0
G1 X-3.16 Y3.4 Z1.1 F1800.0
G1 X-3.16 Y3.15 Z1.1 F1800.0
G1 X-1.21 Y1.22 Z1.1 F1800.0
G1 X-1.21 Y0.96 Z1.1 F1800.0
G1 X-3.16 Y-0.96 Z1.1 F1800.0
G1 X-3.16 Y-1.22 Z1.1 F1800.0
G1 X-1.21 Y-3.15 Z1.1 F1800.0
G1 X-1.21 Y-3.4 Z1.1 F1800.0
G1 X-3.16 Y-5.33 Z1.1 F1800.0
G1 X-3.16 Y-5.58 Z1.1 F1800.0
G1 X-2.62 Y-5.86 Z1.1 F1800.0
G1 X-2.5 Y-5.98 Z1.1 F1800.0
M108 R30.0
M102
G1 X-2.18 Y-6.3 Z1.1 F1800.0
M108 R3.569
M103
G1 X-0.8 Y-6.3 Z1.1 F3000.0
M108 R30.0
M101
G1 X-0.0 Y-6.3 Z1.1 F3000.0
M108 R3.569
G1 X0.44 Y-5.86 Z1.1 F1800.0
G1 X0.87 Y-6.3 Z1.1 F1800.0
G1 X1.31 Y-5.86 Z1.1 F1800.0
G1 X0.98 Y-5.58 Z1.1 F1800.0
G1 X0.98 Y-5.33 Z1.1 F1800.0
G1 X-0.98 Y-3.4 Z1.1 F1800.0
G1 X-0.98 Y-3.15 Z1.1 F1800.0
G1 X0.98 Y-1.22 Z1.1 F1800.0
G1 X0.98 Y-0.96 Z1.1 F1800.0
G1 X-0.98 Y0.96 Z1.1 F1800.0
G1 X-0.98 Y1.22 Z1.1 F1800.0
G1 X0.98 Y3.15 Z1.1 F1800.0
G1 X0.98 Y3.4 Z1.1 F1800.0
G1 X-0.98 Y5.33 Z1.1 F1800.0
G1 X-0.98 Y5.58 Z1.1 F1800.0
G1 X-0.44 Y5.86 Z1.1 F1800.0
G1 X-0.32 Y5.98 Z1.1 F1800.0
M108 R30.0
M102
G1 X0.0 Y6.3 Z1.1 F1800.0
M108 R3.569
M103
G1 X1.38 Y6.3 Z1.1 F3000.0
M108 R30.0
M101
G1 X2.18 Y6.3 Z1.1 F3000.0
M108 R3.569
G1 X2.62 Y5.86 Z1.1 F1800.0
G1 X3.05 Y6.3 Z1.1 F1800.0
G1 X3.49 Y5.86 Z1.1 F1800.0
G1 X3.16 Y5.58 Z1.1 F1800.0
G1 X3.16 Y5.33 Z1.1 F1800.0
G1 X1.21 Y3.4 Z1.1 F1800.0
G1 X1.21 Y3.15 Z1.1 F1800.0
G1 X3.16 Y1.22 Z1.1 F1800.0
G1 X3.16 Y0.96 Z1.1 F1800.0
G1 X1.21 Y-0.96 Z1.1 F1800.0
G1 X1.21 Y-1.22 Z1.1 F1800.0
G1 X3.16 Y-3.15 Z1.1 F1800.0
G1 X3.16 Y-3.4 Z1.1 F1800.0
G1 X1.21 Y-5.33 Z1.1 F1800.0
G1 X1.21 Y-5.58 Z1.1 F1800.0
G1 X1.75 Y-5.86 Z1.1 F1800.0
G1 X1.86 Y-5.98 Z1.1 F1800.0
M108 R30.0
M102
G1 X2.18 Y-6.3 Z1.1 F1800.0
M108 R3.569
M103
G1 X3.56 Y-6.3 Z1.1 F3000.0
M108 R30.0
M101
G1 X4.36 Y-6.3 Z1.1 F3000.0
M108 R3.569
G1 X4.8 Y-5.86 Z1.1 F1800.0
G1 X5.24 Y-6.3 Z1.1 F1800.0
G1 X5.67 Y-5.86 Z1.1 F1800.0
G1 X5.34 Y-5.58 Z1.1 F1800.0
G1 X5.34 Y-5.33 Z1.1 F1800.0
G1 X3.39 Y-3.4 Z1.1 F1800.0
G1 X3.39 Y-3.15 Z1.1 F1800.0
G1 X5.34 Y-1.22 Z1.1 F1800.0
G1 X5.34 Y-0.96 Z1.1 F1800.0
G1 X3.39 Y0.96 Z1.1 F1800.0
G1 X3.39 Y1.22 Z1.1 F1800.0
G1 X5.34 Y3.15 Z1.1 F1800.0
G1 X5.34 Y3.4 Z1.1 F1800.0
G1 X3.39 Y5.33 Z1.1 F1800.0
G1 X3.39 Y5.58 Z1.1 F1800.0
G1 X3.93 Y5.86 Z1.1 F1800.0
G1 X4.05 Y5.98 Z1.1 F1800.0
M108 R30.0
M102
G1 X4.36 Y6.3 Z1.1 F1800.0
M108 R3.569
M103
G1 X5.75 Y6.3 Z1.1 F3000.0
M108 R30.0
M101
G1 X6.55 Y6.3 Z1.1 F3000.0
M108 R3.569
G1 X6.98 Y5.86 Z1.1 F1800.0
G1 X7.42 Y6.3 Z1.1 F1800.0
G1 X7.85 Y5.86 Z1.1 F1800.0
G1 X7.52 Y5.58 Z1.1 F1800.0
G1 X7.52 Y5.33 Z1.1 F1800.0
G1 X5.57 Y3.4 Z1.1 F1800.0
G1 X5.57 Y3.15 Z1.1 F1800.0
G1 X7.52 Y1.22 Z1.1 F1800.0
G1 X7.52 Y0.96 Z1.1 F1800.0
G1 X5.57 Y-0.96 Z1.1 F1800.0
G1 X5.57 Y-1.22 Z1.1 F1800.0
G1 X7.52 Y-3.15 Z1.1 F1800.0
G1 X7.52 Y-3.4 Z1.1 F1800.0
G1 X5.57 Y-5.33 Z1.1 F1800.0
G1 X5.57 Y-5.58 Z1.1 F1800.0
G1 X6.11 Y-5.86 Z1.1 F1800.0
G1 X6.23 Y-5.98 Z1.1 F1800.0
M108 R30.0
M102
G1 X6.55 Y-6.3 Z1.1 F1800.0
M108 R3.569
M103
G1 X7.93 Y-6.3 Z1.1 F3000.0
M108 R30.0
M101
G1 X8.73 Y-6.3 Z1.1 F3000.0
M108 R3.569
G1 X9.16 Y-5.86 Z1.1 F1800.0
G1 X9.6 Y-6.3 Z1.1 F1800.0
G1 X10.04 Y-5.86 Z1.1 F1800.0
G1 X9.7 Y-5.58 Z1.1 F1800.0
G1 X9.7 Y-5.33 Z1.1 F1800.0
G1 X7.75 Y-3.4 Z1.1 F1800.0
G1 X7.75 Y-3.15 Z1.1 F1800.0
G1 X9.7 Y-1.22 Z1.1 F1800.0
G1 X9.7 Y-0.96 Z1.1 F1800.0
G1 X7.75 Y0.96 Z1.1 F1800.0
G1 X7.75 Y1.22 Z1.1 F1800.0
G1 X9.7 Y3.15 Z1.1 F1800.0
G1 X9.7 Y3.4 Z1.1 F1800.0
G1 X7.75 Y5.33 Z1.1 F1800.0
G1 X7.75 Y5.58 Z1.1 F1800.0
G1 X8.29 Y5.86 Z1.1 F1800.0
G1 X8.41 Y5.98 Z1.1 F1800.0
M108 R30.0
M102
G1 X8.73 Y6.3 Z1.1 F1800.0
M108 R3.569
M103
G1 X10.11 Y6.3 Z1.1 F3000.0
M108 R30.0
M101
G1 X10.91 Y6.3 Z1.1 F3000.0
M108 R3.569
G1 X11.35 Y5.86 Z1.1 F1800.0
G1 X11.78 Y6.3 Z1.1 F1800.0
G1 X12.22 Y5.86 Z1.1 F1800.0
G1 X11.88 Y5.58 Z1.1 F1800.0
G1 X11.88 Y5.33 Z1.1 F1800.0
G1 X9.93 Y3.4 Z1.1 F1800.0
G1 X9.93 Y3.15 Z1.1 F1800.0
G1 X11.88 Y1.22 Z1.1 F1800.0
G1 X11.88 Y0.96 Z1.1 F1800.0
G1 X9.93 Y-0.96 Z1.1 F1800.0
G1 X9.93 Y-1.22 Z1.1 F1800.0
G1 X11.88 Y-3.15 Z1.1 F1800.0
G1 X11.88 Y-3.4 Z1.1 F1800.0
G1 X9.93 Y-5.33 Z1.1 F1800.0
G1 X9.93 Y-5.58 Z1.1 F1800.0
G1 X10.47 Y-5.86 Z1.1 F1800.0
G1 X10.59 Y-5.98 Z1.1 F1800.0
M108 R30.0
M102
G1 X10.91 Y-6.3 Z1.1 F1800.0
M108 R3.569
M103
G1 X12.29 Y-6.3 Z1.1 F3000.0
M108 R30.0
M101
G1 X13.09 Y-6.3 Z1.1 F3000.0
M108 R3.569
G1 X13.53 Y-5.86 Z1.1 F1800.0
G1 X13.96 Y-6.3 Z1.1 F1800.0
G1 X14.4 Y-5.86 Z1.1 F1800.0
G1 X14.07 Y-5.58 Z1.1 F1800.0
G1 X14.07 Y-5.33 Z1.1 F1800.0
G1 X12.11 Y-3.4 Z1.1 F1800.0
G1 X12.11 Y-3.15 Z1.1 F1800.0
G1 X14.07 Y-1.22 Z1.1 F1800.0
G1 X14.07 Y-0.96 Z1.1 F1800.0
G1 X12.11 Y0.96 Z1.1 F1800.0
G1 X12.11 Y1.22 Z1.1 F1800.0
G1 X14.07 Y3.15 Z1.1 F1800.0
G1 X14.07 Y3.4 Z1.1 F1800.0
G1 X12.11 Y5.33 Z1.1 F1800.0
G1 X12.11 Y5.58 Z1.1 F1800.0
G1 X12.65 Y5.86 Z1.1 F1800.0
G1 X12.77 Y5.98 Z1.1 F1800.0
M108 R30.0
M102
G1 X13.09 Y6.3 Z1.1 F1800.0
M108 R3.569
M103
G1 X14.47 Y6.3 Z1.1 F3000.0
M108 R30.0
M101
G1 X15.27 Y6.3 Z1.1 F3000.0
M108 R3.569
G1 X14.84 Y5.86 Z1.1 F1800.0
G1 X14.4 Y5.86 Z1.1 F1800.0
G1 X13.96 Y6.3 Z1.1 F1800.0
G1 X14.3 Y3.4 Z1.1 F1800.0
G1 X14.3 Y-5.58 Z1.1 F1800.0
G1 X14.84 Y-5.86 Z1.1 F1800.0
G1 X14.95 Y-5.98 Z1.1 F1800.0
M108 R30.0
M102
G1 X15.27 Y-6.3 Z1.1 F1800.0
M108 R3.569
M103
G1 X16.65 Y-6.3 Z1.1 F3000.0
M108 R30.0
M101
G1 X17.45 Y-6.3 Z1.1 F3000.0
M108 R3.569
G1 X17.45 Y6.3 Z1.1 F1800.0
M103
(</surroundingLoop>)
(</layer>)
(<layer> 1.42 )
(<surroundingLoop>)
(<boundaryPerimeter>)
(<boundaryPoint> X18.448 Y7.14 Z1.42 </boundaryPoint>)
(<boundaryPoint> X-18.448 Y7.14 Z1.42 </boundaryPoint>)
(<boundaryPoint> X-18.448 Y-7.14 Z1.42 </boundaryPoint>)
(<boundaryPoint> X18.448 Y-7.14 Z1.42 </boundaryPoint>)
(<loop> outer )
G1 X17.48 Y6.55 Z1.42 F3000.0
M101
G1 X17.45 Y6.55 Z1.42 F1800.0
G1 X-17.86 Y6.55 Z1.42 F1800.0
G1 X-17.86 Y-6.55 Z1.42 F1800.0
G1 X17.86 Y-6.55 Z1.42 F1800.0
G1 X17.86 Y6.55 Z1.42 F1800.0
G1 X17.48 Y6.55 Z1.42 F1800.0
M103
(</loop>)
(<perimeter> outer )
G1 X17.45 Y6.94 Z1.42 F3000.0
M101
G1 X-18.25 Y6.94 Z1.42 F1800.0
G1 X-18.25 Y-6.94 Z1.42 F1800.0
G1 X18.25 Y-6.94 Z1.42 F1800.0
G1 X18.25 Y6.94 Z1.42 F1800.0
G1 X17.45 Y6.94 Z1.42 F1800.0
M103
(</perimeter>)
(</boundaryPerimeter>)
G1 X17.6 Y6.11 Z1.42 F3000.0
M101
G1 X17.17 Y5.24 Z1.42 F1800.0
G1 X12.13 Y5.57 Z1.42 F1800.0
G1 X-14.31 Y5.57 Z1.42 F1800.0
G1 X-17.17 Y5.24 Z1.42 F1800.0
G1 X-17.4 Y5.71 Z1.42 F1800.0
M108 R30.0
M102
G1 X-17.6 Y6.11 Z1.42 F1800.0
M108 R3.569
M103
G1 X-17.6 Y4.73 Z1.42 F3000.0
M108 R30.0
M101
G1 X-17.6 Y3.93 Z1.42 F3000.0
M108 R3.569
G1 X-17.17 Y3.49 Z1.42 F1800.0
G1 X-16.24 Y3.39 Z1.42 F1800.0
G1 X-14.31 Y5.34 Z1.42 F1800.0
G1 X-14.05 Y5.34 Z1.42 F1800.0
G1 X-12.13 Y3.39 Z1.42 F1800.0
G1 X1.22 Y3.39 Z1.42 F1800.0
G1 X3.15 Y5.34 Z1.42 F1800.0
G1 X3.4 Y5.34 Z1.42 F1800.0
G1 X5.33 Y3.39 Z1.42 F1800.0
G1 X5.58 Y3.39 Z1.42 F1800.0
G1 X7.51 Y5.34 Z1.42 F1800.0
G1 X7.76 Y5.34 Z1.42 F1800.0
G1 X9.69 Y3.39 Z1.42 F1800.0
G1 X9.95 Y3.39 Z1.42 F1800.0
G1 X11.87 Y5.34 Z1.42 F1800.0
G1 X12.13 Y5.34 Z1.42 F1800.0
G1 X14.05 Y3.39 Z1.42 F1800.0
G1 X17.17 Y3.05 Z1.42 F1800.0
G1 X17.4 Y3.52 Z1.42 F1800.0
M108 R30.0
M102
G1 X17.6 Y3.93 Z1.42 F1800.0
M108 R3.569
M103
G1 X17.6 Y2.55 Z1.42 F3000.0
M108 R30.0
M101
G1 X17.6 Y1.75 Z1.42 F3000.0
M108 R3.569
G1 X17.17 Y2.18 Z1.42 F1800.0
G1 X14.31 Y3.16 Z1.42 F1800.0
G1 X14.05 Y3.16 Z1.42 F1800.0
G1 X12.13 Y1.21 Z1.42 F1800.0
G1 X11.87 Y1.21 Z1.42 F1800.0
G1 X9.95 Y3.16 Z1.42 F1800.0
G1 X9.69 Y3.16 Z1.42 F1800.0
G1 X7.76 Y1.21 Z1.42 F1800.0
G1 X7.51 Y1.21 Z1.42 F1800.0
G1 X5.58 Y3.16 Z1.42 F1800.0
G1 X5.33 Y3.16 Z1.42 F1800.0
G1 X3.4 Y1.21 Z1.42 F1800.0
G1 X3.15 Y1.21 Z1.42 F1800.0
G1 X1.22 Y3.16 Z1.42 F1800.0
G1 X0.96 Y3.16 Z1.42 F1800.0
G1 X-0.96 Y1.21 Z1.42 F1800.0
G1 X-1.22 Y1.21 Z1.42 F1800.0
G1 X-3.15 Y3.16 Z1.42 F1800.0
G1 X-3.4 Y3.16 Z1.42 F1800.0
G1 X-5.33 Y1.21 Z1.42 F1800.0
G1 X-5.58 Y1.21 Z1.42 F1800.0
G1 X-7.51 Y3.16 Z1.42 F1800.0
G1 X-7.76 Y3.16 Z1.42 F1800.0
G1 X-9.69 Y1.21 Z1.42 F1800.0
G1 X-9.95 Y1.21 Z1.42 F1800.0
G1 X-11.87 Y3.16 Z1.42 F1800.0
G1 X-12.13 Y3.16 Z1.42 F1800.0
G1 X-14.05 Y1.21 Z1.42 F1800.0
G1 X-14.31 Y1.21 Z1.42 F1800.0
G1 X-16.24 Y3.16 Z1.42 F1800.0
G1 X-17.17 Y3.05 Z1.42 F1800.0
G1 X-17.6 Y2.62 Z1.42 F1800.0
G1 X-17.17 Y2.18 Z1.42 F1800.0
G1 X-17.29 Y2.06 Z1.42 F1800.0
M108 R30.0
M102
G1 X-17.6 Y1.75 Z1.42 F1800.0
M108 R3.569
M103
G1 X-17.6 Y0.36 Z1.42 F3000.0
M108 R30.0
M101
G1 X-17.6 Y-0.44 Z1.42 F3000.0
M108 R3.569
G1 X-17.17 Y-0.87 Z1.42 F1800.0
G1 X-16.24 Y-0.98 Z1.42 F1800.0
G1 X-14.31 Y0.98 Z1.42 F1800.0
G1 X-14.05 Y0.98 Z1.42 F1800.0
G1 X-12.13 Y-0.98 Z1.42 F1800.0
G1 X-11.87 Y-0.98 Z1.42 F1800.0
G1 X-9.95 Y0.98 Z1.42 F1800.0
G1 X-9.69 Y0.98 Z1.42 F1800.0
G1 X-7.76 Y-0.98 Z1.42 F1800.0
G1 X-7.51 Y-0.98 Z1.42 F1800.0
G1 X-5.58 Y0.98 Z1.42 F1800.0
G1 X-5.33 Y0.98 Z1.42 F1800.0
G1 X-3.4 Y-0.98 Z1.42 F1800.0
G1 X-3.15 Y-0.98 Z1.42 F1800.0
G1 X-1.22 Y0.98 Z1.42 F1800.0
G1 X-0.96 Y0.98 Z1.42 F1800.0
G1 X0.96 Y-0.98 Z1.42 F1800.0
G1 X1.22 Y-0.98 Z1.42 F1800.0
G1 X3.15 Y0.98 Z1.42 F1800.0
G1 X3.4 Y0.98 Z1.42 F1800.0
G1 X5.33 Y-0.98 Z1.42 F1800.0
G1 X5.58 Y-0.98 Z1.42 F1800.0
G1 X7.51 Y0.98 Z1.42 F1800.0
G1 X7.76 Y0.98 Z1.42 F1800.0
G1 X9.69 Y-0.98 Z1.42 F1800.0
G1 X9.95 Y-0.98 Z1.42 F1800.0
G1 X11.87 Y0.98 Z1.42 F1800.0
G1 X12.13 Y0.98 Z1.42 F1800.0
G1 X14.05 Y-0.98 Z1.42 F1800.0
G1 X14.31 Y-0.98 Z1.42 F1800.0
G1 X17.6 Y-1.75 Z1.42 F1800.0
G1 X17.17 Y-1.31 Z1.42 F1800.0
G1 X17.17 Y-0.87 Z1.42 F1800.0
G1 X17.29 Y-0.76 Z1.42 F1800.0
M108 R30.0
M102
G1 X17.6 Y-0.44 Z1.42 F1800.0
M108 R3.569
M103
G1 X17.6 Y-1.82 Z1.42 F3000.0
M108 R30.0
M101
G1 X17.6 Y-2.62 Z1.42 F3000.0
M108 R3.569
G1 X17.17 Y-2.18 Z1.42 F1800.0
G1 X14.31 Y-1.21 Z1.42 F1800.0
G1 X14.05 Y-1.21 Z1.42 F1800.0
G1 X12.13 Y-3.16 Z1.42 F1800.0
G1 X11.87 Y-3.16 Z1.42 F1800.0
G1 X9.95 Y-1.21 Z1.42 F1800.0
G1 X9.69 Y-1.21 Z1.42 F1800.0
G1 X7.76 Y-3.16 Z1.42 F1800.0
G1 X7.51 Y-3.16 Z1.42 F1800.0
G1 X5.58 Y-1.21 Z1.42 F1800.0
G1 X5.33 Y-1.21 Z1.42 F1800.0
G1 X3.4 Y-3.16 Z1.42 F1800.0
G1 X3.15 Y-3.16 Z1.42 F1800.0
G1 X1.22 Y-1.21 Z1.42 F1800.0
G1 X0.96 Y-1.21 Z1.42 F1800.0
G1 X-0.96 Y-3.16 Z1.42 F1800.0
G1 X-1.22 Y-3.16 Z1.42 F1800.0
G1 X-3.15 Y-1.21 Z1.42 F1800.0
G1 X-3.4 Y-1.21 Z1.42 F1800.0
G1 X-5.33 Y-3.16 Z1.42 F1800.0
G1 X-5.58 Y-3.16 Z1.42 F1800.0
G1 X-7.51 Y-1.21 Z1.42 F1800.0
G1 X-7.76 Y-1.21 Z1.42 F1800.0
G1 X-9.69 Y-3.16 Z1.42 F1800.0
G1 X-9.95 Y-3.16 Z1.42 F1800.0
G1 X-11.87 Y-1.21 Z1.42 F1800.0
G1 X-12.13 Y-1.21 Z1.42 F1800.0
G1 X-14.05 Y-3.16 Z1.42 F1800.0
G1 X-14.31 Y-3.16 Z1.42 F1800.0
G1 X-16.24 Y-1.21 Z1.42 F1800.0
G1 X-17.17 Y-1.31 Z1.42 F1800.0
G1 X-17.6 Y-1.75 Z1.42 F1800.0
G1 X-17.17 Y-2.18 Z1.42 F1800.0
G1 X-17.29 Y-2.3 Z1.42 F1800.0
M108 R30.0
M102
G1 X-17.6 Y-2.62 Z1.42 F1800.0
M108 R3.569
M103
G1 X-17.6 Y-4.0 Z1.42 F3000.0
M108 R30.0
M101
G1 X-17.6 Y-4.8 Z1.42 F3000.0
M108 R3.569
G1 X-17.17 Y-5.24 Z1.42 F1800.0
G1 X-16.49 Y-5.34 Z1.42 F1800.0
G1 X-16.24 Y-5.34 Z1.42 F1800.0
G1 X-14.31 Y-3.39 Z1.42 F1800.0
G1 X-0.96 Y-3.39 Z1.42 F1800.0
G1 X0.96 Y-5.34 Z1.42 F1800.0
G1 X1.22 Y-5.34 Z1.42 F1800.0
G1 X3.15 Y-3.39 Z1.42 F1800.0
G1 X3.4 Y-3.39 Z1.42 F1800.0
G1 X5.33 Y-5.34 Z1.42 F1800.0
G1 X5.58 Y-5.34 Z1.42 F1800.0
G1 X7.51 Y-3.39 Z1.42 F1800.0
G1 X7.76 Y-3.39 Z1.42 F1800.0
G1 X9.69 Y-5.34 Z1.42 F1800.0
G1 X9.95 Y-5.34 Z1.42 F1800.0
G1 X11.87 Y-3.39 Z1.42 F1800.0
G1 X12.13 Y-3.39 Z1.42 F1800.0
G1 X14.05 Y-5.34 Z1.42 F1800.0
G1 X17.17 Y-5.24 Z1.42 F1800.0
G1 X17.29 Y-5.12 Z1.42 F1800.0
M108 R30.0
M102
G1 X17.6 Y-4.8 Z1.42 F1800.0
M108 R3.569
M103
G1 X17.6 Y-5.31 Z1.42 F3000.0
M108 R30.0
M101
G1 X17.6 Y-6.11 Z1.42 F3000.0
M108 R3.569
G1 X17.17 Y-5.67 Z1.42 F1800.0
G1 X-16.49 Y-5.57 Z1.42 F1800.0
G1 X-17.17 Y-5.67 Z1.42 F1800.0
G1 X-17.6 Y-6.11 Z1.42 F1800.0
M103
(</surroundingLoop>)
(</layer>)
(<layer> 1.74 )
(<surroundingLoop>)
(<boundaryPerimeter>)
(<boundaryPoint> X18.448 Y7.14 Z1.74 </boundaryPoint>)
(<boundaryPoint> X-18.448 Y7.14 Z1.74 </boundaryPoint>)
(<boundaryPoint> X-18.448 Y-7.14 Z1.74 </boundaryPoint>)
(<boundaryPoint> X18.448 Y-7.14 Z1.74 </boundaryPoint>)
(<loop> outer )
G1 X-17.86 Y-5.79 Z1.74 F3000.0
M101
G1 X-17.86 Y-6.11 Z1.74 F1800.0
G1 X-17.86 Y-6.55 Z1.74 F1800.0
G1 X17.86 Y-6.55 Z1.74 F1800.0
G1 X17.86 Y6.55 Z1.74 F1800.0
G1 X-17.86 Y6.55 Z1.74 F1800.0
G1 X-17.86 Y-5.79 Z1.74 F1800.0
M103
(</loop>)
(<perimeter> outer )
G1 X-18.25 Y-5.79 Z1.74 F3000.0
M101
G1 X-18.25 Y-6.11 Z1.74 F1800.0
G1 X-18.25 Y-6.94 Z1.74 F1800.0
G1 X18.25 Y-6.94 Z1.74 F1800.0
G1 X18.25 Y6.94 Z1.74 F1800.0
G1 X-18.25 Y6.94 Z1.74 F1800.0
G1 X-18.25 Y-5.34 Z1.74 F1800.0
M108 R30.0
M102
G1 X-18.25 Y-5.79 Z1.74 F1800.0
M108 R3.569
M103
(</perimeter>)
(</boundaryPerimeter>)
G1 X-17.99 Y-5.93 Z1.74 F3000.0
M108 R30.0
M101
G1 X-17.28 Y-6.3 Z1.74 F3000.0
M108 R3.569
G1 X-17.28 Y6.3 Z1.74 F1800.0
M103
G1 X-16.89 Y6.3 Z1.74 F3000.0
M101
G1 X-16.89 Y-6.3 Z1.74 F1800.0
M103
G1 X-16.49 Y-6.3 Z1.74 F3000.0
M101
G1 X-16.49 Y6.3 Z1.74 F1800.0
M103
G1 X-16.1 Y6.3 Z1.74 F3000.0
M101
G1 X-16.1 Y-6.3 Z1.74 F1800.0
M103
G1 X-15.71 Y-6.3 Z1.74 F3000.0
M101
G1 X-15.71 Y6.3 Z1.74 F1800.0
M103
G1 X-15.32 Y6.3 Z1.74 F3000.0
M101
G1 X-15.32 Y-6.3 Z1.74 F1800.0
M103
G1 X-14.92 Y-6.3 Z1.74 F3000.0
M101
G1 X-14.92 Y6.3 Z1.74 F1800.0
M103
G1 X-14.53 Y6.3 Z1.74 F3000.0
M101
G1 X-14.53 Y-6.3 Z1.74 F1800.0
M103
G1 X-14.14 Y-6.3 Z1.74 F3000.0
M101
G1 X-14.14 Y6.3 Z1.74 F1800.0
M103
G1 X-13.74 Y6.3 Z1.74 F3000.0
M101
G1 X-13.74 Y-6.3 Z1.74 F1800.0
M103
G1 X-13.35 Y-6.3 Z1.74 F3000.0
M101
G1 X-13.35 Y6.3 Z1.74 F1800.0
M103
G1 X-12.96 Y6.3 Z1.74 F3000.0
M101
G1 X-12.96 Y-6.3 Z1.74 F1800.0
M103
G1 X-12.57 Y-6.3 Z1.74 F3000.0
M101
G1 X-12.57 Y6.3 Z1.74 F1800.0
M103
G1 X-12.17 Y6.3 Z1.74 F3000.0
M101
G1 X-12.17 Y-6.3 Z1.74 F1800.0
M103
G1 X-11.78 Y-6.3 Z1.74 F3000.0
M101
G1 X-11.78 Y6.3 Z1.74 F1800.0
M103
G1 X-11.39 Y6.3 Z1.74 F3000.0
M101
G1 X-11.39 Y-6.3 Z1.74 F1800.0
M103
G1 X-11.0 Y-6.3 Z1.74 F3000.0
M101
G1 X-11.0 Y6.3 Z1.74 F1800.0
M103
G1 X-10.6 Y6.3 Z1.74 F3000.0
M101
G1 X-10.6 Y-6.3 Z1.74 F1800.0
M103
G1 X-10.21 Y-6.3 Z1.74 F3000.0
M101
G1 X-10.21 Y6.3 Z1.74 F1800.0
M103
G1 X-9.82 Y6.3 Z1.74 F3000.0
M101
G1 X-9.82 Y-6.3 Z1.74 F1800.0
M103
G1 X-9.43 Y-6.3 Z1.74 F3000.0
M101
G1 X-9.43 Y6.3 Z1.74 F1800.0
M103
G1 X-9.03 Y6.3 Z1.74 F3000.0
M101
G1 X-9.03 Y-6.3 Z1.74 F1800.0
M103
G1 X-8.64 Y-6.3 Z1.74 F3000.0
M101
G1 X-8.64 Y6.3 Z1.74 F1800.0
M103
G1 X-8.25 Y6.3 Z1.74 F3000.0
M101
G1 X-8.25 Y-6.3 Z1.74 F1800.0
M103
G1 X-7.85 Y-6.3 Z1.74 F3000.0
M101
G1 X-7.85 Y6.3 Z1.74 F1800.0
M103
G1 X-7.46 Y6.3 Z1.74 F3000.0
M101
G1 X-7.46 Y-6.3 Z1.74 F1800.0
M103
G1 X-7.07 Y-6.3 Z1.74 F3000.0
M101
G1 X-7.07 Y6.3 Z1.74 F1800.0
M103
G1 X-6.68 Y6.3 Z1.74 F3000.0
M101
G1 X-6.68 Y-6.3 Z1.74 F1800.0
M103
G1 X-6.28 Y-6.3 Z1.74 F3000.0
M101
G1 X-6.28 Y6.3 Z1.74 F1800.0
M103
G1 X-5.89 Y6.3 Z1.74 F3000.0
M101
G1 X-5.89 Y-6.3 Z1.74 F1800.0
M103
G1 X-5.5 Y-6.3 Z1.74 F3000.0
M101
G1 X-5.5 Y6.3 Z1.74 F1800.0
M103
G1 X-5.11 Y6.3 Z1.74 F3000.0
M101
G1 X-5.11 Y-6.3 Z1.74 F1800.0
M103
G1 X-4.71 Y-6.3 Z1.74 F3000.0
M101
G1 X-4.71 Y6.3 Z1.74 F1800.0
M103
G1 X-4.32 Y6.3 Z1.74 F3000.0
M101
G1 X-4.32 Y-6.3 Z1.74 F1800.0
M103
G1 X-3.93 Y-6.3 Z1.74 F3000.0
M101
G1 X-3.93 Y6.3 Z1.74 F1800.0
M103
G1 X-3.53 Y6.3 Z1.74 F3000.0
M101
G1 X-3.53 Y-6.3 Z1.74 F1800.0
M103
G1 X-3.14 Y-6.3 Z1.74 F3000.0
M101
G1 X-3.14 Y6.3 Z1.74 F1800.0
M103
G1 X-2.75 Y6.3 Z1.74 F3000.0
M101
G1 X-2.75 Y-6.3 Z1.74 F1800.0
M103
G1 X-2.36 Y-6.3 Z1.74 F3000.0
M101
G1 X-2.36 Y6.3 Z1.74 F1800.0
M103
G1 X-1.96 Y6.3 Z1.74 F3000.0
M101
G1 X-1.96 Y-6.3 Z1.74 F1800.0
M103
G1 X-1.57 Y-6.3 Z1.74 F3000.0
M101
G1 X-1.57 Y6.3 Z1.74 F1800.0
M103
G1 X-1.18 Y6.3 Z1.74 F3000.0
M101
G1 X-1.18 Y-6.3 Z1.74 F1800.0
M103
G1 X-0.79 Y-6.3 Z1.74 F3000.0
M101
G1 X-0.79 Y6.3 Z1.74 F1800.0
M103
G1 X-0.39 Y6.3 Z1.74 F3000.0
M101
G1 X-0.39 Y-6.3 Z1.74 F1800.0
M103
G1 X-0.0 Y-6.3 Z1.74 F3000.0
M101
G1 X0.0 Y6.3 Z1.74 F1800.0
M103
G1 X0.39 Y6.3 Z1.74 F3000.0
M101
G1 X0.39 Y-6.3 Z1.74 F1800.0
M103
G1 X0.79 Y-6.3 Z1.74 F3000.0
M101
G1 X0.79 Y6.3 Z1.74 F1800.0
M103
G1 X1.18 Y6.3 Z1.74 F3000.0
M101
G1 X1.18 Y-6.3 Z1.74 F1800.0
M103
G1 X1.57 Y-6.3 Z1.74 F3000.0
M101
G1 X1.57 Y6.3 Z1.74 F1800.0
M103
G1 X1.96 Y6.3 Z1.74 F3000.0
M101
G1 X1.96 Y-6.3 Z1.74 F1800.0
M103
G1 X2.36 Y-6.3 Z1.74 F3000.0
M101
G1 X2.36 Y6.3 Z1.74 F1800.0
M103
G1 X2.75 Y6.3 Z1.74 F3000.0
M101
G1 X2.75 Y-6.3 Z1.74 F1800.0
M103
G1 X3.14 Y-6.3 Z1.74 F3000.0
M101
G1 X3.14 Y6.3 Z1.74 F1800.0
M103
G1 X3.53 Y6.3 Z1.74 F3000.0
M101
G1 X3.53 Y-6.3 Z1.74 F1800.0
M103
G1 X3.93 Y-6.3 Z1.74 F3000.0
M101
G1 X3.93 Y6.3 Z1.74 F1800.0
M103
G1 X4.32 Y6.3 Z1.74 F3000.0
M101
G1 X4.32 Y-6.3 Z1.74 F1800.0
M103
G1 X4.71 Y-6.3 Z1.74 F3000.0
M101
G1 X4.71 Y6.3 Z1.74 F1800.0
M103
G1 X5.11 Y6.3 Z1.74 F3000.0
M101
G1 X5.11 Y-6.3 Z1.74 F1800.0
M103
G1 X5.5 Y-6.3 Z1.74 F3000.0
M101
G1 X5.5 Y6.3 Z1.74 F1800.0
M103
G1 X5.89 Y6.3 Z1.74 F3000.0
M101
G1 X5.89 Y-6.3 Z1.74 F1800.0
M103
G1 X6.28 Y-6.3 Z1.74 F3000.0
M101
G1 X6.28 Y6.3 Z1.74 F1800.0
M103
G1 X6.68 Y6.3 Z1.74 F3000.0
M101
G1 X6.68 Y-6.3 Z1.74 F1800.0
M103
G1 X7.07 Y-6.3 Z1.74 F3000.0
M101
G1 X7.07 Y6.3 Z1.74 F1800.0
M103
G1 X7.46 Y6.3 Z1.74 F3000.0
M101
G1 X7.46 Y-6.3 Z1.74 F1800.0
M103
G1 X7.85 Y-6.3 Z1.74 F3000.0
M101
G1 X7.85 Y6.3 Z1.74 F1800.0
M103
G1 X8.25 Y6.3 Z1.74 F3000.0
M101
G1 X8.25 Y-6.3 Z1.74 F1800.0
M103
G1 X8.64 Y-6.3 Z1.74 F3000.0
M101
G1 X8.64 Y6.3 Z1.74 F1800.0
M103
G1 X9.03 Y6.3 Z1.74 F3000.0
M101
G1 X9.03 Y-6.3 Z1.74 F1800.0
M103
G1 X9.43 Y-6.3 Z1.74 F3000.0
M101
G1 X9.43 Y6.3 Z1.74 F1800.0
M103
G1 X9.82 Y6.3 Z1.74 F3000.0
M101
G1 X9.82 Y-6.3 Z1.74 F1800.0
M103
G1 X10.21 Y-6.3 Z1.74 F3000.0
M101
G1 X10.21 Y6.3 Z1.74 F1800.0
M103
G1 X10.6 Y6.3 Z1.74 F3000.0
M101
G1 X10.6 Y-6.3 Z1.74 F1800.0
M103
G1 X11.0 Y-6.3 Z1.74 F3000.0
M101
G1 X11.0 Y6.3 Z1.74 F1800.0
M103
G1 X11.39 Y6.3 Z1.74 F3000.0
M101
G1 X11.39 Y-6.3 Z1.74 F1800.0
M103
G1 X11.78 Y-6.3 Z1.74 F3000.0
M101
G1 X11.78 Y6.3 Z1.74 F1800.0
M103
G1 X12.17 Y6.3 Z1.74 F3000.0
M101
G1 X12.17 Y-6.3 Z1.74 F1800.0
M103
G1 X12.57 Y-6.3 Z1.74 F3000.0
M101
G1 X12.57 Y6.3 Z1.74 F1800.0
M103
G1 X12.96 Y6.3 Z1.74 F3000.0
M101
G1 X12.96 Y-6.3 Z1.74 F1800.0
M103
G1 X13.35 Y-6.3 Z1.74 F3000.0
M101
G1 X13.35 Y6.3 Z1.74 F1800.0
M103
G1 X13.74 Y6.3 Z1.74 F3000.0
M101
G1 X13.74 Y-6.3 Z1.74 F1800.0
M103
G1 X14.14 Y-6.3 Z1.74 F3000.0
M101
G1 X14.14 Y6.3 Z1.74 F1800.0
M103
G1 X14.53 Y6.3 Z1.74 F3000.0
M101
G1 X14.53 Y-6.3 Z1.74 F1800.0
M103
G1 X14.92 Y-6.3 Z1.74 F3000.0
M101
G1 X14.92 Y6.3 Z1.74 F1800.0
M103
G1 X15.32 Y6.3 Z1.74 F3000.0
M101
G1 X15.32 Y-6.3 Z1.74 F1800.0
M103
G1 X15.71 Y-6.3 Z1.74 F3000.0
M101
G1 X15.71 Y6.3 Z1.74 F1800.0
M103
G1 X16.1 Y6.3 Z1.74 F3000.0
M101
G1 X16.1 Y-6.3 Z1.74 F1800.0
M103
G1 X16.49 Y-6.3 Z1.74 F3000.0
M101
G1 X16.49 Y6.3 Z1.74 F1800.0
M103
G1 X16.89 Y6.3 Z1.74 F3000.0
M101
G1 X16.89 Y-6.3 Z1.74 F1800.0
M103
G1 X17.28 Y-6.3 Z1.74 F3000.0
M101
G1 X17.28 Y6.3 Z1.74 F1800.0
M103
(</surroundingLoop>)
(</layer>)
(<layer> 2.06 )
(<surroundingLoop>)
(<boundaryPerimeter>)
(<boundaryPoint> X18.448 Y7.14 Z2.06 </boundaryPoint>)
(<boundaryPoint> X-18.448 Y7.14 Z2.06 </boundaryPoint>)
(<boundaryPoint> X-18.448 Y-7.14 Z2.06 </boundaryPoint>)
(<boundaryPoint> X18.448 Y-7.14 Z2.06 </boundaryPoint>)
(<loop> outer )
G1 X17.11 Y6.55 Z2.06 F3000.0
M101
G1 X-17.86 Y6.55 Z2.06 F1800.0
G1 X-17.86 Y-6.55 Z2.06 F1800.0
G1 X17.86 Y-6.55 Z2.06 F1800.0
G1 X17.86 Y6.55 Z2.06 F1800.0
G1 X17.28 Y6.55 Z2.06 F1800.0
G1 X17.11 Y6.55 Z2.06 F1800.0
M103
(</loop>)
(<perimeter> outer )
G1 X17.28 Y6.94 Z2.06 F3000.0
M101
G1 X-18.25 Y6.94 Z2.06 F1800.0
G1 X-18.25 Y-6.94 Z2.06 F1800.0
G1 X18.25 Y-6.94 Z2.06 F1800.0
G1 X18.25 Y6.94 Z2.06 F1800.0
G1 X17.28 Y6.94 Z2.06 F1800.0
M103
(</perimeter>)
(</boundaryPerimeter>)
G1 X17.6 Y6.28 Z2.06 F3000.0
M101
G1 X-17.6 Y6.28 Z2.06 F1800.0
M103
G1 X-17.6 Y5.89 Z2.06 F3000.0
M101
G1 X17.6 Y5.89 Z2.06 F1800.0
M103
G1 X17.6 Y5.5 Z2.06 F3000.0
M101
G1 X-17.6 Y5.5 Z2.06 F1800.0
M103
G1 X-17.6 Y5.11 Z2.06 F3000.0
M101
G1 X17.6 Y5.11 Z2.06 F1800.0
M103
G1 X17.6 Y4.71 Z2.06 F3000.0
M101
G1 X-17.6 Y4.71 Z2.06 F1800.0
M103
G1 X-17.6 Y4.32 Z2.06 F3000.0
M101
G1 X17.6 Y4.32 Z2.06 F1800.0
M103
G1 X17.6 Y3.93 Z2.06 F3000.0
M101
G1 X-17.6 Y3.93 Z2.06 F1800.0
M103
G1 X-17.6 Y3.53 Z2.06 F3000.0
M101
G1 X17.6 Y3.53 Z2.06 F1800.0
M103
G1 X17.6 Y3.14 Z2.06 F3000.0
M101
G1 X-17.6 Y3.14 Z2.06 F1800.0
M103
G1 X-17.6 Y2.75 Z2.06 F3000.0
M101
G1 X17.6 Y2.75 Z2.06 F1800.0
M103
G1 X17.6 Y2.36 Z2.06 F3000.0
M101
G1 X-17.6 Y2.36 Z2.06 F1800.0
M103
G1 X-17.6 Y1.96 Z2.06 F3000.0
M101
G1 X17.6 Y1.96 Z2.06 F1800.0
M103
G1 X17.6 Y1.57 Z2.06 F3000.0
M101
G1 X-17.6 Y1.57 Z2.06 F1800.0
M103
G1 X-17.6 Y1.18 Z2.06 F3000.0
M101
G1 X17.6 Y1.18 Z2.06 F1800.0
M103
G1 X17.6 Y0.79 Z2.06 F3000.0
M101
G1 X-17.6 Y0.79 Z2.06 F1800.0
M103
G1 X-17.6 Y0.39 Z2.06 F3000.0
M101
G1 X17.6 Y0.39 Z2.06 F1800.0
M103
G1 X17.6 Y-0.0 Z2.06 F3000.0
M101
G1 X-17.6 Y0.0 Z2.06 F1800.0
M103
G1 X-17.6 Y-0.39 Z2.06 F3000.0
M101
G1 X17.6 Y-0.39 Z2.06 F1800.0
M103
G1 X17.6 Y-0.79 Z2.06 F3000.0
M101
G1 X-17.6 Y-0.79 Z2.06 F1800.0
M103
G1 X-17.6 Y-1.18 Z2.06 F3000.0
M101
G1 X17.6 Y-1.18 Z2.06 F1800.0
M103
G1 X17.6 Y-1.57 Z2.06 F3000.0
M101
G1 X-17.6 Y-1.57 Z2.06 F1800.0
M103
G1 X-17.6 Y-1.96 Z2.06 F3000.0
M101
G1 X17.6 Y-1.96 Z2.06 F1800.0
M103
G1 X17.6 Y-2.36 Z2.06 F3000.0
M101
G1 X-17.6 Y-2.36 Z2.06 F1800.0
M103
G1 X-17.6 Y-2.75 Z2.06 F3000.0
M101
G1 X17.6 Y-2.75 Z2.06 F1800.0
M103
G1 X17.6 Y-3.14 Z2.06 F3000.0
M101
G1 X-17.6 Y-3.14 Z2.06 F1800.0
M103
G1 X-17.6 Y-3.53 Z2.06 F3000.0
M101
G1 X17.6 Y-3.53 Z2.06 F1800.0
M103
G1 X17.6 Y-3.93 Z2.06 F3000.0
M101
G1 X-17.6 Y-3.93 Z2.06 F1800.0
M103
G1 X-17.6 Y-4.32 Z2.06 F3000.0
M101
G1 X17.6 Y-4.32 Z2.06 F1800.0
M103
G1 X17.6 Y-4.71 Z2.06 F3000.0
M101
G1 X-17.6 Y-4.71 Z2.06 F1800.0
M103
G1 X-17.6 Y-5.11 Z2.06 F3000.0
M101
G1 X17.6 Y-5.11 Z2.06 F1800.0
M103
G1 X17.6 Y-5.5 Z2.06 F3000.0
M101
G1 X-17.6 Y-5.5 Z2.06 F1800.0
M103
G1 X-17.6 Y-5.89 Z2.06 F3000.0
M101
G1 X17.6 Y-5.89 Z2.06 F1800.0
M103
G1 X17.6 Y-6.28 Z2.06 F3000.0
M101
G1 X-17.15 Y-6.28 Z2.06 F1800.0
M108 R30.0
M102
G1 X-17.6 Y-6.28 Z2.06 F1800.0
M108 R3.569
M103
(</surroundingLoop>)
(</layer>)
(</extrusion>)
M104 S0
(<alteration>)
(**** Beginning of end.gcode ****)
(This file is for a MakerBot Thing-O-Matic)
(*** begin settings ****)
(**** end settings ****)
(**** begin move to cooling position ****)
G1 X0.0 F3300.0       (move to cooling position)
G1 X0.0 Y55.0 F3300.0 (move to cooling position)
G162 Z F1000          (home Z axis maximum and begin cooling)
(**** end move to cooling position ****)
(**** begin filament reversal ****)
M108 R1.98
M102 (Extruder on, reverse)
G04 P2000 (Wait t/1000 seconds)
M108 R1.98
M103 (Extruder off)
(**** end filament reversal ****)
M18 (Turn off steppers)
(**** begin eject ****)
(**** end eject ****)
(**** begin cool for safety ****)
M104 S0 T0 (set extruder temperature)
M109 S0 T0 (set heated-build-platform temperature)
(**** end cool for safety ****)
(**** end of end.gcode ****)
(</alteration>)
;M113 S0.0
