(** This GCode was generated by ReplicatorG 0034 **)
(*  using Skeinforge (35)  *)
(*  for a Single headed Thing-O-Matic  *)
(*  on 2012/04/11 19:05:31 (-0400) *)
(<alteration>)
(**** beginning of start.gcode ****)
(This file is for a MakerBot Thing-O-Matic)
(**** begin initialization commands ****)
G21 (set units to mm)
G90 (set positioning to absolute)
M108 R5.0 (set extruder speed)
M103 (Make sure extruder is off)
M104 S225 T0 (set extruder temperature)
M109 S120 T0 (set heated-build-platform temperature)
(**** end initialization commands ****)
(**** begin homing ****)
G162 Z F1000 (home Z axis maximum)
G92 Z10 (set Z to 0)
G1 Z0.0 (move z down 10)
G162 Z F150 (home Z axis maximum)
G161 X Y F2500 (home XY axes minimum)
M132 X Y Z A B (Recall stored home offsets for XYZAB axis)
(**** end homing ****)
(**** begin pre-wipe commands ****)
( Some people have had problems with the nozzle hitting )
( bolts or wipers during this pre-extrusion warmup.     )
( If this happens to you, you can change the values for )
( the X and Y positions in the following code.          )
( The goal is to have the toolhead wipe its initial     )
( extrusion near the edge of the platform, [anchor it]  )
( so as not to have it interfere with the print.        )
( This file can be found in:                            )
( replicatorg/skein_engines/skeinforge-##/skeinforge_application/ )
( prefs/<profile name [e.g. Thingomatic-ABP-Mk7]>/alterations )
G1 X25.0 Y-60.0 Z10.0 F3300.0 (move to waiting position)
M6 T0 (wait for toolhead parts, nozzle, HBP, etc., to reach temperature)
G0 X25 Y-57 (Position Nozzle)
G0 Z0.6     (Position Height)
M108 R4.0   (Set Extruder Speed)
M101        (Start Extruder)
G4 P1500    (Create Anchor)
(**** end pre-wipe commands ****)
(**** end of start.gcode ****)
(</alteration>)
(<creation> skeinforge </creation>)
(<version> 10.11.05 </version>)
(<extruderInitialization>)
(<craftTypeName> extrusion </craftTypeName>)
M105
(<bridgeWidthMultiplier> 1.0 </bridgeWidthMultiplier>)
(<decimalPlacesCarried> 3 </decimalPlacesCarried>)
(<layerThickness> 0.32 </layerThickness>)
(<threadSequenceString> loops perimeter infill </threadSequenceString>)
(<operatingFeedRatePerSecond> 30.0 </operatingFeedRatePerSecond>)
(<operatingFlowRate> 3.56914845556 </operatingFlowRate>)
(<orbitalFeedRatePerSecond> 15.0 </orbitalFeedRatePerSecond>)
(<travelFeedRatePerSecond> 50.0 </travelFeedRatePerSecond>)
(<perimeterWidth> 0.393 </perimeterWidth>)
(<profileName> ABS </profileName>)
(<procedureDone> carve,bottom </procedureDone>)
(<procedureDone> preface </procedureDone>)
(<procedureDone> inset </procedureDone>)
(<procedureDone> fill </procedureDone>)
(<procedureDone> speed </procedureDone>)
(<procedureDone> raft </procedureDone>)
(<procedureDone> jitter </procedureDone>)
(<procedureDone> comb </procedureDone>)
(<procedureDone> cool </procedureDone>)
(<procedureDone> outline </procedureDone>)
(<procedureDone> reversal </procedureDone>)
(<procedureDone> export </procedureDone>)
(</extruderInitialization>)
(<extrusion>)
;M113 S1.0
M108 R3.569
(<layer> 0.46 )
(<surroundingLoop>)
(<boundaryPerimeter>)
(<boundaryPoint> X25.34 Y26.075 Z0.46 </boundaryPoint>)
(<boundaryPoint> X-25.34 Y26.075 Z0.46 </boundaryPoint>)
(<boundaryPoint> X-25.34 Y-26.075 Z0.46 </boundaryPoint>)
(<boundaryPoint> X25.34 Y-26.075 Z0.46 </boundaryPoint>)
(<loop> inner )
M108 R2.141
G1 X27.14 Y-27.88 Z0.46 F1080.0
M101
G1 X-27.14 Y-27.88 Z0.46 F1080.0
G1 X-27.14 Y27.88 Z0.46 F1080.0
G1 X27.14 Y27.88 Z0.46 F1080.0
G1 X27.14 Y-27.61 Z0.46 F1080.0
M108 R30.0
M102
G1 X27.14 Y-27.88 Z0.46 F1080.0
M108 R2.141
M103
G1 X0.63 Y-15.18 Z0.46 F3000.0
M108 R30.0
M101
G1 X-0.09 Y-14.83 Z0.46 F3000.0
M108 R2.141
G1 X-20.86 Y-14.83 Z0.46 F1080.0
G1 X-20.86 Y18.79 Z0.46 F1080.0
G1 X20.86 Y18.79 Z0.46 F1080.0
G1 X20.86 Y-14.83 Z0.46 F1080.0
G1 X0.18 Y-14.83 Z0.46 F1080.0
M108 R30.0
M102
G1 X0.0 Y-14.83 Z0.46 F1080.0
G1 X-0.09 Y-14.83 Z0.46 F1080.0
M108 R2.141
M103
(</loop>)
(<loop> outer )
G1 X-0.01 Y-24.69 Z0.46 F3000.0
M108 R30.0
M101
G1 X0.0 Y-25.49 Z0.46 F3000.0
M108 R2.141
G1 X24.75 Y-25.49 Z0.46 F1080.0
G1 X24.75 Y25.49 Z0.46 F1080.0
G1 X-24.75 Y25.49 Z0.46 F1080.0
G1 X-24.75 Y-25.49 Z0.46 F1080.0
G1 X0.0 Y-25.49 Z0.46 F1080.0
M103
(</loop>)
(<perimeter> outer )
G1 X0.0 Y-25.88 Z0.46 F3000.0
M101
G1 X25.14 Y-25.88 Z0.46 F1080.0
G1 X25.14 Y25.88 Z0.46 F1080.0
G1 X-25.14 Y25.88 Z0.46 F1080.0
G1 X-25.14 Y-25.88 Z0.46 F1080.0
G1 X-0.27 Y-25.88 Z0.46 F1080.0
M108 R30.0
M102
G1 X0.0 Y-25.88 Z0.46 F1080.0
M108 R2.141
M103
(</perimeter>)
(</boundaryPerimeter>)
(<surroundingLoop>)
(<boundaryPerimeter>)
(<boundaryPoint> X-20.272 Y18.2 Z0.46 </boundaryPoint>)
(<boundaryPoint> X20.272 Y18.2 Z0.46 </boundaryPoint>)
(<boundaryPoint> X20.272 Y-14.245 Z0.46 </boundaryPoint>)
(<boundaryPoint> X-20.272 Y-14.245 Z0.46 </boundaryPoint>)
(<perimeter> inner )
G1 X0.0 Y-15.24 Z0.46 F3000.0
M108 R30.0
M101
G1 X0.0 Y-14.44 Z0.46 F3000.0
M108 R2.141
G1 X-20.47 Y-14.44 Z0.46 F1080.0
G1 X-20.47 Y18.4 Z0.46 F1080.0
G1 X20.47 Y18.4 Z0.46 F1080.0
G1 X20.47 Y-14.44 Z0.46 F1080.0
G1 X0.0 Y-14.44 Z0.46 F1080.0
M103
(</perimeter>)
(</boundaryPerimeter>)
(</surroundingLoop>)
G1 X-0.0 Y-15.09 Z0.46 F1800.0
M101
G1 X-0.0 Y-25.23 Z0.46 F1080.0
G1 X0.39 Y-25.23 Z0.46 F1080.0
G1 X0.39 Y-15.09 Z0.46 F1080.0
M103
G1 X0.79 Y-15.09 Z0.46 F1800.0
M101
G1 X0.79 Y-25.23 Z0.46 F1080.0
G1 X1.18 Y-25.23 Z0.46 F1080.0
G1 X1.18 Y-15.09 Z0.46 F1080.0
M103
G1 X1.57 Y-15.09 Z0.46 F1800.0
M101
G1 X1.57 Y-25.23 Z0.46 F1080.0
G1 X1.96 Y-25.23 Z0.46 F1080.0
G1 X1.96 Y-15.09 Z0.46 F1080.0
M103
G1 X2.36 Y-15.09 Z0.46 F1800.0
M101
G1 X2.36 Y-25.23 Z0.46 F1080.0
G1 X2.75 Y-25.23 Z0.46 F1080.0
G1 X2.75 Y-15.09 Z0.46 F1080.0
M103
G1 X3.14 Y-15.09 Z0.46 F1800.0
M101
G1 X3.14 Y-25.23 Z0.46 F1080.0
G1 X3.53 Y-25.23 Z0.46 F1080.0
G1 X3.53 Y-15.09 Z0.46 F1080.0
M103
G1 X3.93 Y-15.09 Z0.46 F1800.0
M101
G1 X3.93 Y-25.23 Z0.46 F1080.0
G1 X4.32 Y-25.23 Z0.46 F1080.0
G1 X4.32 Y-15.09 Z0.46 F1080.0
M103
G1 X4.71 Y-15.09 Z0.46 F1800.0
M101
G1 X4.71 Y-25.23 Z0.46 F1080.0
G1 X5.11 Y-25.23 Z0.46 F1080.0
G1 X5.11 Y-15.09 Z0.46 F1080.0
M103
G1 X5.5 Y-15.09 Z0.46 F1800.0
M101
G1 X5.5 Y-25.23 Z0.46 F1080.0
G1 X5.89 Y-25.23 Z0.46 F1080.0
G1 X5.89 Y-15.09 Z0.46 F1080.0
M103
G1 X6.28 Y-15.09 Z0.46 F1800.0
M101
G1 X6.28 Y-25.23 Z0.46 F1080.0
G1 X6.68 Y-25.23 Z0.46 F1080.0
G1 X6.68 Y-15.09 Z0.46 F1080.0
M103
G1 X7.07 Y-15.09 Z0.46 F1800.0
M101
G1 X7.07 Y-25.23 Z0.46 F1080.0
G1 X7.46 Y-25.23 Z0.46 F1080.0
G1 X7.46 Y-15.09 Z0.46 F1080.0
M103
G1 X7.85 Y-15.09 Z0.46 F1800.0
M101
G1 X7.85 Y-25.23 Z0.46 F1080.0
G1 X8.25 Y-25.23 Z0.46 F1080.0
G1 X8.25 Y-15.09 Z0.46 F1080.0
M103
G1 X8.64 Y-15.09 Z0.46 F1800.0
M101
G1 X8.64 Y-25.23 Z0.46 F1080.0
G1 X9.03 Y-25.23 Z0.46 F1080.0
G1 X9.03 Y-15.09 Z0.46 F1080.0
M103
G1 X9.43 Y-15.09 Z0.46 F1800.0
M101
G1 X9.43 Y-25.23 Z0.46 F1080.0
G1 X9.82 Y-25.23 Z0.46 F1080.0
G1 X9.82 Y-15.09 Z0.46 F1080.0
M103
G1 X10.21 Y-15.09 Z0.46 F1800.0
M101
G1 X10.21 Y-25.23 Z0.46 F1080.0
G1 X10.6 Y-25.23 Z0.46 F1080.0
G1 X10.6 Y-15.09 Z0.46 F1080.0
M103
G1 X11.0 Y-15.09 Z0.46 F1800.0
M101
G1 X11.0 Y-25.23 Z0.46 F1080.0
G1 X11.39 Y-25.23 Z0.46 F1080.0
G1 X11.39 Y-15.09 Z0.46 F1080.0
M103
G1 X11.78 Y-15.09 Z0.46 F1800.0
M101
G1 X11.78 Y-25.23 Z0.46 F1080.0
G1 X12.17 Y-25.23 Z0.46 F1080.0
G1 X12.17 Y-15.09 Z0.46 F1080.0
M103
G1 X12.57 Y-15.09 Z0.46 F1800.0
M101
G1 X12.57 Y-25.23 Z0.46 F1080.0
G1 X12.96 Y-25.23 Z0.46 F1080.0
G1 X12.96 Y-15.09 Z0.46 F1080.0
M103
G1 X13.35 Y-15.09 Z0.46 F1800.0
M101
G1 X13.35 Y-25.23 Z0.46 F1080.0
G1 X13.74 Y-25.23 Z0.46 F1080.0
G1 X13.74 Y-15.09 Z0.46 F1080.0
M103
G1 X14.14 Y-15.09 Z0.46 F1800.0
M101
G1 X14.14 Y-25.23 Z0.46 F1080.0
G1 X14.53 Y-25.23 Z0.46 F1080.0
G1 X14.53 Y-15.09 Z0.46 F1080.0
M103
G1 X14.92 Y-15.09 Z0.46 F1800.0
M101
G1 X14.92 Y-25.23 Z0.46 F1080.0
G1 X15.32 Y-25.23 Z0.46 F1080.0
G1 X15.32 Y-15.09 Z0.46 F1080.0
M103
G1 X15.71 Y-15.09 Z0.46 F1800.0
M101
G1 X15.71 Y-25.23 Z0.46 F1080.0
G1 X16.1 Y-25.23 Z0.46 F1080.0
G1 X16.1 Y-15.09 Z0.46 F1080.0
M103
G1 X16.49 Y-15.09 Z0.46 F1800.0
M101
G1 X16.49 Y-25.23 Z0.46 F1080.0
G1 X16.89 Y-25.23 Z0.46 F1080.0
G1 X16.89 Y-15.09 Z0.46 F1080.0
M103
G1 X17.28 Y-15.09 Z0.46 F1800.0
M101
G1 X17.28 Y-25.23 Z0.46 F1080.0
G1 X17.67 Y-25.23 Z0.46 F1080.0
G1 X17.67 Y-15.09 Z0.46 F1080.0
M103
G1 X18.06 Y-15.09 Z0.46 F1800.0
M101
G1 X18.06 Y-25.23 Z0.46 F1080.0
G1 X18.46 Y-25.23 Z0.46 F1080.0
G1 X18.46 Y-15.09 Z0.46 F1080.0
M103
G1 X18.85 Y-15.09 Z0.46 F1800.0
M101
G1 X18.85 Y-25.23 Z0.46 F1080.0
G1 X19.24 Y-25.23 Z0.46 F1080.0
G1 X19.24 Y-15.09 Z0.46 F1080.0
M103
G1 X19.64 Y-15.09 Z0.46 F1800.0
M101
G1 X19.64 Y-25.23 Z0.46 F1080.0
G1 X20.03 Y-25.23 Z0.46 F1080.0
G1 X20.03 Y-15.09 Z0.46 F1080.0
M103
G1 X20.42 Y-15.09 Z0.46 F1800.0
M101
G1 X20.42 Y-25.23 Z0.46 F1080.0
G1 X20.81 Y-25.23 Z0.46 F1080.0
G1 X20.81 Y-15.36 Z0.46 F1080.0
M108 R30.0
M102
G1 X20.81 Y-15.09 Z0.46 F1080.0
M108 R2.141
M103
G1 X24.19 Y-24.78 Z0.46 F1800.0
M108 R30.0
M101
G1 X24.35 Y-25.23 Z0.46 F1800.0
M108 R2.141
G1 X24.35 Y25.23 Z0.46 F1080.0
G1 X23.96 Y25.23 Z0.46 F1080.0
G1 X23.96 Y-25.23 Z0.46 F1080.0
G1 X23.56 Y-25.23 Z0.46 F1080.0
G1 X23.56 Y25.23 Z0.46 F1080.0
G1 X23.17 Y25.23 Z0.46 F1080.0
G1 X23.17 Y-25.23 Z0.46 F1080.0
G1 X22.78 Y-25.23 Z0.46 F1080.0
G1 X22.78 Y25.23 Z0.46 F1080.0
G1 X22.38 Y25.23 Z0.46 F1080.0
G1 X22.38 Y-25.23 Z0.46 F1080.0
G1 X21.99 Y-25.23 Z0.46 F1080.0
G1 X21.99 Y25.23 Z0.46 F1080.0
G1 X21.6 Y25.23 Z0.46 F1080.0
G1 X21.6 Y-25.23 Z0.46 F1080.0
G1 X21.21 Y-25.23 Z0.46 F1080.0
G1 X21.21 Y25.23 Z0.46 F1080.0
G1 X20.81 Y25.23 Z0.46 F1080.0
G1 X20.81 Y19.05 Z0.46 F1080.0
M103
G1 X20.42 Y19.05 Z0.46 F1800.0
M101
G1 X20.42 Y25.23 Z0.46 F1080.0
G1 X20.03 Y25.23 Z0.46 F1080.0
G1 X20.03 Y19.05 Z0.46 F1080.0
M103
G1 X19.64 Y19.05 Z0.46 F1800.0
M101
G1 X19.64 Y25.23 Z0.46 F1080.0
G1 X19.24 Y25.23 Z0.46 F1080.0
G1 X19.24 Y19.05 Z0.46 F1080.0
M103
G1 X18.85 Y19.05 Z0.46 F1800.0
M101
G1 X18.85 Y25.23 Z0.46 F1080.0
G1 X18.46 Y25.23 Z0.46 F1080.0
G1 X18.46 Y19.05 Z0.46 F1080.0
M103
G1 X18.06 Y19.05 Z0.46 F1800.0
M101
G1 X18.06 Y25.23 Z0.46 F1080.0
G1 X17.67 Y25.23 Z0.46 F1080.0
G1 X17.67 Y19.05 Z0.46 F1080.0
M103
G1 X17.28 Y19.05 Z0.46 F1800.0
M101
G1 X17.28 Y25.23 Z0.46 F1080.0
G1 X16.89 Y25.23 Z0.46 F1080.0
G1 X16.89 Y19.05 Z0.46 F1080.0
M103
G1 X16.49 Y19.05 Z0.46 F1800.0
M101
G1 X16.49 Y25.23 Z0.46 F1080.0
G1 X16.1 Y25.23 Z0.46 F1080.0
G1 X16.1 Y19.05 Z0.46 F1080.0
M103
G1 X15.71 Y19.05 Z0.46 F1800.0
M101
G1 X15.71 Y25.23 Z0.46 F1080.0
G1 X15.32 Y25.23 Z0.46 F1080.0
G1 X15.32 Y19.05 Z0.46 F1080.0
M103
G1 X14.92 Y19.05 Z0.46 F1800.0
M101
G1 X14.92 Y25.23 Z0.46 F1080.0
G1 X14.53 Y25.23 Z0.46 F1080.0
G1 X14.53 Y19.05 Z0.46 F1080.0
M103
G1 X14.14 Y19.05 Z0.46 F1800.0
M101
G1 X14.14 Y25.23 Z0.46 F1080.0
G1 X13.74 Y25.23 Z0.46 F1080.0
G1 X13.74 Y19.05 Z0.46 F1080.0
M103
G1 X13.35 Y19.05 Z0.46 F1800.0
M101
G1 X13.35 Y25.23 Z0.46 F1080.0
G1 X12.96 Y25.23 Z0.46 F1080.0
G1 X12.96 Y19.05 Z0.46 F1080.0
M103
G1 X12.57 Y19.05 Z0.46 F1800.0
M101
G1 X12.57 Y25.23 Z0.46 F1080.0
G1 X12.17 Y25.23 Z0.46 F1080.0
G1 X12.17 Y19.05 Z0.46 F1080.0
M103
G1 X11.78 Y19.05 Z0.46 F1800.0
M101
G1 X11.78 Y25.23 Z0.46 F1080.0
G1 X11.39 Y25.23 Z0.46 F1080.0
G1 X11.39 Y19.05 Z0.46 F1080.0
M103
G1 X11.0 Y19.05 Z0.46 F1800.0
M101
G1 X11.0 Y25.23 Z0.46 F1080.0
G1 X10.6 Y25.23 Z0.46 F1080.0
G1 X10.6 Y19.05 Z0.46 F1080.0
M103
G1 X10.21 Y19.05 Z0.46 F1800.0
M101
G1 X10.21 Y25.23 Z0.46 F1080.0
G1 X9.82 Y25.23 Z0.46 F1080.0
G1 X9.82 Y19.05 Z0.46 F1080.0
M103
G1 X9.43 Y19.05 Z0.46 F1800.0
M101
G1 X9.43 Y25.23 Z0.46 F1080.0
G1 X9.03 Y25.23 Z0.46 F1080.0
G1 X9.03 Y19.05 Z0.46 F1080.0
M103
G1 X8.64 Y19.05 Z0.46 F1800.0
M101
G1 X8.64 Y25.23 Z0.46 F1080.0
G1 X8.25 Y25.23 Z0.46 F1080.0
G1 X8.25 Y19.05 Z0.46 F1080.0
M103
G1 X7.85 Y19.05 Z0.46 F1800.0
M101
G1 X7.85 Y25.23 Z0.46 F1080.0
G1 X7.46 Y25.23 Z0.46 F1080.0
G1 X7.46 Y19.05 Z0.46 F1080.0
M103
G1 X7.07 Y19.05 Z0.46 F1800.0
M101
G1 X7.07 Y25.23 Z0.46 F1080.0
G1 X6.68 Y25.23 Z0.46 F1080.0
G1 X6.68 Y19.05 Z0.46 F1080.0
M103
G1 X6.28 Y19.05 Z0.46 F1800.0
M101
G1 X6.28 Y25.23 Z0.46 F1080.0
G1 X5.89 Y25.23 Z0.46 F1080.0
G1 X5.89 Y19.05 Z0.46 F1080.0
M103
G1 X5.5 Y19.05 Z0.46 F1800.0
M101
G1 X5.5 Y25.23 Z0.46 F1080.0
G1 X5.11 Y25.23 Z0.46 F1080.0
G1 X5.11 Y19.05 Z0.46 F1080.0
M103
G1 X4.71 Y19.05 Z0.46 F1800.0
M101
G1 X4.71 Y25.23 Z0.46 F1080.0
G1 X4.32 Y25.23 Z0.46 F1080.0
G1 X4.32 Y19.05 Z0.46 F1080.0
M103
G1 X3.93 Y19.05 Z0.46 F1800.0
M101
G1 X3.93 Y25.23 Z0.46 F1080.0
G1 X3.53 Y25.23 Z0.46 F1080.0
G1 X3.53 Y19.05 Z0.46 F1080.0
M103
G1 X3.14 Y19.05 Z0.46 F1800.0
M101
G1 X3.14 Y25.23 Z0.46 F1080.0
G1 X2.75 Y25.23 Z0.46 F1080.0
G1 X2.75 Y19.05 Z0.46 F1080.0
M103
G1 X2.36 Y19.05 Z0.46 F1800.0
M101
G1 X2.36 Y25.23 Z0.46 F1080.0
G1 X1.96 Y25.23 Z0.46 F1080.0
G1 X1.96 Y19.05 Z0.46 F1080.0
M103
G1 X1.57 Y19.05 Z0.46 F1800.0
M101
G1 X1.57 Y25.23 Z0.46 F1080.0
G1 X1.18 Y25.23 Z0.46 F1080.0
G1 X1.18 Y19.05 Z0.46 F1080.0
M103
G1 X0.79 Y19.05 Z0.46 F1800.0
M101
G1 X0.79 Y25.23 Z0.46 F1080.0
G1 X0.39 Y25.23 Z0.46 F1080.0
G1 X0.39 Y19.05 Z0.46 F1080.0
M103
G1 X0.0 Y19.05 Z0.46 F1800.0
M101
G1 X0.0 Y25.23 Z0.46 F1080.0
G1 X-0.39 Y25.23 Z0.46 F1080.0
G1 X-0.39 Y19.05 Z0.46 F1080.0
M103
G1 X-0.79 Y19.05 Z0.46 F1800.0
M101
G1 X-0.79 Y25.23 Z0.46 F1080.0
G1 X-1.18 Y25.23 Z0.46 F1080.0
G1 X-1.18 Y19.05 Z0.46 F1080.0
M103
G1 X-1.57 Y19.05 Z0.46 F1800.0
M101
G1 X-1.57 Y25.23 Z0.46 F1080.0
G1 X-1.96 Y25.23 Z0.46 F1080.0
G1 X-1.96 Y19.05 Z0.46 F1080.0
M103
G1 X-2.36 Y19.05 Z0.46 F1800.0
M101
G1 X-2.36 Y25.23 Z0.46 F1080.0
G1 X-2.75 Y25.23 Z0.46 F1080.0
G1 X-2.75 Y19.05 Z0.46 F1080.0
M103
G1 X-3.14 Y19.05 Z0.46 F1800.0
M101
G1 X-3.14 Y25.23 Z0.46 F1080.0
G1 X-3.53 Y25.23 Z0.46 F1080.0
G1 X-3.53 Y19.05 Z0.46 F1080.0
M103
G1 X-3.93 Y19.05 Z0.46 F1800.0
M101
G1 X-3.93 Y25.23 Z0.46 F1080.0
G1 X-4.32 Y25.23 Z0.46 F1080.0
G1 X-4.32 Y19.05 Z0.46 F1080.0
M103
G1 X-4.71 Y19.05 Z0.46 F1800.0
M101
G1 X-4.71 Y25.23 Z0.46 F1080.0
G1 X-5.11 Y25.23 Z0.46 F1080.0
G1 X-5.11 Y19.05 Z0.46 F1080.0
M103
G1 X-5.5 Y19.05 Z0.46 F1800.0
M101
G1 X-5.5 Y25.23 Z0.46 F1080.0
G1 X-5.89 Y25.23 Z0.46 F1080.0
G1 X-5.89 Y19.05 Z0.46 F1080.0
M103
G1 X-6.28 Y19.05 Z0.46 F1800.0
M101
G1 X-6.28 Y25.23 Z0.46 F1080.0
G1 X-6.68 Y25.23 Z0.46 F1080.0
G1 X-6.68 Y19.05 Z0.46 F1080.0
M103
G1 X-7.07 Y19.05 Z0.46 F1800.0
M101
G1 X-7.07 Y25.23 Z0.46 F1080.0
G1 X-7.46 Y25.23 Z0.46 F1080.0
G1 X-7.46 Y19.05 Z0.46 F1080.0
M103
G1 X-7.85 Y19.05 Z0.46 F1800.0
M101
G1 X-7.85 Y25.23 Z0.46 F1080.0
G1 X-8.25 Y25.23 Z0.46 F1080.0
G1 X-8.25 Y19.05 Z0.46 F1080.0
M103
G1 X-8.64 Y19.05 Z0.46 F1800.0
M101
G1 X-8.64 Y25.23 Z0.46 F1080.0
G1 X-9.03 Y25.23 Z0.46 F1080.0
G1 X-9.03 Y19.05 Z0.46 F1080.0
M103
G1 X-9.43 Y19.05 Z0.46 F1800.0
M101
G1 X-9.43 Y25.23 Z0.46 F1080.0
G1 X-9.82 Y25.23 Z0.46 F1080.0
G1 X-9.82 Y19.05 Z0.46 F1080.0
M103
G1 X-10.21 Y19.05 Z0.46 F1800.0
M101
G1 X-10.21 Y25.23 Z0.46 F1080.0
G1 X-10.6 Y25.23 Z0.46 F1080.0
G1 X-10.6 Y19.05 Z0.46 F1080.0
M103
G1 X-11.0 Y19.05 Z0.46 F1800.0
M101
G1 X-11.0 Y25.23 Z0.46 F1080.0
G1 X-11.39 Y25.23 Z0.46 F1080.0
G1 X-11.39 Y19.05 Z0.46 F1080.0
M103
G1 X-11.78 Y19.05 Z0.46 F1800.0
M101
G1 X-11.78 Y25.23 Z0.46 F1080.0
G1 X-12.17 Y25.23 Z0.46 F1080.0
G1 X-12.17 Y19.05 Z0.46 F1080.0
M103
G1 X-12.57 Y19.05 Z0.46 F1800.0
M101
G1 X-12.57 Y25.23 Z0.46 F1080.0
G1 X-12.96 Y25.23 Z0.46 F1080.0
G1 X-12.96 Y19.05 Z0.46 F1080.0
M103
G1 X-13.35 Y19.05 Z0.46 F1800.0
M101
G1 X-13.35 Y25.23 Z0.46 F1080.0
G1 X-13.74 Y25.23 Z0.46 F1080.0
G1 X-13.74 Y19.05 Z0.46 F1080.0
M103
G1 X-14.14 Y19.05 Z0.46 F1800.0
M101
G1 X-14.14 Y25.23 Z0.46 F1080.0
G1 X-14.53 Y25.23 Z0.46 F1080.0
G1 X-14.53 Y19.05 Z0.46 F1080.0
M103
G1 X-14.92 Y19.05 Z0.46 F1800.0
M101
G1 X-14.92 Y25.23 Z0.46 F1080.0
G1 X-15.32 Y25.23 Z0.46 F1080.0
G1 X-15.32 Y19.05 Z0.46 F1080.0
M103
G1 X-15.71 Y19.05 Z0.46 F1800.0
M101
G1 X-15.71 Y25.23 Z0.46 F1080.0
G1 X-16.1 Y25.23 Z0.46 F1080.0
G1 X-16.1 Y19.05 Z0.46 F1080.0
M103
G1 X-16.49 Y19.05 Z0.46 F1800.0
M101
G1 X-16.49 Y25.23 Z0.46 F1080.0
G1 X-16.89 Y25.23 Z0.46 F1080.0
G1 X-16.89 Y19.05 Z0.46 F1080.0
M103
G1 X-17.28 Y19.05 Z0.46 F1800.0
M101
G1 X-17.28 Y25.23 Z0.46 F1080.0
G1 X-17.67 Y25.23 Z0.46 F1080.0
G1 X-17.67 Y19.05 Z0.46 F1080.0
M103
G1 X-18.06 Y19.05 Z0.46 F1800.0
M101
G1 X-18.06 Y25.23 Z0.46 F1080.0
G1 X-18.46 Y25.23 Z0.46 F1080.0
G1 X-18.46 Y19.05 Z0.46 F1080.0
M103
G1 X-18.85 Y19.05 Z0.46 F1800.0
M101
G1 X-18.85 Y25.23 Z0.46 F1080.0
G1 X-19.24 Y25.23 Z0.46 F1080.0
G1 X-19.24 Y19.05 Z0.46 F1080.0
M103
G1 X-19.64 Y19.05 Z0.46 F1800.0
M101
G1 X-19.64 Y25.23 Z0.46 F1080.0
G1 X-20.03 Y25.23 Z0.46 F1080.0
G1 X-20.03 Y19.05 Z0.46 F1080.0
M103
G1 X-20.42 Y19.05 Z0.46 F1800.0
M101
G1 X-20.42 Y25.23 Z0.46 F1080.0
G1 X-20.81 Y25.23 Z0.46 F1080.0
G1 X-20.81 Y19.32 Z0.46 F1080.0
M108 R30.0
M102
G1 X-20.81 Y19.05 Z0.46 F1080.0
M108 R2.141
M103
G1 X-21.18 Y24.75 Z0.46 F1800.0
M108 R30.0
M101
G1 X-21.21 Y25.23 Z0.46 F1800.0
M108 R2.141
G1 X-21.21 Y-25.23 Z0.46 F1080.0
G1 X-20.81 Y-25.23 Z0.46 F1080.0
G1 X-20.81 Y-15.09 Z0.46 F1080.0
M103
G1 X-20.42 Y-15.09 Z0.46 F1800.0
M101
G1 X-20.42 Y-25.23 Z0.46 F1080.0
G1 X-20.03 Y-25.23 Z0.46 F1080.0
G1 X-20.03 Y-15.09 Z0.46 F1080.0
M103
G1 X-19.64 Y-15.09 Z0.46 F1800.0
M101
G1 X-19.64 Y-25.23 Z0.46 F1080.0
G1 X-19.24 Y-25.23 Z0.46 F1080.0
G1 X-19.24 Y-15.09 Z0.46 F1080.0
M103
G1 X-18.85 Y-15.09 Z0.46 F1800.0
M101
G1 X-18.85 Y-25.23 Z0.46 F1080.0
G1 X-18.46 Y-25.23 Z0.46 F1080.0
G1 X-18.46 Y-15.09 Z0.46 F1080.0
M103
G1 X-18.06 Y-15.09 Z0.46 F1800.0
M101
G1 X-18.06 Y-25.23 Z0.46 F1080.0
G1 X-17.67 Y-25.23 Z0.46 F1080.0
G1 X-17.67 Y-15.09 Z0.46 F1080.0
M103
G1 X-17.28 Y-15.09 Z0.46 F1800.0
M101
G1 X-17.28 Y-25.23 Z0.46 F1080.0
G1 X-16.89 Y-25.23 Z0.46 F1080.0
G1 X-16.89 Y-15.09 Z0.46 F1080.0
M103
G1 X-16.49 Y-15.09 Z0.46 F1800.0
M101
G1 X-16.49 Y-25.23 Z0.46 F1080.0
G1 X-16.1 Y-25.23 Z0.46 F1080.0
G1 X-16.1 Y-15.09 Z0.46 F1080.0
M103
G1 X-15.71 Y-15.09 Z0.46 F1800.0
M101
G1 X-15.71 Y-25.23 Z0.46 F1080.0
G1 X-15.32 Y-25.23 Z0.46 F1080.0
G1 X-15.32 Y-15.09 Z0.46 F1080.0
M103
G1 X-14.92 Y-15.09 Z0.46 F1800.0
M101
G1 X-14.92 Y-25.23 Z0.46 F1080.0
G1 X-14.53 Y-25.23 Z0.46 F1080.0
G1 X-14.53 Y-15.09 Z0.46 F1080.0
M103
G1 X-14.14 Y-15.09 Z0.46 F1800.0
M101
G1 X-14.14 Y-25.23 Z0.46 F1080.0
G1 X-13.74 Y-25.23 Z0.46 F1080.0
G1 X-13.74 Y-15.09 Z0.46 F1080.0
M103
G1 X-13.35 Y-15.09 Z0.46 F1800.0
M101
G1 X-13.35 Y-25.23 Z0.46 F1080.0
G1 X-12.96 Y-25.23 Z0.46 F1080.0
G1 X-12.96 Y-15.09 Z0.46 F1080.0
M103
G1 X-12.57 Y-15.09 Z0.46 F1800.0
M101
G1 X-12.57 Y-25.23 Z0.46 F1080.0
G1 X-12.17 Y-25.23 Z0.46 F1080.0
G1 X-12.17 Y-15.09 Z0.46 F1080.0
M103
G1 X-11.78 Y-15.09 Z0.46 F1800.0
M101
G1 X-11.78 Y-25.23 Z0.46 F1080.0
G1 X-11.39 Y-25.23 Z0.46 F1080.0
G1 X-11.39 Y-15.09 Z0.46 F1080.0
M103
G1 X-11.0 Y-15.09 Z0.46 F1800.0
M101
G1 X-11.0 Y-25.23 Z0.46 F1080.0
G1 X-10.6 Y-25.23 Z0.46 F1080.0
G1 X-10.6 Y-15.09 Z0.46 F1080.0
M103
G1 X-10.21 Y-15.09 Z0.46 F1800.0
M101
G1 X-10.21 Y-25.23 Z0.46 F1080.0
G1 X-9.82 Y-25.23 Z0.46 F1080.0
G1 X-9.82 Y-15.09 Z0.46 F1080.0
M103
G1 X-9.43 Y-15.09 Z0.46 F1800.0
M101
G1 X-9.43 Y-25.23 Z0.46 F1080.0
G1 X-9.03 Y-25.23 Z0.46 F1080.0
G1 X-9.03 Y-15.09 Z0.46 F1080.0
M103
G1 X-8.64 Y-15.09 Z0.46 F1800.0
M101
G1 X-8.64 Y-25.23 Z0.46 F1080.0
G1 X-8.25 Y-25.23 Z0.46 F1080.0
G1 X-8.25 Y-15.09 Z0.46 F1080.0
M103
G1 X-7.85 Y-15.09 Z0.46 F1800.0
M101
G1 X-7.85 Y-25.23 Z0.46 F1080.0
G1 X-7.46 Y-25.23 Z0.46 F1080.0
G1 X-7.46 Y-15.09 Z0.46 F1080.0
M103
G1 X-7.07 Y-15.09 Z0.46 F1800.0
M101
G1 X-7.07 Y-25.23 Z0.46 F1080.0
G1 X-6.68 Y-25.23 Z0.46 F1080.0
G1 X-6.68 Y-15.09 Z0.46 F1080.0
M103
G1 X-6.28 Y-15.09 Z0.46 F1800.0
M101
G1 X-6.28 Y-25.23 Z0.46 F1080.0
G1 X-5.89 Y-25.23 Z0.46 F1080.0
G1 X-5.89 Y-15.09 Z0.46 F1080.0
M103
G1 X-5.5 Y-15.09 Z0.46 F1800.0
M101
G1 X-5.5 Y-25.23 Z0.46 F1080.0
G1 X-5.11 Y-25.23 Z0.46 F1080.0
G1 X-5.11 Y-15.09 Z0.46 F1080.0
M103
G1 X-4.71 Y-15.09 Z0.46 F1800.0
M101
G1 X-4.71 Y-25.23 Z0.46 F1080.0
G1 X-4.32 Y-25.23 Z0.46 F1080.0
G1 X-4.32 Y-15.09 Z0.46 F1080.0
M103
G1 X-3.93 Y-15.09 Z0.46 F1800.0
M101
G1 X-3.93 Y-25.23 Z0.46 F1080.0
G1 X-3.53 Y-25.23 Z0.46 F1080.0
G1 X-3.53 Y-15.09 Z0.46 F1080.0
M103
G1 X-3.14 Y-15.09 Z0.46 F1800.0
M101
G1 X-3.14 Y-25.23 Z0.46 F1080.0
G1 X-2.75 Y-25.23 Z0.46 F1080.0
G1 X-2.75 Y-15.09 Z0.46 F1080.0
M103
G1 X-2.36 Y-15.09 Z0.46 F1800.0
M101
G1 X-2.36 Y-25.23 Z0.46 F1080.0
G1 X-1.96 Y-25.23 Z0.46 F1080.0
G1 X-1.96 Y-15.09 Z0.46 F1080.0
M103
G1 X-1.57 Y-15.09 Z0.46 F1800.0
M101
G1 X-1.57 Y-25.23 Z0.46 F1080.0
G1 X-1.18 Y-25.23 Z0.46 F1080.0
G1 X-1.18 Y-15.09 Z0.46 F1080.0
M103
G1 X-0.79 Y-15.09 Z0.46 F1800.0
M101
G1 X-0.79 Y-25.23 Z0.46 F1080.0
G1 X-0.39 Y-25.23 Z0.46 F1080.0
G1 X-0.39 Y-15.36 Z0.46 F1080.0
M108 R30.0
M102
G1 X-0.39 Y-15.09 Z0.46 F1080.0
M108 R2.141
M103
G1 X-21.17 Y-25.02 Z0.46 F1800.0
M108 R30.0
M101
G1 X-21.6 Y-25.23 Z0.46 F1800.0
M108 R2.141
G1 X-21.6 Y25.23 Z0.46 F1080.0
G1 X-21.99 Y25.23 Z0.46 F1080.0
G1 X-21.99 Y-25.23 Z0.46 F1080.0
G1 X-22.38 Y-25.23 Z0.46 F1080.0
G1 X-22.38 Y25.23 Z0.46 F1080.0
G1 X-22.78 Y25.23 Z0.46 F1080.0
G1 X-22.78 Y-25.23 Z0.46 F1080.0
G1 X-23.17 Y-25.23 Z0.46 F1080.0
G1 X-23.17 Y25.23 Z0.46 F1080.0
G1 X-23.56 Y25.23 Z0.46 F1080.0
G1 X-23.56 Y-25.23 Z0.46 F1080.0
G1 X-23.96 Y-25.23 Z0.46 F1080.0
G1 X-23.96 Y25.23 Z0.46 F1080.0
G1 X-24.35 Y25.23 Z0.46 F1080.0
G1 X-24.35 Y-24.96 Z0.46 F1080.0
M108 R30.0
M102
G1 X-24.35 Y-25.23 Z0.46 F1080.0
M108 R2.141
M103
(</surroundingLoop>)
(</layer>)
(<layer> 0.78 )
(<surroundingLoop>)
(<boundaryPerimeter>)
(<boundaryPoint> X25.34 Y26.075 Z0.78 </boundaryPoint>)
(<boundaryPoint> X-25.34 Y26.075 Z0.78 </boundaryPoint>)
(<boundaryPoint> X-25.34 Y-26.075 Z0.78 </boundaryPoint>)
(<boundaryPoint> X25.34 Y-26.075 Z0.78 </boundaryPoint>)
(<loop> inner )
M108 R3.569
G1 X-20.92 Y-15.59 Z0.76 F3000.0
M108 R30.0
M101
G1 X-20.65 Y-14.83 Z0.78 F3000.0
M108 R3.569
G1 X-20.86 Y-14.83 Z0.78 F1800.0
G1 X-20.86 Y18.79 Z0.78 F1800.0
G1 X20.86 Y18.79 Z0.78 F1800.0
G1 X20.86 Y-14.83 Z0.78 F1800.0
G1 X-20.2 Y-14.83 Z0.78 F1800.0
M108 R30.0
M102
G1 X-20.65 Y-14.83 Z0.78 F1800.0
M108 R3.569
M103
(</loop>)
(<loop> outer )
G1 X-23.95 Y-14.83 Z0.78 F3000.0
M108 R30.0
M101
G1 X-24.75 Y-14.83 Z0.78 F3000.0
M108 R3.569
G1 X-24.75 Y-25.49 Z0.78 F1800.0
G1 X24.75 Y-25.49 Z0.78 F1800.0
G1 X24.75 Y25.49 Z0.78 F1800.0
G1 X-24.75 Y25.49 Z0.78 F1800.0
G1 X-24.75 Y-14.83 Z0.78 F1800.0
M103
(</loop>)
(<perimeter> outer )
G1 X-25.14 Y-14.83 Z0.78 F3000.0
M101
G1 X-25.14 Y-25.88 Z0.78 F1800.0
G1 X25.14 Y-25.88 Z0.78 F1800.0
G1 X25.14 Y25.88 Z0.78 F1800.0
G1 X-25.14 Y25.88 Z0.78 F1800.0
G1 X-25.14 Y-14.38 Z0.78 F1800.0
M108 R30.0
M102
G1 X-25.14 Y-14.83 Z0.78 F1800.0
M108 R3.569
M103
(</perimeter>)
(</boundaryPerimeter>)
(<surroundingLoop>)
(<boundaryPerimeter>)
(<boundaryPoint> X-20.272 Y18.2 Z0.78 </boundaryPoint>)
(<boundaryPoint> X20.272 Y18.2 Z0.78 </boundaryPoint>)
(<boundaryPoint> X20.272 Y-14.245 Z0.78 </boundaryPoint>)
(<boundaryPoint> X-20.272 Y-14.245 Z0.78 </boundaryPoint>)
(<perimeter> inner )
G1 X-21.27 Y-14.51 Z0.78 F3000.0
M108 R30.0
M101
G1 X-20.47 Y-14.44 Z0.78 F3000.0
M108 R3.569
G1 X-20.47 Y18.4 Z0.78 F1800.0
G1 X20.47 Y18.4 Z0.78 F1800.0
G1 X20.47 Y-14.44 Z0.78 F1800.0
G1 X-20.02 Y-14.44 Z0.78 F1800.0
M108 R30.0
M102
G1 X-20.47 Y-14.44 Z0.78 F1800.0
M108 R3.569
M103
(</perimeter>)
(</boundaryPerimeter>)
(</surroundingLoop>)
G1 X-23.73 Y-15.47 Z0.78 F3000.0
M108 R30.0
M101
G1 X-24.5 Y-15.71 Z0.78 F3000.0
M108 R3.569
G1 X24.5 Y-15.71 Z0.78 F1800.0
G1 X24.5 Y-16.1 Z0.78 F1800.0
G1 X-24.5 Y-16.1 Z0.78 F1800.0
G1 X-24.5 Y-16.49 Z0.78 F1800.0
G1 X24.5 Y-16.49 Z0.78 F1800.0
G1 X24.5 Y-16.89 Z0.78 F1800.0
G1 X-24.5 Y-16.89 Z0.78 F1800.0
G1 X-24.5 Y-17.28 Z0.78 F1800.0
G1 X24.5 Y-17.28 Z0.78 F1800.0
G1 X24.5 Y-17.67 Z0.78 F1800.0
G1 X-24.5 Y-17.67 Z0.78 F1800.0
G1 X-24.5 Y-18.06 Z0.78 F1800.0
G1 X24.5 Y-18.06 Z0.78 F1800.0
G1 X24.5 Y-18.46 Z0.78 F1800.0
G1 X-24.5 Y-18.46 Z0.78 F1800.0
G1 X-24.5 Y-18.85 Z0.78 F1800.0
G1 X24.5 Y-18.85 Z0.78 F1800.0
G1 X24.5 Y-19.24 Z0.78 F1800.0
G1 X-24.5 Y-19.24 Z0.78 F1800.0
G1 X-24.5 Y-19.64 Z0.78 F1800.0
G1 X24.5 Y-19.64 Z0.78 F1800.0
G1 X24.5 Y-20.03 Z0.78 F1800.0
G1 X-24.5 Y-20.03 Z0.78 F1800.0
G1 X-24.5 Y-20.42 Z0.78 F1800.0
G1 X24.5 Y-20.42 Z0.78 F1800.0
G1 X24.5 Y-20.81 Z0.78 F1800.0
G1 X-24.5 Y-20.81 Z0.78 F1800.0
G1 X-24.5 Y-21.21 Z0.78 F1800.0
G1 X24.5 Y-21.21 Z0.78 F1800.0
G1 X24.5 Y-21.6 Z0.78 F1800.0
G1 X-24.5 Y-21.6 Z0.78 F1800.0
G1 X-24.5 Y-21.99 Z0.78 F1800.0
G1 X24.5 Y-21.99 Z0.78 F1800.0
G1 X24.5 Y-22.38 Z0.78 F1800.0
G1 X-24.5 Y-22.38 Z0.78 F1800.0
G1 X-24.5 Y-22.78 Z0.78 F1800.0
G1 X24.5 Y-22.78 Z0.78 F1800.0
G1 X24.5 Y-23.17 Z0.78 F1800.0
G1 X-24.5 Y-23.17 Z0.78 F1800.0
G1 X-24.5 Y-23.56 Z0.78 F1800.0
G1 X24.5 Y-23.56 Z0.78 F1800.0
G1 X24.5 Y-23.96 Z0.78 F1800.0
G1 X-24.5 Y-23.96 Z0.78 F1800.0
G1 X-24.5 Y-24.35 Z0.78 F1800.0
G1 X24.5 Y-24.35 Z0.78 F1800.0
G1 X24.5 Y-24.74 Z0.78 F1800.0
G1 X-24.5 Y-24.74 Z0.78 F1800.0
G1 X-24.5 Y-25.13 Z0.78 F1800.0
G1 X24.05 Y-25.13 Z0.78 F1800.0
M108 R30.0
M102
G1 X24.5 Y-25.13 Z0.78 F1800.0
M108 R3.569
M103
G1 X24.5 Y-16.11 Z0.78 F3000.0
M108 R30.0
M101
G1 X24.5 Y-15.32 Z0.78 F3000.0
M108 R3.569
G1 X-24.5 Y-15.32 Z0.78 F1800.0
G1 X-24.5 Y-14.92 Z0.78 F1800.0
G1 X-21.12 Y-14.92 Z0.78 F1800.0
G1 X-21.12 Y-14.53 Z0.78 F1800.0
G1 X-24.5 Y-14.53 Z0.78 F1800.0
G1 X-24.5 Y-14.14 Z0.78 F1800.0
G1 X-21.12 Y-14.14 Z0.78 F1800.0
G1 X-21.12 Y-13.74 Z0.78 F1800.0
G1 X-24.5 Y-13.74 Z0.78 F1800.0
G1 X-24.5 Y-13.35 Z0.78 F1800.0
G1 X-21.12 Y-13.35 Z0.78 F1800.0
G1 X-21.12 Y-12.96 Z0.78 F1800.0
G1 X-24.5 Y-12.96 Z0.78 F1800.0
G1 X-24.5 Y-12.57 Z0.78 F1800.0
G1 X-21.12 Y-12.57 Z0.78 F1800.0
G1 X-21.12 Y-12.17 Z0.78 F1800.0
G1 X-24.5 Y-12.17 Z0.78 F1800.0
G1 X-24.5 Y-11.78 Z0.78 F1800.0
G1 X-21.12 Y-11.78 Z0.78 F1800.0
G1 X-21.12 Y-11.39 Z0.78 F1800.0
G1 X-24.5 Y-11.39 Z0.78 F1800.0
G1 X-24.5 Y-11.0 Z0.78 F1800.0
G1 X-21.12 Y-11.0 Z0.78 F1800.0
G1 X-21.12 Y-10.6 Z0.78 F1800.0
G1 X-24.5 Y-10.6 Z0.78 F1800.0
G1 X-24.5 Y-10.21 Z0.78 F1800.0
G1 X-21.12 Y-10.21 Z0.78 F1800.0
G1 X-21.12 Y-9.82 Z0.78 F1800.0
G1 X-24.5 Y-9.82 Z0.78 F1800.0
G1 X-24.5 Y-9.43 Z0.78 F1800.0
G1 X-21.12 Y-9.43 Z0.78 F1800.0
G1 X-21.12 Y-9.03 Z0.78 F1800.0
G1 X-24.5 Y-9.03 Z0.78 F1800.0
G1 X-24.5 Y-8.64 Z0.78 F1800.0
G1 X-21.12 Y-8.64 Z0.78 F1800.0
G1 X-21.12 Y-8.25 Z0.78 F1800.0
G1 X-24.5 Y-8.25 Z0.78 F1800.0
G1 X-24.5 Y-7.85 Z0.78 F1800.0
G1 X-21.12 Y-7.85 Z0.78 F1800.0
G1 X-21.12 Y-7.46 Z0.78 F1800.0
G1 X-24.5 Y-7.46 Z0.78 F1800.0
G1 X-24.5 Y-7.07 Z0.78 F1800.0
G1 X-21.12 Y-7.07 Z0.78 F1800.0
G1 X-21.12 Y-6.68 Z0.78 F1800.0
G1 X-24.5 Y-6.68 Z0.78 F1800.0
G1 X-24.5 Y-6.28 Z0.78 F1800.0
G1 X-21.12 Y-6.28 Z0.78 F1800.0
G1 X-21.12 Y-5.89 Z0.78 F1800.0
G1 X-24.5 Y-5.89 Z0.78 F1800.0
G1 X-24.5 Y-5.5 Z0.78 F1800.0
G1 X-21.12 Y-5.5 Z0.78 F1800.0
G1 X-21.12 Y-5.11 Z0.78 F1800.0
G1 X-24.5 Y-5.11 Z0.78 F1800.0
G1 X-24.5 Y-4.71 Z0.78 F1800.0
G1 X-21.12 Y-4.71 Z0.78 F1800.0
G1 X-21.12 Y-4.32 Z0.78 F1800.0
G1 X-24.5 Y-4.32 Z0.78 F1800.0
G1 X-24.5 Y-3.93 Z0.78 F1800.0
G1 X-21.12 Y-3.93 Z0.78 F1800.0
G1 X-21.12 Y-3.53 Z0.78 F1800.0
G1 X-24.5 Y-3.53 Z0.78 F1800.0
G1 X-24.5 Y-3.14 Z0.78 F1800.0
G1 X-21.12 Y-3.14 Z0.78 F1800.0
G1 X-21.12 Y-2.75 Z0.78 F1800.0
G1 X-24.5 Y-2.75 Z0.78 F1800.0
G1 X-24.5 Y-2.36 Z0.78 F1800.0
G1 X-21.12 Y-2.36 Z0.78 F1800.0
G1 X-21.12 Y-1.96 Z0.78 F1800.0
G1 X-24.5 Y-1.96 Z0.78 F1800.0
G1 X-24.5 Y-1.57 Z0.78 F1800.0
G1 X-21.12 Y-1.57 Z0.78 F1800.0
G1 X-21.12 Y-1.18 Z0.78 F1800.0
G1 X-24.5 Y-1.18 Z0.78 F1800.0
G1 X-24.5 Y-0.79 Z0.78 F1800.0
G1 X-21.12 Y-0.79 Z0.78 F1800.0
G1 X-21.12 Y-0.39 Z0.78 F1800.0
G1 X-24.5 Y-0.39 Z0.78 F1800.0
G1 X-24.5 Y0.0 Z0.78 F1800.0
G1 X-21.12 Y0.0 Z0.78 F1800.0
G1 X-21.12 Y0.39 Z0.78 F1800.0
G1 X-24.5 Y0.39 Z0.78 F1800.0
G1 X-24.5 Y0.79 Z0.78 F1800.0
G1 X-21.12 Y0.79 Z0.78 F1800.0
G1 X-21.12 Y1.18 Z0.78 F1800.0
G1 X-24.5 Y1.18 Z0.78 F1800.0
G1 X-24.5 Y1.57 Z0.78 F1800.0
G1 X-21.12 Y1.57 Z0.78 F1800.0
G1 X-21.12 Y1.96 Z0.78 F1800.0
G1 X-24.5 Y1.96 Z0.78 F1800.0
G1 X-24.5 Y2.36 Z0.78 F1800.0
G1 X-21.12 Y2.36 Z0.78 F1800.0
G1 X-21.12 Y2.75 Z0.78 F1800.0
G1 X-24.5 Y2.75 Z0.78 F1800.0
G1 X-24.5 Y3.14 Z0.78 F1800.0
G1 X-21.12 Y3.14 Z0.78 F1800.0
G1 X-21.12 Y3.53 Z0.78 F1800.0
G1 X-24.5 Y3.53 Z0.78 F1800.0
G1 X-24.5 Y3.93 Z0.78 F1800.0
G1 X-21.12 Y3.93 Z0.78 F1800.0
G1 X-21.12 Y4.32 Z0.78 F1800.0
G1 X-24.5 Y4.32 Z0.78 F1800.0
G1 X-24.5 Y4.71 Z0.78 F1800.0
G1 X-21.12 Y4.71 Z0.78 F1800.0
G1 X-21.12 Y5.11 Z0.78 F1800.0
G1 X-24.5 Y5.11 Z0.78 F1800.0
G1 X-24.5 Y5.5 Z0.78 F1800.0
G1 X-21.12 Y5.5 Z0.78 F1800.0
G1 X-21.12 Y5.89 Z0.78 F1800.0
G1 X-24.5 Y5.89 Z0.78 F1800.0
G1 X-24.5 Y6.28 Z0.78 F1800.0
G1 X-21.12 Y6.28 Z0.78 F1800.0
G1 X-21.12 Y6.68 Z0.78 F1800.0
G1 X-24.5 Y6.68 Z0.78 F1800.0
G1 X-24.5 Y7.07 Z0.78 F1800.0
G1 X-21.12 Y7.07 Z0.78 F1800.0
G1 X-21.12 Y7.46 Z0.78 F1800.0
G1 X-24.5 Y7.46 Z0.78 F1800.0
G1 X-24.5 Y7.85 Z0.78 F1800.0
G1 X-21.12 Y7.85 Z0.78 F1800.0
G1 X-21.12 Y8.25 Z0.78 F1800.0
G1 X-24.5 Y8.25 Z0.78 F1800.0
G1 X-24.5 Y8.64 Z0.78 F1800.0
G1 X-21.12 Y8.64 Z0.78 F1800.0
G1 X-21.12 Y9.03 Z0.78 F1800.0
G1 X-24.5 Y9.03 Z0.78 F1800.0
G1 X-24.5 Y9.43 Z0.78 F1800.0
G1 X-21.12 Y9.43 Z0.78 F1800.0
G1 X-21.12 Y9.82 Z0.78 F1800.0
G1 X-24.5 Y9.82 Z0.78 F1800.0
G1 X-24.5 Y10.21 Z0.78 F1800.0
G1 X-21.12 Y10.21 Z0.78 F1800.0
G1 X-21.12 Y10.6 Z0.78 F1800.0
G1 X-24.5 Y10.6 Z0.78 F1800.0
G1 X-24.5 Y11.0 Z0.78 F1800.0
G1 X-21.12 Y11.0 Z0.78 F1800.0
G1 X-21.12 Y11.39 Z0.78 F1800.0
G1 X-24.5 Y11.39 Z0.78 F1800.0
G1 X-24.5 Y11.78 Z0.78 F1800.0
G1 X-21.12 Y11.78 Z0.78 F1800.0
G1 X-21.12 Y12.17 Z0.78 F1800.0
G1 X-24.5 Y12.17 Z0.78 F1800.0
G1 X-24.5 Y12.57 Z0.78 F1800.0
G1 X-21.12 Y12.57 Z0.78 F1800.0
G1 X-21.12 Y12.96 Z0.78 F1800.0
G1 X-24.5 Y12.96 Z0.78 F1800.0
G1 X-24.5 Y13.35 Z0.78 F1800.0
G1 X-21.12 Y13.35 Z0.78 F1800.0
G1 X-21.12 Y13.74 Z0.78 F1800.0
G1 X-24.5 Y13.74 Z0.78 F1800.0
G1 X-24.5 Y14.14 Z0.78 F1800.0
G1 X-21.12 Y14.14 Z0.78 F1800.0
G1 X-21.12 Y14.53 Z0.78 F1800.0
G1 X-24.5 Y14.53 Z0.78 F1800.0
G1 X-24.5 Y14.92 Z0.78 F1800.0
G1 X-21.12 Y14.92 Z0.78 F1800.0
G1 X-21.12 Y15.32 Z0.78 F1800.0
G1 X-24.5 Y15.32 Z0.78 F1800.0
G1 X-24.5 Y15.71 Z0.78 F1800.0
G1 X-21.12 Y15.71 Z0.78 F1800.0
G1 X-21.12 Y16.1 Z0.78 F1800.0
G1 X-24.5 Y16.1 Z0.78 F1800.0
G1 X-24.5 Y16.49 Z0.78 F1800.0
G1 X-21.12 Y16.49 Z0.78 F1800.0
G1 X-21.12 Y16.89 Z0.78 F1800.0
G1 X-24.5 Y16.89 Z0.78 F1800.0
G1 X-24.5 Y17.28 Z0.78 F1800.0
G1 X-21.12 Y17.28 Z0.78 F1800.0
G1 X-21.12 Y17.67 Z0.78 F1800.0
G1 X-24.5 Y17.67 Z0.78 F1800.0
G1 X-24.5 Y18.06 Z0.78 F1800.0
G1 X-21.12 Y18.06 Z0.78 F1800.0
G1 X-21.12 Y18.46 Z0.78 F1800.0
G1 X-24.5 Y18.46 Z0.78 F1800.0
G1 X-24.5 Y18.85 Z0.78 F1800.0
G1 X-21.57 Y18.85 Z0.78 F1800.0
M108 R30.0
M102
G1 X-21.12 Y18.85 Z0.78 F1800.0
M108 R3.569
M103
G1 X23.7 Y25.02 Z0.78 F3000.0
M108 R30.0
M101
G1 X24.5 Y25.13 Z0.78 F3000.0
M108 R3.569
G1 X-24.5 Y25.13 Z0.78 F1800.0
G1 X-24.5 Y24.74 Z0.78 F1800.0
G1 X24.5 Y24.74 Z0.78 F1800.0
G1 X24.5 Y24.35 Z0.78 F1800.0
G1 X-24.5 Y24.35 Z0.78 F1800.0
G1 X-24.5 Y23.96 Z0.78 F1800.0
G1 X24.5 Y23.96 Z0.78 F1800.0
G1 X24.5 Y23.56 Z0.78 F1800.0
G1 X-24.5 Y23.56 Z0.78 F1800.0
G1 X-24.5 Y23.17 Z0.78 F1800.0
G1 X24.5 Y23.17 Z0.78 F1800.0
G1 X24.5 Y22.78 Z0.78 F1800.0
G1 X-24.5 Y22.78 Z0.78 F1800.0
G1 X-24.5 Y22.38 Z0.78 F1800.0
G1 X24.5 Y22.38 Z0.78 F1800.0
G1 X24.5 Y21.99 Z0.78 F1800.0
G1 X-24.5 Y21.99 Z0.78 F1800.0
G1 X-24.5 Y21.6 Z0.78 F1800.0
G1 X24.5 Y21.6 Z0.78 F1800.0
G1 X24.5 Y21.21 Z0.78 F1800.0
G1 X-24.5 Y21.21 Z0.78 F1800.0
G1 X-24.5 Y20.81 Z0.78 F1800.0
G1 X24.5 Y20.81 Z0.78 F1800.0
G1 X24.5 Y20.42 Z0.78 F1800.0
G1 X-24.5 Y20.42 Z0.78 F1800.0
G1 X-24.5 Y20.03 Z0.78 F1800.0
G1 X24.5 Y20.03 Z0.78 F1800.0
G1 X24.5 Y19.64 Z0.78 F1800.0
G1 X-24.5 Y19.64 Z0.78 F1800.0
G1 X-24.5 Y19.24 Z0.78 F1800.0
G1 X24.5 Y19.24 Z0.78 F1800.0
G1 X24.5 Y18.85 Z0.78 F1800.0
G1 X21.12 Y18.85 Z0.78 F1800.0
G1 X21.12 Y18.46 Z0.78 F1800.0
G1 X24.5 Y18.46 Z0.78 F1800.0
G1 X24.5 Y18.06 Z0.78 F1800.0
G1 X21.12 Y18.06 Z0.78 F1800.0
G1 X21.12 Y17.67 Z0.78 F1800.0
G1 X24.5 Y17.67 Z0.78 F1800.0
G1 X24.5 Y17.28 Z0.78 F1800.0
G1 X21.12 Y17.28 Z0.78 F1800.0
G1 X21.12 Y16.89 Z0.78 F1800.0
G1 X24.5 Y16.89 Z0.78 F1800.0
G1 X24.5 Y16.49 Z0.78 F1800.0
G1 X21.12 Y16.49 Z0.78 F1800.0
G1 X21.12 Y16.1 Z0.78 F1800.0
G1 X24.5 Y16.1 Z0.78 F1800.0
G1 X24.5 Y15.71 Z0.78 F1800.0
G1 X21.12 Y15.71 Z0.78 F1800.0
G1 X21.12 Y15.32 Z0.78 F1800.0
G1 X24.5 Y15.32 Z0.78 F1800.0
G1 X24.5 Y14.92 Z0.78 F1800.0
G1 X21.12 Y14.92 Z0.78 F1800.0
G1 X21.12 Y14.53 Z0.78 F1800.0
G1 X24.5 Y14.53 Z0.78 F1800.0
G1 X24.5 Y14.14 Z0.78 F1800.0
G1 X21.12 Y14.14 Z0.78 F1800.0
G1 X21.12 Y13.74 Z0.78 F1800.0
G1 X24.5 Y13.74 Z0.78 F1800.0
G1 X24.5 Y13.35 Z0.78 F1800.0
G1 X21.12 Y13.35 Z0.78 F1800.0
G1 X21.12 Y12.96 Z0.78 F1800.0
G1 X24.5 Y12.96 Z0.78 F1800.0
G1 X24.5 Y12.57 Z0.78 F1800.0
G1 X21.12 Y12.57 Z0.78 F1800.0
G1 X21.12 Y12.17 Z0.78 F1800.0
G1 X24.5 Y12.17 Z0.78 F1800.0
G1 X24.5 Y11.78 Z0.78 F1800.0
G1 X21.12 Y11.78 Z0.78 F1800.0
G1 X21.12 Y11.39 Z0.78 F1800.0
G1 X24.5 Y11.39 Z0.78 F1800.0
G1 X24.5 Y11.0 Z0.78 F1800.0
G1 X21.12 Y11.0 Z0.78 F1800.0
G1 X21.12 Y10.6 Z0.78 F1800.0
G1 X24.5 Y10.6 Z0.78 F1800.0
G1 X24.5 Y10.21 Z0.78 F1800.0
G1 X21.12 Y10.21 Z0.78 F1800.0
G1 X21.12 Y9.82 Z0.78 F1800.0
G1 X24.5 Y9.82 Z0.78 F1800.0
G1 X24.5 Y9.43 Z0.78 F1800.0
G1 X21.12 Y9.43 Z0.78 F1800.0
G1 X21.12 Y9.03 Z0.78 F1800.0
G1 X24.5 Y9.03 Z0.78 F1800.0
G1 X24.5 Y8.64 Z0.78 F1800.0
G1 X21.12 Y8.64 Z0.78 F1800.0
G1 X21.12 Y8.25 Z0.78 F1800.0
G1 X24.5 Y8.25 Z0.78 F1800.0
G1 X24.5 Y7.85 Z0.78 F1800.0
G1 X21.12 Y7.85 Z0.78 F1800.0
G1 X21.12 Y7.46 Z0.78 F1800.0
G1 X24.5 Y7.46 Z0.78 F1800.0
G1 X24.5 Y7.07 Z0.78 F1800.0
G1 X21.12 Y7.07 Z0.78 F1800.0
G1 X21.12 Y6.68 Z0.78 F1800.0
G1 X24.5 Y6.68 Z0.78 F1800.0
G1 X24.5 Y6.28 Z0.78 F1800.0
G1 X21.12 Y6.28 Z0.78 F1800.0
G1 X21.12 Y5.89 Z0.78 F1800.0
G1 X24.5 Y5.89 Z0.78 F1800.0
G1 X24.5 Y5.5 Z0.78 F1800.0
G1 X21.12 Y5.5 Z0.78 F1800.0
G1 X21.12 Y5.11 Z0.78 F1800.0
G1 X24.5 Y5.11 Z0.78 F1800.0
G1 X24.5 Y4.71 Z0.78 F1800.0
G1 X21.12 Y4.71 Z0.78 F1800.0
G1 X21.12 Y4.32 Z0.78 F1800.0
G1 X24.5 Y4.32 Z0.78 F1800.0
G1 X24.5 Y3.93 Z0.78 F1800.0
G1 X21.12 Y3.93 Z0.78 F1800.0
G1 X21.12 Y3.53 Z0.78 F1800.0
G1 X24.5 Y3.53 Z0.78 F1800.0
G1 X24.5 Y3.14 Z0.78 F1800.0
G1 X21.12 Y3.14 Z0.78 F1800.0
G1 X21.12 Y2.75 Z0.78 F1800.0
G1 X24.5 Y2.75 Z0.78 F1800.0
G1 X24.5 Y2.36 Z0.78 F1800.0
G1 X21.12 Y2.36 Z0.78 F1800.0
G1 X21.12 Y1.96 Z0.78 F1800.0
G1 X24.5 Y1.96 Z0.78 F1800.0
G1 X24.5 Y1.57 Z0.78 F1800.0
G1 X21.12 Y1.57 Z0.78 F1800.0
G1 X21.12 Y1.18 Z0.78 F1800.0
G1 X24.5 Y1.18 Z0.78 F1800.0
G1 X24.5 Y0.79 Z0.78 F1800.0
G1 X21.12 Y0.79 Z0.78 F1800.0
G1 X21.12 Y0.39 Z0.78 F1800.0
G1 X24.5 Y0.39 Z0.78 F1800.0
G1 X24.5 Y-0.0 Z0.78 F1800.0
G1 X21.12 Y-0.0 Z0.78 F1800.0
G1 X21.12 Y-0.39 Z0.78 F1800.0
G1 X24.5 Y-0.39 Z0.78 F1800.0
G1 X24.5 Y-0.79 Z0.78 F1800.0
G1 X21.12 Y-0.79 Z0.78 F1800.0
G1 X21.12 Y-1.18 Z0.78 F1800.0
G1 X24.5 Y-1.18 Z0.78 F1800.0
G1 X24.5 Y-1.57 Z0.78 F1800.0
G1 X21.12 Y-1.57 Z0.78 F1800.0
G1 X21.12 Y-1.96 Z0.78 F1800.0
G1 X24.5 Y-1.96 Z0.78 F1800.0
G1 X24.5 Y-2.36 Z0.78 F1800.0
G1 X21.12 Y-2.36 Z0.78 F1800.0
G1 X21.12 Y-2.75 Z0.78 F1800.0
G1 X24.5 Y-2.75 Z0.78 F1800.0
G1 X24.5 Y-3.14 Z0.78 F1800.0
G1 X21.12 Y-3.14 Z0.78 F1800.0
G1 X21.12 Y-3.53 Z0.78 F1800.0
G1 X24.5 Y-3.53 Z0.78 F1800.0
G1 X24.5 Y-3.93 Z0.78 F1800.0
G1 X21.12 Y-3.93 Z0.78 F1800.0
G1 X21.12 Y-4.32 Z0.78 F1800.0
G1 X24.5 Y-4.32 Z0.78 F1800.0
G1 X24.5 Y-4.71 Z0.78 F1800.0
G1 X21.12 Y-4.71 Z0.78 F1800.0
G1 X21.12 Y-5.11 Z0.78 F1800.0
G1 X24.5 Y-5.11 Z0.78 F1800.0
G1 X24.5 Y-5.5 Z0.78 F1800.0
G1 X21.12 Y-5.5 Z0.78 F1800.0
G1 X21.12 Y-5.89 Z0.78 F1800.0
G1 X24.5 Y-5.89 Z0.78 F1800.0
G1 X24.5 Y-6.28 Z0.78 F1800.0
G1 X21.12 Y-6.28 Z0.78 F1800.0
G1 X21.12 Y-6.68 Z0.78 F1800.0
G1 X24.5 Y-6.68 Z0.78 F1800.0
G1 X24.5 Y-7.07 Z0.78 F1800.0
G1 X21.12 Y-7.07 Z0.78 F1800.0
G1 X21.12 Y-7.46 Z0.78 F1800.0
G1 X24.5 Y-7.46 Z0.78 F1800.0
G1 X24.5 Y-7.85 Z0.78 F1800.0
G1 X21.12 Y-7.85 Z0.78 F1800.0
G1 X21.12 Y-8.25 Z0.78 F1800.0
G1 X24.5 Y-8.25 Z0.78 F1800.0
G1 X24.5 Y-8.64 Z0.78 F1800.0
G1 X21.12 Y-8.64 Z0.78 F1800.0
G1 X21.12 Y-9.03 Z0.78 F1800.0
G1 X24.5 Y-9.03 Z0.78 F1800.0
G1 X24.5 Y-9.43 Z0.78 F1800.0
G1 X21.12 Y-9.43 Z0.78 F1800.0
G1 X21.12 Y-9.82 Z0.78 F1800.0
G1 X24.5 Y-9.82 Z0.78 F1800.0
G1 X24.5 Y-10.21 Z0.78 F1800.0
G1 X21.12 Y-10.21 Z0.78 F1800.0
G1 X21.12 Y-10.6 Z0.78 F1800.0
G1 X24.5 Y-10.6 Z0.78 F1800.0
G1 X24.5 Y-11.0 Z0.78 F1800.0
G1 X21.12 Y-11.0 Z0.78 F1800.0
G1 X21.12 Y-11.39 Z0.78 F1800.0
G1 X24.5 Y-11.39 Z0.78 F1800.0
G1 X24.5 Y-11.78 Z0.78 F1800.0
G1 X21.12 Y-11.78 Z0.78 F1800.0
G1 X21.12 Y-12.17 Z0.78 F1800.0
G1 X24.5 Y-12.17 Z0.78 F1800.0
G1 X24.5 Y-12.57 Z0.78 F1800.0
G1 X21.12 Y-12.57 Z0.78 F1800.0
G1 X21.12 Y-12.96 Z0.78 F1800.0
G1 X24.5 Y-12.96 Z0.78 F1800.0
G1 X24.5 Y-13.35 Z0.78 F1800.0
G1 X21.12 Y-13.35 Z0.78 F1800.0
G1 X21.12 Y-13.74 Z0.78 F1800.0
G1 X24.5 Y-13.74 Z0.78 F1800.0
G1 X24.5 Y-14.14 Z0.78 F1800.0
G1 X21.12 Y-14.14 Z0.78 F1800.0
G1 X21.12 Y-14.53 Z0.78 F1800.0
G1 X24.5 Y-14.53 Z0.78 F1800.0
G1 X24.5 Y-14.92 Z0.78 F1800.0
G1 X21.12 Y-14.92 Z0.78 F1800.0
M103
(</surroundingLoop>)
(</layer>)
(<operatingLayerEnd> </operatingLayerEnd>)
(<layer> 1.1 )
(<surroundingLoop>)
(<boundaryPerimeter>)
(<boundaryPoint> X25.34 Y26.075 Z1.1 </boundaryPoint>)
(<boundaryPoint> X-25.34 Y26.075 Z1.1 </boundaryPoint>)
(<boundaryPoint> X-25.34 Y-26.075 Z1.1 </boundaryPoint>)
(<boundaryPoint> X25.34 Y-26.075 Z1.1 </boundaryPoint>)
(<loop> inner )
G1 X20.58 Y-14.83 Z1.1 F3000.0
M101
G1 X-20.86 Y-14.83 Z1.1 F1800.0
G1 X-20.86 Y18.79 Z1.1 F1800.0
G1 X20.86 Y18.79 Z1.1 F1800.0
G1 X20.86 Y-14.66 Z1.1 F1800.0
M108 R30.0
M102
G1 X20.86 Y-14.83 Z1.1 F1800.0
G1 X20.58 Y-14.83 Z1.1 F1800.0
M108 R3.569
M103
(</loop>)
(<loop> outer )
G1 X23.95 Y-14.83 Z1.1 F3000.0
M108 R30.0
M101
G1 X24.75 Y-14.83 Z1.1 F3000.0
M108 R3.569
G1 X24.75 Y25.49 Z1.1 F1800.0
G1 X-24.75 Y25.49 Z1.1 F1800.0
G1 X-24.75 Y-25.49 Z1.1 F1800.0
G1 X24.75 Y-25.49 Z1.1 F1800.0
G1 X24.75 Y-14.83 Z1.1 F1800.0
M103
(</loop>)
(<perimeter> outer )
G1 X25.14 Y-14.83 Z1.1 F3000.0
M101
G1 X25.14 Y25.88 Z1.1 F1800.0
G1 X-25.14 Y25.88 Z1.1 F1800.0
G1 X-25.14 Y-25.88 Z1.1 F1800.0
G1 X25.14 Y-25.88 Z1.1 F1800.0
G1 X25.14 Y-15.28 Z1.1 F1800.0
M108 R30.0
M102
G1 X25.14 Y-14.83 Z1.1 F1800.0
M108 R3.569
M103
(</perimeter>)
(</boundaryPerimeter>)
(<surroundingLoop>)
(<boundaryPerimeter>)
(<boundaryPoint> X-20.272 Y18.2 Z1.1 </boundaryPoint>)
(<boundaryPoint> X20.272 Y18.2 Z1.1 </boundaryPoint>)
(<boundaryPoint> X20.272 Y-14.245 Z1.1 </boundaryPoint>)
(<boundaryPoint> X-20.272 Y-14.245 Z1.1 </boundaryPoint>)
(<perimeter> inner )
G1 X21.27 Y-14.51 Z1.1 F3000.0
M108 R30.0
M101
G1 X20.47 Y-14.44 Z1.1 F3000.0
M108 R3.569
G1 X-20.47 Y-14.44 Z1.1 F1800.0
G1 X-20.47 Y18.4 Z1.1 F1800.0
G1 X20.47 Y18.4 Z1.1 F1800.0
G1 X20.47 Y-13.99 Z1.1 F1800.0
M108 R30.0
M102
G1 X20.47 Y-14.44 Z1.1 F1800.0
M108 R3.569
M103
(</perimeter>)
(</boundaryPerimeter>)
(</surroundingLoop>)
G1 X24.16 Y-24.48 Z1.1 F3000.0
M108 R30.0
M101
G1 X24.44 Y-25.23 Z1.1 F3000.0
M108 R3.569
G1 X23.56 Y-25.23 Z1.1 F1800.0
G1 X23.02 Y-23.04 Z1.1 F1800.0
G1 X23.02 Y20.85 Z1.1 F1800.0
G1 X24.44 Y25.23 Z1.1 F1800.0
G1 X22.25 Y25.23 Z1.1 F1800.0
G1 X20.84 Y23.04 Z1.1 F1800.0
G1 X20.84 Y22.78 Z1.1 F1800.0
G1 X22.79 Y20.85 Z1.1 F1800.0
G1 X22.79 Y-14.31 Z1.1 F1800.0
G1 X20.94 Y-15.09 Z1.1 F1800.0
G1 X20.84 Y-16.49 Z1.1 F1800.0
G1 X22.79 Y-18.42 Z1.1 F1800.0
G1 X22.79 Y-18.67 Z1.1 F1800.0
G1 X20.84 Y-20.6 Z1.1 F1800.0
G1 X20.84 Y-20.85 Z1.1 F1800.0
G1 X22.79 Y-22.78 Z1.1 F1800.0
G1 X23.13 Y-25.23 Z1.1 F1800.0
G1 X19.64 Y-25.23 Z1.1 F1800.0
G1 X18.66 Y-23.04 Z1.1 F1800.0
G1 X18.66 Y-22.78 Z1.1 F1800.0
G1 X20.61 Y-20.85 Z1.1 F1800.0
G1 X20.61 Y-20.6 Z1.1 F1800.0
G1 X18.66 Y-18.67 Z1.1 F1800.0
G1 X18.66 Y-18.42 Z1.1 F1800.0
G1 X20.61 Y-16.49 Z1.1 F1800.0
G1 X20.51 Y-15.53 Z1.1 F1800.0
G1 X20.39 Y-15.41 Z1.1 F1800.0
M108 R30.0
M102
G1 X20.07 Y-15.09 Z1.1 F1800.0
M108 R3.569
M103
G1 X18.69 Y-15.09 Z1.1 F3000.0
M108 R30.0
M101
G1 X17.89 Y-15.09 Z1.1 F3000.0
M108 R3.569
G1 X17.45 Y-15.53 Z1.1 F1800.0
G1 X17.02 Y-15.53 Z1.1 F1800.0
G1 X16.48 Y-16.24 Z1.1 F1800.0
G1 X16.48 Y-16.49 Z1.1 F1800.0
G1 X18.43 Y-18.42 Z1.1 F1800.0
G1 X18.43 Y-18.67 Z1.1 F1800.0
G1 X16.48 Y-20.6 Z1.1 F1800.0
G1 X16.48 Y-20.85 Z1.1 F1800.0
G1 X18.43 Y-22.78 Z1.1 F1800.0
G1 X18.43 Y-23.04 Z1.1 F1800.0
G1 X19.2 Y-25.23 Z1.1 F1800.0
G1 X15.27 Y-25.23 Z1.1 F1800.0
G1 X14.3 Y-23.04 Z1.1 F1800.0
G1 X14.3 Y-22.78 Z1.1 F1800.0
G1 X16.25 Y-20.85 Z1.1 F1800.0
G1 X16.25 Y-20.6 Z1.1 F1800.0
G1 X14.3 Y-18.67 Z1.1 F1800.0
G1 X14.3 Y-18.42 Z1.1 F1800.0
G1 X16.25 Y-16.49 Z1.1 F1800.0
G1 X16.14 Y-15.53 Z1.1 F1800.0
G1 X16.03 Y-15.41 Z1.1 F1800.0
M108 R30.0
M102
G1 X15.71 Y-15.09 Z1.1 F1800.0
M108 R3.569
M103
G1 X14.33 Y-15.09 Z1.1 F3000.0
M108 R30.0
M101
G1 X13.53 Y-15.09 Z1.1 F3000.0
M108 R3.569
G1 X13.09 Y-15.53 Z1.1 F1800.0
G1 X12.65 Y-15.53 Z1.1 F1800.0
G1 X12.11 Y-16.24 Z1.1 F1800.0
G1 X12.11 Y-16.49 Z1.1 F1800.0
G1 X14.07 Y-18.42 Z1.1 F1800.0
G1 X14.07 Y-18.67 Z1.1 F1800.0
G1 X12.11 Y-20.6 Z1.1 F1800.0
G1 X12.11 Y-20.85 Z1.1 F1800.0
G1 X14.07 Y-22.78 Z1.1 F1800.0
G1 X14.07 Y-23.04 Z1.1 F1800.0
G1 X14.84 Y-25.23 Z1.1 F1800.0
G1 X11.35 Y-25.23 Z1.1 F1800.0
G1 X9.93 Y-23.04 Z1.1 F1800.0
G1 X9.93 Y-22.78 Z1.1 F1800.0
G1 X11.88 Y-20.85 Z1.1 F1800.0
G1 X11.88 Y-20.6 Z1.1 F1800.0
G1 X9.93 Y-18.67 Z1.1 F1800.0
G1 X9.93 Y-18.42 Z1.1 F1800.0
G1 X11.88 Y-16.49 Z1.1 F1800.0
G1 X11.78 Y-15.53 Z1.1 F1800.0
G1 X11.66 Y-15.41 Z1.1 F1800.0
M108 R30.0
M102
G1 X11.35 Y-15.09 Z1.1 F1800.0
M108 R3.569
M103
G1 X9.96 Y-15.09 Z1.1 F3000.0
M108 R30.0
M101
G1 X9.16 Y-15.09 Z1.1 F3000.0
M108 R3.569
G1 X8.73 Y-15.53 Z1.1 F1800.0
G1 X8.29 Y-15.53 Z1.1 F1800.0
G1 X7.75 Y-16.24 Z1.1 F1800.0
G1 X7.75 Y-16.49 Z1.1 F1800.0
G1 X9.7 Y-18.42 Z1.1 F1800.0
G1 X9.7 Y-18.67 Z1.1 F1800.0
G1 X7.75 Y-20.6 Z1.1 F1800.0
G1 X7.75 Y-20.85 Z1.1 F1800.0
G1 X9.7 Y-22.78 Z1.1 F1800.0
G1 X9.7 Y-23.04 Z1.1 F1800.0
G1 X10.91 Y-25.23 Z1.1 F1800.0
G1 X6.55 Y-25.23 Z1.1 F1800.0
G1 X5.57 Y-23.04 Z1.1 F1800.0
G1 X5.57 Y-22.78 Z1.1 F1800.0
G1 X7.52 Y-20.85 Z1.1 F1800.0
G1 X7.52 Y-20.6 Z1.1 F1800.0
G1 X5.57 Y-18.67 Z1.1 F1800.0
G1 X5.57 Y-18.42 Z1.1 F1800.0
G1 X7.52 Y-16.49 Z1.1 F1800.0
G1 X7.42 Y-15.53 Z1.1 F1800.0
G1 X7.3 Y-15.41 Z1.1 F1800.0
M108 R30.0
M102
G1 X6.98 Y-15.09 Z1.1 F1800.0
M108 R3.569
M103
G1 X5.6 Y-15.09 Z1.1 F3000.0
M108 R30.0
M101
G1 X4.8 Y-15.09 Z1.1 F3000.0
M108 R3.569
G1 X4.36 Y-15.53 Z1.1 F1800.0
G1 X3.93 Y-15.53 Z1.1 F1800.0
G1 X3.39 Y-16.24 Z1.1 F1800.0
G1 X3.39 Y-16.49 Z1.1 F1800.0
G1 X5.34 Y-18.42 Z1.1 F1800.0
G1 X5.34 Y-18.67 Z1.1 F1800.0
G1 X3.39 Y-20.6 Z1.1 F1800.0
G1 X3.39 Y-20.85 Z1.1 F1800.0
G1 X5.34 Y-22.78 Z1.1 F1800.0
G1 X5.34 Y-23.04 Z1.1 F1800.0
G1 X6.11 Y-25.23 Z1.1 F1800.0
G1 X2.62 Y-25.23 Z1.1 F1800.0
G1 X1.21 Y-23.04 Z1.1 F1800.0
G1 X1.21 Y-22.78 Z1.1 F1800.0
G1 X3.16 Y-20.85 Z1.1 F1800.0
G1 X3.16 Y-20.6 Z1.1 F1800.0
G1 X1.21 Y-18.67 Z1.1 F1800.0
G1 X1.21 Y-18.42 Z1.1 F1800.0
G1 X3.16 Y-16.49 Z1.1 F1800.0
G1 X3.05 Y-15.53 Z1.1 F1800.0
G1 X2.94 Y-15.41 Z1.1 F1800.0
M108 R30.0
M102
G1 X2.62 Y-15.09 Z1.1 F1800.0
M108 R3.569
M103
G1 X1.24 Y-15.09 Z1.1 F3000.0
M108 R30.0
M101
G1 X0.44 Y-15.09 Z1.1 F3000.0
M108 R3.569
G1 X-0.0 Y-15.53 Z1.1 F1800.0
G1 X-0.44 Y-15.53 Z1.1 F1800.0
G1 X-0.98 Y-16.24 Z1.1 F1800.0
G1 X-0.98 Y-16.49 Z1.1 F1800.0
G1 X0.98 Y-18.42 Z1.1 F1800.0
G1 X0.98 Y-18.67 Z1.1 F1800.0
G1 X-0.98 Y-20.6 Z1.1 F1800.0
G1 X-0.98 Y-20.85 Z1.1 F1800.0
G1 X0.98 Y-22.78 Z1.1 F1800.0
G1 X0.98 Y-23.04 Z1.1 F1800.0
G1 X2.18 Y-25.23 Z1.1 F1800.0
G1 X-2.18 Y-25.23 Z1.1 F1800.0
G1 X-3.16 Y-23.04 Z1.1 F1800.0
G1 X-3.16 Y-22.78 Z1.1 F1800.0
G1 X-1.21 Y-20.85 Z1.1 F1800.0
G1 X-1.21 Y-20.6 Z1.1 F1800.0
G1 X-3.16 Y-18.67 Z1.1 F1800.0
G1 X-3.16 Y-18.42 Z1.1 F1800.0
G1 X-1.21 Y-16.49 Z1.1 F1800.0
G1 X-1.31 Y-15.53 Z1.1 F1800.0
G1 X-1.43 Y-15.41 Z1.1 F1800.0
M108 R30.0
M102
G1 X-1.75 Y-15.09 Z1.1 F1800.0
M108 R3.569
M103
G1 X-3.13 Y-15.09 Z1.1 F3000.0
M108 R30.0
M101
G1 X-3.93 Y-15.09 Z1.1 F3000.0
M108 R3.569
G1 X-4.36 Y-15.53 Z1.1 F1800.0
G1 X-4.8 Y-15.53 Z1.1 F1800.0
G1 X-5.34 Y-16.24 Z1.1 F1800.0
G1 X-5.34 Y-16.49 Z1.1 F1800.0
G1 X-3.39 Y-18.42 Z1.1 F1800.0
G1 X-3.39 Y-18.67 Z1.1 F1800.0
G1 X-5.34 Y-20.6 Z1.1 F1800.0
G1 X-5.34 Y-20.85 Z1.1 F1800.0
G1 X-3.39 Y-22.78 Z1.1 F1800.0
G1 X-3.39 Y-23.04 Z1.1 F1800.0
G1 X-2.62 Y-25.23 Z1.1 F1800.0
G1 X-6.55 Y-25.23 Z1.1 F1800.0
G1 X-7.52 Y-23.04 Z1.1 F1800.0
G1 X-7.52 Y-22.78 Z1.1 F1800.0
G1 X-5.57 Y-20.85 Z1.1 F1800.0
G1 X-5.57 Y-20.6 Z1.1 F1800.0
G1 X-7.52 Y-18.67 Z1.1 F1800.0
G1 X-7.52 Y-18.42 Z1.1 F1800.0
G1 X-5.57 Y-16.49 Z1.1 F1800.0
G1 X-5.67 Y-15.53 Z1.1 F1800.0
G1 X-5.79 Y-15.41 Z1.1 F1800.0
M108 R30.0
M102
G1 X-6.11 Y-15.09 Z1.1 F1800.0
M108 R3.569
M103
G1 X-7.49 Y-15.09 Z1.1 F3000.0
M108 R30.0
M101
G1 X-8.29 Y-15.09 Z1.1 F3000.0
M108 R3.569
G1 X-8.73 Y-15.53 Z1.1 F1800.0
G1 X-9.16 Y-15.53 Z1.1 F1800.0
G1 X-9.7 Y-16.24 Z1.1 F1800.0
G1 X-9.7 Y-16.49 Z1.1 F1800.0
G1 X-7.75 Y-18.42 Z1.1 F1800.0
G1 X-7.75 Y-18.67 Z1.1 F1800.0
G1 X-9.7 Y-20.6 Z1.1 F1800.0
G1 X-9.7 Y-20.85 Z1.1 F1800.0
G1 X-7.75 Y-22.78 Z1.1 F1800.0
G1 X-7.75 Y-23.04 Z1.1 F1800.0
G1 X-6.98 Y-25.23 Z1.1 F1800.0
G1 X-10.91 Y-25.23 Z1.1 F1800.0
G1 X-11.88 Y-23.04 Z1.1 F1800.0
G1 X-11.88 Y-22.78 Z1.1 F1800.0
G1 X-9.93 Y-20.85 Z1.1 F1800.0
G1 X-9.93 Y-20.6 Z1.1 F1800.0
G1 X-11.88 Y-18.67 Z1.1 F1800.0
G1 X-11.88 Y-18.42 Z1.1 F1800.0
G1 X-9.93 Y-16.49 Z1.1 F1800.0
G1 X-10.04 Y-15.53 Z1.1 F1800.0
G1 X-10.15 Y-15.41 Z1.1 F1800.0
M108 R30.0
M102
G1 X-10.47 Y-15.09 Z1.1 F1800.0
M108 R3.569
M103
G1 X-11.85 Y-15.09 Z1.1 F3000.0
M108 R30.0
M101
G1 X-12.65 Y-15.09 Z1.1 F3000.0
M108 R3.569
G1 X-13.09 Y-15.53 Z1.1 F1800.0
G1 X-13.53 Y-15.53 Z1.1 F1800.0
G1 X-14.07 Y-16.24 Z1.1 F1800.0
G1 X-14.07 Y-16.49 Z1.1 F1800.0
G1 X-12.11 Y-18.42 Z1.1 F1800.0
G1 X-12.11 Y-18.67 Z1.1 F1800.0
G1 X-14.07 Y-20.6 Z1.1 F1800.0
G1 X-14.07 Y-20.85 Z1.1 F1800.0
G1 X-12.11 Y-22.78 Z1.1 F1800.0
G1 X-12.11 Y-23.04 Z1.1 F1800.0
G1 X-11.35 Y-25.23 Z1.1 F1800.0
G1 X-15.27 Y-25.23 Z1.1 F1800.0
G1 X-16.25 Y-23.04 Z1.1 F1800.0
G1 X-16.25 Y-22.78 Z1.1 F1800.0
G1 X-14.3 Y-20.85 Z1.1 F1800.0
G1 X-14.3 Y-20.6 Z1.1 F1800.0
G1 X-16.25 Y-18.67 Z1.1 F1800.0
G1 X-16.25 Y-18.42 Z1.1 F1800.0
G1 X-14.3 Y-16.49 Z1.1 F1800.0
G1 X-14.4 Y-15.53 Z1.1 F1800.0
G1 X-14.52 Y-15.41 Z1.1 F1800.0
M108 R30.0
M102
G1 X-14.84 Y-15.09 Z1.1 F1800.0
M108 R3.569
M103
G1 X-16.22 Y-15.09 Z1.1 F3000.0
M108 R30.0
M101
G1 X-17.02 Y-15.09 Z1.1 F3000.0
M108 R3.569
G1 X-17.45 Y-15.53 Z1.1 F1800.0
G1 X-17.89 Y-15.53 Z1.1 F1800.0
G1 X-18.43 Y-16.24 Z1.1 F1800.0
G1 X-18.43 Y-16.49 Z1.1 F1800.0
G1 X-16.48 Y-18.42 Z1.1 F1800.0
G1 X-16.48 Y-18.67 Z1.1 F1800.0
G1 X-18.43 Y-20.6 Z1.1 F1800.0
G1 X-18.43 Y-20.85 Z1.1 F1800.0
G1 X-16.48 Y-22.78 Z1.1 F1800.0
G1 X-16.48 Y-23.04 Z1.1 F1800.0
G1 X-15.71 Y-25.23 Z1.1 F1800.0
G1 X-19.64 Y-25.23 Z1.1 F1800.0
G1 X-20.61 Y-23.04 Z1.1 F1800.0
G1 X-20.61 Y-22.78 Z1.1 F1800.0
G1 X-18.66 Y-20.85 Z1.1 F1800.0
G1 X-18.66 Y-20.6 Z1.1 F1800.0
G1 X-20.61 Y-18.67 Z1.1 F1800.0
G1 X-20.61 Y-18.42 Z1.1 F1800.0
G1 X-18.66 Y-16.49 Z1.1 F1800.0
G1 X-18.76 Y-15.53 Z1.1 F1800.0
G1 X-18.88 Y-15.41 Z1.1 F1800.0
M108 R30.0
M102
G1 X-19.2 Y-15.09 Z1.1 F1800.0
M108 R3.569
M103
G1 X-21.62 Y-24.46 Z1.1 F3000.0
M108 R30.0
M101
G1 X-21.82 Y-25.23 Z1.1 F3000.0
M108 R3.569
G1 X-20.07 Y-25.23 Z1.1 F1800.0
G1 X-20.84 Y-23.04 Z1.1 F1800.0
G1 X-20.84 Y-22.78 Z1.1 F1800.0
G1 X-22.79 Y-20.85 Z1.1 F1800.0
G1 X-22.79 Y-20.6 Z1.1 F1800.0
G1 X-20.84 Y-18.67 Z1.1 F1800.0
G1 X-20.84 Y-18.42 Z1.1 F1800.0
G1 X-22.79 Y-16.49 Z1.1 F1800.0
G1 X-22.79 Y18.67 Z1.1 F1800.0
G1 X-20.94 Y19.05 Z1.1 F1800.0
G1 X-20.51 Y19.48 Z1.1 F1800.0
G1 X-20.84 Y20.6 Z1.1 F1800.0
G1 X-20.84 Y20.85 Z1.1 F1800.0
G1 X-22.79 Y22.78 Z1.1 F1800.0
G1 X-22.79 Y23.04 Z1.1 F1800.0
G1 X-20.07 Y25.23 Z1.1 F1800.0
G1 X-23.56 Y25.23 Z1.1 F1800.0
G1 X-23.02 Y23.04 Z1.1 F1800.0
G1 X-23.02 Y-20.85 Z1.1 F1800.0
G1 X-22.25 Y-25.23 Z1.1 F1800.0
G1 X-24.44 Y-25.23 Z1.1 F1800.0
G1 X-24.44 Y25.22 Z1.1 F1800.0
M108 R30.0
M102
G1 X-24.44 Y25.23 Z1.1 F1800.0
G1 X-24.0 Y25.23 Z1.1 F1800.0
M108 R3.569
M103
G1 X-20.43 Y25.23 Z1.1 F3000.0
M108 R30.0
M101
G1 X-19.64 Y25.23 Z1.1 F3000.0
M108 R3.569
G1 X-17.45 Y25.23 Z1.1 F1800.0
G1 X-18.66 Y23.04 Z1.1 F1800.0
G1 X-18.66 Y22.78 Z1.1 F1800.0
G1 X-20.61 Y20.85 Z1.1 F1800.0
G1 X-20.61 Y20.6 Z1.1 F1800.0
G1 X-19.5 Y19.38 Z1.1 F1800.0
M108 R30.0
M102
G1 X-19.2 Y19.05 Z1.1 F1800.0
M108 R3.569
M103
G1 X-17.82 Y19.05 Z1.1 F3000.0
M108 R30.0
M101
G1 X-17.02 Y19.05 Z1.1 F3000.0
M108 R3.569
G1 X-16.58 Y19.48 Z1.1 F1800.0
G1 X-16.48 Y20.85 Z1.1 F1800.0
G1 X-18.43 Y22.78 Z1.1 F1800.0
G1 X-18.43 Y23.04 Z1.1 F1800.0
G1 X-17.02 Y25.23 Z1.1 F1800.0
G1 X-13.09 Y25.23 Z1.1 F1800.0
G1 X-14.3 Y23.04 Z1.1 F1800.0
G1 X-14.3 Y22.78 Z1.1 F1800.0
G1 X-16.25 Y20.85 Z1.1 F1800.0
G1 X-16.14 Y19.48 Z1.1 F1800.0
G1 X-15.71 Y19.05 Z1.1 F1800.0
G1 X-15.4 Y19.35 Z1.1 F1800.0
G1 X-15.27 Y19.05 Z1.1 F1800.0
G1 X-15.13 Y19.11 Z1.1 F1800.0
M108 R30.0
M102
G1 X-14.87 Y19.21 Z1.1 F1800.0
G1 X-14.84 Y19.05 Z1.1 F1800.0
M108 R3.569
M103
G1 X-13.45 Y19.05 Z1.1 F3000.0
M108 R30.0
M101
G1 X-12.65 Y19.05 Z1.1 F3000.0
M108 R3.569
G1 X-12.22 Y19.48 Z1.1 F1800.0
G1 X-12.11 Y20.85 Z1.1 F1800.0
G1 X-14.07 Y22.78 Z1.1 F1800.0
G1 X-14.07 Y23.04 Z1.1 F1800.0
G1 X-12.65 Y25.23 Z1.1 F1800.0
G1 X-9.16 Y25.23 Z1.1 F1800.0
G1 X-9.93 Y23.04 Z1.1 F1800.0
G1 X-9.93 Y22.78 Z1.1 F1800.0
G1 X-11.88 Y20.85 Z1.1 F1800.0
G1 X-11.78 Y19.48 Z1.1 F1800.0
G1 X-11.35 Y19.05 Z1.1 F1800.0
G1 X-11.04 Y19.35 Z1.1 F1800.0
G1 X-10.91 Y19.05 Z1.1 F1800.0
G1 X-10.76 Y19.11 Z1.1 F1800.0
M108 R30.0
M102
G1 X-10.51 Y19.21 Z1.1 F1800.0
G1 X-10.47 Y19.05 Z1.1 F1800.0
M108 R3.569
M103
G1 X-9.09 Y19.05 Z1.1 F3000.0
M108 R30.0
M101
G1 X-8.29 Y19.05 Z1.1 F3000.0
M108 R3.569
G1 X-7.85 Y19.48 Z1.1 F1800.0
G1 X-7.75 Y20.85 Z1.1 F1800.0
G1 X-9.7 Y22.78 Z1.1 F1800.0
G1 X-9.7 Y23.04 Z1.1 F1800.0
G1 X-8.73 Y25.23 Z1.1 F1800.0
G1 X-4.8 Y25.23 Z1.1 F1800.0
G1 X-5.57 Y23.04 Z1.1 F1800.0
G1 X-5.57 Y22.78 Z1.1 F1800.0
G1 X-7.52 Y20.85 Z1.1 F1800.0
G1 X-7.42 Y19.48 Z1.1 F1800.0
G1 X-6.98 Y19.05 Z1.1 F1800.0
G1 X-6.67 Y19.35 Z1.1 F1800.0
G1 X-6.55 Y19.05 Z1.1 F1800.0
G1 X-6.4 Y19.11 Z1.1 F1800.0
M108 R30.0
M102
G1 X-6.14 Y19.21 Z1.1 F1800.0
G1 X-6.11 Y19.05 Z1.1 F1800.0
M108 R3.569
M103
G1 X-4.73 Y19.05 Z1.1 F3000.0
M108 R30.0
M101
G1 X-3.93 Y19.05 Z1.1 F3000.0
M108 R3.569
G1 X-3.49 Y19.48 Z1.1 F1800.0
G1 X-3.39 Y20.85 Z1.1 F1800.0
G1 X-5.34 Y22.78 Z1.1 F1800.0
G1 X-5.34 Y23.04 Z1.1 F1800.0
G1 X-4.36 Y25.23 Z1.1 F1800.0
G1 X0.0 Y25.23 Z1.1 F1800.0
G1 X-1.21 Y23.04 Z1.1 F1800.0
G1 X-1.21 Y22.78 Z1.1 F1800.0
G1 X-3.16 Y20.85 Z1.1 F1800.0
G1 X-3.05 Y19.48 Z1.1 F1800.0
G1 X-2.62 Y19.05 Z1.1 F1800.0
G1 X-2.31 Y19.35 Z1.1 F1800.0
G1 X-2.18 Y19.05 Z1.1 F1800.0
G1 X-2.04 Y19.11 Z1.1 F1800.0
M108 R30.0
M102
G1 X-1.78 Y19.21 Z1.1 F1800.0
G1 X-1.75 Y19.05 Z1.1 F1800.0
M108 R3.569
M103
G1 X-0.36 Y19.05 Z1.1 F3000.0
M108 R30.0
M101
G1 X0.44 Y19.05 Z1.1 F3000.0
M108 R3.569
G1 X0.87 Y19.48 Z1.1 F1800.0
G1 X0.98 Y20.85 Z1.1 F1800.0
G1 X-0.98 Y22.78 Z1.1 F1800.0
G1 X-0.98 Y23.04 Z1.1 F1800.0
G1 X0.44 Y25.23 Z1.1 F1800.0
G1 X3.93 Y25.23 Z1.1 F1800.0
G1 X3.16 Y23.04 Z1.1 F1800.0
G1 X3.16 Y22.78 Z1.1 F1800.0
G1 X1.21 Y20.85 Z1.1 F1800.0
G1 X1.31 Y19.48 Z1.1 F1800.0
G1 X1.75 Y19.05 Z1.1 F1800.0
G1 X2.05 Y19.35 Z1.1 F1800.0
G1 X2.18 Y19.05 Z1.1 F1800.0
G1 X2.33 Y19.11 Z1.1 F1800.0
M108 R30.0
M102
G1 X2.59 Y19.21 Z1.1 F1800.0
G1 X2.62 Y19.05 Z1.1 F1800.0
M108 R3.569
M103
G1 X4.0 Y19.05 Z1.1 F3000.0
M108 R30.0
M101
G1 X4.8 Y19.05 Z1.1 F3000.0
M108 R3.569
G1 X5.24 Y19.48 Z1.1 F1800.0
G1 X5.34 Y20.85 Z1.1 F1800.0
G1 X3.39 Y22.78 Z1.1 F1800.0
G1 X3.39 Y23.04 Z1.1 F1800.0
G1 X4.36 Y25.23 Z1.1 F1800.0
G1 X8.29 Y25.23 Z1.1 F1800.0
G1 X7.52 Y23.04 Z1.1 F1800.0
G1 X7.52 Y22.78 Z1.1 F1800.0
G1 X5.57 Y20.85 Z1.1 F1800.0
G1 X5.67 Y19.48 Z1.1 F1800.0
G1 X6.11 Y19.05 Z1.1 F1800.0
G1 X6.42 Y19.35 Z1.1 F1800.0
G1 X6.55 Y19.05 Z1.1 F1800.0
G1 X6.69 Y19.11 Z1.1 F1800.0
M108 R30.0
M102
G1 X6.95 Y19.21 Z1.1 F1800.0
G1 X6.98 Y19.05 Z1.1 F1800.0
M108 R3.569
M103
G1 X8.36 Y19.05 Z1.1 F3000.0
M108 R30.0
M101
G1 X9.16 Y19.05 Z1.1 F3000.0
M108 R3.569
G1 X9.6 Y19.48 Z1.1 F1800.0
G1 X9.7 Y20.85 Z1.1 F1800.0
G1 X7.75 Y22.78 Z1.1 F1800.0
G1 X7.75 Y23.04 Z1.1 F1800.0
G1 X8.73 Y25.23 Z1.1 F1800.0
G1 X12.65 Y25.23 Z1.1 F1800.0
G1 X11.88 Y23.04 Z1.1 F1800.0
G1 X11.88 Y22.78 Z1.1 F1800.0
G1 X9.93 Y20.85 Z1.1 F1800.0
G1 X10.04 Y19.48 Z1.1 F1800.0
G1 X10.47 Y19.05 Z1.1 F1800.0
G1 X10.78 Y19.35 Z1.1 F1800.0
G1 X10.91 Y19.05 Z1.1 F1800.0
G1 X11.05 Y19.11 Z1.1 F1800.0
M108 R30.0
M102
G1 X11.31 Y19.21 Z1.1 F1800.0
G1 X11.35 Y19.05 Z1.1 F1800.0
M108 R3.569
M103
G1 X12.73 Y19.05 Z1.1 F3000.0
M108 R30.0
M101
G1 X13.53 Y19.05 Z1.1 F3000.0
M108 R3.569
G1 X13.96 Y19.48 Z1.1 F1800.0
G1 X14.07 Y20.85 Z1.1 F1800.0
G1 X12.11 Y22.78 Z1.1 F1800.0
G1 X12.11 Y23.04 Z1.1 F1800.0
G1 X13.09 Y25.23 Z1.1 F1800.0
G1 X17.02 Y25.23 Z1.1 F1800.0
G1 X16.25 Y23.04 Z1.1 F1800.0
G1 X16.25 Y22.78 Z1.1 F1800.0
G1 X14.3 Y20.85 Z1.1 F1800.0
G1 X14.4 Y19.48 Z1.1 F1800.0
G1 X14.84 Y19.05 Z1.1 F1800.0
G1 X15.14 Y19.35 Z1.1 F1800.0
G1 X15.27 Y19.05 Z1.1 F1800.0
G1 X15.42 Y19.11 Z1.1 F1800.0
M108 R30.0
M102
G1 X15.68 Y19.21 Z1.1 F1800.0
G1 X15.71 Y19.05 Z1.1 F1800.0
M108 R3.569
M103
G1 X17.09 Y19.05 Z1.1 F3000.0
M108 R30.0
M101
G1 X17.89 Y19.05 Z1.1 F3000.0
M108 R3.569
G1 X18.33 Y19.48 Z1.1 F1800.0
G1 X18.43 Y20.85 Z1.1 F1800.0
G1 X16.48 Y22.78 Z1.1 F1800.0
G1 X16.48 Y23.04 Z1.1 F1800.0
G1 X17.45 Y25.23 Z1.1 F1800.0
G1 X21.82 Y25.23 Z1.1 F1800.0
G1 X20.61 Y23.04 Z1.1 F1800.0
G1 X20.61 Y22.78 Z1.1 F1800.0
G1 X18.66 Y20.85 Z1.1 F1800.0
G1 X18.76 Y19.48 Z1.1 F1800.0
G1 X19.2 Y19.05 Z1.1 F1800.0
G1 X19.51 Y19.35 Z1.1 F1800.0
G1 X19.64 Y19.05 Z1.1 F1800.0
G1 X20.04 Y19.21 Z1.1 F1800.0
G1 X20.07 Y19.05 Z1.1 F1800.0
M103
(</surroundingLoop>)
(</layer>)
(<layer> 1.42 )
(<surroundingLoop>)
(<boundaryPerimeter>)
(<boundaryPoint> X25.34 Y26.075 Z1.42 </boundaryPoint>)
(<boundaryPoint> X-25.34 Y26.075 Z1.42 </boundaryPoint>)
(<boundaryPoint> X-25.34 Y-26.075 Z1.42 </boundaryPoint>)
(<boundaryPoint> X25.34 Y-26.075 Z1.42 </boundaryPoint>)
(<loop> inner )
G1 X20.05 Y18.79 Z1.42 F3000.0
M101
G1 X20.07 Y18.79 Z1.42 F1800.0
G1 X20.86 Y18.79 Z1.42 F1800.0
G1 X20.86 Y-14.83 Z1.42 F1800.0
G1 X-20.86 Y-14.83 Z1.42 F1800.0
G1 X-20.86 Y18.79 Z1.42 F1800.0
G1 X19.6 Y18.79 Z1.42 F1800.0
M108 R30.0
M102
G1 X20.05 Y18.79 Z1.42 F1800.0
M108 R3.569
M103
(</loop>)
(<loop> outer )
G1 X23.95 Y18.79 Z1.42 F3000.0
M108 R30.0
M101
G1 X24.75 Y18.79 Z1.42 F3000.0
M108 R3.569
G1 X24.75 Y25.49 Z1.42 F1800.0
G1 X-24.75 Y25.49 Z1.42 F1800.0
G1 X-24.75 Y-25.49 Z1.42 F1800.0
G1 X24.75 Y-25.49 Z1.42 F1800.0
G1 X24.75 Y18.79 Z1.42 F1800.0
M103
(</loop>)
(<perimeter> outer )
G1 X25.14 Y18.79 Z1.42 F3000.0
M101
G1 X25.14 Y25.88 Z1.42 F1800.0
G1 X-25.14 Y25.88 Z1.42 F1800.0
G1 X-25.14 Y-25.88 Z1.42 F1800.0
G1 X25.14 Y-25.88 Z1.42 F1800.0
G1 X25.14 Y18.34 Z1.42 F1800.0
M108 R30.0
M102
G1 X25.14 Y18.79 Z1.42 F1800.0
M108 R3.569
M103
(</perimeter>)
(</boundaryPerimeter>)
(<surroundingLoop>)
(<boundaryPerimeter>)
(<boundaryPoint> X-20.272 Y18.2 Z1.42 </boundaryPoint>)
(<boundaryPoint> X20.272 Y18.2 Z1.42 </boundaryPoint>)
(<boundaryPoint> X20.272 Y-14.245 Z1.42 </boundaryPoint>)
(<boundaryPoint> X-20.272 Y-14.245 Z1.42 </boundaryPoint>)
(<perimeter> inner )
G1 X21.27 Y18.46 Z1.42 F3000.0
M108 R30.0
M101
G1 X20.47 Y18.4 Z1.42 F3000.0
M108 R3.569
G1 X20.47 Y-14.44 Z1.42 F1800.0
G1 X-20.47 Y-14.44 Z1.42 F1800.0
G1 X-20.47 Y18.4 Z1.42 F1800.0
G1 X20.02 Y18.4 Z1.42 F1800.0
M108 R30.0
M102
G1 X20.47 Y18.4 Z1.42 F1800.0
M108 R3.569
M103
(</perimeter>)
(</boundaryPerimeter>)
(</surroundingLoop>)
G1 X24.05 Y23.77 Z1.42 F3000.0
M108 R30.0
M101
G1 X24.5 Y24.44 Z1.42 F3000.0
M108 R3.569
G1 X24.5 Y24.87 Z1.42 F1800.0
G1 X-24.5 Y24.87 Z1.42 F1800.0
G1 X-24.5 Y23.13 Z1.42 F1800.0
G1 X20.85 Y23.02 Z1.42 F1800.0
G1 X24.5 Y24.0 Z1.42 F1800.0
G1 X24.5 Y20.94 Z1.42 F1800.0
G1 X22.78 Y20.84 Z1.42 F1800.0
G1 X20.85 Y22.79 Z1.42 F1800.0
G1 X20.6 Y22.79 Z1.42 F1800.0
G1 X18.67 Y20.73 Z1.42 F1800.0
G1 X18.42 Y20.73 Z1.42 F1800.0
G1 X16.49 Y22.79 Z1.42 F1800.0
G1 X16.24 Y22.79 Z1.42 F1800.0
G1 X14.31 Y20.73 Z1.42 F1800.0
G1 X14.05 Y20.73 Z1.42 F1800.0
G1 X12.13 Y22.79 Z1.42 F1800.0
G1 X11.87 Y22.79 Z1.42 F1800.0
G1 X9.95 Y20.73 Z1.42 F1800.0
G1 X9.69 Y20.73 Z1.42 F1800.0
G1 X7.76 Y22.79 Z1.42 F1800.0
G1 X7.51 Y22.79 Z1.42 F1800.0
G1 X5.58 Y20.73 Z1.42 F1800.0
G1 X5.33 Y20.73 Z1.42 F1800.0
G1 X3.4 Y22.79 Z1.42 F1800.0
G1 X3.15 Y22.79 Z1.42 F1800.0
G1 X1.22 Y20.73 Z1.42 F1800.0
G1 X0.96 Y20.73 Z1.42 F1800.0
G1 X-0.96 Y22.79 Z1.42 F1800.0
G1 X-1.22 Y22.79 Z1.42 F1800.0
G1 X-3.15 Y20.73 Z1.42 F1800.0
G1 X-3.4 Y20.73 Z1.42 F1800.0
G1 X-5.33 Y22.79 Z1.42 F1800.0
G1 X-5.58 Y22.79 Z1.42 F1800.0
G1 X-7.51 Y20.73 Z1.42 F1800.0
G1 X-7.76 Y20.73 Z1.42 F1800.0
G1 X-9.69 Y22.79 Z1.42 F1800.0
G1 X-9.95 Y22.79 Z1.42 F1800.0
G1 X-11.87 Y20.73 Z1.42 F1800.0
G1 X-12.13 Y20.73 Z1.42 F1800.0
G1 X-14.05 Y22.79 Z1.42 F1800.0
G1 X-14.31 Y22.79 Z1.42 F1800.0
G1 X-16.24 Y20.73 Z1.42 F1800.0
G1 X-16.49 Y20.73 Z1.42 F1800.0
G1 X-18.42 Y22.79 Z1.42 F1800.0
G1 X-18.67 Y22.79 Z1.42 F1800.0
G1 X-20.6 Y20.73 Z1.42 F1800.0
G1 X-20.85 Y20.73 Z1.42 F1800.0
G1 X-22.78 Y22.79 Z1.42 F1800.0
G1 X-24.5 Y22.69 Z1.42 F1800.0
G1 X-24.5 Y18.76 Z1.42 F1800.0
G1 X-23.04 Y18.66 Z1.42 F1800.0
G1 X-21.12 Y18.76 Z1.42 F1800.0
G1 X-21.12 Y16.58 Z1.42 F1800.0
G1 X-23.04 Y18.43 Z1.42 F1800.0
G1 X-24.5 Y18.33 Z1.42 F1800.0
G1 X-24.5 Y14.4 Z1.42 F1800.0
G1 X-22.78 Y14.3 Z1.42 F1800.0
G1 X-21.12 Y16.14 Z1.42 F1800.0
G1 X-21.12 Y12.22 Z1.42 F1800.0
G1 X-23.04 Y14.07 Z1.42 F1800.0
G1 X-24.5 Y13.96 Z1.42 F1800.0
G1 X-24.5 Y10.04 Z1.42 F1800.0
G1 X-22.78 Y9.93 Z1.42 F1800.0
G1 X-21.12 Y11.78 Z1.42 F1800.0
G1 X-21.12 Y7.85 Z1.42 F1800.0
G1 X-23.04 Y9.7 Z1.42 F1800.0
G1 X-24.5 Y9.6 Z1.42 F1800.0
G1 X-24.5 Y5.67 Z1.42 F1800.0
G1 X-22.78 Y5.57 Z1.42 F1800.0
G1 X-21.12 Y7.42 Z1.42 F1800.0
G1 X-21.12 Y3.49 Z1.42 F1800.0
G1 X-23.04 Y5.34 Z1.42 F1800.0
G1 X-24.5 Y5.24 Z1.42 F1800.0
G1 X-24.5 Y1.31 Z1.42 F1800.0
G1 X-22.78 Y1.21 Z1.42 F1800.0
G1 X-21.12 Y3.05 Z1.42 F1800.0
G1 X-21.12 Y-0.87 Z1.42 F1800.0
G1 X-23.04 Y0.98 Z1.42 F1800.0
G1 X-24.5 Y0.87 Z1.42 F1800.0
G1 X-24.5 Y-3.05 Z1.42 F1800.0
G1 X-22.78 Y-3.16 Z1.42 F1800.0
G1 X-21.12 Y-1.31 Z1.42 F1800.0
G1 X-21.12 Y-5.24 Z1.42 F1800.0
G1 X-23.04 Y-3.39 Z1.42 F1800.0
G1 X-24.5 Y-3.49 Z1.42 F1800.0
G1 X-24.5 Y-7.42 Z1.42 F1800.0
G1 X-22.78 Y-7.52 Z1.42 F1800.0
G1 X-21.12 Y-5.67 Z1.42 F1800.0
G1 X-21.12 Y-9.6 Z1.42 F1800.0
G1 X-23.04 Y-7.75 Z1.42 F1800.0
G1 X-24.5 Y-7.85 Z1.42 F1800.0
G1 X-24.5 Y-11.78 Z1.42 F1800.0
G1 X-22.78 Y-11.88 Z1.42 F1800.0
G1 X-21.12 Y-10.04 Z1.42 F1800.0
G1 X-21.12 Y-13.96 Z1.42 F1800.0
G1 X-23.04 Y-12.11 Z1.42 F1800.0
G1 X-24.5 Y-12.22 Z1.42 F1800.0
G1 X-24.5 Y-16.14 Z1.42 F1800.0
G1 X-22.78 Y-16.25 Z1.42 F1800.0
G1 X-21.12 Y-14.4 Z1.42 F1800.0
G1 X-21.12 Y-14.84 Z1.42 F1800.0
G1 X-20.83 Y-15.17 Z1.42 F1800.0
G1 X-18.67 Y-16.25 Z1.42 F1800.0
G1 X20.85 Y-16.25 Z1.42 F1800.0
G1 X21.12 Y-14.84 Z1.42 F1800.0
G1 X21.12 Y-14.4 Z1.42 F1800.0
G1 X23.04 Y-14.3 Z1.42 F1800.0
G1 X24.5 Y-16.14 Z1.42 F1800.0
G1 X24.5 Y-12.22 Z1.42 F1800.0
G1 X23.04 Y-14.07 Z1.42 F1800.0
G1 X21.12 Y-13.96 Z1.42 F1800.0
G1 X21.12 Y-10.04 Z1.42 F1800.0
G1 X23.04 Y-9.93 Z1.42 F1800.0
G1 X24.5 Y-11.78 Z1.42 F1800.0
G1 X24.5 Y-7.85 Z1.42 F1800.0
G1 X23.04 Y-9.7 Z1.42 F1800.0
G1 X21.12 Y-9.6 Z1.42 F1800.0
G1 X21.12 Y-5.67 Z1.42 F1800.0
G1 X23.04 Y-5.57 Z1.42 F1800.0
G1 X24.5 Y-7.42 Z1.42 F1800.0
G1 X24.5 Y-3.49 Z1.42 F1800.0
G1 X23.04 Y-5.34 Z1.42 F1800.0
G1 X21.12 Y-5.24 Z1.42 F1800.0
G1 X21.12 Y-1.31 Z1.42 F1800.0
G1 X23.04 Y-1.21 Z1.42 F1800.0
G1 X24.5 Y-3.05 Z1.42 F1800.0
G1 X24.5 Y0.87 Z1.42 F1800.0
G1 X23.04 Y-0.98 Z1.42 F1800.0
G1 X21.12 Y-0.87 Z1.42 F1800.0
G1 X21.12 Y3.05 Z1.42 F1800.0
G1 X23.04 Y3.16 Z1.42 F1800.0
G1 X24.5 Y1.31 Z1.42 F1800.0
G1 X24.5 Y5.24 Z1.42 F1800.0
G1 X23.04 Y3.39 Z1.42 F1800.0
G1 X21.12 Y3.49 Z1.42 F1800.0
G1 X21.12 Y7.42 Z1.42 F1800.0
G1 X23.04 Y7.52 Z1.42 F1800.0
G1 X24.5 Y5.67 Z1.42 F1800.0
G1 X24.5 Y9.6 Z1.42 F1800.0
G1 X23.04 Y7.75 Z1.42 F1800.0
G1 X21.12 Y7.85 Z1.42 F1800.0
G1 X21.12 Y11.78 Z1.42 F1800.0
G1 X23.04 Y11.88 Z1.42 F1800.0
G1 X24.5 Y10.04 Z1.42 F1800.0
G1 X24.5 Y13.96 Z1.42 F1800.0
G1 X23.04 Y12.11 Z1.42 F1800.0
G1 X21.12 Y12.22 Z1.42 F1800.0
G1 X21.12 Y16.14 Z1.42 F1800.0
G1 X23.04 Y16.25 Z1.42 F1800.0
G1 X24.5 Y14.4 Z1.42 F1800.0
G1 X24.5 Y17.89 Z1.42 F1800.0
G1 X23.04 Y16.48 Z1.42 F1800.0
G1 X21.12 Y16.58 Z1.42 F1800.0
G1 X21.12 Y18.76 Z1.42 F1800.0
G1 X22.78 Y20.61 Z1.42 F1800.0
G1 X24.5 Y20.51 Z1.42 F1800.0
G1 X24.5 Y18.78 Z1.42 F1800.0
M108 R30.0
M102
G1 X24.5 Y18.33 Z1.42 F1800.0
M108 R3.569
M103
G1 X24.5 Y-15.78 Z1.42 F3000.0
M108 R30.0
M101
G1 X24.5 Y-16.58 Z1.42 F3000.0
M108 R3.569
G1 X24.5 Y-18.33 Z1.42 F1800.0
G1 X22.78 Y-18.43 Z1.42 F1800.0
G1 X20.85 Y-16.48 Z1.42 F1800.0
G1 X20.6 Y-16.48 Z1.42 F1800.0
G1 X18.67 Y-18.43 Z1.42 F1800.0
G1 X18.42 Y-18.43 Z1.42 F1800.0
G1 X16.49 Y-16.48 Z1.42 F1800.0
G1 X16.24 Y-16.48 Z1.42 F1800.0
G1 X14.31 Y-18.43 Z1.42 F1800.0
G1 X14.05 Y-18.43 Z1.42 F1800.0
G1 X12.13 Y-16.48 Z1.42 F1800.0
G1 X11.87 Y-16.48 Z1.42 F1800.0
G1 X9.95 Y-18.43 Z1.42 F1800.0
G1 X9.69 Y-18.43 Z1.42 F1800.0
G1 X7.76 Y-16.48 Z1.42 F1800.0
G1 X7.51 Y-16.48 Z1.42 F1800.0
G1 X5.58 Y-18.43 Z1.42 F1800.0
G1 X5.33 Y-18.43 Z1.42 F1800.0
G1 X3.4 Y-16.48 Z1.42 F1800.0
G1 X3.15 Y-16.48 Z1.42 F1800.0
G1 X1.22 Y-18.43 Z1.42 F1800.0
G1 X0.96 Y-18.43 Z1.42 F1800.0
G1 X-0.96 Y-16.48 Z1.42 F1800.0
G1 X-1.22 Y-16.48 Z1.42 F1800.0
G1 X-3.15 Y-18.43 Z1.42 F1800.0
G1 X-3.4 Y-18.43 Z1.42 F1800.0
G1 X-5.33 Y-16.48 Z1.42 F1800.0
G1 X-5.58 Y-16.48 Z1.42 F1800.0
G1 X-7.51 Y-18.43 Z1.42 F1800.0
G1 X-7.76 Y-18.43 Z1.42 F1800.0
G1 X-9.69 Y-16.48 Z1.42 F1800.0
G1 X-9.95 Y-16.48 Z1.42 F1800.0
G1 X-11.87 Y-18.43 Z1.42 F1800.0
G1 X-12.13 Y-18.43 Z1.42 F1800.0
G1 X-14.05 Y-16.48 Z1.42 F1800.0
G1 X-14.31 Y-16.48 Z1.42 F1800.0
G1 X-16.24 Y-18.43 Z1.42 F1800.0
G1 X-16.49 Y-18.43 Z1.42 F1800.0
G1 X-18.42 Y-16.48 Z1.42 F1800.0
G1 X-18.67 Y-16.48 Z1.42 F1800.0
G1 X-20.6 Y-18.43 Z1.42 F1800.0
G1 X-20.85 Y-18.43 Z1.42 F1800.0
G1 X-22.78 Y-16.48 Z1.42 F1800.0
G1 X-24.5 Y-16.58 Z1.42 F1800.0
G1 X-24.5 Y-20.51 Z1.42 F1800.0
G1 X-22.78 Y-20.61 Z1.42 F1800.0
G1 X-20.85 Y-18.66 Z1.42 F1800.0
G1 X-20.6 Y-18.66 Z1.42 F1800.0
G1 X-18.67 Y-20.61 Z1.42 F1800.0
G1 X-18.42 Y-20.61 Z1.42 F1800.0
G1 X-16.49 Y-18.66 Z1.42 F1800.0
G1 X-16.24 Y-18.66 Z1.42 F1800.0
G1 X-14.31 Y-20.61 Z1.42 F1800.0
G1 X-14.05 Y-20.61 Z1.42 F1800.0
G1 X-12.13 Y-18.66 Z1.42 F1800.0
G1 X-11.87 Y-18.66 Z1.42 F1800.0
G1 X-9.95 Y-20.61 Z1.42 F1800.0
G1 X-9.69 Y-20.61 Z1.42 F1800.0
G1 X-7.76 Y-18.66 Z1.42 F1800.0
G1 X-7.51 Y-18.66 Z1.42 F1800.0
G1 X-5.58 Y-20.61 Z1.42 F1800.0
G1 X-5.33 Y-20.61 Z1.42 F1800.0
G1 X-3.4 Y-18.66 Z1.42 F1800.0
G1 X-3.15 Y-18.66 Z1.42 F1800.0
G1 X-1.22 Y-20.61 Z1.42 F1800.0
G1 X-0.96 Y-20.61 Z1.42 F1800.0
G1 X0.96 Y-18.66 Z1.42 F1800.0
G1 X1.22 Y-18.66 Z1.42 F1800.0
G1 X3.15 Y-20.61 Z1.42 F1800.0
G1 X3.4 Y-20.61 Z1.42 F1800.0
G1 X5.33 Y-18.66 Z1.42 F1800.0
G1 X5.58 Y-18.66 Z1.42 F1800.0
G1 X7.51 Y-20.61 Z1.42 F1800.0
G1 X7.76 Y-20.61 Z1.42 F1800.0
G1 X9.69 Y-18.66 Z1.42 F1800.0
G1 X9.95 Y-18.66 Z1.42 F1800.0
G1 X11.87 Y-20.61 Z1.42 F1800.0
G1 X12.13 Y-20.61 Z1.42 F1800.0
G1 X14.05 Y-18.66 Z1.42 F1800.0
G1 X14.31 Y-18.66 Z1.42 F1800.0
G1 X16.24 Y-20.61 Z1.42 F1800.0
G1 X16.49 Y-20.61 Z1.42 F1800.0
G1 X18.42 Y-18.66 Z1.42 F1800.0
G1 X18.67 Y-18.66 Z1.42 F1800.0
G1 X20.6 Y-20.61 Z1.42 F1800.0
G1 X20.85 Y-20.61 Z1.42 F1800.0
G1 X22.78 Y-18.66 Z1.42 F1800.0
G1 X24.5 Y-18.76 Z1.42 F1800.0
G1 X24.5 Y-22.69 Z1.42 F1800.0
G1 X22.78 Y-22.79 Z1.42 F1800.0
G1 X20.85 Y-20.84 Z1.42 F1800.0
G1 X20.6 Y-20.84 Z1.42 F1800.0
G1 X18.67 Y-22.79 Z1.42 F1800.0
G1 X18.42 Y-22.79 Z1.42 F1800.0
G1 X16.49 Y-20.84 Z1.42 F1800.0
G1 X16.24 Y-20.84 Z1.42 F1800.0
G1 X14.31 Y-22.79 Z1.42 F1800.0
G1 X14.05 Y-22.79 Z1.42 F1800.0
G1 X12.13 Y-20.84 Z1.42 F1800.0
G1 X11.87 Y-20.84 Z1.42 F1800.0
G1 X9.95 Y-22.79 Z1.42 F1800.0
G1 X9.69 Y-22.79 Z1.42 F1800.0
G1 X7.76 Y-20.84 Z1.42 F1800.0
G1 X7.51 Y-20.84 Z1.42 F1800.0
G1 X5.58 Y-22.79 Z1.42 F1800.0
G1 X5.33 Y-22.79 Z1.42 F1800.0
G1 X3.4 Y-20.84 Z1.42 F1800.0
G1 X3.15 Y-20.84 Z1.42 F1800.0
G1 X1.22 Y-22.79 Z1.42 F1800.0
G1 X0.96 Y-22.79 Z1.42 F1800.0
G1 X-0.96 Y-20.84 Z1.42 F1800.0
G1 X-1.22 Y-20.84 Z1.42 F1800.0
G1 X-3.15 Y-22.79 Z1.42 F1800.0
G1 X-3.4 Y-22.79 Z1.42 F1800.0
G1 X-5.33 Y-20.84 Z1.42 F1800.0
G1 X-5.58 Y-20.84 Z1.42 F1800.0
G1 X-7.51 Y-22.79 Z1.42 F1800.0
G1 X-7.76 Y-22.79 Z1.42 F1800.0
G1 X-9.69 Y-20.84 Z1.42 F1800.0
G1 X-9.95 Y-20.84 Z1.42 F1800.0
G1 X-11.87 Y-22.79 Z1.42 F1800.0
G1 X-12.13 Y-22.79 Z1.42 F1800.0
G1 X-14.05 Y-20.84 Z1.42 F1800.0
G1 X-14.31 Y-20.84 Z1.42 F1800.0
G1 X-16.24 Y-22.79 Z1.42 F1800.0
G1 X-16.49 Y-22.79 Z1.42 F1800.0
G1 X-18.42 Y-20.84 Z1.42 F1800.0
G1 X-18.67 Y-20.84 Z1.42 F1800.0
G1 X-20.6 Y-22.79 Z1.42 F1800.0
G1 X-20.85 Y-22.79 Z1.42 F1800.0
G1 X-22.78 Y-20.84 Z1.42 F1800.0
G1 X-24.5 Y-20.94 Z1.42 F1800.0
G1 X-24.5 Y-24.87 Z1.42 F1800.0
G1 X-20.85 Y-23.02 Z1.42 F1800.0
G1 X23.04 Y-23.02 Z1.42 F1800.0
G1 X24.5 Y-23.13 Z1.42 F1800.0
G1 X24.5 Y-24.42 Z1.42 F1800.0
M108 R30.0
M102
G1 X24.5 Y-24.87 Z1.42 F1800.0
M108 R3.569
M103
(</surroundingLoop>)
(</layer>)
(<layer> 1.74 )
(<surroundingLoop>)
(<boundaryPerimeter>)
(<boundaryPoint> X25.34 Y26.075 Z1.74 </boundaryPoint>)
(<boundaryPoint> X-25.34 Y26.075 Z1.74 </boundaryPoint>)
(<boundaryPoint> X-25.34 Y-26.075 Z1.74 </boundaryPoint>)
(<boundaryPoint> X25.34 Y-26.075 Z1.74 </boundaryPoint>)
(<loop> inner )
G1 X21.13 Y-15.27 Z1.72 F3000.0
M108 R30.0
M101
G1 X20.86 Y-14.51 Z1.74 F3000.0
M108 R3.569
G1 X20.86 Y-14.83 Z1.74 F1800.0
G1 X-20.86 Y-14.83 Z1.74 F1800.0
G1 X-20.86 Y18.79 Z1.74 F1800.0
G1 X20.86 Y18.79 Z1.74 F1800.0
G1 X20.86 Y-14.06 Z1.74 F1800.0
M108 R30.0
M102
G1 X20.86 Y-14.51 Z1.74 F1800.0
M108 R3.569
M103
(</loop>)
(<loop> outer )
G1 X23.95 Y-14.51 Z1.74 F3000.0
M108 R30.0
M101
G1 X24.75 Y-14.51 Z1.74 F3000.0
M108 R3.569
G1 X24.75 Y25.49 Z1.74 F1800.0
G1 X-24.75 Y25.49 Z1.74 F1800.0
G1 X-24.75 Y-25.49 Z1.74 F1800.0
G1 X24.75 Y-25.49 Z1.74 F1800.0
G1 X24.75 Y-14.83 Z1.74 F1800.0
G1 X24.75 Y-14.51 Z1.74 F1800.0
M103
(</loop>)
(<perimeter> outer )
G1 X25.14 Y-14.51 Z1.74 F3000.0
M101
G1 X25.14 Y25.88 Z1.74 F1800.0
G1 X-25.14 Y25.88 Z1.74 F1800.0
G1 X-25.14 Y-25.88 Z1.74 F1800.0
G1 X25.14 Y-25.88 Z1.74 F1800.0
G1 X25.14 Y-14.96 Z1.74 F1800.0
M108 R30.0
M102
G1 X25.14 Y-14.83 Z1.74 F1800.0
G1 X25.14 Y-14.51 Z1.74 F1800.0
M108 R3.569
M103
(</perimeter>)
(</boundaryPerimeter>)
(<surroundingLoop>)
(<boundaryPerimeter>)
(<boundaryPoint> X-20.272 Y18.2 Z1.74 </boundaryPoint>)
(<boundaryPoint> X20.272 Y18.2 Z1.74 </boundaryPoint>)
(<boundaryPoint> X20.272 Y-14.245 Z1.74 </boundaryPoint>)
(<boundaryPoint> X-20.272 Y-14.245 Z1.74 </boundaryPoint>)
(<perimeter> inner )
G1 X21.27 Y-14.45 Z1.74 F3000.0
M108 R30.0
M101
G1 X20.47 Y-14.44 Z1.74 F3000.0
M108 R3.569
G1 X-20.47 Y-14.44 Z1.74 F1800.0
G1 X-20.47 Y18.4 Z1.74 F1800.0
G1 X20.47 Y18.4 Z1.74 F1800.0
G1 X20.47 Y-13.99 Z1.74 F1800.0
M108 R30.0
M102
G1 X20.47 Y-14.44 Z1.74 F1800.0
M108 R3.569
M103
(</perimeter>)
(</boundaryPerimeter>)
(</surroundingLoop>)
G1 X24.16 Y-24.48 Z1.74 F3000.0
M108 R30.0
M101
G1 X24.44 Y-25.23 Z1.74 F3000.0
M108 R3.569
G1 X23.56 Y-25.23 Z1.74 F1800.0
G1 X23.02 Y-23.04 Z1.74 F1800.0
G1 X23.02 Y20.85 Z1.74 F1800.0
G1 X24.44 Y25.23 Z1.74 F1800.0
G1 X22.25 Y25.23 Z1.74 F1800.0
G1 X20.84 Y23.04 Z1.74 F1800.0
G1 X20.84 Y22.78 Z1.74 F1800.0
G1 X22.79 Y20.85 Z1.74 F1800.0
G1 X22.79 Y-14.31 Z1.74 F1800.0
G1 X20.94 Y-15.09 Z1.74 F1800.0
G1 X20.84 Y-16.49 Z1.74 F1800.0
G1 X22.79 Y-18.42 Z1.74 F1800.0
G1 X22.79 Y-18.67 Z1.74 F1800.0
G1 X20.84 Y-20.6 Z1.74 F1800.0
G1 X20.84 Y-20.85 Z1.74 F1800.0
G1 X22.79 Y-22.78 Z1.74 F1800.0
G1 X23.13 Y-25.23 Z1.74 F1800.0
G1 X19.64 Y-25.23 Z1.74 F1800.0
G1 X18.66 Y-23.04 Z1.74 F1800.0
G1 X18.66 Y-22.78 Z1.74 F1800.0
G1 X20.61 Y-20.85 Z1.74 F1800.0
G1 X20.61 Y-20.6 Z1.74 F1800.0
G1 X18.66 Y-18.67 Z1.74 F1800.0
G1 X18.66 Y-18.42 Z1.74 F1800.0
G1 X20.61 Y-16.49 Z1.74 F1800.0
G1 X20.51 Y-15.53 Z1.74 F1800.0
G1 X20.39 Y-15.41 Z1.74 F1800.0
M108 R30.0
M102
G1 X20.07 Y-15.09 Z1.74 F1800.0
M108 R3.569
M103
G1 X18.69 Y-15.09 Z1.74 F3000.0
M108 R30.0
M101
G1 X17.89 Y-15.09 Z1.74 F3000.0
M108 R3.569
G1 X17.45 Y-15.53 Z1.74 F1800.0
G1 X17.02 Y-15.53 Z1.74 F1800.0
G1 X16.48 Y-16.24 Z1.74 F1800.0
G1 X16.48 Y-16.49 Z1.74 F1800.0
G1 X18.43 Y-18.42 Z1.74 F1800.0
G1 X18.43 Y-18.67 Z1.74 F1800.0
G1 X16.48 Y-20.6 Z1.74 F1800.0
G1 X16.48 Y-20.85 Z1.74 F1800.0
G1 X18.43 Y-22.78 Z1.74 F1800.0
G1 X18.43 Y-23.04 Z1.74 F1800.0
G1 X19.2 Y-25.23 Z1.74 F1800.0
G1 X15.27 Y-25.23 Z1.74 F1800.0
G1 X14.3 Y-23.04 Z1.74 F1800.0
G1 X14.3 Y-22.78 Z1.74 F1800.0
G1 X16.25 Y-20.85 Z1.74 F1800.0
G1 X16.25 Y-20.6 Z1.74 F1800.0
G1 X14.3 Y-18.67 Z1.74 F1800.0
G1 X14.3 Y-18.42 Z1.74 F1800.0
G1 X16.25 Y-16.49 Z1.74 F1800.0
G1 X16.14 Y-15.53 Z1.74 F1800.0
G1 X16.03 Y-15.41 Z1.74 F1800.0
M108 R30.0
M102
G1 X15.71 Y-15.09 Z1.74 F1800.0
M108 R3.569
M103
G1 X14.33 Y-15.09 Z1.74 F3000.0
M108 R30.0
M101
G1 X13.53 Y-15.09 Z1.74 F3000.0
M108 R3.569
G1 X13.09 Y-15.53 Z1.74 F1800.0
G1 X12.65 Y-15.53 Z1.74 F1800.0
G1 X12.11 Y-16.24 Z1.74 F1800.0
G1 X12.11 Y-16.49 Z1.74 F1800.0
G1 X14.07 Y-18.42 Z1.74 F1800.0
G1 X14.07 Y-18.67 Z1.74 F1800.0
G1 X12.11 Y-20.6 Z1.74 F1800.0
G1 X12.11 Y-20.85 Z1.74 F1800.0
G1 X14.07 Y-22.78 Z1.74 F1800.0
G1 X14.07 Y-23.04 Z1.74 F1800.0
G1 X14.84 Y-25.23 Z1.74 F1800.0
G1 X11.35 Y-25.23 Z1.74 F1800.0
G1 X9.93 Y-23.04 Z1.74 F1800.0
G1 X9.93 Y-22.78 Z1.74 F1800.0
G1 X11.88 Y-20.85 Z1.74 F1800.0
G1 X11.88 Y-20.6 Z1.74 F1800.0
G1 X9.93 Y-18.67 Z1.74 F1800.0
G1 X9.93 Y-18.42 Z1.74 F1800.0
G1 X11.88 Y-16.49 Z1.74 F1800.0
G1 X11.78 Y-15.53 Z1.74 F1800.0
G1 X11.66 Y-15.41 Z1.74 F1800.0
M108 R30.0
M102
G1 X11.35 Y-15.09 Z1.74 F1800.0
M108 R3.569
M103
G1 X9.96 Y-15.09 Z1.74 F3000.0
M108 R30.0
M101
G1 X9.16 Y-15.09 Z1.74 F3000.0
M108 R3.569
G1 X8.73 Y-15.53 Z1.74 F1800.0
G1 X8.29 Y-15.53 Z1.74 F1800.0
G1 X7.75 Y-16.24 Z1.74 F1800.0
G1 X7.75 Y-16.49 Z1.74 F1800.0
G1 X9.7 Y-18.42 Z1.74 F1800.0
G1 X9.7 Y-18.67 Z1.74 F1800.0
G1 X7.75 Y-20.6 Z1.74 F1800.0
G1 X7.75 Y-20.85 Z1.74 F1800.0
G1 X9.7 Y-22.78 Z1.74 F1800.0
G1 X9.7 Y-23.04 Z1.74 F1800.0
G1 X10.91 Y-25.23 Z1.74 F1800.0
G1 X6.55 Y-25.23 Z1.74 F1800.0
G1 X5.57 Y-23.04 Z1.74 F1800.0
G1 X5.57 Y-22.78 Z1.74 F1800.0
G1 X7.52 Y-20.85 Z1.74 F1800.0
G1 X7.52 Y-20.6 Z1.74 F1800.0
G1 X5.57 Y-18.67 Z1.74 F1800.0
G1 X5.57 Y-18.42 Z1.74 F1800.0
G1 X7.52 Y-16.49 Z1.74 F1800.0
G1 X7.42 Y-15.53 Z1.74 F1800.0
G1 X7.3 Y-15.41 Z1.74 F1800.0
M108 R30.0
M102
G1 X6.98 Y-15.09 Z1.74 F1800.0
M108 R3.569
M103
G1 X5.6 Y-15.09 Z1.74 F3000.0
M108 R30.0
M101
G1 X4.8 Y-15.09 Z1.74 F3000.0
M108 R3.569
G1 X4.36 Y-15.53 Z1.74 F1800.0
G1 X3.93 Y-15.53 Z1.74 F1800.0
G1 X3.39 Y-16.24 Z1.74 F1800.0
G1 X3.39 Y-16.49 Z1.74 F1800.0
G1 X5.34 Y-18.42 Z1.74 F1800.0
G1 X5.34 Y-18.67 Z1.74 F1800.0
G1 X3.39 Y-20.6 Z1.74 F1800.0
G1 X3.39 Y-20.85 Z1.74 F1800.0
G1 X5.34 Y-22.78 Z1.74 F1800.0
G1 X5.34 Y-23.04 Z1.74 F1800.0
G1 X6.11 Y-25.23 Z1.74 F1800.0
G1 X2.62 Y-25.23 Z1.74 F1800.0
G1 X1.21 Y-23.04 Z1.74 F1800.0
G1 X1.21 Y-22.78 Z1.74 F1800.0
G1 X3.16 Y-20.85 Z1.74 F1800.0
G1 X3.16 Y-20.6 Z1.74 F1800.0
G1 X1.21 Y-18.67 Z1.74 F1800.0
G1 X1.21 Y-18.42 Z1.74 F1800.0
G1 X3.16 Y-16.49 Z1.74 F1800.0
G1 X3.05 Y-15.53 Z1.74 F1800.0
G1 X2.94 Y-15.41 Z1.74 F1800.0
M108 R30.0
M102
G1 X2.62 Y-15.09 Z1.74 F1800.0
M108 R3.569
M103
G1 X1.24 Y-15.09 Z1.74 F3000.0
M108 R30.0
M101
G1 X0.44 Y-15.09 Z1.74 F3000.0
M108 R3.569
G1 X-0.0 Y-15.53 Z1.74 F1800.0
G1 X-0.44 Y-15.53 Z1.74 F1800.0
G1 X-0.98 Y-16.24 Z1.74 F1800.0
G1 X-0.98 Y-16.49 Z1.74 F1800.0
G1 X0.98 Y-18.42 Z1.74 F1800.0
G1 X0.98 Y-18.67 Z1.74 F1800.0
G1 X-0.98 Y-20.6 Z1.74 F1800.0
G1 X-0.98 Y-20.85 Z1.74 F1800.0
G1 X0.98 Y-22.78 Z1.74 F1800.0
G1 X0.98 Y-23.04 Z1.74 F1800.0
G1 X2.18 Y-25.23 Z1.74 F1800.0
G1 X-2.18 Y-25.23 Z1.74 F1800.0
G1 X-3.16 Y-23.04 Z1.74 F1800.0
G1 X-3.16 Y-22.78 Z1.74 F1800.0
G1 X-1.21 Y-20.85 Z1.74 F1800.0
G1 X-1.21 Y-20.6 Z1.74 F1800.0
G1 X-3.16 Y-18.67 Z1.74 F1800.0
G1 X-3.16 Y-18.42 Z1.74 F1800.0
G1 X-1.21 Y-16.49 Z1.74 F1800.0
G1 X-1.31 Y-15.53 Z1.74 F1800.0
G1 X-1.43 Y-15.41 Z1.74 F1800.0
M108 R30.0
M102
G1 X-1.75 Y-15.09 Z1.74 F1800.0
M108 R3.569
M103
G1 X-3.13 Y-15.09 Z1.74 F3000.0
M108 R30.0
M101
G1 X-3.93 Y-15.09 Z1.74 F3000.0
M108 R3.569
G1 X-4.36 Y-15.53 Z1.74 F1800.0
G1 X-4.8 Y-15.53 Z1.74 F1800.0
G1 X-5.34 Y-16.24 Z1.74 F1800.0
G1 X-5.34 Y-16.49 Z1.74 F1800.0
G1 X-3.39 Y-18.42 Z1.74 F1800.0
G1 X-3.39 Y-18.67 Z1.74 F1800.0
G1 X-5.34 Y-20.6 Z1.74 F1800.0
G1 X-5.34 Y-20.85 Z1.74 F1800.0
G1 X-3.39 Y-22.78 Z1.74 F1800.0
G1 X-3.39 Y-23.04 Z1.74 F1800.0
G1 X-2.62 Y-25.23 Z1.74 F1800.0
G1 X-6.55 Y-25.23 Z1.74 F1800.0
G1 X-7.52 Y-23.04 Z1.74 F1800.0
G1 X-7.52 Y-22.78 Z1.74 F1800.0
G1 X-5.57 Y-20.85 Z1.74 F1800.0
G1 X-5.57 Y-20.6 Z1.74 F1800.0
G1 X-7.52 Y-18.67 Z1.74 F1800.0
G1 X-7.52 Y-18.42 Z1.74 F1800.0
G1 X-5.57 Y-16.49 Z1.74 F1800.0
G1 X-5.67 Y-15.53 Z1.74 F1800.0
G1 X-5.79 Y-15.41 Z1.74 F1800.0
M108 R30.0
M102
G1 X-6.11 Y-15.09 Z1.74 F1800.0
M108 R3.569
M103
G1 X-7.49 Y-15.09 Z1.74 F3000.0
M108 R30.0
M101
G1 X-8.29 Y-15.09 Z1.74 F3000.0
M108 R3.569
G1 X-8.73 Y-15.53 Z1.74 F1800.0
G1 X-9.16 Y-15.53 Z1.74 F1800.0
G1 X-9.7 Y-16.24 Z1.74 F1800.0
G1 X-9.7 Y-16.49 Z1.74 F1800.0
G1 X-7.75 Y-18.42 Z1.74 F1800.0
G1 X-7.75 Y-18.67 Z1.74 F1800.0
G1 X-9.7 Y-20.6 Z1.74 F1800.0
G1 X-9.7 Y-20.85 Z1.74 F1800.0
G1 X-7.75 Y-22.78 Z1.74 F1800.0
G1 X-7.75 Y-23.04 Z1.74 F1800.0
G1 X-6.98 Y-25.23 Z1.74 F1800.0
G1 X-10.91 Y-25.23 Z1.74 F1800.0
G1 X-11.88 Y-23.04 Z1.74 F1800.0
G1 X-11.88 Y-22.78 Z1.74 F1800.0
G1 X-9.93 Y-20.85 Z1.74 F1800.0
G1 X-9.93 Y-20.6 Z1.74 F1800.0
G1 X-11.88 Y-18.67 Z1.74 F1800.0
G1 X-11.88 Y-18.42 Z1.74 F1800.0
G1 X-9.93 Y-16.49 Z1.74 F1800.0
G1 X-10.04 Y-15.53 Z1.74 F1800.0
G1 X-10.15 Y-15.41 Z1.74 F1800.0
M108 R30.0
M102
G1 X-10.47 Y-15.09 Z1.74 F1800.0
M108 R3.569
M103
G1 X-11.85 Y-15.09 Z1.74 F3000.0
M108 R30.0
M101
G1 X-12.65 Y-15.09 Z1.74 F3000.0
M108 R3.569
G1 X-13.09 Y-15.53 Z1.74 F1800.0
G1 X-13.53 Y-15.53 Z1.74 F1800.0
G1 X-14.07 Y-16.24 Z1.74 F1800.0
G1 X-14.07 Y-16.49 Z1.74 F1800.0
G1 X-12.11 Y-18.42 Z1.74 F1800.0
G1 X-12.11 Y-18.67 Z1.74 F1800.0
G1 X-14.07 Y-20.6 Z1.74 F1800.0
G1 X-14.07 Y-20.85 Z1.74 F1800.0
G1 X-12.11 Y-22.78 Z1.74 F1800.0
G1 X-12.11 Y-23.04 Z1.74 F1800.0
G1 X-11.35 Y-25.23 Z1.74 F1800.0
G1 X-15.27 Y-25.23 Z1.74 F1800.0
G1 X-16.25 Y-23.04 Z1.74 F1800.0
G1 X-16.25 Y-22.78 Z1.74 F1800.0
G1 X-14.3 Y-20.85 Z1.74 F1800.0
G1 X-14.3 Y-20.6 Z1.74 F1800.0
G1 X-16.25 Y-18.67 Z1.74 F1800.0
G1 X-16.25 Y-18.42 Z1.74 F1800.0
G1 X-14.3 Y-16.49 Z1.74 F1800.0
G1 X-14.4 Y-15.53 Z1.74 F1800.0
G1 X-14.52 Y-15.41 Z1.74 F1800.0
M108 R30.0
M102
G1 X-14.84 Y-15.09 Z1.74 F1800.0
M108 R3.569
M103
G1 X-16.22 Y-15.09 Z1.74 F3000.0
M108 R30.0
M101
G1 X-17.02 Y-15.09 Z1.74 F3000.0
M108 R3.569
G1 X-17.45 Y-15.53 Z1.74 F1800.0
G1 X-17.89 Y-15.53 Z1.74 F1800.0
G1 X-18.43 Y-16.24 Z1.74 F1800.0
G1 X-18.43 Y-16.49 Z1.74 F1800.0
G1 X-16.48 Y-18.42 Z1.74 F1800.0
G1 X-16.48 Y-18.67 Z1.74 F1800.0
G1 X-18.43 Y-20.6 Z1.74 F1800.0
G1 X-18.43 Y-20.85 Z1.74 F1800.0
G1 X-16.48 Y-22.78 Z1.74 F1800.0
G1 X-16.48 Y-23.04 Z1.74 F1800.0
G1 X-15.71 Y-25.23 Z1.74 F1800.0
G1 X-19.64 Y-25.23 Z1.74 F1800.0
G1 X-20.61 Y-23.04 Z1.74 F1800.0
G1 X-20.61 Y-22.78 Z1.74 F1800.0
G1 X-18.66 Y-20.85 Z1.74 F1800.0
G1 X-18.66 Y-20.6 Z1.74 F1800.0
G1 X-20.61 Y-18.67 Z1.74 F1800.0
G1 X-20.61 Y-18.42 Z1.74 F1800.0
G1 X-18.66 Y-16.49 Z1.74 F1800.0
G1 X-18.76 Y-15.53 Z1.74 F1800.0
G1 X-18.88 Y-15.41 Z1.74 F1800.0
M108 R30.0
M102
G1 X-19.2 Y-15.09 Z1.74 F1800.0
M108 R3.569
M103
G1 X-21.62 Y-24.46 Z1.74 F3000.0
M108 R30.0
M101
G1 X-21.82 Y-25.23 Z1.74 F3000.0
M108 R3.569
G1 X-20.07 Y-25.23 Z1.74 F1800.0
G1 X-20.84 Y-23.04 Z1.74 F1800.0
G1 X-20.84 Y-22.78 Z1.74 F1800.0
G1 X-22.79 Y-20.85 Z1.74 F1800.0
G1 X-22.79 Y-20.6 Z1.74 F1800.0
G1 X-20.84 Y-18.67 Z1.74 F1800.0
G1 X-20.84 Y-18.42 Z1.74 F1800.0
G1 X-22.79 Y-16.49 Z1.74 F1800.0
G1 X-22.79 Y18.67 Z1.74 F1800.0
G1 X-20.94 Y19.05 Z1.74 F1800.0
G1 X-20.51 Y19.48 Z1.74 F1800.0
G1 X-20.84 Y20.6 Z1.74 F1800.0
G1 X-20.84 Y20.85 Z1.74 F1800.0
G1 X-22.79 Y22.78 Z1.74 F1800.0
G1 X-22.79 Y23.04 Z1.74 F1800.0
G1 X-20.07 Y25.23 Z1.74 F1800.0
G1 X-23.56 Y25.23 Z1.74 F1800.0
G1 X-23.02 Y23.04 Z1.74 F1800.0
G1 X-23.02 Y-20.85 Z1.74 F1800.0
G1 X-22.25 Y-25.23 Z1.74 F1800.0
G1 X-24.44 Y-25.23 Z1.74 F1800.0
G1 X-24.44 Y25.22 Z1.74 F1800.0
M108 R30.0
M102
G1 X-24.44 Y25.23 Z1.74 F1800.0
G1 X-24.0 Y25.23 Z1.74 F1800.0
M108 R3.569
M103
G1 X-20.43 Y25.23 Z1.74 F3000.0
M108 R30.0
M101
G1 X-19.64 Y25.23 Z1.74 F3000.0
M108 R3.569
G1 X-17.45 Y25.23 Z1.74 F1800.0
G1 X-18.66 Y23.04 Z1.74 F1800.0
G1 X-18.66 Y22.78 Z1.74 F1800.0
G1 X-20.61 Y20.85 Z1.74 F1800.0
G1 X-20.61 Y20.6 Z1.74 F1800.0
G1 X-19.5 Y19.38 Z1.74 F1800.0
M108 R30.0
M102
G1 X-19.2 Y19.05 Z1.74 F1800.0
M108 R3.569
M103
G1 X-17.82 Y19.05 Z1.74 F3000.0
M108 R30.0
M101
G1 X-17.02 Y19.05 Z1.74 F3000.0
M108 R3.569
G1 X-16.58 Y19.48 Z1.74 F1800.0
G1 X-16.48 Y20.85 Z1.74 F1800.0
G1 X-18.43 Y22.78 Z1.74 F1800.0
G1 X-18.43 Y23.04 Z1.74 F1800.0
G1 X-17.02 Y25.23 Z1.74 F1800.0
G1 X-13.09 Y25.23 Z1.74 F1800.0
G1 X-14.3 Y23.04 Z1.74 F1800.0
G1 X-14.3 Y22.78 Z1.74 F1800.0
G1 X-16.25 Y20.85 Z1.74 F1800.0
G1 X-16.14 Y19.48 Z1.74 F1800.0
G1 X-15.71 Y19.05 Z1.74 F1800.0
G1 X-15.4 Y19.35 Z1.74 F1800.0
G1 X-15.27 Y19.05 Z1.74 F1800.0
G1 X-15.13 Y19.11 Z1.74 F1800.0
M108 R30.0
M102
G1 X-14.87 Y19.21 Z1.74 F1800.0
G1 X-14.84 Y19.05 Z1.74 F1800.0
M108 R3.569
M103
G1 X-13.45 Y19.05 Z1.74 F3000.0
M108 R30.0
M101
G1 X-12.65 Y19.05 Z1.74 F3000.0
M108 R3.569
G1 X-12.22 Y19.48 Z1.74 F1800.0
G1 X-12.11 Y20.85 Z1.74 F1800.0
G1 X-14.07 Y22.78 Z1.74 F1800.0
G1 X-14.07 Y23.04 Z1.74 F1800.0
G1 X-12.65 Y25.23 Z1.74 F1800.0
G1 X-9.16 Y25.23 Z1.74 F1800.0
G1 X-9.93 Y23.04 Z1.74 F1800.0
G1 X-9.93 Y22.78 Z1.74 F1800.0
G1 X-11.88 Y20.85 Z1.74 F1800.0
G1 X-11.78 Y19.48 Z1.74 F1800.0
G1 X-11.35 Y19.05 Z1.74 F1800.0
G1 X-11.04 Y19.35 Z1.74 F1800.0
G1 X-10.91 Y19.05 Z1.74 F1800.0
G1 X-10.76 Y19.11 Z1.74 F1800.0
M108 R30.0
M102
G1 X-10.51 Y19.21 Z1.74 F1800.0
G1 X-10.47 Y19.05 Z1.74 F1800.0
M108 R3.569
M103
G1 X-9.09 Y19.05 Z1.74 F3000.0
M108 R30.0
M101
G1 X-8.29 Y19.05 Z1.74 F3000.0
M108 R3.569
G1 X-7.85 Y19.48 Z1.74 F1800.0
G1 X-7.75 Y20.85 Z1.74 F1800.0
G1 X-9.7 Y22.78 Z1.74 F1800.0
G1 X-9.7 Y23.04 Z1.74 F1800.0
G1 X-8.73 Y25.23 Z1.74 F1800.0
G1 X-4.8 Y25.23 Z1.74 F1800.0
G1 X-5.57 Y23.04 Z1.74 F1800.0
G1 X-5.57 Y22.78 Z1.74 F1800.0
G1 X-7.52 Y20.85 Z1.74 F1800.0
G1 X-7.42 Y19.48 Z1.74 F1800.0
G1 X-6.98 Y19.05 Z1.74 F1800.0
G1 X-6.67 Y19.35 Z1.74 F1800.0
G1 X-6.55 Y19.05 Z1.74 F1800.0
G1 X-6.4 Y19.11 Z1.74 F1800.0
M108 R30.0
M102
G1 X-6.14 Y19.21 Z1.74 F1800.0
G1 X-6.11 Y19.05 Z1.74 F1800.0
M108 R3.569
M103
G1 X-4.73 Y19.05 Z1.74 F3000.0
M108 R30.0
M101
G1 X-3.93 Y19.05 Z1.74 F3000.0
M108 R3.569
G1 X-3.49 Y19.48 Z1.74 F1800.0
G1 X-3.39 Y20.85 Z1.74 F1800.0
G1 X-5.34 Y22.78 Z1.74 F1800.0
G1 X-5.34 Y23.04 Z1.74 F1800.0
G1 X-4.36 Y25.23 Z1.74 F1800.0
G1 X0.0 Y25.23 Z1.74 F1800.0
G1 X-1.21 Y23.04 Z1.74 F1800.0
G1 X-1.21 Y22.78 Z1.74 F1800.0
G1 X-3.16 Y20.85 Z1.74 F1800.0
G1 X-3.05 Y19.48 Z1.74 F1800.0
G1 X-2.62 Y19.05 Z1.74 F1800.0
G1 X-2.31 Y19.35 Z1.74 F1800.0
G1 X-2.18 Y19.05 Z1.74 F1800.0
G1 X-2.04 Y19.11 Z1.74 F1800.0
M108 R30.0
M102
G1 X-1.78 Y19.21 Z1.74 F1800.0
G1 X-1.75 Y19.05 Z1.74 F1800.0
M108 R3.569
M103
G1 X-0.36 Y19.05 Z1.74 F3000.0
M108 R30.0
M101
G1 X0.44 Y19.05 Z1.74 F3000.0
M108 R3.569
G1 X0.87 Y19.48 Z1.74 F1800.0
G1 X0.98 Y20.85 Z1.74 F1800.0
G1 X-0.98 Y22.78 Z1.74 F1800.0
G1 X-0.98 Y23.04 Z1.74 F1800.0
G1 X0.44 Y25.23 Z1.74 F1800.0
G1 X3.93 Y25.23 Z1.74 F1800.0
G1 X3.16 Y23.04 Z1.74 F1800.0
G1 X3.16 Y22.78 Z1.74 F1800.0
G1 X1.21 Y20.85 Z1.74 F1800.0
G1 X1.31 Y19.48 Z1.74 F1800.0
G1 X1.75 Y19.05 Z1.74 F1800.0
G1 X2.05 Y19.35 Z1.74 F1800.0
G1 X2.18 Y19.05 Z1.74 F1800.0
G1 X2.33 Y19.11 Z1.74 F1800.0
M108 R30.0
M102
G1 X2.59 Y19.21 Z1.74 F1800.0
G1 X2.62 Y19.05 Z1.74 F1800.0
M108 R3.569
M103
G1 X4.0 Y19.05 Z1.74 F3000.0
M108 R30.0
M101
G1 X4.8 Y19.05 Z1.74 F3000.0
M108 R3.569
G1 X5.24 Y19.48 Z1.74 F1800.0
G1 X5.34 Y20.85 Z1.74 F1800.0
G1 X3.39 Y22.78 Z1.74 F1800.0
G1 X3.39 Y23.04 Z1.74 F1800.0
G1 X4.36 Y25.23 Z1.74 F1800.0
G1 X8.29 Y25.23 Z1.74 F1800.0
G1 X7.52 Y23.04 Z1.74 F1800.0
G1 X7.52 Y22.78 Z1.74 F1800.0
G1 X5.57 Y20.85 Z1.74 F1800.0
G1 X5.67 Y19.48 Z1.74 F1800.0
G1 X6.11 Y19.05 Z1.74 F1800.0
G1 X6.42 Y19.35 Z1.74 F1800.0
G1 X6.55 Y19.05 Z1.74 F1800.0
G1 X6.69 Y19.11 Z1.74 F1800.0
M108 R30.0
M102
G1 X6.95 Y19.21 Z1.74 F1800.0
G1 X6.98 Y19.05 Z1.74 F1800.0
M108 R3.569
M103
G1 X8.36 Y19.05 Z1.74 F3000.0
M108 R30.0
M101
G1 X9.16 Y19.05 Z1.74 F3000.0
M108 R3.569
G1 X9.6 Y19.48 Z1.74 F1800.0
G1 X9.7 Y20.85 Z1.74 F1800.0
G1 X7.75 Y22.78 Z1.74 F1800.0
G1 X7.75 Y23.04 Z1.74 F1800.0
G1 X8.73 Y25.23 Z1.74 F1800.0
G1 X12.65 Y25.23 Z1.74 F1800.0
G1 X11.88 Y23.04 Z1.74 F1800.0
G1 X11.88 Y22.78 Z1.74 F1800.0
G1 X9.93 Y20.85 Z1.74 F1800.0
G1 X10.04 Y19.48 Z1.74 F1800.0
G1 X10.47 Y19.05 Z1.74 F1800.0
G1 X10.78 Y19.35 Z1.74 F1800.0
G1 X10.91 Y19.05 Z1.74 F1800.0
G1 X11.05 Y19.11 Z1.74 F1800.0
M108 R30.0
M102
G1 X11.31 Y19.21 Z1.74 F1800.0
G1 X11.35 Y19.05 Z1.74 F1800.0
M108 R3.569
M103
G1 X12.73 Y19.05 Z1.74 F3000.0
M108 R30.0
M101
G1 X13.53 Y19.05 Z1.74 F3000.0
M108 R3.569
G1 X13.96 Y19.48 Z1.74 F1800.0
G1 X14.07 Y20.85 Z1.74 F1800.0
G1 X12.11 Y22.78 Z1.74 F1800.0
G1 X12.11 Y23.04 Z1.74 F1800.0
G1 X13.09 Y25.23 Z1.74 F1800.0
G1 X17.02 Y25.23 Z1.74 F1800.0
G1 X16.25 Y23.04 Z1.74 F1800.0
G1 X16.25 Y22.78 Z1.74 F1800.0
G1 X14.3 Y20.85 Z1.74 F1800.0
G1 X14.4 Y19.48 Z1.74 F1800.0
G1 X14.84 Y19.05 Z1.74 F1800.0
G1 X15.14 Y19.35 Z1.74 F1800.0
G1 X15.27 Y19.05 Z1.74 F1800.0
G1 X15.42 Y19.11 Z1.74 F1800.0
M108 R30.0
M102
G1 X15.68 Y19.21 Z1.74 F1800.0
G1 X15.71 Y19.05 Z1.74 F1800.0
M108 R3.569
M103
G1 X17.09 Y19.05 Z1.74 F3000.0
M108 R30.0
M101
G1 X17.89 Y19.05 Z1.74 F3000.0
M108 R3.569
G1 X18.33 Y19.48 Z1.74 F1800.0
G1 X18.43 Y20.85 Z1.74 F1800.0
G1 X16.48 Y22.78 Z1.74 F1800.0
G1 X16.48 Y23.04 Z1.74 F1800.0
G1 X17.45 Y25.23 Z1.74 F1800.0
G1 X21.82 Y25.23 Z1.74 F1800.0
G1 X20.61 Y23.04 Z1.74 F1800.0
G1 X20.61 Y22.78 Z1.74 F1800.0
G1 X18.66 Y20.85 Z1.74 F1800.0
G1 X18.76 Y19.48 Z1.74 F1800.0
G1 X19.2 Y19.05 Z1.74 F1800.0
G1 X19.51 Y19.35 Z1.74 F1800.0
G1 X19.64 Y19.05 Z1.74 F1800.0
G1 X20.04 Y19.21 Z1.74 F1800.0
G1 X20.07 Y19.05 Z1.74 F1800.0
M103
(</surroundingLoop>)
(</layer>)
(<layer> 2.06 )
(<surroundingLoop>)
(<boundaryPerimeter>)
(<boundaryPoint> X25.34 Y26.075 Z2.06 </boundaryPoint>)
(<boundaryPoint> X-25.34 Y26.075 Z2.06 </boundaryPoint>)
(<boundaryPoint> X-25.34 Y-26.075 Z2.06 </boundaryPoint>)
(<boundaryPoint> X25.34 Y-26.075 Z2.06 </boundaryPoint>)
(<loop> inner )
G1 X20.24 Y18.79 Z2.06 F3000.0
M101
G1 X20.86 Y18.79 Z2.06 F1800.0
G1 X20.86 Y-14.83 Z2.06 F1800.0
G1 X-20.86 Y-14.83 Z2.06 F1800.0
G1 X-20.86 Y18.79 Z2.06 F1800.0
G1 X19.79 Y18.79 Z2.06 F1800.0
M108 R30.0
M102
G1 X20.07 Y18.79 Z2.06 F1800.0
G1 X20.24 Y18.79 Z2.06 F1800.0
M108 R3.569
M103
(</loop>)
(<loop> outer )
G1 X23.95 Y18.79 Z2.06 F3000.0
M108 R30.0
M101
G1 X24.75 Y18.79 Z2.06 F3000.0
M108 R3.569
G1 X24.75 Y25.49 Z2.06 F1800.0
G1 X-24.75 Y25.49 Z2.06 F1800.0
G1 X-24.75 Y-25.49 Z2.06 F1800.0
G1 X24.75 Y-25.49 Z2.06 F1800.0
G1 X24.75 Y18.79 Z2.06 F1800.0
M103
(</loop>)
(<perimeter> outer )
G1 X25.14 Y18.79 Z2.06 F3000.0
M101
G1 X25.14 Y25.88 Z2.06 F1800.0
G1 X-25.14 Y25.88 Z2.06 F1800.0
G1 X-25.14 Y-25.88 Z2.06 F1800.0
G1 X25.14 Y-25.88 Z2.06 F1800.0
G1 X25.14 Y18.34 Z2.06 F1800.0
M108 R30.0
M102
G1 X25.14 Y18.79 Z2.06 F1800.0
M108 R3.569
M103
(</perimeter>)
(</boundaryPerimeter>)
(<surroundingLoop>)
(<boundaryPerimeter>)
(<boundaryPoint> X-20.272 Y18.2 Z2.06 </boundaryPoint>)
(<boundaryPoint> X20.272 Y18.2 Z2.06 </boundaryPoint>)
(<boundaryPoint> X20.272 Y-14.245 Z2.06 </boundaryPoint>)
(<boundaryPoint> X-20.272 Y-14.245 Z2.06 </boundaryPoint>)
(<perimeter> inner )
G1 X21.27 Y18.46 Z2.06 F3000.0
M108 R30.0
M101
G1 X20.47 Y18.4 Z2.06 F3000.0
M108 R3.569
G1 X20.47 Y-14.44 Z2.06 F1800.0
G1 X-20.47 Y-14.44 Z2.06 F1800.0
G1 X-20.47 Y18.4 Z2.06 F1800.0
G1 X20.02 Y18.4 Z2.06 F1800.0
M108 R30.0
M102
G1 X20.47 Y18.4 Z2.06 F1800.0
M108 R3.569
M103
(</perimeter>)
(</boundaryPerimeter>)
(</surroundingLoop>)
G1 X24.05 Y23.77 Z2.06 F3000.0
M108 R30.0
M101
G1 X24.5 Y24.44 Z2.06 F3000.0
M108 R3.569
G1 X24.5 Y24.87 Z2.06 F1800.0
G1 X-24.5 Y24.87 Z2.06 F1800.0
G1 X-24.5 Y23.13 Z2.06 F1800.0
G1 X20.85 Y23.02 Z2.06 F1800.0
G1 X24.5 Y24.0 Z2.06 F1800.0
G1 X24.5 Y20.94 Z2.06 F1800.0
G1 X22.78 Y20.84 Z2.06 F1800.0
G1 X20.85 Y22.79 Z2.06 F1800.0
G1 X20.6 Y22.79 Z2.06 F1800.0
G1 X18.67 Y20.73 Z2.06 F1800.0
G1 X18.42 Y20.73 Z2.06 F1800.0
G1 X16.49 Y22.79 Z2.06 F1800.0
G1 X16.24 Y22.79 Z2.06 F1800.0
G1 X14.31 Y20.73 Z2.06 F1800.0
G1 X14.05 Y20.73 Z2.06 F1800.0
G1 X12.13 Y22.79 Z2.06 F1800.0
G1 X11.87 Y22.79 Z2.06 F1800.0
G1 X9.95 Y20.73 Z2.06 F1800.0
G1 X9.69 Y20.73 Z2.06 F1800.0
G1 X7.76 Y22.79 Z2.06 F1800.0
G1 X7.51 Y22.79 Z2.06 F1800.0
G1 X5.58 Y20.73 Z2.06 F1800.0
G1 X5.33 Y20.73 Z2.06 F1800.0
G1 X3.4 Y22.79 Z2.06 F1800.0
G1 X3.15 Y22.79 Z2.06 F1800.0
G1 X1.22 Y20.73 Z2.06 F1800.0
G1 X0.96 Y20.73 Z2.06 F1800.0
G1 X-0.96 Y22.79 Z2.06 F1800.0
G1 X-1.22 Y22.79 Z2.06 F1800.0
G1 X-3.15 Y20.73 Z2.06 F1800.0
G1 X-3.4 Y20.73 Z2.06 F1800.0
G1 X-5.33 Y22.79 Z2.06 F1800.0
G1 X-5.58 Y22.79 Z2.06 F1800.0
G1 X-7.51 Y20.73 Z2.06 F1800.0
G1 X-7.76 Y20.73 Z2.06 F1800.0
G1 X-9.69 Y22.79 Z2.06 F1800.0
G1 X-9.95 Y22.79 Z2.06 F1800.0
G1 X-11.87 Y20.73 Z2.06 F1800.0
G1 X-12.13 Y20.73 Z2.06 F1800.0
G1 X-14.05 Y22.79 Z2.06 F1800.0
G1 X-14.31 Y22.79 Z2.06 F1800.0
G1 X-16.24 Y20.73 Z2.06 F1800.0
G1 X-16.49 Y20.73 Z2.06 F1800.0
G1 X-18.42 Y22.79 Z2.06 F1800.0
G1 X-18.67 Y22.79 Z2.06 F1800.0
G1 X-20.6 Y20.73 Z2.06 F1800.0
G1 X-20.85 Y20.73 Z2.06 F1800.0
G1 X-22.78 Y22.79 Z2.06 F1800.0
G1 X-24.5 Y22.69 Z2.06 F1800.0
G1 X-24.5 Y18.76 Z2.06 F1800.0
G1 X-23.04 Y18.66 Z2.06 F1800.0
G1 X-21.12 Y18.76 Z2.06 F1800.0
G1 X-21.12 Y16.58 Z2.06 F1800.0
G1 X-23.04 Y18.43 Z2.06 F1800.0
G1 X-24.5 Y18.33 Z2.06 F1800.0
G1 X-24.5 Y14.4 Z2.06 F1800.0
G1 X-22.78 Y14.3 Z2.06 F1800.0
G1 X-21.12 Y16.14 Z2.06 F1800.0
G1 X-21.12 Y12.22 Z2.06 F1800.0
G1 X-23.04 Y14.07 Z2.06 F1800.0
G1 X-24.5 Y13.96 Z2.06 F1800.0
G1 X-24.5 Y10.04 Z2.06 F1800.0
G1 X-22.78 Y9.93 Z2.06 F1800.0
G1 X-21.12 Y11.78 Z2.06 F1800.0
G1 X-21.12 Y7.85 Z2.06 F1800.0
G1 X-23.04 Y9.7 Z2.06 F1800.0
G1 X-24.5 Y9.6 Z2.06 F1800.0
G1 X-24.5 Y5.67 Z2.06 F1800.0
G1 X-22.78 Y5.57 Z2.06 F1800.0
G1 X-21.12 Y7.42 Z2.06 F1800.0
G1 X-21.12 Y3.49 Z2.06 F1800.0
G1 X-23.04 Y5.34 Z2.06 F1800.0
G1 X-24.5 Y5.24 Z2.06 F1800.0
G1 X-24.5 Y1.31 Z2.06 F1800.0
G1 X-22.78 Y1.21 Z2.06 F1800.0
G1 X-21.12 Y3.05 Z2.06 F1800.0
G1 X-21.12 Y-0.87 Z2.06 F1800.0
G1 X-23.04 Y0.98 Z2.06 F1800.0
G1 X-24.5 Y0.87 Z2.06 F1800.0
G1 X-24.5 Y-3.05 Z2.06 F1800.0
G1 X-22.78 Y-3.16 Z2.06 F1800.0
G1 X-21.12 Y-1.31 Z2.06 F1800.0
G1 X-21.12 Y-5.24 Z2.06 F1800.0
G1 X-23.04 Y-3.39 Z2.06 F1800.0
G1 X-24.5 Y-3.49 Z2.06 F1800.0
G1 X-24.5 Y-7.42 Z2.06 F1800.0
G1 X-22.78 Y-7.52 Z2.06 F1800.0
G1 X-21.12 Y-5.67 Z2.06 F1800.0
G1 X-21.12 Y-9.6 Z2.06 F1800.0
G1 X-23.04 Y-7.75 Z2.06 F1800.0
G1 X-24.5 Y-7.85 Z2.06 F1800.0
G1 X-24.5 Y-11.78 Z2.06 F1800.0
G1 X-22.78 Y-11.88 Z2.06 F1800.0
G1 X-21.12 Y-10.04 Z2.06 F1800.0
G1 X-21.12 Y-13.96 Z2.06 F1800.0
G1 X-23.04 Y-12.11 Z2.06 F1800.0
G1 X-24.5 Y-12.22 Z2.06 F1800.0
G1 X-24.5 Y-16.14 Z2.06 F1800.0
G1 X-22.78 Y-16.25 Z2.06 F1800.0
G1 X-21.12 Y-14.4 Z2.06 F1800.0
G1 X-21.12 Y-14.84 Z2.06 F1800.0
G1 X-20.83 Y-15.17 Z2.06 F1800.0
G1 X-18.67 Y-16.25 Z2.06 F1800.0
G1 X20.85 Y-16.25 Z2.06 F1800.0
G1 X21.12 Y-14.84 Z2.06 F1800.0
G1 X21.12 Y-14.4 Z2.06 F1800.0
G1 X23.04 Y-14.3 Z2.06 F1800.0
G1 X24.5 Y-16.14 Z2.06 F1800.0
G1 X24.5 Y-12.22 Z2.06 F1800.0
G1 X23.04 Y-14.07 Z2.06 F1800.0
G1 X21.12 Y-13.96 Z2.06 F1800.0
G1 X21.12 Y-10.04 Z2.06 F1800.0
G1 X23.04 Y-9.93 Z2.06 F1800.0
G1 X24.5 Y-11.78 Z2.06 F1800.0
G1 X24.5 Y-7.85 Z2.06 F1800.0
G1 X23.04 Y-9.7 Z2.06 F1800.0
G1 X21.12 Y-9.6 Z2.06 F1800.0
G1 X21.12 Y-5.67 Z2.06 F1800.0
G1 X23.04 Y-5.57 Z2.06 F1800.0
G1 X24.5 Y-7.42 Z2.06 F1800.0
G1 X24.5 Y-3.49 Z2.06 F1800.0
G1 X23.04 Y-5.34 Z2.06 F1800.0
G1 X21.12 Y-5.24 Z2.06 F1800.0
G1 X21.12 Y-1.31 Z2.06 F1800.0
G1 X23.04 Y-1.21 Z2.06 F1800.0
G1 X24.5 Y-3.05 Z2.06 F1800.0
G1 X24.5 Y0.87 Z2.06 F1800.0
G1 X23.04 Y-0.98 Z2.06 F1800.0
G1 X21.12 Y-0.87 Z2.06 F1800.0
G1 X21.12 Y3.05 Z2.06 F1800.0
G1 X23.04 Y3.16 Z2.06 F1800.0
G1 X24.5 Y1.31 Z2.06 F1800.0
G1 X24.5 Y5.24 Z2.06 F1800.0
G1 X23.04 Y3.39 Z2.06 F1800.0
G1 X21.12 Y3.49 Z2.06 F1800.0
G1 X21.12 Y7.42 Z2.06 F1800.0
G1 X23.04 Y7.52 Z2.06 F1800.0
G1 X24.5 Y5.67 Z2.06 F1800.0
G1 X24.5 Y9.6 Z2.06 F1800.0
G1 X23.04 Y7.75 Z2.06 F1800.0
G1 X21.12 Y7.85 Z2.06 F1800.0
G1 X21.12 Y11.78 Z2.06 F1800.0
G1 X23.04 Y11.88 Z2.06 F1800.0
G1 X24.5 Y10.04 Z2.06 F1800.0
G1 X24.5 Y13.96 Z2.06 F1800.0
G1 X23.04 Y12.11 Z2.06 F1800.0
G1 X21.12 Y12.22 Z2.06 F1800.0
G1 X21.12 Y16.14 Z2.06 F1800.0
G1 X23.04 Y16.25 Z2.06 F1800.0
G1 X24.5 Y14.4 Z2.06 F1800.0
G1 X24.5 Y17.89 Z2.06 F1800.0
G1 X23.04 Y16.48 Z2.06 F1800.0
G1 X21.12 Y16.58 Z2.06 F1800.0
G1 X21.12 Y18.76 Z2.06 F1800.0
G1 X22.78 Y20.61 Z2.06 F1800.0
G1 X24.5 Y20.51 Z2.06 F1800.0
G1 X24.5 Y18.78 Z2.06 F1800.0
M108 R30.0
M102
G1 X24.5 Y18.33 Z2.06 F1800.0
M108 R3.569
M103
G1 X24.5 Y-15.78 Z2.06 F3000.0
M108 R30.0
M101
G1 X24.5 Y-16.58 Z2.06 F3000.0
M108 R3.569
G1 X24.5 Y-18.33 Z2.06 F1800.0
G1 X22.78 Y-18.43 Z2.06 F1800.0
G1 X20.85 Y-16.48 Z2.06 F1800.0
G1 X20.6 Y-16.48 Z2.06 F1800.0
G1 X18.67 Y-18.43 Z2.06 F1800.0
G1 X18.42 Y-18.43 Z2.06 F1800.0
G1 X16.49 Y-16.48 Z2.06 F1800.0
G1 X16.24 Y-16.48 Z2.06 F1800.0
G1 X14.31 Y-18.43 Z2.06 F1800.0
G1 X14.05 Y-18.43 Z2.06 F1800.0
G1 X12.13 Y-16.48 Z2.06 F1800.0
G1 X11.87 Y-16.48 Z2.06 F1800.0
G1 X9.95 Y-18.43 Z2.06 F1800.0
G1 X9.69 Y-18.43 Z2.06 F1800.0
G1 X7.76 Y-16.48 Z2.06 F1800.0
G1 X7.51 Y-16.48 Z2.06 F1800.0
G1 X5.58 Y-18.43 Z2.06 F1800.0
G1 X5.33 Y-18.43 Z2.06 F1800.0
G1 X3.4 Y-16.48 Z2.06 F1800.0
G1 X3.15 Y-16.48 Z2.06 F1800.0
G1 X1.22 Y-18.43 Z2.06 F1800.0
G1 X0.96 Y-18.43 Z2.06 F1800.0
G1 X-0.96 Y-16.48 Z2.06 F1800.0
G1 X-1.22 Y-16.48 Z2.06 F1800.0
G1 X-3.15 Y-18.43 Z2.06 F1800.0
G1 X-3.4 Y-18.43 Z2.06 F1800.0
G1 X-5.33 Y-16.48 Z2.06 F1800.0
G1 X-5.58 Y-16.48 Z2.06 F1800.0
G1 X-7.51 Y-18.43 Z2.06 F1800.0
G1 X-7.76 Y-18.43 Z2.06 F1800.0
G1 X-9.69 Y-16.48 Z2.06 F1800.0
G1 X-9.95 Y-16.48 Z2.06 F1800.0
G1 X-11.87 Y-18.43 Z2.06 F1800.0
G1 X-12.13 Y-18.43 Z2.06 F1800.0
G1 X-14.05 Y-16.48 Z2.06 F1800.0
G1 X-14.31 Y-16.48 Z2.06 F1800.0
G1 X-16.24 Y-18.43 Z2.06 F1800.0
G1 X-16.49 Y-18.43 Z2.06 F1800.0
G1 X-18.42 Y-16.48 Z2.06 F1800.0
G1 X-18.67 Y-16.48 Z2.06 F1800.0
G1 X-20.6 Y-18.43 Z2.06 F1800.0
G1 X-20.85 Y-18.43 Z2.06 F1800.0
G1 X-22.78 Y-16.48 Z2.06 F1800.0
G1 X-24.5 Y-16.58 Z2.06 F1800.0
G1 X-24.5 Y-20.51 Z2.06 F1800.0
G1 X-22.78 Y-20.61 Z2.06 F1800.0
G1 X-20.85 Y-18.66 Z2.06 F1800.0
G1 X-20.6 Y-18.66 Z2.06 F1800.0
G1 X-18.67 Y-20.61 Z2.06 F1800.0
G1 X-18.42 Y-20.61 Z2.06 F1800.0
G1 X-16.49 Y-18.66 Z2.06 F1800.0
G1 X-16.24 Y-18.66 Z2.06 F1800.0
G1 X-14.31 Y-20.61 Z2.06 F1800.0
G1 X-14.05 Y-20.61 Z2.06 F1800.0
G1 X-12.13 Y-18.66 Z2.06 F1800.0
G1 X-11.87 Y-18.66 Z2.06 F1800.0
G1 X-9.95 Y-20.61 Z2.06 F1800.0
G1 X-9.69 Y-20.61 Z2.06 F1800.0
G1 X-7.76 Y-18.66 Z2.06 F1800.0
G1 X-7.51 Y-18.66 Z2.06 F1800.0
G1 X-5.58 Y-20.61 Z2.06 F1800.0
G1 X-5.33 Y-20.61 Z2.06 F1800.0
G1 X-3.4 Y-18.66 Z2.06 F1800.0
G1 X-3.15 Y-18.66 Z2.06 F1800.0
G1 X-1.22 Y-20.61 Z2.06 F1800.0
G1 X-0.96 Y-20.61 Z2.06 F1800.0
G1 X0.96 Y-18.66 Z2.06 F1800.0
G1 X1.22 Y-18.66 Z2.06 F1800.0
G1 X3.15 Y-20.61 Z2.06 F1800.0
G1 X3.4 Y-20.61 Z2.06 F1800.0
G1 X5.33 Y-18.66 Z2.06 F1800.0
G1 X5.58 Y-18.66 Z2.06 F1800.0
G1 X7.51 Y-20.61 Z2.06 F1800.0
G1 X7.76 Y-20.61 Z2.06 F1800.0
G1 X9.69 Y-18.66 Z2.06 F1800.0
G1 X9.95 Y-18.66 Z2.06 F1800.0
G1 X11.87 Y-20.61 Z2.06 F1800.0
G1 X12.13 Y-20.61 Z2.06 F1800.0
G1 X14.05 Y-18.66 Z2.06 F1800.0
G1 X14.31 Y-18.66 Z2.06 F1800.0
G1 X16.24 Y-20.61 Z2.06 F1800.0
G1 X16.49 Y-20.61 Z2.06 F1800.0
G1 X18.42 Y-18.66 Z2.06 F1800.0
G1 X18.67 Y-18.66 Z2.06 F1800.0
G1 X20.6 Y-20.61 Z2.06 F1800.0
G1 X20.85 Y-20.61 Z2.06 F1800.0
G1 X22.78 Y-18.66 Z2.06 F1800.0
G1 X24.5 Y-18.76 Z2.06 F1800.0
G1 X24.5 Y-22.69 Z2.06 F1800.0
G1 X22.78 Y-22.79 Z2.06 F1800.0
G1 X20.85 Y-20.84 Z2.06 F1800.0
G1 X20.6 Y-20.84 Z2.06 F1800.0
G1 X18.67 Y-22.79 Z2.06 F1800.0
G1 X18.42 Y-22.79 Z2.06 F1800.0
G1 X16.49 Y-20.84 Z2.06 F1800.0
G1 X16.24 Y-20.84 Z2.06 F1800.0
G1 X14.31 Y-22.79 Z2.06 F1800.0
G1 X14.05 Y-22.79 Z2.06 F1800.0
G1 X12.13 Y-20.84 Z2.06 F1800.0
G1 X11.87 Y-20.84 Z2.06 F1800.0
G1 X9.95 Y-22.79 Z2.06 F1800.0
G1 X9.69 Y-22.79 Z2.06 F1800.0
G1 X7.76 Y-20.84 Z2.06 F1800.0
G1 X7.51 Y-20.84 Z2.06 F1800.0
G1 X5.58 Y-22.79 Z2.06 F1800.0
G1 X5.33 Y-22.79 Z2.06 F1800.0
G1 X3.4 Y-20.84 Z2.06 F1800.0
G1 X3.15 Y-20.84 Z2.06 F1800.0
G1 X1.22 Y-22.79 Z2.06 F1800.0
G1 X0.96 Y-22.79 Z2.06 F1800.0
G1 X-0.96 Y-20.84 Z2.06 F1800.0
G1 X-1.22 Y-20.84 Z2.06 F1800.0
G1 X-3.15 Y-22.79 Z2.06 F1800.0
G1 X-3.4 Y-22.79 Z2.06 F1800.0
G1 X-5.33 Y-20.84 Z2.06 F1800.0
G1 X-5.58 Y-20.84 Z2.06 F1800.0
G1 X-7.51 Y-22.79 Z2.06 F1800.0
G1 X-7.76 Y-22.79 Z2.06 F1800.0
G1 X-9.69 Y-20.84 Z2.06 F1800.0
G1 X-9.95 Y-20.84 Z2.06 F1800.0
G1 X-11.87 Y-22.79 Z2.06 F1800.0
G1 X-12.13 Y-22.79 Z2.06 F1800.0
G1 X-14.05 Y-20.84 Z2.06 F1800.0
G1 X-14.31 Y-20.84 Z2.06 F1800.0
G1 X-16.24 Y-22.79 Z2.06 F1800.0
G1 X-16.49 Y-22.79 Z2.06 F1800.0
G1 X-18.42 Y-20.84 Z2.06 F1800.0
G1 X-18.67 Y-20.84 Z2.06 F1800.0
G1 X-20.6 Y-22.79 Z2.06 F1800.0
G1 X-20.85 Y-22.79 Z2.06 F1800.0
G1 X-22.78 Y-20.84 Z2.06 F1800.0
G1 X-24.5 Y-20.94 Z2.06 F1800.0
G1 X-24.5 Y-24.87 Z2.06 F1800.0
G1 X-20.85 Y-23.02 Z2.06 F1800.0
G1 X23.04 Y-23.02 Z2.06 F1800.0
G1 X24.5 Y-23.13 Z2.06 F1800.0
G1 X24.5 Y-24.42 Z2.06 F1800.0
M108 R30.0
M102
G1 X24.5 Y-24.87 Z2.06 F1800.0
M108 R3.569
M103
(</surroundingLoop>)
(</layer>)
(<layer> 2.38 )
(<surroundingLoop>)
(<boundaryPerimeter>)
(<boundaryPoint> X25.34 Y26.075 Z2.38 </boundaryPoint>)
(<boundaryPoint> X-25.34 Y26.075 Z2.38 </boundaryPoint>)
(<boundaryPoint> X-25.34 Y-26.075 Z2.38 </boundaryPoint>)
(<boundaryPoint> X25.34 Y-26.075 Z2.38 </boundaryPoint>)
(<loop> inner )
G1 X21.13 Y-15.45 Z2.36 F3000.0
M108 R30.0
M101
G1 X20.86 Y-14.7 Z2.38 F3000.0
M108 R3.569
G1 X20.86 Y-14.83 Z2.38 F1800.0
G1 X-20.86 Y-14.83 Z2.38 F1800.0
G1 X-20.86 Y18.79 Z2.38 F1800.0
G1 X20.86 Y18.79 Z2.38 F1800.0
G1 X20.86 Y-14.25 Z2.38 F1800.0
M108 R30.0
M102
G1 X20.86 Y-14.7 Z2.38 F1800.0
M108 R3.569
M103
(</loop>)
(<loop> outer )
G1 X23.95 Y-14.81 Z2.38 F3000.0
M108 R30.0
M101
G1 X24.75 Y-14.83 Z2.38 F3000.0
M108 R3.569
G1 X24.75 Y25.49 Z2.38 F1800.0
G1 X-24.75 Y25.49 Z2.38 F1800.0
G1 X-24.75 Y-25.49 Z2.38 F1800.0
G1 X24.75 Y-25.49 Z2.38 F1800.0
G1 X24.75 Y-14.83 Z2.38 F1800.0
M103
(</loop>)
(<perimeter> outer )
G1 X25.14 Y-14.83 Z2.38 F3000.0
M101
G1 X25.14 Y25.88 Z2.38 F1800.0
G1 X-25.14 Y25.88 Z2.38 F1800.0
G1 X-25.14 Y-25.88 Z2.38 F1800.0
G1 X25.14 Y-25.88 Z2.38 F1800.0
G1 X25.14 Y-15.28 Z2.38 F1800.0
M108 R30.0
M102
G1 X25.14 Y-14.83 Z2.38 F1800.0
M108 R3.569
M103
(</perimeter>)
(</boundaryPerimeter>)
(<surroundingLoop>)
(<boundaryPerimeter>)
(<boundaryPoint> X-20.272 Y18.2 Z2.38 </boundaryPoint>)
(<boundaryPoint> X20.272 Y18.2 Z2.38 </boundaryPoint>)
(<boundaryPoint> X20.272 Y-14.245 Z2.38 </boundaryPoint>)
(<boundaryPoint> X-20.272 Y-14.245 Z2.38 </boundaryPoint>)
(<perimeter> inner )
G1 X21.27 Y-14.51 Z2.38 F3000.0
M108 R30.0
M101
G1 X20.47 Y-14.44 Z2.38 F3000.0
M108 R3.569
G1 X-20.47 Y-14.44 Z2.38 F1800.0
G1 X-20.47 Y18.4 Z2.38 F1800.0
G1 X20.47 Y18.4 Z2.38 F1800.0
G1 X20.47 Y-13.99 Z2.38 F1800.0
M108 R30.0
M102
G1 X20.47 Y-14.44 Z2.38 F1800.0
M108 R3.569
M103
(</perimeter>)
(</boundaryPerimeter>)
(</surroundingLoop>)
G1 X24.16 Y-24.48 Z2.38 F3000.0
M108 R30.0
M101
G1 X24.44 Y-25.23 Z2.38 F3000.0
M108 R3.569
G1 X23.56 Y-25.23 Z2.38 F1800.0
G1 X23.02 Y-23.04 Z2.38 F1800.0
G1 X23.02 Y20.85 Z2.38 F1800.0
G1 X24.44 Y25.23 Z2.38 F1800.0
G1 X22.25 Y25.23 Z2.38 F1800.0
G1 X20.84 Y23.04 Z2.38 F1800.0
G1 X20.84 Y22.78 Z2.38 F1800.0
G1 X22.79 Y20.85 Z2.38 F1800.0
G1 X22.79 Y-14.31 Z2.38 F1800.0
G1 X20.94 Y-15.09 Z2.38 F1800.0
G1 X20.84 Y-16.49 Z2.38 F1800.0
G1 X22.79 Y-18.42 Z2.38 F1800.0
G1 X22.79 Y-18.67 Z2.38 F1800.0
G1 X20.84 Y-20.6 Z2.38 F1800.0
G1 X20.84 Y-20.85 Z2.38 F1800.0
G1 X22.79 Y-22.78 Z2.38 F1800.0
G1 X23.13 Y-25.23 Z2.38 F1800.0
G1 X19.64 Y-25.23 Z2.38 F1800.0
G1 X18.66 Y-23.04 Z2.38 F1800.0
G1 X18.66 Y-22.78 Z2.38 F1800.0
G1 X20.61 Y-20.85 Z2.38 F1800.0
G1 X20.61 Y-20.6 Z2.38 F1800.0
G1 X18.66 Y-18.67 Z2.38 F1800.0
G1 X18.66 Y-18.42 Z2.38 F1800.0
G1 X20.61 Y-16.49 Z2.38 F1800.0
G1 X20.51 Y-15.53 Z2.38 F1800.0
G1 X20.39 Y-15.41 Z2.38 F1800.0
M108 R30.0
M102
G1 X20.07 Y-15.09 Z2.38 F1800.0
M108 R3.569
M103
G1 X18.69 Y-15.09 Z2.38 F3000.0
M108 R30.0
M101
G1 X17.89 Y-15.09 Z2.38 F3000.0
M108 R3.569
G1 X17.45 Y-15.53 Z2.38 F1800.0
G1 X17.02 Y-15.53 Z2.38 F1800.0
G1 X16.48 Y-16.24 Z2.38 F1800.0
G1 X16.48 Y-16.49 Z2.38 F1800.0
G1 X18.43 Y-18.42 Z2.38 F1800.0
G1 X18.43 Y-18.67 Z2.38 F1800.0
G1 X16.48 Y-20.6 Z2.38 F1800.0
G1 X16.48 Y-20.85 Z2.38 F1800.0
G1 X18.43 Y-22.78 Z2.38 F1800.0
G1 X18.43 Y-23.04 Z2.38 F1800.0
G1 X19.2 Y-25.23 Z2.38 F1800.0
G1 X15.27 Y-25.23 Z2.38 F1800.0
G1 X14.3 Y-23.04 Z2.38 F1800.0
G1 X14.3 Y-22.78 Z2.38 F1800.0
G1 X16.25 Y-20.85 Z2.38 F1800.0
G1 X16.25 Y-20.6 Z2.38 F1800.0
G1 X14.3 Y-18.67 Z2.38 F1800.0
G1 X14.3 Y-18.42 Z2.38 F1800.0
G1 X16.25 Y-16.49 Z2.38 F1800.0
G1 X16.14 Y-15.53 Z2.38 F1800.0
G1 X16.03 Y-15.41 Z2.38 F1800.0
M108 R30.0
M102
G1 X15.71 Y-15.09 Z2.38 F1800.0
M108 R3.569
M103
G1 X14.33 Y-15.09 Z2.38 F3000.0
M108 R30.0
M101
G1 X13.53 Y-15.09 Z2.38 F3000.0
M108 R3.569
G1 X13.09 Y-15.53 Z2.38 F1800.0
G1 X12.65 Y-15.53 Z2.38 F1800.0
G1 X12.11 Y-16.24 Z2.38 F1800.0
G1 X12.11 Y-16.49 Z2.38 F1800.0
G1 X14.07 Y-18.42 Z2.38 F1800.0
G1 X14.07 Y-18.67 Z2.38 F1800.0
G1 X12.11 Y-20.6 Z2.38 F1800.0
G1 X12.11 Y-20.85 Z2.38 F1800.0
G1 X14.07 Y-22.78 Z2.38 F1800.0
G1 X14.07 Y-23.04 Z2.38 F1800.0
G1 X14.84 Y-25.23 Z2.38 F1800.0
G1 X11.35 Y-25.23 Z2.38 F1800.0
G1 X9.93 Y-23.04 Z2.38 F1800.0
G1 X9.93 Y-22.78 Z2.38 F1800.0
G1 X11.88 Y-20.85 Z2.38 F1800.0
G1 X11.88 Y-20.6 Z2.38 F1800.0
G1 X9.93 Y-18.67 Z2.38 F1800.0
G1 X9.93 Y-18.42 Z2.38 F1800.0
G1 X11.88 Y-16.49 Z2.38 F1800.0
G1 X11.78 Y-15.53 Z2.38 F1800.0
G1 X11.66 Y-15.41 Z2.38 F1800.0
M108 R30.0
M102
G1 X11.35 Y-15.09 Z2.38 F1800.0
M108 R3.569
M103
G1 X9.96 Y-15.09 Z2.38 F3000.0
M108 R30.0
M101
G1 X9.16 Y-15.09 Z2.38 F3000.0
M108 R3.569
G1 X8.73 Y-15.53 Z2.38 F1800.0
G1 X8.29 Y-15.53 Z2.38 F1800.0
G1 X7.75 Y-16.24 Z2.38 F1800.0
G1 X7.75 Y-16.49 Z2.38 F1800.0
G1 X9.7 Y-18.42 Z2.38 F1800.0
G1 X9.7 Y-18.67 Z2.38 F1800.0
G1 X7.75 Y-20.6 Z2.38 F1800.0
G1 X7.75 Y-20.85 Z2.38 F1800.0
G1 X9.7 Y-22.78 Z2.38 F1800.0
G1 X9.7 Y-23.04 Z2.38 F1800.0
G1 X10.91 Y-25.23 Z2.38 F1800.0
G1 X6.55 Y-25.23 Z2.38 F1800.0
G1 X5.57 Y-23.04 Z2.38 F1800.0
G1 X5.57 Y-22.78 Z2.38 F1800.0
G1 X7.52 Y-20.85 Z2.38 F1800.0
G1 X7.52 Y-20.6 Z2.38 F1800.0
G1 X5.57 Y-18.67 Z2.38 F1800.0
G1 X5.57 Y-18.42 Z2.38 F1800.0
G1 X7.52 Y-16.49 Z2.38 F1800.0
G1 X7.42 Y-15.53 Z2.38 F1800.0
G1 X7.3 Y-15.41 Z2.38 F1800.0
M108 R30.0
M102
G1 X6.98 Y-15.09 Z2.38 F1800.0
M108 R3.569
M103
G1 X5.6 Y-15.09 Z2.38 F3000.0
M108 R30.0
M101
G1 X4.8 Y-15.09 Z2.38 F3000.0
M108 R3.569
G1 X4.36 Y-15.53 Z2.38 F1800.0
G1 X3.93 Y-15.53 Z2.38 F1800.0
G1 X3.39 Y-16.24 Z2.38 F1800.0
G1 X3.39 Y-16.49 Z2.38 F1800.0
G1 X5.34 Y-18.42 Z2.38 F1800.0
G1 X5.34 Y-18.67 Z2.38 F1800.0
G1 X3.39 Y-20.6 Z2.38 F1800.0
G1 X3.39 Y-20.85 Z2.38 F1800.0
G1 X5.34 Y-22.78 Z2.38 F1800.0
G1 X5.34 Y-23.04 Z2.38 F1800.0
G1 X6.11 Y-25.23 Z2.38 F1800.0
G1 X2.62 Y-25.23 Z2.38 F1800.0
G1 X1.21 Y-23.04 Z2.38 F1800.0
G1 X1.21 Y-22.78 Z2.38 F1800.0
G1 X3.16 Y-20.85 Z2.38 F1800.0
G1 X3.16 Y-20.6 Z2.38 F1800.0
G1 X1.21 Y-18.67 Z2.38 F1800.0
G1 X1.21 Y-18.42 Z2.38 F1800.0
G1 X3.16 Y-16.49 Z2.38 F1800.0
G1 X3.05 Y-15.53 Z2.38 F1800.0
G1 X2.94 Y-15.41 Z2.38 F1800.0
M108 R30.0
M102
G1 X2.62 Y-15.09 Z2.38 F1800.0
M108 R3.569
M103
G1 X1.24 Y-15.09 Z2.38 F3000.0
M108 R30.0
M101
G1 X0.44 Y-15.09 Z2.38 F3000.0
M108 R3.569
G1 X-0.0 Y-15.53 Z2.38 F1800.0
G1 X-0.44 Y-15.53 Z2.38 F1800.0
G1 X-0.98 Y-16.24 Z2.38 F1800.0
G1 X-0.98 Y-16.49 Z2.38 F1800.0
G1 X0.98 Y-18.42 Z2.38 F1800.0
G1 X0.98 Y-18.67 Z2.38 F1800.0
G1 X-0.98 Y-20.6 Z2.38 F1800.0
G1 X-0.98 Y-20.85 Z2.38 F1800.0
G1 X0.98 Y-22.78 Z2.38 F1800.0
G1 X0.98 Y-23.04 Z2.38 F1800.0
G1 X2.18 Y-25.23 Z2.38 F1800.0
G1 X-2.18 Y-25.23 Z2.38 F1800.0
G1 X-3.16 Y-23.04 Z2.38 F1800.0
G1 X-3.16 Y-22.78 Z2.38 F1800.0
